/* XPM */
static char *c7a1acb353fa4b98ec853ac5ebdbd34diL4f95hWXvGuA5ha[] = {
/* columns rows colors chars-per-pixel */
"554 739 256 2 ",
"   c #010100",
".  c #0B0704",
"X  c #151614",
"o  c #191614",
"O  c #171815",
"+  c #1A1915",
"@  c #1C1B1B",
"#  c #19161A",
"$  c #16110B",
"%  c #211E1C",
"&  c #241C15",
"*  c #25180C",
"=  c #1F201D",
"-  c #23211E",
";  c #2B231C",
":  c #35281B",
">  c #1E1E21",
",  c #252322",
"<  c #2A2624",
"1  c #2D2B2A",
"2  c #2A2827",
"3  c #322D2C",
"4  c #352B25",
"5  c #34312D",
"6  c #3B342C",
"7  c #332E31",
"8  c #392D32",
"9  c #353232",
"0  c #3A3433",
"q  c #36393E",
"w  c #3C3A3C",
"e  c #393639",
"r  c #2E2E33",
"t  c #221E23",
"y  c #5B1215",
"u  c #691419",
"i  c #74161B",
"p  c #79171C",
"a  c #650E16",
"s  c #771B21",
"d  c #47372A",
"f  c #553B2B",
"g  c #443A33",
"h  c #433C3B",
"j  c #483B37",
"k  c #553D36",
"l  c #4D2B26",
"z  c #6F2F2E",
"x  c #572A1D",
"c  c #4C433C",
"v  c #484139",
"b  c #574539",
"n  c #59432F",
"m  c #674839",
"M  c #704F3C",
"N  c #6F4E20",
"B  c #3C3C42",
"V  c #393A46",
"C  c #3D3F51",
"Z  c #423E42",
"A  c #513F42",
"S  c #6D3F41",
"D  c #3E4148",
"F  c #434244",
"G  c #4C4A4C",
"H  c #494647",
"J  c #544B44",
"K  c #584946",
"L  c #5C544B",
"P  c #595348",
"I  c #4B4C54",
"U  c #524E52",
"Y  c #545255",
"T  c #5C5A5D",
"R  c #585558",
"E  c #4D5157",
"W  c #654C48",
"Q  c #764B45",
"!  c #67554B",
"~  c #785648",
"^  c #645C53",
"/  c #695A54",
"(  c #7B5B55",
")  c #765954",
"_  c #734E50",
"`  c #6C6256",
"'  c #6C645A",
"]  c #686359",
"[  c #72655B",
"{  c #756A5D",
"}  c #796759",
"|  c #796753",
" . c #595A66",
".. c #585A71",
"X. c #625E62",
"o. c #5E6174",
"O. c #686666",
"+. c #746C63",
"@. c #7B6E62",
"#. c #756A67",
"$. c #7C7264",
"%. c #7B746A",
"&. c #656677",
"*. c #797675",
"=. c #707072",
"-. c #5E605E",
";. c #3D403E",
":. c #82191E",
">. c #851C22",
",. c #8B292B",
"<. c #8D2726",
"1. c #845A4B",
"2. c #845B55",
"3. c #875B57",
"4. c #8F524F",
"5. c #87634D",
"6. c #83635C",
"7. c #8B625B",
"8. c #886756",
"9. c #95695B",
"0. c #87735D",
"q. c #99755B",
"w. c #94704D",
"e. c #A4765A",
"r. c #9B6C63",
"t. c #956A62",
"y. c #837464",
"u. c #857A6B",
"i. c #8B7C6C",
"p. c #887767",
"a. c #977968",
"s. c #887C73",
"d. c #8E7268",
"f. c #A67768",
"g. c #AC776D",
"h. c #A95453",
"j. c #AB6751",
"k. c #A9865B",
"l. c #93816E",
"z. c #9B846B",
"x. c #8C8377",
"c. c #948473",
"v. c #998674",
"b. c #9B8A75",
"n. c #9C8B7A",
"m. c #95887A",
"M. c #948774",
"N. c #A88669",
"B. c #A18E7B",
"V. c #A78974",
"C. c #B78877",
"Z. c #A4927D",
"A. c #AB957C",
"S. c #AB9478",
"D. c #B6967A",
"F. c #B38D6A",
"G. c #AF9770",
"H. c #C48F7B",
"J. c #DAAA5E",
"K. c #F1C252",
"L. c #6B6C84",
"P. c #5E6282",
"I. c #978C83",
"U. c #9C9387",
"Y. c #8C898A",
"T. c #A59482",
"R. c #AA9682",
"E. c #AC9A84",
"W. c #AD9C8A",
"Q. c #A4988A",
"!. c #B39C84",
"~. c #B29E8A",
"^. c #BA9A84",
"/. c #A79C93",
"(. c #AC9388",
"). c #B5A18C",
"_. c #BBA48C",
"`. c #BAA488",
"'. c #B5A492",
"]. c #BBA692",
"[. c #BDA994",
"{. c #B9AA9A",
"}. c #AEA496",
"|. c #B9B0A5",
" X c #9295AD",
".X c #C79886",
"XX c #CF9588",
"oX c #C3AA8D",
"OX c #C5A58B",
"+X c #C4AC94",
"@X c #CAAE93",
"#X c #C3AE99",
"$X c #C8A995",
"%X c #D8A995",
"&X c #CBB295",
"*X c #C5B29B",
"=X c #CCB49B",
"-X c #CBB59A",
";X c #D2B69B",
":X c #D4BA9D",
">X c #D8B99B",
",X c #D4A88C",
"<X c #E4B299",
"1X c #CDB9A4",
"2X c #CAB8A6",
"3X c #D4BCA3",
"4X c #D9BEA2",
"5X c #D4BCA8",
"6X c #C8B9B0",
"7X c #E9BBA5",
"8X c #E8968F",
"9X c #DCC2A5",
"0X c #DCC4AA",
"qX c #D7C3AA",
"wX c #D9C8B6",
"eX c #CFC5B6",
"rX c #E1C5A6",
"tX c #E1C6AA",
"yX c #E4CAAD",
"uX c #E9CDAE",
"iX c #E9C7A8",
"pX c #E4CCB2",
"aX c #E9CEB2",
"sX c #E5CAB7",
"dX c #ECD2B4",
"fX c #EDD4BA",
"gX c #E9D5B9",
"hX c #F1D5B6",
"jX c #F1D6BA",
"kX c #F4DBBC",
"lX c #F9DEBD",
"zX c #F5D8B6",
"xX c #F2CDAE",
"cX c #F9E1BE",
"vX c #EEE6B2",
"bX c #E3C49A",
"nX c #D9D0C6",
"mX c #E7D8C6",
"MX c #F5DDC1",
"NX c #F9DEC2",
"BX c #F3DBC7",
"VX c #E6DAD2",
"CX c #FBE3C4",
"ZX c #FDE6CA",
"AX c #FEEACB",
"SX c #F8E4C5",
"DX c #FAEBD5",
"FX c #FEF4D8",
"GX c #EFE6D1",
"HX c #FEF9E7",
"JX c #FEFEFC",
"KX c #FEFCF4",
"LX c #F3EBE5",
"PX c #CDD4F1",
"IX c #B3B9D6",
"UX c #828085",
/* pixels */
"% % 1 @ < < @ 1 % , , % h % 1 J %././.x.x.x.s.u.%.+.+.%.s.x.x.x.+.v ; % @ @ % % % % % % @ @ @ @ @ @ > > > > @ @ > @ @ @ @ @ > > > > > > > > > > > > > > > > > > > > > > > > > > > > > > > > > > > > > > > > > > > , , , 2 < : ; : 6 g g c / U././.nXv v 5 0 3 v | cXE.P 0 V V V q r /.VXnXU.T U.F Y -.T T Y G H H Y T O.O.T Y G w w F H -.-.-.-.-.-.Y F w w w w w B w e G Y T O.-.T Y U Z Z Z B w w v F -.-.-.-.-.-.-.Y H H F ;.F F H G U Y Y T O.O.=.=.=.*.Y./.}.U.UXR H G *.R Y Y Y Y Y Y Y Y R R R R Y Y R R R R -.O.O.O.O.=.=.O.O.O.O.O.O.O.O.-.R R R U U R O.O.O.O.O.O.+.O.O.O.+.O.O.O.O.O.O.O.O.O.T H ;.F ;.;.;.w ;.v H Y #.#.#.#.#.#.#.#.O.R T =.O.O.=.=.O.T G D F H H G Y R O.O.O.] ] ] O.] O.O.O.O.-.T R Y R -.-.UXUXU.nXLXJXKXJXJXVXL.G H H F Z H H G U U G J %.+.^ ^ O.O.^ ^ / ^ ^ ^ *.=.+.+.P $.nXHX|.I.I.; I.}./.nXx.U.}./.|.s.3 h 3 3 3 3 7 7 7 7 7 7 7 7 7 7 9 9 9 9 0 0 9 0 0 0 0 0 w w w w h h h h h F c F J J H H J G J J U U U U P L ! ! ! ! ^ ^ ! ! ! ! ! wXGXmX5XeX2X2X2X2X2X2X5X5X5X5X5X5X5X5X6X5X6X6X6X5X5X5X5X5X5X5X5X5X5X2X2X2X5X5X5X5X2X2X2X1X1X1X2X2X2X2X2X1X2X2X2X1X1X1X2X2X2X2X2X1X2X2X2X2X2X2X2X2X2X2X2X2X2X2X2X2X2X2X",
"% % 1 @ < < @ 1 % < , % 0 o & ^ x.Q.I.I.x.x.s.u.%.+.+.%.*.s.x.x.s.L 4 % @ @ @ @ % % % % @ @ @ @ @ @ > > > > @ @ > > @ @ @ @ > > > > > > > > > > > > > > > > > > > > > > > > > > > > > > > > > > > > > > > > > > > , , , , ; : : : b %.Q.6XLXnX/./.+.v 0 0 0 6 c [.:X! j e V V V 9 w R Y.O.R F U G R -.T T H F G Y T O.O.-.R G F ;.0 w Y -.-.-.-.T R I D w w w w B w B F Y R T O.-.T U H F Z Z B w F H G O.-.-.-.-.O.-.Y F v ;.w w F H H Y T -.O.O.O.O.O.O.=.L.Y./.U.Y. .Z H =.X.Y Y Y Y Y Y Y Y R R R R R Y Y Y U G G Y R T ^ O.O.-.-.-.-.-.-.-.-.T R T T R R ^ O.O.O.O.O.O.+.O.O.O.+.O.O.O.O.O.O.O.O.O.O.R H F w w w ;.F U T O.#.#.=.#.#.#.#.#.T Y R O.=.=.=.=.=.X.E H G G U U Y R -.O.O.] ] ] ] ] O.O.R O.-.G H G U R R T O.O.Y.Y.nXLXJXJXKXY.G G H H H H G G G G H H ^ %.^ ^ / / ^ ^ / / ^ X.O.O./ ^ K u.mXHX|.|.U.' |.{.x.x.6 x.U.}.}./ 3 h 3 3 3 3 7 7 7 7 7 7 7 7 7 7 9 9 9 9 0 0 9 9 0 0 0 0 w w w w h h h h h h c c H H J H H J J J J G G G P P L L R L R R ! W ! W W eXGXmXqXeX5X5X2X2X5X5X5X6X5X5X5X5X5X5X5X5X6X6X6X6X5X5X5X5X5X5X5X5X2X2X2X2X5X5X5X5X2X2X2X1X1X1X2X2X2X2X1X1X2X2X2X1X1X1X2X2X2X2X1X1X2X2X2X2X2X2X2X2X2X2X2X2X2X2X2X2X2X2X",
"% % 1 @ < < % 1 % , < % 3 o 1 s.U./.I.Y.x.x.s.u.%.+.+.%.%.%.s.x.x.%.0 3 @ @ @ @ @ @ % @ @ @ @ @ @ > > > @ @ @ @ > > > > @ @ > > > > > > > > > > > > > > > > > > > > > > > > > > > > > > > > > > > > > > > > > > , , , , < 4 6 d Q.GXHXDXwX|.Q.y.^ H h 0 0 0 g ` qX| g 5 e e V V q r w D ;.9 w F Y -.-.R T G G R ^ ^ ^ T Y G H h ;.w H T -.-.-.-.R G D B w w w w F w F U T T -.O.O.R H Z Z Z Z w F H Y R O.O.O.O.O.O.O.R H H F F H H G U -.O.O.O.O.O.O.O.O.O.O.L.Y.Y.Y.O.Z H X. .Y Y Y Y Y Y Y R R R R R Y U G H F F F H G G Y R T T T -.-.-.-.-.X.X.-.O.O.T T O.O.O.O.O.O.O.O.O.O.O.O.O.O.O.O.O.O.O.O.O.O.O.T U H H H H R ] O.O.=.#.#.#.#.#.#.#.U U Y R =.=.=.=.=.O.T U U U E U Y Y T O.O.O.] ] ] ] O.O.-.O.T H F F H H Y G -.-.=.O.X.Y.|.nX XO.Y U G H H G G Y U G G H J %.+.^ L L R ^ ^ ^ ^ / / ^ R L J s.VXHX|.eXDXVX6X/.x.^ 6 I.U./.Q.h 0 h 3 3 7 3 7 7 7 7 7 7 7 7 7 7 9 9 9 9 0 0 0 0 0 0 0 0 0 0 0 0 h h h h h h h h c c c c F H J J J J J J J J K P P P P P P P W K K 6XGXmX6XeX5X5X5X5X5X5X5X6X2X2X5X5X5X5X5X5X6X6X6X6X5X5X5X5X2X5X2X2X2X2X2X2X2X2X5X5X2X2X2X2X1X2X2X2X2X2X1X1X2X2X2X2X1X2X2X2X2X2X1X1X2X2X2X2X2X2X2X2X2X2X2X2X2X2X1X1X2X1X",
"% % 1 @ 2 < % 1 % < - % 3 & L Y./.}.I.x.Y.x.s.s.%.+.+.%.%.%.%.s.x.s.J c @ @ @ @ @ @ @ @ @ @ @ @ @ @ > > @ @ @ @ > > > > @ @ > > > > > > > > > > > > > > > > > > > > > > > > > > > > > > > > > > > > > > > > > > > , , , 3 0 j b n.~.[.c.a.y.! W J 0 0 0 5 5 c x.l.v 6 0 e q e e e e e 9 e ;.w v T -.-.R T -.O.O.O.^ R Y G H h w w F Y T -.-.-.-.R F e w w w w w F e F T O.O.O.-.-.Y F w Z Z Z B F G R O.O.O.O.O.O.O.O.-.Y U G G U Y R ^ O.O.O.O.O.O.O.O.O. .O.=.UXY.Y.=.Y G Y R Y Y Y Y Y Y Y R R R R E H Z w e e B F F F H H G R T -.-.X.X.X.-.X.X.O.O.O.T T O.O.#.#.O.+.+.+.+.+.+.#.+.O.O.O.O.O.O.#.O.O.O.O.O.T T T -.O.O.O.#.=.#.#.#.#.=.#.#.H G Y Y =.=.*.=.*.=.-.Y U E E U G Y R T O.O.O.] ] ] O.O.O.-.R G F v ;.F H G U Y T T -.-. .O.O.Y Y Y U G G U Y Y R Y G H J L #.^ Y Y R ^ R L R R R Y U J c x.GXLX6XnX6XnXeX/.U.K J I.I.U.U.< 0 0 3 3 3 3 3 3 7 7 7 7 7 7 7 7 9 9 9 9 0 0 0 0 0 0 0 0 0 0 0 0 h h h h h h h h h h h h c c c J J J J J J J K K K K K K K K P K b 6XGXmX6X6X5X5X5X5X5X5X6X6X2X5X5X5X5X5X5X2X6X6X6X6X2X5X5X5X2X2X2X2X2X2X2X2X2X2X2X2X2X2X2X2X2X2X2X2X2X2X2X2X2X2X2X2X2X2X2X2X2X2X2X2X2X2X2X2X2X2X2X2X2X2X2X2X1X1X1X1X2X1X",
"% % 1 @ 1 , % 1 % 3 - & 1 h %./././.I.Y.I.x.I.x.%.+.%.%.%.%.%.s.x.m.%.0 0 @ # @ @ @ % % @ @ @ @ @ @ @ @ @ > > > @ @ @ > > > > > > > > > > > > > > > > > > > > > > > > > > > > > > > > > > > > > > > > > > > > > > > , % 6 g j ! } B.0.! W W b b v 0 0 0 0 g J %.P 0 0 e e e e q e q w w w ;.;.U T -.-.T T T T -.T R G H h v w 0 w G R T T T T R H w e w w w w w w F R O.O.O.O. .T U F w Z F Z F H Y T O.O.O.O.O.O.O.O.O.O.O.-.-.O.O.O.O.O.O.O.O. . .X.T Y Y  . .*.UXUX*.O.G Y R Y Y Y Y Y Y R R R R Y H Z B w w F G U G H F F H G R T -.-.-.-.-.O.-.-./.*.T T O.O.O.O.O.O.O.O.O.#.#.#.O.O.O.O.-.O.O.O.#.=.O.O.O.O.O.O.O.#.=.=.=.=.=.#.=.=.=.O.U U U U U O.=.=.O.=.=.=.U U Y Y Y Y U Y T O.O.O.O.T O.O.O.O.-.-.O.G F ;.;.;.F H G Y R R R R Y Y Y Y Y Y U U Y Y T T R G H c J +./ Y U Y R L Y P P Y H h c c /.mXHX}.x.g }.}.x.x.+.x.m.I.Q.O.% 2 0 3 3 3 3 3 3 3 3 3 3 7 7 7 7 7 7 9 9 9 9 9 9 0 0 0 0 0 0 0 0 h h h h h h h h h h h h h h c F J J J J J J J J K K K K K K K b b 2XDXmX6X6X5X5X5X5X5X5X5X2X2X5X5X5X5X5X2X2X6X6X5X5X2X2X5X5X5X5X2X2X2X2X2X2X2X2X2X2X2X2X2X2X2X2X2X2X2X2X2X2X2X2X2X2X2X2X2X2X2X2X2X2X1X2X2X2X2X2X2X2X2X2X2X2X2X2X2X1X1X1X",
"% % 1 @ 1 , % 1 % 3 - % 0 R U././.U.I.I.x.x.I.x.+.%.%.%.%.+.%.s.x.m.s.J h 1 @ X @ @ % % @ @ @ @ @ @ @ @ > > > > @ @ > > > > > > > > > > > > > > > > > > > > > > > > > > > > > > > > > > > > > > > > > > > > > > > > > - 5 g j K } E.} ! b b j j v 0 0 6 0 c J P 0 0 e e e e q e e q w w w ;.;.U T T T -.O.O.O.T Y G H h w w w w H Y T T T T T U w e w w w w w w F Y O.O.O.O.O. .Y H B B Z F F H Y T O.O.O.O.O.O.O.O.O.O.O.O.O.O.O.O.O.O.=.=.O.O. . .T Y Y Y T  .=.*.L.*.O.U E R Y Y Y Y Y Y R T R Y H Z Z H Y -.O.O.O.-.Y G H F H U R T T T -.-.T T -.Y.=.R R T O.O.O.O.O.O.O.O.O.O.O.O.T R Y Y R T O.=.=.=.=.O.=.=.=.=.=.=.=.=.=.=.=.=.=.=.O.R G G G H R O.O.O.O.=.=.T U Y Y Y R Y U R O.O.O.O.O.O.O.O.O.O.O.O.-.U H F w ;.F H I U G U U Y Y E U Y Y U U Y Y R T R Y G F h O.O.L U Y R R P U K H g 0 h c /.LXGX}.s.c {.I.U.nXVX}.U.I.I.H , 1 w 3 3 3 3 3 3 3 3 3 3 7 7 7 7 7 7 9 9 9 9 9 9 0 0 0 0 0 0 0 0 w w w 0 h h h h h h h h h h h c J J J H J J J J J J K K J K K b b 2XDXmX6X6X5X5X5X5X5X5X5X2X2X5X5X5X5X5X2X2X6X6X2X5X2X2X2X2X5X5X2X2X2X2X2X2X2X2X2X2X2X2X2X2X2X2X2X2X2X2X2X2X2X2X2X2X2X2X2X2X2X2X2X2X1X1X2X2X2X2X2X2X2X2X2X2X2X2X2X2X2X1X",
"% % 1 @ 3 , % 1 + 1 , - J x.|././.U.I.U.x.m.U.x.%.%.%.%.%.+.%.%.s.x.x.+.0 G @ @ @ % @ @ @ @ @ @ > > @ @ > > > > @ @ @ @ > > > > > > > > > > > > > > > > > > > > > > > > > > > > > > > > > > > > > > > > > > > > @ @ , , 3 J c v ! $.P c j j h h c 0 0 9 h c G 0 0 e e e V q w w w w w w w ;.;.U T T T -.O.O.R Y H F F w w w w w G R -.T T T R F e w w w w w w w Y  .O.O.O.O.O. .U Z B B F H G G T O.O.O.O.O.O.O.O.O.O.O.O.O.O.O.O.O.O.O.O.O.O. . .R Y Y Y Y R  .&.*.L.*.=.E Y Y Y Y Y Y Y Y R  .R H Z H G G U U U U Y Y Y U H F F H U R T T T -.O.-.T O.O.Y R Y Y R R R R R R R R R R Y Y U U U Y R -.O.=.=.=.=.=.=.=.=.=.=.=.=.=.=.=.=.=.=.O.O.R Y G H R O.=.=.=.O.=.-.U U U Y Y Y Y T =.#.#.#.O.] ] ] O.O.O.O.=.O.R U F w D H G G H H G U U U U G U U U Y Y R T T R U H h R O.X.U U U U K J J h g g c J x.DXGX|.L L |./.|.|.}.U.x.U.Y.2 1 3 0 3 3 3 3 3 3 3 3 3 3 7 7 7 7 7 7 7 9 9 9 9 9 0 0 0 0 0 0 0 0 w w w w h h h h h h h h h h h h c J c c H H H H J J J J J J b c b 6XDXmX5X6X5X5X5X5X5X5X2X2X5X6X5X5X5X5X5X5X5X5X5X5X2X2X2X5X5X5X5X2X2X2X5X5X5X5X2X2X2X2X2X2X2X2X2X2X2X2X2X2X2X2X2X2X2X2X2X2X2X2X2X2X1X1X1X1X2X2X2X2X2X2X2X2X2X2X2X2X2X2X",
"% % 1 @ 3 , - 1 o 2 < < %.}./.U./.U.U.U.x.I.U.s.%.%.u.s.+.+.+.%.%.x.x.s.0 H 0 % @ @ @ @ @ @ @ @ > > @ @ @ > > > @ @ @ @ > > @ @ > > > > > > > > > > > > > > > > > > > > > > > > > > > > > > > > > > > > > > > = = @ , > 2 P b d P c 6 v h h h h c 0 0 0 J 0 H 0 0 e e V B B B w w w w w e ;.D Y T T T T T R G H w w w e w w w F Y T O.-.T T U e w w B w w w w w T  .O.O.O.O. . .G B B B F H G Y O.O.O.O.O.O.O.O.O.O.O.O.O.O.O.O.O.O.O.O.O.T T R Y Y Y Y Y Y R R o.=.L.*.=.E G I Y Y Y Y Y R R T Y Z B H U Y Y Y Y U U U U U G G H F H U T T T T T T -.T R U Y G G G G I I G G G G G G G G G U U E Y R  .O.O.=.=.=.=.=.=.=.=.=.=.=.=.=.=.=.O.=.=.O.-.Y U T =.*.*.*.O.O.T U U U U H G R O.=.=.#.=.=.#.=.=.=.O.O.O.*.*.=.-.G v w D H H F F H H H G G G U U U Y Y R T T R R G F G #.^ U G G G J J h c j b W ~ m wXDX|.c x.U.x.x.c ' s.u.I.' < 1 3 0 7 3 3 3 3 3 3 3 3 3 7 7 7 7 7 7 7 7 9 9 9 9 0 0 0 0 0 0 0 0 0 0 0 w h h g g h h h h h h h h h c c c c c c c H H H H J J c b c 2XDXBXeX6X5X5X5X5X5X5X5X5X5X5X5X5X5X5X5X5X5X5X5X5X2X2X2X2X5X5X5X5X2X2X5X5X5X5X2X2X2X2X2X2X2X2X2X2X2X2X2X2X2X2X2X2X2X2X2X2X2X2X2X2X1X1X1X1X2X2X2X2X2X2X2X2X2X2X2X2X2X2X",
"- , 3 % 5 2 < 5 & < 0 ] }.}././.U.U.U.U.m././.u.u.s.s.x.%.+.+.%.%.s.x.x.R H U - @ @ @ @ @ @ @ @ > > > > > > > @ @ @ @ @ @ @ @ @ > > > > > > > > > > > > > > > > > > > > > > > > > > > > > > > > > > > > > > > @ = = > > , P ! v v g h h g g g 0 0 w e Z h h w 0 e e q B B B B B w w w w e B F R -.-.-.T R U H w w w e e w D w G T -.-.-.-.R F 9 e D D B w B w U O.O.O.O.O.O.R G H H F D H U T O.O.O.O.O.O.O.O.O.O.O.O.=.O.O.O.O.O.O.T R Y Y Y U U U E E E E  . . .&.=.=.=.R H G Y Y Y Y Y R R G H Z H G Y Y Y Y Y Y U U U U U U G H F H U T T T T T  .T U U U U G G G G G I I I I I I G I I I I I E E Y  . .O.O.=.=.=.=.=.=.=.=.=.=.=.=.=.=.=.*.*.=.O.O.=.*.L.UX*.=.&.=.T R U U Y ^ =.=.=.=.=.=.*.*.}.#.R -.O.=.=.=.=.=.O.T G F H H H F H H H H G G G G U U Y R T T T R G F F ^ T U G G G H c g K | f.,XxXN.1XDXnXeX|.U.u.s.; %.s.x.x.J < 1 9 0 9 3 1 3 3 3 3 3 3 3 3 3 3 3 7 7 7 7 9 9 9 9 9 9 0 0 0 0 0 0 0 0 w 0 w w h h h h h h h h h h h h c c c c c c F F H H H c c v j |.DXGXwX6X6X6X5X5X6X6X6X6X6X6X6X6X6X5XqXqX5X5X6X5X5X5X5X5X2X2X5X5X2X2X2X2X2X2X2X2X2X2X2X2X2X2X2X2X2X2X2X2X2X2X2X2X2X2X2X2X2X2X2X2X2X2X2X2X2X2X2X2X2X2X2X2X2X2X2X2X2X2X",
"@ @ < o 2 % % 2 & ; ^ U.}./././.U.U.U.U.I./.U.u.u.s.x.x.%.+.+.+.+.%.s.x.+.6 ] 3 @ @ @ @ @ @ @ @ > > > > > > > > @ @ @ @ @ @ @ @ > > > > > > > > > > > > > > > > > > > > > > > > > > > > > > > > > > > > > > > > @ @ > > 2 L ! d d 6 0 0 h g g 6 w w e Z Z w w e e q w B B B B B w w w w w D F R O.-.T R U H w e w w w w w D H R -.O.-.-.T U ;.e e D F w D F H T O.O.O.O.O. .Y H D D F F T O.O.O.O.O.O.X. .-.O.O.O.O.O.O.O.O.X.-.T T R Y U U U U U E E E E E E  . .O.&.=.=. .G G E Y Y Y Y R Y H Z H G Y Y Y Y G Y U U U U U U U U G H H G R T T T T  .T U U U U G G I I I G I I I I I I I I I I I I U E E  . .O.O.O.&.=.=.O.&.O.O.O.O.O.=.L.L.UXUX*.*.*.L.UXL.*.=.*.*.=. .T T Y -.=.*.*.=.*.=.%.=.*.*.] U Y T -.=.=.O.=.=.O.O.O.H H H H H H H H G G G G U U E R R  .T T Y F F Y R G G G G H c v y.| ,XH.H.H.+XHX6X{.}.I.u.' 4 s.s.x.x.6 < 1 9 0 9 3 1 3 3 3 3 3 3 3 3 3 3 3 7 7 7 7 9 9 9 9 9 9 0 0 0 0 0 0 0 0 0 w w w h h h h w h h h h h h h h h v c c c c c H H H c c j j {.DXGXwX5X6X6X6X5X6XqX6X6X5X5X6X6X6X6XqXqX5X5X6X5X5X5X5X5X2X2X5X5X5X2X2X5X2X2X2X2X2X2X2X2X2X2X2X2X2X2X2X2X2X2X2X2X2X2X2X2X2X2X2X2X2X2X2X2X2X2X2X2X2X2X2X2X2X2X2X2X2X2X",
"< < 5 - 0 3 2 0 < L m./././.U.U.U.U.U.I.U./.m.u.u.s.I.s.%.+.+.%.' +.u.x.*.0 ^ J + @ @ @ @ @ @ @ @ @ > > > > > > > > @ @ @ @ > > > > > > > > > > > > > > > > > > > > > > > > > > > > > > > > > > > > > > > > > > , > > > 1 J [ c d 6 0 0 h h g 0 h w w Z F w e e e w B B B B B B B B B B D F F Y T Y U H B w e w w w w w w D Y O.-.O.X.T Y F w B H I I H H H T O.O.O.O.O.O.T G H F H G Y O.O.=.O.O.O.X.T R T  .X.X.X.X.X.-. .T R Y Y Y E U E U U U U E E E E  . . . .&.=.=.O.U H E E Y Y Y Y Y H H G U Y Y G G G U G U U U U U U U U G H F Y T T T R R T U U U I U U I I I I I I I I E E E E I I I I I E E E E  . . .X.O.O.X.X.X.X.X. .X.=.L.Y.Y.Y.UXUXUXY.UXL.*.*.UXUXL.=.=.=.=.=.*.*.*.*.*.*.*.=.=.R R G U U U -.O.O.O.O.=.=.=.Y G G H H G H H G G G G G U U Y T  .O.-.R H Z G Y G G G H F H P Q.W F.F.k.N.*XHXm.s.m.m.%.^ +.x.x.x.%.< < 2 9 0 9 3 1 3 3 3 3 3 3 3 3 3 3 3 7 7 7 7 9 9 9 9 9 9 9 9 0 0 0 0 0 0 0 0 w w 0 w h w w w h h h h h h h h h h c c c c F F H H c j j {.DXGXwX5X6X6X5X5X5X6XqXqX5X5X5X5XqXqXqXqX5XqX5X5XeXeX5X5X6X6X5X5X5X5X5X5X5X5X5X5X5X5X2X2X2X5X5X5X2X2X2X2X2X2X2X2X6X6X2X2X2X2X2X2X2X2X2X2X2X2X2X2X1X1X2X2X2X2X2X2X2X2X",
"% % 2 + 3 , - 4 L U.}./././.U.U.U.U.U.I.U./.x.x.u.s.U.%.%.+.+.+.' ' %.s.s.J H +.+ + + @ @ @ @ @ @ @ @ @ > > > @ > > @ @ @ > > > > > > > > > > > > > > > > > > > > > > > > > > > > > > > > > > > > > > > > > > > t > > > 2 h s.b l l 6 8 h h w w w e w Z F Z e e w B B B B B B B B B B B F F F U U H D e e e w w w w w w w G -.-.O.O.-.U H w w B D H H D G R O.O.O.O.O.O.-.T G F H Y -.O.O.O.=.=.O.O. .Y E E R  . . . . . . .R E E E E E Y E E E E E E E E E E E  . .O.&.&.X.Y G Y E Y Y U Y G H H G G G G G G G G G G G U U U U U U G H H G R R R R R R U U I I U I I I I I E E E E E E E E I I I I I I E E E E  . . . . . . . . .o. ...&.L.UXY.Y.Y.Y.Y.L.L.L.L.Y.L.L.Y.Y.UXL.L.L.UX*.*.*.*.*.*.*.O.U Y U G G G U R R T O.=.=.*.O.G G H H G H H G G G G G U U Y R  .O.O.T G F H U G H G H v F ] m.~ 5.5.w.8.!.HX'.x.x.u.}.nX/.s.Y.x.L 1 < 2 5 0 9 3 1 3 3 3 3 3 3 3 3 3 3 3 7 7 7 7 9 9 9 9 9 9 9 9 0 0 0 0 0 0 0 0 0 0 0 w w w h h h h h h h h h h h h v h c c A A c c c j d {.DXGXeX6X6X6X5X5X5X6XeXqX5X5X5X5XqXqXqXqX5X5X5X5XqXeX5X5X5X6X5X5X5X5X5X5X5X5X5X5X5X5X2X2X2X2X5X5X2X2X2X2X5X2X2X2X6X6X2X2X2X2X2X2X2X2X2X2X2X2X2X2X2X2X2X2X2X2X2X2X2X2X",
"% < 6 & 3 & - L x././.U./.U.U.U.U.U.I.U.}.U.u.x.u.U.U.%.%.%.+.+.' ' +.%.s.' 0 +.0 + O # # # @ @ @ @ > > > > @ @ > > @ @ @ @ > > > > > > > > > > > > > > > > > > > > > > > > > > > > > > > > > > > > > > > > > > t t > > , J } M N x n j g h 0 e B e B G H e e B B Z Z B B B B B B B B B F D B B w w w w w w w w w B w 9 F T =.-.O.O.T U F B D B B B D G T O.O.=.=.=.=.=.=.-.T T O.O.O.=.=.=.O.O.O.X. .R E  . . . . . . . . . . . . . . .E  . .E  .E E E E E E E  . .o.O.&. .G U Y Y Y Y U G H H H G G G G G G G G G G G G G G G G G G H H H Y R R R R R U U E E I I I I E E E E  . . . .E I I I E E E E E E E E  . . . . . ... .......o.&.=.L.UXY.Y.UXUX=.L.L.UXL.UXY.Y.Y.Y.Y.Y.Y.*.*.*.*.*.*.*.*.O.Y T U U E U I I E R  .=.*.=.=. .U H G G G G G G I I G U U U Y T  .O. .G F H G G H G H w c +.@.} ~ M m ~ B.GXu.m.x.x.eX}.U.I.x.x.5 ; < 2 5 w 9 3 3 1 3 1 1 1 1 1 3 3 3 3 3 3 7 7 7 7 7 7 9 9 9 9 0 0 0 0 0 0 0 0 w w w w 0 0 w w h h h h h h h h h h h h h h h h c j j j g }.DXDXeXqX5X5X5X5XeXeX5X5X5X5X5X5XqX5XqXqX5X5X5X5XqX6X6X6X5X5X5X5X5X5X5X5X5X6X6X6X2X2X2X2X5X5X5X2X5X2X5X5X2X2X5X2X6X1X1X2X2X2X2X2X2X2X5X5X5X2X2X2X2X2X2X2X1X1X1X2X2X2X",
"< 2 3 o 0 o ^ x././.U.U.U.U.U.U.U.I.U././.m.m.x.s.Q.U.u.%.%.+.+.' ' +.%.%.' 0 ' J X O @ # # @ @ @ @ > > > > @ @ > > @ @ @ @ > > > > > > > > > > > > > > > > > > > > > > > > > > > > > > > > > > > > > > > > > > > > > > t L z.k.bXJ.w.0.d g 0 e B e B G H e e B F F Z Z B B B B B B B B D D B B w w w w w w w w e B D w U -.O.-.O.-.Y G w w B B F F U  .=.=.*.*.*.*.*.*.=.O.O.O.=.O.O.=.*.=. .R  . . . . . . . . . . . . . . . ....... . . . . . . . . . . . . . . . .&.&. .H Y Y Y Y Y U G H H H G G G G G G G G G G G G G G G G G H H G H G Y R Y Y Y U U E E E U E E E  . . . . . . . .E I I E E E E E E E E  . . .......o.o.o.o.o.o.&.&.&.L.L.L.L.L.L.L.Y.Y.Y.Y.Y.Y.Y.Y.Y.Y.Y.Y.Y.*.*.*.*.*.*.O.Y R Y Y Y E Y U I I I  .O.=.=.=.R G G G G G G G I I U U U G U Y R  . .G Z H G G G G H v H +.{ | ~ M n n i.DXi.c.x.%.L P %.x.s.+.2 ; 2 < 3 w 9 3 3 1 1 1 1 1 1 1 3 3 3 3 3 3 7 7 7 7 7 7 9 9 9 9 0 0 0 0 0 0 0 0 0 0 0 0 w w w w h h h h h h h h h h h h h h Z Z h h j j g }.DXDXwXqX5X5X5X5XeXeX5X5X5X5X5X5X6X5X5X5X5X5X5X5XqXqX6X6X5X5X5X5X5X5X5X5X5X6X6X6X2X2X2X2X5X5X5X2X5X5X5X5X5X5X5X5X1X1X1X1X2X2X5X5X6X6X5X5X2X2X2X2X2X2X2X2X1X1X1X1X1X2X",
"o ; & o h ] I.U./.Q.U.U.U.U.U.U.U.U.Q.}.U.x.m.x.m./.m.s.%.%.%.+.' ' ' %.%.' 0 ^ ] < X + # # @ @ @ @ > > @ @ @ @ > > > @ @ > > > @ @ @ @ @ @ @ > > > @ @ @ @ @ @ > > > > > > > > > > > > > > > > > > > > > > > > > > > > < L &XK.K.vXJ.G.m g h w Z e Z G H e w Z F F F F D D D D D D D D B B B B w w w w w w w w w w D H -.-.O.O.O.T U F B D D H G Y X.=.L.L.L.*.*.*.*.*.*.=.O.=.=.O.=.=.=.O.T E  . . . . . . . . . ..... .o.o.o.o.o.o.o.o.o.o. . ..... . . . . . . . .o.o. .G Y Y Y Y Y U G H H H G G G G G G G G G G G G G G G G G H G G H H U R Y Y Y Y Y Y E E E E  . . . . . . . . ...E E E E I E E E E E E  . .....o.o.o.o.o.o.o.o.&.&.&.&.&.=.L.L.L.UXY.Y.Y.Y.Y.Y.Y.Y.Y.Y.Y.Y.Y.Y.*.UX*.L.*.O.Y R  .R R  .E E E E I I  .O.=.&.E G G H G G G G I I U G G G G U Y T  .G F H G G G G H c P ' [ / ! m f b c.DXwXm.%.$.6 L %.s.x.L % 2 2 2 3 w 9 3 1 1 1 1 1 1 1 1 3 3 3 3 3 3 7 7 7 7 7 7 9 9 9 9 0 0 0 0 0 0 0 0 0 0 0 w w 0 0 0 h h h h g h h h h h h h h h Z Z h h j j g }.DXDXwXqXeXeXeXeXeXeXeXqXqXeXeXeXeXeXeXeXeXeXeXeXeXeXeXeXeXeXeXeX5X5XqXqXeXeX6X6X5X5X5X5X5X5X5X5X5X5XeX5X5X5X5X5X5X5X5X5X5X5X6X5X5X5X5X5X2X2X2X2X5X5X5X5X1X1X6X6X6X6X",
"& 4 < v s.U./.I.Q.U.I.I.I.U.U.U.U.U./.{.m.I.x.m.U.}.s.s.*.u.%.+.' ' ' +.+.+.g L ] v X O # # @ @ @ @ > > @ @ @ @ > > > @ @ @ > > @ @ @ @ @ @ @ > > > @ @ @ @ @ @ > > > > > > > > > > > > > > > > > > > > > > > > t > > t 1 b vXvXK.K.bXbXk.n h h Z e Z G H e w Z F F F F D D D D D D D D B B B B w w w w w w w w w w F Y O.O.O.O.-.Y G H H G I E Y O.=.*.L.L.L.*.*.*.*.*.*.=.O.=.=.O.=.=. . .R E R  . .o.O.O.&.&.o.o.o.o.o.o.o.o.o.o.&.&.&.&.&.&.&.&.o.o. ..... . . . .O. . .G R Y Y Y Y U G H H H G G G G G G G G G G G G G G G G G H H G H H G Y Y Y Y Y E E R  . . . . . . . . . . . . . .E E E I E E E E E  . . ...o.o.o.o.o.o.o.o.o.&.&.&.&.&.&.L.L.L.L.UXY.UXUXY.Y.Y.Y.Y.Y.Y.Y.Y.UXL.Y.Y.Y.*.O.R R  . . . . . . . .E I G R  . .I H G H G G G G I I U G G G G G G R R G F H G G H G H F L ' [ ! W b d ! Q.HXnXm.@.` 6 ' %.x.%.H ; 1 2 2 3 0 9 3 1 1 1 1 1 1 1 1 3 3 3 3 3 3 7 7 7 7 7 7 9 9 9 9 0 0 0 0 0 0 0 0 0 0 w w 0 0 0 0 h h h h g h h h h h h h h h h h h h h j g }.DXDXwX6XeXeXeXeXeXeXeXeXeXeXeXeXeXeXeXeXeXeXeXeXeXqX5X5XeXeXeXeX5X5XqXqXeXeX5X6X5X6X5X5X5X5X5X5X5XeXeXeX5X5X5X5X5X5X5X5X5XqXeX6X5X5X5X5X2X2X2X2X5X5X5X5X1X5X5X6X6X6X",
"$ 1 ^ s.I.I.I.Y.I.I.I.I.I.I.I.I.U.U.}.U.m.U.m.I.}./.%.s.u.s.s.%.' { { ' ' +.g c ] ] v - @ @ @ @ @ @ @ @ > > > > @ @ @ @ > > > > @ @ > > > > > > > > > > > > @ @ @ > @ @ @ @ @ @ > > > @ @ @ > > > > > > > > > > - , > - 3 v vXbXK.K.K.vXD.d 6 h w e w R H e w B F F F F D D F D B B B B B B B B w w w w w w w w B B G  .O.=.=.O.X.T I I Y Y T  .O.*.L.Y.Y.L.*.UXL.UXL.L.*.=.O.=.O.O. . .T Y E E E  . .o.O.O.o.o.o.o.&.&.&.&.&.&.&.&.&.&.&.&.&.&.&.&.&.&.&.o..... . .o.O. .Y U T Y Y Y Y G H H H H G G G G G G G G G G G G G G G G G G H H H H H G Y Y Y E E  . . . . . . . . . . . . . . .E E E E E I E E E E E  . .....o.o.&.o.o.o.&.&.&.&.&.&.&.&.&.&.&.L.L.L.L.L.L.L.L.L.L.L.L.L.*.*.*.Y.Y.Y.*.=. .R X.X. . ..... . . . .E I E E I G G G G G G G G G G G G G G G G R R U F H H G G G G H ^ ^ ! P b b d b |.DXVXx.+.P J %.%.%.#.3 < 2 2 2 5 0 9 3 1 1 1 1 1 1 1 1 1 1 1 1 7 7 9 7 9 9 9 9 9 9 9 9 9 9 0 0 0 0 0 0 0 0 e e w w 0 0 h h h h h h h h h h h h h h h h h h h g g U.DXDXwXqXeXeXeXeXeXeXqXqXeXeXeXeXeXeXqXqXeXeXeXeXqXeXqXqXeXeXeXeXqXqX5X5XqXqXqXqXeXeXqXqXqXqXqXqXqXqXeXqXeX5X5X5X5X5X5X5XeXeXeXeX5X5X5X5X5X5X5X5X5X5X2X2X5X5X1X6X6X6X",
"J %.x.I.Y.Y.Y.Y.I.I.I.I.I.I.I.I.I./.}.m.I.U.m.U.}.I.u.s.s.s.s.%.' { ' { ' +.v c L +.] 1 + @ @ @ > @ @ @ > > > > > @ @ @ > > > > @ @ > > > > > > > > > > > > @ @ > > > > @ @ @ @ > > > @ @ @ > > > > > > > > > > - = % - 2 d >XJ.J.J.J.k.w.n g w w w w R G 9 w B F F F F D D F D B B B B B B B B w w w w w w w w B H T O.=.=.=.&.X.R E Y Y T  .O.*.L.Y.UXL.*.=.L.Y.Y.Y.Y.*.=.O.O. .Y Y R R Y E E  . . . .O.O.o.o.o.o.&.&.&.&.&.&.&.&.&.&.&.&.&.&.&.&.&.&.&.&.&.o.o...o.O.R G =.O.Y Y Y U G F F H H G G G G G G G G G G G G G G G H H H H H F F H G U Y Y E E  . . . . . . . . . . . . . . .E E E E I I E E E E E  . . .....o.o.o.o.o.o.o.o.o.o.&.&.&.&.&.&.&.=.&.&.&.=.=.=.=.=.*.=.=.=.=.*.Y.Y.Y.Y.*.O.R X.X. . .o.o. . . . . . .E E E I I G G H H I G G G G G G G H Y R R U F H H G G G G G ^ L v c b b n.{.[.nXmXI.I.{.}.s.s.%.L 2 2 ; 2 2 5 0 9 3 1 1 1 1 1 1 1 1 1 1 1 1 7 7 9 7 9 9 9 9 9 9 9 9 9 9 0 0 0 0 0 0 0 0 e e w w 0 0 h h h h h h h h h h h h h h h h h g g g g U.FXDXwX6XeXeXeXeXeXeXeXqXeXeXeXeXeXeXeXqXeXeXeXeXeXqXeXeXwXwXeXeXeXeXeXeXeXeXeXeXeXeXeXeXqXqXeXeXeXeXqXqXeXeXqXeXeXeXqXqXqXqXqXqXeXeXeX5X5X5X5X5X5X5X5X5X5X5X5X5X5X5X",
"s.Y.x.U.x.x.Y.Y.x.m.I.I.I.I.I.I.U.}.U.x.I.I.I./.}.x.x.s.u.s.s.%.{ { { { ' ' c v P ] ] v + @ @ @ > > @ @ > % > > > > @ @ > > > > @ @ @ @ @ @ @ @ @ @ @ @ @ @ @ @ > > > > > > @ @ > > > > @ @ @ > > > > > > > > > - - - - < : oXk.k.j.k.w.5.! h h w w B R G 9 w Z F F F F D D D D B B B B B B B B w B B B B w w w B U O.=.*.*.*.&.X.R E  .T  .&.*.L.Y.UXL.=.=.=.*.*.L.L.L.=.O. . .E I I E E Y E E R  . .X.O.o.o.o.o.o.&.&.&.&.&.&.&.&.&.&.&.&.&.&.&.&.&.&.&.&.&.&.o...o.X. .O./.*.R R Y G H F H H H H H H H H H H H H H H H H H H H H H H F F F F H G U Y R  . . . . . . . . . . . . . . .E E E E E I I E E E E E E E  . . . . . . . .....................o.&.&.&.&.&.&.&.&.=.=.=.=.&.O.O.=.s.Y.Y.Y.x.=.R X.X. . .O.o. . . . . . . . .E Y E I G H G G G G G G G G G G Y R R Y H H G G G H H G T J 6 d k b 0.0.`.mXnX#.%.I.Y.+.%.s.c < 1 - 2 2 5 0 9 3 1 1 1 1 1 1 1 1 1 1 1 1 7 7 7 7 9 9 9 9 7 7 9 9 9 9 9 9 0 0 0 0 0 0 e e w w 0 0 w h 0 0 w w h h h h h h h h h h h g g g g U.HXDXwX5XqXeXqXqXeXeXqXqXqXqXwXqXqXqXwXwXwXwXwXwXwXwXwXwXwXwXwXwXwXwXwXwXwXwXwXwXwXwXwXwXwXwXwXwXwXwXwXwXwXwXqXwXqXwXwXwXwXwXwXwXqXqXeXeXeXeXeXeXeXeXqXeXeXeXeXeXeXeX",
"*.s.x.x.x.x.x.x.x.x.I.I.I.I.I.I././.x.m.I.I.I.{./.x.x.s.s.s.u.%.{ { ' ' +.] c v J J J L + @ @ @ @ @ @ @ @ @ > > > > @ @ @ @ @ @ @ @ @ @ @ @ @ @ @ @ @ @ @ @ @ @ > > > > > > > @ > > > > @ @ @ @ > > > > > > > > @ @ - - - 6 oXk.k.w.k.k.q.! J h w w B R G 9 B Z F F F Z D B B B D B B B B B B B w w D D D B B w D T =.*.*.L.*.O. .T  .X. .&.*.L.Y.UXL.L.=.O.O.=.&.=.=.=. .Y U U I G E R T Y E E  . . .X.O.O.o.o.&.&.&.&.&.&.&.&.&.&.&.&.&.&.&.&.&.&.&.&.&.&.&.&.o.o.o. . .=./.=.R Y Y G H F H H H H H H H H H H H H H H H H H H H H H F F F F F H G U Y R  . . . . . . . . . . . . . . .E E I E E I I E E E E E E E  . . . . . . . . . ....... . . . . ..... ... . .&.&.O.O.&.&.&.&.O.O.=.*.Y.Y.I.Y.=.T -.X.X. .X.o. . . . . . . . . .R E E E I I G I G G G G G G G Y R R Y F F G G G H H U R v g g j k f m N.-XDX^ ^ 6 ^ s.%.%.h < 2 2 2 2 3 0 9 3 1 1 1 1 1 1 1 1 1 1 1 1 7 7 7 7 9 9 9 9 9 7 9 9 9 9 0 9 0 0 0 0 0 0 0 e w w 0 0 0 0 0 0 0 0 w w 0 g 0 w w w h h h g g g d I.HXDXwX5XqXqXqXqXeXeXqXqXqXqXwXwXqXqXwXwXwXwXwXwXwXwXwXwXwXwXwXwXwXwXwXwXwXwXwXwXwXwXwXwXwXwXwXwXwXwXwXwXwXwXwXwXwXwXwXwXwXwXwXwXwXwXwXeXeXeXqXqXeXeXeXeXeXeXeXeXqXeX",
"x.x.x.x.s.x.x.x.x.x.x.I.I.I.I.U./.m.x.I.I.x.}.}.x.x.x.x.x.s.%.%.+.{ ' ' +.%.g c ^ c J O.J + o % @ @ % @ @ @ @ @ > > > @ @ @ @ @ @ @ @ @ @ @ @ @ @ @ @ @ @ @ @ @ @ @ @ @ @ @ @ @ @ @ @ @ @ @ @ @ @ @ @ @ > > > > > @ % % - d `.F.F.k.k.k.w.| v h w w Z G F e B F F F F B D D D B D D B B B B D D D D D D D D D D I =.L.L.*.*.=.X. .E T O.*.UXY.Y.L.L.L.=. . . . . .X.O. . .U U Y U G U R  .E R R  . . . . . ... . . .o.o.&.&.&.&.&.&.&.&.&.&.&.&.&.&.&.&.&.&.&.&.&.o.o. . .O.O.X.R Y U H Z Z F F F F F F F F F F F F F F F F Z Z F F Z Z B B D D H G I E E  . . . . . . . . . . . . .E E E I I E E I I E E E E E E E  . . ....... ............... . ..... ....... . .o.o.o. . . . . . . .X.O.*.*.x.Q.*.#.s.*.=.=.O.O.O. . .X. . . . . . . . .E E I I I I G G G G G G Y R  .Y Z Z G G G H F R P h g j j k f N N.D.mX+.K < P #.#.+.2 2 2 1 1 2 3 0 9 3 1 1 1 1 1 1 1 1 1 1 1 1 7 7 1 1 9 9 9 9 7 7 9 9 9 9 9 9 0 0 0 0 0 0 e e 0 0 0 0 w w 0 0 0 0 h h h h h h w w h h h g g g d m.HXDXwXqXeXeXwXwXeXqXqXqXwXwXwXwXwXwXwXwXwXwXwXwXwXwXwXwXwXwXwXwXwXwXwXwXwXwXwXwXwXwXwXwXwXwXwXwXwXwXwXwXwXwXwXwXwXwXwXwXwXwXwXwXwXwXwXwXwXwXwXwXqXqXqXqXeXqXqXeXeXeX",
"s.s.s.s.s.s.x.x.x.x.x.x.x.m.I./.U.m.x.I.I.U.}./.x.x.x.x.x.s.%.%.%.+.{ ' { %.J +.P c J +.P 5 @ @ @ @ @ @ @ @ @ @ > > > @ @ @ @ @ @ @ @ @ @ @ @ @ @ @ @ @ @ @ @ @ @ @ @ @ @ @ @ @ @ @ @ @ @ @ @ @ @ @ @ @ > > > > > > % % # 6 A.N.F.H.k.k.w.| b 0 w w F G F e B F F F F B D B B B D D B B B B D D D D F F D F F H  .=.UXUX*.*.O. .Y  .O.L.UXY.Y.UXL.=.&.X. . . . . . . .E U G G E U H I E E Y Y Y E E E  . . . . . . . . ..... .....o.&.&.&.&.&.&.&.&.&.&.&.&.&.&.&.o. . . .O.X.T R U G H Z Z Z Z B B B B B B B B B B B B Z Z B B B B B B B B B B F H G U E E  . . . . . . . . . . . .E E E I I E E I I E E E E E E  . . .........o.o.o.o.&.&.&.&.&.&.&.&.&.&.&.&.&.&.&.&.&.&.&.&.o.o.o. . .X.=.*.|.nXU.O.Y.Y.Y.L.L.L.*.*.O.X. . . . . . . . . .R E I G I G G G G G G Y R  .R Z Z G G G G G O.J 0 j j d l N N k.N.DX` j g ^ %.#.J 2 2 2 2 1 2 3 0 9 3 1 1 1 1 1 1 1 3 1 1 1 1 7 7 1 1 7 7 9 9 7 7 9 9 9 9 9 9 0 0 0 0 0 0 e e 0 0 0 0 0 0 0 0 0 0 0 0 w w 0 w w w w w 0 0 g 6 6 m.FXDXwXqXeXeXqXwXqXqXqXqXwXwXwXwXwXwXwXwXwXwXwXwXwXwXwXwXwXwXwXwXwXwXwXwXwXwXwXwXwXwXwXwXwXwXwXwXwXwXwXwXwXwXwXwXwXwXwXwXwXwXwXwXwXwXwXwXwXwXwXwXwXwXwXwXwXwXwXqXwXeX",
"u.u.u.u.s.s.x.x.x.x.x.x.x.I.U.U.I.x.I.m.I././.m.I.I.I.m.x.s.%.%.%.%.+.{ ' +.J x.] v %.U.L G > @ # # @ @ @ @ @ @ @ @ > @ @ @ @ @ @ @ @ @ @ @ @ @ @ @ @ @ @ @ @ @ @ @ @ @ @ @ @ @ @ @ @ @ @ @ @ @ > > @ @ > > > > t > % % 1 g v.f.e.e.w.M M b ] ;.w w F G F e B F F F F F D D D D D D B B D D F F F F F F F F G U =.*.UXY.*.=.X. . .O.L.Y.Y.Y.L.L.=.O. . . . . . .R E U I G F G U I H I E E E Y Y E E E  . . . . . . . . . . . . . ...o.o.o.o.o.o.o.o.&.&.&.&.&.&.&.o. . . .X.X.R Y U H F B B B B B B B B B e B B B B B B B B B B w w w w w w w w B H H G U E  . . . . . . . . .E  . . .E E I I E E I I E E E E E  . ...o.o.o.o.o.o.&.&.&.&.&.&.&.&.&.&.&.&.&.&.&.&.&.&.&.&.&.&.&.&.&.&.&. . .X.O.nXnX}.%.U.Y.Y.Y.Y.Y.Y.Y.*.O. . . . . . . . . . .R E I G G G G G G U Y R X.T Z F G G H U R ^ ^ ^ j d n w.bXbXJ.,XDXy.^ ! +.+.+.3 2 2 2 2 1 2 3 0 9 1 1 1 1 1 1 1 1 1 1 1 1 1 7 7 1 1 7 7 9 9 9 9 9 9 9 9 9 9 0 9 9 9 0 0 e e e e 0 0 0 0 0 0 0 0 0 0 0 0 0 0 w w w w 0 0 g 6 6 m.HXDXwX5XwXwXwXwXwXwXwXwXwXwXwXwXwXwXwXwXwXwXwXwXwXwXwXwXsXsXwXwXwXwXsXsXsXsXsXsXsXsXsXsXsXsXsXsXwXwXwXwXwXwXwXwXwXwXwXwXwXwXwXwXwXwXwXwXwXwXwXwXwXwXwXwXwXwXwXwXwXwX",
"%.%.u.u.u.s.s.x.x.x.x.x.I.U.I.m.m.I.I.m.U.}.U.x.I.I.I.I.x.s.%.%.%.%.%.+.' ' c u.] c I.' T O.9 @ # @ @ @ @ @ @ @ @ @ @ @ @ @ @ @ @ @ @ @ @ @ @ @ @ @ @ @ @ @ @ @ @ @ @ @ @ @ @ @ @ @ @ @ @ @ @ @ > @ @ @ > > > > t > > > - g T.~.M n x l d 6 +.H w w F G D e w F F F F F F D D D D D B B D D F F F F F F F H U R *.*.*.*.*.O. . .O.L.Y.L.Y.UXL.*.o. . . .E E E E I I I G G H G E G F I E E E Y E E  . . . . . . . . . . ......... . ....... . . .....o.o.o.&.&.&.&.&. . .R  . .R Y G H H e e e e B B B B B B B B B B B B w w w B q q q q w w w w w Z H G I I E  . . . . . . . .E  . . .E I I I E E I I E E E E  . ...o.o.&.o.&.&.&.&.&.&.&.&.&.&.&.&.&.&.&.&.&.&.&.&.&.&.&.&.&.&.&.&.&.&.o. . .O.Y.VXU.x.U.U.U.U.Y.Y.Y.Y.Y.*.X. . . . . . . . . . .R E I U U U U U U Y R X.R B F G G G Y R I.nXnXu.f M J.K.K.J.bXBXQ.U.+.+.^ L 1 2 2 2 2 1 2 3 9 9 1 1 1 1 1 1 1 1 1 1 1 1 1 7 7 1 1 7 7 9 9 9 9 7 9 9 9 9 9 0 9 9 9 0 0 e e e e 0 0 0 0 0 0 0 0 0 0 0 0 0 0 0 w w w 0 0 g g 6 c.HXDXwXqXwXwXwXwXwXwXwXwXwXwXwXwXwXwXwXwXwXwXwXwXwXwXwXwXsXsXwXwXsXsXsXsXmXgXgXsXmXmXmXgXmXgXmXmXsXsXsXwXwXwXwXwXwXwXwXwXwXwXwXwXwXwXwXwXwXwXwXwXwXwXwXwXwXwXwXwXwXwX",
"%.%.*.u.u.u.s.s.s.x.x.I.I.I.m.x.x.m.m.m././.m.m.m.m.m.m.x.s.%.u.x.%.%.%.' ' c s.' L +.+.x.*.L @ o % @ # @ @ @ @ @ @ @ @ @ @ @ @ @ @ @ @ @ @ @ @ @ @ @ @ @ @ @ @ @ @ @ @ @ @ @ @ @ @ @ @ @ @ @ @ > > @ @ > > > > > > t t > < s.2Xm n d d 4 g O.R w w F H F e w F F F F F F D D D D D D D F F F F F F H H H H U O.*.*.L.*.*.O. . .=.L.Y.L.L.=.X.R I I I I I I I I I I E I I I E E G F I Y E E E E  . . . . . . ... . .o.o.o. ..... . . . . . ..... ... ... . .o.o.O.o. . .R R R R Y G F Z e e B B V V q q q q w q q q q q w w w B q q q q q q q q w B H G G I E E  . . ...........E ..E E ..L.I E E I I E E E E  . .o.&.&.&.&.&.&.&.&.&.&.&.&.&.&.&.&.&.&.&.&.&.&.&.&.L.L.&.&.&.&.&.&.&.O.X. . .T Y.nXx.*.x.Y.U.U.Y.Y.Y.Y.Y.=.X. . . . . . . . . . .R Y Y U Y Y Y Y U Y R -.R w F U Y Y R R s./.|.Q.n N J.K.K.K.J.fX[ [ +.+.+.J % 2 2 2 2 1 1 3 0 9 3 1 1 1 1 1 1 1 1 1 1 3 3 1 1 1 1 1 1 7 7 7 7 7 7 7 7 9 9 9 9 9 9 0 0 0 0 0 0 0 0 0 0 0 0 0 0 0 0 0 0 0 0 0 0 0 0 w 0 g g d x.HXDXwXeXwXwXwXwXwXwXwXwXwXwXwXwXwXwXwXwXwXwXsXsXwXwXwXwXwXwXwXwXsXsXnXnXnXnXmXmXgXgXmXmXmXmXmXgXmXmXmXsXsXsXsXsXsXsXsXsXsXsXsXsXwXwXwXwXwXwXwXwXwXwXwXwXwXwXwXwXwXwX",
"%.%.*.*.u.u.s.s.s.x.x.I.m.x.x.x.m.m.m.I./.U.m.m.m.m.m.m.x.s.u.x.x.%.+.%.%.{ v %.+.] +.%.*.*.] 0 @ % @ # @ @ @ @ @ @ @ @ @ @ @ @ @ @ @ @ @ @ @ @ @ @ @ @ @ @ @ @ @ @ @ @ @ @ @ @ @ @ @ @ @ @ @ @ > > @ @ > > > > > > t t < < / 2Xb k d 4 4 1 R O.F Z F H B e w F F F F F F F F F H H H H H H H F H H G H H G R =.*.*.*.*.O. . . .&.L.L.=.=.X.E I E E E I I I E  . . .E E E I I I I F I Y E E E E  . .o.o.o.o.o.o.&.&.&.&.&.&.o.o.&.&.&.&.&.&.&.&.o... . ..... . . . . . .E Y Y Y U H B B w B B B V V q q q q q q q q q q w w w w q q q q q q q q q B D H G G E E  . ...........P.L. X XIXIXIXE E E I I E E E E  . .o.&.&.&.&.&.&.&.&.&.&.P.P.P.L.&.&.&.&.&.&.&.&.L.L.L.L.&.&.&.&.&.&.&.O. . . .T Y.nX=.O.*.s.Y.Y.Y.Y.Y.L.Y.=. .T T T  . . . . . . .T R Y E Y Y Y Y U U Y -.Y w F Y Y R T O.}.6X|.Q.n N J.K.K.K.J.yXd ! ^ ' %.0 , 2 2 2 2 1 1 3 9 9 3 1 1 1 1 1 1 1 1 1 1 3 3 1 1 1 1 1 1 7 7 7 7 7 7 7 7 9 9 9 9 9 9 0 0 0 0 0 0 0 0 0 0 0 0 0 0 0 0 0 0 0 0 0 0 0 0 0 0 g g 6 i.HXDXwXeXwXwXwXwXwXwXwXwXwXwXwXwXwXwXwXwXwXwXsXsXwXwXsXsXwXwXsXwXsXsXgXgXgXgXsXsXsXsXsXsXsXsXsXsXsXsXsXsXsXsXsXsXsXsXsXsXsXsXwXsXsXsXsXwXwXwXwXwXwXwXwXwXwXwXwXwXwXwX",
"%.%.*.*.u.u.s.s.s.x.x.x.x.x.x.x.m.m.I./.U.x.x.m.m.m.m.m.x.x.x.m.x.%.+.%.s.' g u.' ' ] %.%.%.%.L < o # @ @ @ @ @ @ @ @ @ @ @ @ @ @ @ @ @ @ @ @ @ @ @ @ @ @ @ @ @ @ @ @ @ @ @ @ @ @ @ @ @ @ @ @ @ > > > @ > > > > > > t t < < / 2Xb k d 4 4 1 F Y.G H H H w w w w F F F F H H H H H H G G G G I I G G I G F U ] =.*.*.*.O.T R E E O.=.&. . .E I I I I E E E E I I I I E E &.I G  .H F E Y E E E  . .o.O.&.&.&.&.&.&.&.&.&.&.&.&.&.&.&.&.&.&.&.&.&.&.&.o...o.o.o.o. . . .E Y Y Y Y U H B B w w B B V q q q q q q q q q q q q q q q e q q q q q q q q w B H H G I E  ...&.L. X XIXIXIXIX X X XL.I E E I I E E E E  . . .&.&.&.&.&.&.&.&.&.L.L.L.L.&.&.L.L.L.L.L.&.L.L.L.L.L.&.&.&.&.&.&.O.O. . . .T *.nX*.Y #.=.*.*.*.L.Y.Y.Y.=.T T T T  . . . . . . . .R Y Y Y Y Y Y U U Y O.Y w F Y Y R R #.*./ #.x.m 1.J.K.K.K.bXyXk / +.' O.2 , 2 2 2 2 2 2 1 0 9 1 1 1 1 1 1 1 1 1 1 1 3 3 1 1 3 7 1 1 7 7 7 7 7 7 9 9 9 9 9 9 9 9 0 0 0 0 0 0 0 0 0 0 0 0 0 0 0 0 0 0 0 0 0 0 0 0 0 0 g g 6 u.HXFXwXeXwXwXwXwXwXwXwXwXwXwXwXwXwXwXwXwXsXwXsXsXsXsXsXsXsXsXwXwXsXsXsXsXwXwXwXwXwXwXwXwXwXwXwXwXsXsXsXsXwXwXwXwXwXsXsXsXwXwXwXwXsXsXsXwXsXsXwXsXwXwXwXwXwXwXsXsXsXsX",
"%.%.%.%.*.u.u.s.s.x.x.x.s.s.x.x.x.m.U.U.m.x.x.x.x.x.x.x.x.x.x.U.x.u.+.%.%.^ g x.L ^ L ' %.%.*.+.h o X @ # @ @ @ @ @ @ @ @ @ @ @ @ @ @ @ @ @ @ @ @ @ @ @ @ @ @ @ @ @ @ @ @ @ @ @ @ @ @ @ @ @ @ @ > > > > > > > > > > t t t < s.2Xb b d d < 3 0 6XY G F F w 0 w v F F F F H H H H G G G G I I I I I I G G F R O.=.*.*.=.T R I F G X.O. .E  .E I I D D D D ..P.L.UX XIXIXIXPXL.E E G F E Y E E E  . .O.&.&.&.&.&.&.&.&.&.&.&.&.&.&.&.&.&.&.&.&.L.L.&.&.&.&.&.&.&.&. . . .E E E E E U F V B q w B B V q q q q q q q q q q q q q q q e q q q q q q q q q B D H F G I  .&.L. X X X X XL.L.....E  .I E E I I E E E E  . . .o.o.&.&.&.&.&.&.&.&.&.&.&.&.&.&.L.L.L.L.L.L.L.L.L.L.&.&.&.&.&.&.O.O. . . .T O. XO.U O.O.O.=.*.L.UXUXUXO.T R T T T T T T  . . .T R R Y Y Y Y Y Y U Y O.Y w H Y R R R %.s.+.s.m.n M J.K.K.K.xX;XW ! [ +.Y 5 , 2 2 2 2 2 2 1 9 9 1 1 1 1 1 1 1 1 1 1 1 3 3 1 1 7 7 1 1 7 7 7 7 7 7 9 9 9 9 9 9 9 9 0 0 0 0 0 0 0 0 0 0 0 0 0 0 0 0 0 0 0 0 0 0 0 0 0 0 0 g 6 u.HXFXwXeXwXwXwXwXwXwXwXwXwXwXwXwXwXwXwXwXsXsXwXwXwXwXsXsXsXsXwXwXsXsXsXwXwXwXwXwXwXwXwXwXwXwXwXwXwXwXwXwXwXwXwXwXwXwXwXwXwXwXwXwXwXwXwXwXwXwXwXwXwXwXwXwXwXwXsXsXsXsX",
"%.%.%.%.%.*.u.u.s.s.x.x.s.s.x.x.m.I.U.m.x.x.x.x.x.x.x.x.x.s.m.U.x.s.%.%.s.c J x.g L ^ ' +.%.%.+.] 2 + X # # # # @ @ @ @ @ @ @ @ @ @ @ @ @ @ @ @ @ @ @ @ @ @ @ @ @ @ @ @ @ @ @ @ @ @ @ @ @ @ @ @ @ @ @ @ @ @ @ @ > > t t > < I.2Xb d d 4 5 0 h /.x.T c H H w e B F F H H H H H H G G U U U U G G I I G G D O.=.*.=.=.-.H I I I I E  .o.o. .I ..o.L. XIXPXPXPXPXPXPXIXIXIX X&.E E I I E E E E E  .o.&.&.&.&.&.&.&.&.&.&.&.&.&.&.&.&.&.&.&.&.L.&.&.=.&.&.&.&.&.&.O. . . .E U E U U G D V V e V V V V V V V V V V V V V V V q q q V q q q q q e e e q q w B D H G I  .&.L.L.L............... .E I I I I I I I I I I E E  . . . . . . . . . . . . . . ..... .o.&.&.&.&.&.&.&.L.L.L.L.&.=.&.O. . . . .O.Y.=.Y O.-.-.-.=.=.=.=.O.O.T T T T R R T T  . . .R R R R Y Y Y Y Y U O.O.G w H Y R R L I.}.|./.n.m N w.k.J.J.bX;X` [ ` +.0 , - 2 2 1 1 1 1 r 9 0 1 1 1 r 1 1 1 1 1 1 1 3 3 1 1 7 7 r r 7 7 7 7 9 9 9 9 9 9 9 9 9 9 9 9 0 0 0 0 0 0 0 0 0 0 0 0 0 0 0 0 0 0 0 0 0 0 w 0 h g 6 u.HXDXwX2XeX2XeX2X2X2X2X2X2X2XeXeXeXeXeXeXeXeXeXeXwXwXeXeXqXqXqXqXeXeXeXeXeXeXeXeXeXeXeXeXwXeXeXeXeXeXeXeXwXwXwXwXwXwXwXwXwXwXwXwXwXwXwXwXwXwXwXwXwXwXwXwXwXwXwXwXsXwX",
"%.%.%.%.%.%.*.*.u.u.s.s.s.s.x.x.I.I.m.x.x.x.x.x.x.x.x.x.x.u.U.x.s.s.u.%.s.6 +.u.c ^ ^ ' O.+.%.%.+.J @ $ # # # # @ @ @ @ @ @ @ @ @ @ @ @ @ @ @ @ @ @ @ @ @ @ @ @ @ @ @ @ @ @ @ @ @ @ @ @ @ @ @ @ @ @ @ @ @ @ @ @ > > t t > 3 s.6Xb d d 4 3 5 0 =./.J c F H w e D H H H H H H G G G G I U U U G G I I G G G *.*.*.=.O.E I I E  . . . .o.L. XIXPXPXPXPXPXPXIXIX XL.L.P.o...o.I E E E I E  . .E E  .o.&.&.&.&.&.&.&.&.&.&.&.&.&.&.&.&.&.&.&.L.L.&.&.=.&.&.&.&.&.&.O. . .E E U U U U F V V V e e V V V V V e V V V V V V V V q q q q q q q q q e e e q q w B B D F I I &.....E  .I ....o.&.L.E E I G D D D D D D D D D D D D D D D D D D G G G G G G G G I G I I I I I I I E  . . . . . .O. . . . . .O.Y.=.Y X.X.O.O.O.O.O.O.O.O. . . . . . .T T  .R  .R R R R Y Y Y Y R R =.O.G w G R R P L }.{.{.Q.n.m f 1.k.K.J.J.;X` [ ` ] 0 - , 2 2 1 1 1 1 r 9 0 1 1 1 r 1 1 1 1 1 1 1 3 3 1 1 7 7 r r 7 7 7 7 9 9 9 9 9 9 9 9 9 9 9 9 0 0 0 0 0 0 0 0 0 0 0 0 0 0 0 0 0 0 0 0 0 0 w w h g 4 $.HXDXmXwXnXnXnXnXnXnXnXmXmXmXmXmXnXnXnXnXmXmXmXmXmXmXmXmXgXgXsXsXsXsXsXsXwXwXwXwXwXwXwXwXwXwXwXwXwXwXwXwXwXwXsXwXwXwXwXwXwXwXwXwXwXwXwXwXwXpXwXwXwXsXwXwXwXwXsXsXwXwX",
"%.%.%.%.%.%.%.%.u.u.u.u.s.x.x.m.m.m.x.x.x.x.x.x.x.x.x.x.x.x.U.s.%.u.s.s.+.6 U.' P ' ] ' ' +.%.%.%.O.5 X # # # # @ @ @ @ @ @ @ @ @ @ @ @ @ @ @ @ @ @ @ @ @ @ @ @ @ @ @ @ @ @ @ @ @ @ @ @ @ @ @ @ @ @ @ @ > > @ @ > > t t < , s.6XK g j 6 4 3 1 G }.Y H H G w e B H G G G G G U U U U U U U U U U I I G G -.*.*.*.=. . . .E I ..L. XIXIXIXIXPXIXIX XUXL.o... .I I I E E E  .G I E I G E E E E E  .X.O.&.&.&.&.&.&.&.&.&.&.&.&.L.L.L.&.&.L.&.&.&.=.=.&.&.&.&.&.&.O. . .E I U E U U B B V V e e V V V V e e V V V V V V V V q q q q q q q q q e e e e q q w B D H G G  .X. .E  .E o.....E I G D V V B B V V V V V V V V V V V B C D D D D D D D D D D D B D D D D D F F H H H H H F G U E T  . . . .O.Y.=.E X.X.X.X.O.O.X.X. . .O.O. . . . . .T  . . . .R R R R R R Y T O.Y.*.G H G R R P +.6X{.}.Q.v.m M e.K.K.K.J.;X` ` ' R 3 - , 2 2 1 1 1 1 r 0 0 1 1 r 7 r r r 1 1 r r 3 3 1 1 1 1 r r 7 7 7 7 9 9 7 7 7 7 9 9 9 9 9 9 0 0 0 0 0 0 0 0 0 0 0 0 0 0 0 0 0 0 0 0 0 0 w w h 0 4 $.DXGXHXHXHXHXHXHXHXHXHXHXHXHXHXHXHXHXHXHXHXHXHXHXFXHXHXHXHXHXHXHXHXFXFXFXFXFXFXFXFXFXHXHXFXFXFXFXHXHXFXFXFXFXDXDXFXFXDXDXFXFXFXFXDXDXDXDXDXDXDXDXDXDXDXDXGXGXGXGXGXGX",
"%.%.%.%.%.%.%.%.%.%.%.%.s.x.x.m.x.x.x.x.x.x.x.x.x.x.x.x.x.I.I.s.%.%.s.x.L c {.L L ' ] ' ' ' +.%.#.+.T < + # # # @ @ @ @ @ @ @ @ @ @ @ @ @ @ @ @ @ @ @ @ @ @ @ @ @ @ @ @ @ @ @ @ @ @ @ @ @ @ @ @ @ @ @ @ > > @ @ > > t t t 3 %.6XW j j 6 < 3 1 F Y.O.G Y H B w B G G U G U U U U U U U U U U U U I G G G =.=.=.=.&.....o. X XIXPXPXPX XL.&.&.o.E  .E E I D  .&...&.&. . .O.I H H F D G I I I I I I I I I I E E E E  . . . ...o.o.&.&.&.&.&.&.&.=.=.=.&.&.&.&.&.O. . .E I U E U U V V V V e e V V V V e e V V V V V V V V q q q q q q q q q e e e e q q q w B H H H I =.E E G I I C V V V V V e r q V V V B V V V V V V V V V V V V D D D D V D D D D D D D D D D F F B B V V V V V B F G  . . . .O.Y.=.Y X.X.X.X.O.O.O.O.X.O.O.O. . . . . . . . . . .R R R R R R Y -.=.Y.Y.G H Y G Y U s.|.I.m.I.v.m N w.J.K.K.bX:X` ` ' J < - , 2 2 1 1 1 1 r 0 9 1 1 1 7 r r r 1 1 r r 3 3 1 1 3 1 r r 7 7 7 7 9 9 7 7 7 7 7 9 9 9 9 9 9 9 0 0 0 0 0 0 0 0 0 0 0 0 0 0 0 0 0 0 0 0 w 0 g 0 4 %.HXHXHXHXHXHXHXHXHXHXHXHXHXHXHXHXHXHXHXHXHXHXHXHXHXHXHXHXHXHXHXHXHXHXHXHXHXFXFXFXFXFXFXFXFXFXFXFXFXFXFXFXFXFXDXDXDXDXDXDXDXDXDXDXDXDXDXDXDXDXDXDXDXDXDXDXGXGXGXGXGXGX",
"%.%.%.%.%.%.%.%.%.%.u.u.s.x.x.x.x.s.s.x.x.x.x.x.x.x.x.s.x.U.s.u.x.*.I.I.g ' |.g +.' ^ ' ^ ' ' +.%.+.+.H X X # @ @ @ @ @ @ @ @ @ @ @ @ @ @ @ @ @ @ @ @ @ @ @ @ @ @ @ @ @ @ @ @ @ @ @ @ @ @ @ @ @ @ @ @ @ > > > > > > t t t 8 #.6X/ b b d < 1 5 9 Y.#.R U G F w B G U U U Y Y U U U U U U G G G G U G U R *.=.=.=.L. XIXIXIXIXPXPXPXPX X.. .D E  .*.&. .E I X. .G F F F F D B B B B B B B B B V V V B B V V V V V C C C C Z H I I I I I I E E E  . . . .&.&.&.O. . .E U U E E U H B e e e V q V q q q q q q q q V V q q q q q q q q q q q q q q q q q q q B B F H F I X. .Y H V V V V V V V q q q q q q q V V V V V V V B V V V V V V V V C C V V B B D D D D B B B D B B V V V B D D F I  . . . .O.Y.=.R X.X.X.X.X.X.O.O.O.X. . .O.O.-. . . .T T  .T T R Y Y R T -.O.Y./.Y.H H Y U R J }.+./ [ s.B.M N w.K.K.K.J.bX| ' ] 3 , , 2 1 1 1 1 1 1 r e 0 1 1 1 1 1 1 1 1 1 1 1 1 1 1 1 1 1 3 3 7 7 7 7 7 7 7 7 9 9 9 9 9 9 9 9 9 9 9 9 0 0 0 0 0 0 0 0 0 0 0 0 0 0 0 0 0 0 0 0 0 0 6 %.HXHXHXHXHXHXHXHXHXHXHXHXHXHXHXHXHXHXHXHXHXHXHXHXHXHXHXHXHXHXHXHXHXHXHXHXHXHXHXHXHXHXHXHXHXHXHXHXHXHXHXHXFXFXFXFXHXHXHXHXFXFXFXFXDXDXDXDXDXDXDXDXDXDXDXDXDXDXDXDXDXDX",
"%.%.%.%.%.%.%.%.%.%.u.s.x.x.x.x.s.s.s.s.s.s.s.s.x.x.s.x.x.I.s.u.u.u./.' 4 U.m.v +.] ^ ' ^ ^ ] ' +.+.%.] < + # # @ @ @ @ @ @ @ @ @ @ @ @ @ @ @ @ @ @ @ @ @ @ @ @ @ @ @ @ @ @ @ @ @ @ @ @ @ @ @ @ @ @ @ @ > > > > > > t t t 3 / 6X[ b j 6 1 3 5 9 *.Y.Y U G H B w G U U U Y Y U U U U U U G G G G U G Y O.*.=.O.O. XPXPXPXIXIXIXIXPXPX X..I D E  .o.E D V r q q 9 q e e e q e e e 9 9 9 e e V V B B B V V V V V V C C C C C C C C C C C D D H I I I I E E  . . .R E E U U E E G Z B e e V V V q q q q q V q q q q q q q q q q q q q q q q q q q q q q q q B B B H B D Y =.T I F V B B B V q q q q q q q V V V V V V V V V V V V V V V C C C C C C V V V V D D D B B B B B V V V V D D D G Y  . . .O.Y.=.R X.X.X.X.X.X.X.O. . . . .-.O.-. . . .T T T T T R R R T -.O.=.L.Y.=.H G G R U L 6Xx.m.m.n.p.5.bXK.K.K.K.J.rX| ` L , < 2 2 1 1 1 1 1 1 r e 0 2 1 1 1 1 1 1 1 1 1 1 1 1 1 1 1 1 3 3 7 7 7 7 7 7 7 7 9 9 9 9 9 9 9 9 9 9 9 9 0 0 0 0 0 0 0 0 0 0 0 0 0 0 0 0 0 0 0 0 0 6 g %.HXHXKXKXHXHXHXHXHXHXHXHXHXHXHXHXHXHXHXHXHXHXHXHXHXHXHXHXHXHXHXHXHXHXHXHXHXHXHXHXHXHXHXHXHXHXHXHXHXHXHXHXHXHXHXHXHXHXHXHXHXHXHXHXHXFXFXFXFXFXFXFXFXFXFXFXFXFXFXFXFXFX",
"+.+.%.%.%.%.%.%.%.%.u.u.x.s.u.u.s.x.x.x.s.s.x.s.s.s.s.x.x.x.s.s.s.x.U.v c nX' c +.^ ^ ' ^ ^ ] ] ' ] %.#.G , # # @ @ @ @ @ @ @ @ @ @ @ @ @ @ @ @ @ @ @ @ @ @ @ @ @ @ @ @ @ @ @ @ @ @ @ @ @ @ @ @ @ @ @ @ @ > > > > > t t t < K |.@.c d 6 1 3 5 9 ] /.] Y G G F e G U Y Y Y Y Y Y U U U U U U U U U U T O.*.=.O. . XPXIXIXIXPXLXJXPXPX XE V V V D V q V V q r r q e V e e V e q e q 9 9 e e B B B B B V V V V V V C C C C C C C C C C C C C C D C C D G I I E Y Y E E U U E E H B e e e V q q q q q q q q q q q q q q q q q q q q q q q q q q q q q q q q q B B F V V G =.O.R G D B B B q q q q q q q V V V V V V V V V V V V V V V V V V C C C C C C C C C C C C C C C B V V V D D D D F U R  . .O.*.=.U -.-.-.-.X.X. . . . . . .-.-.-. . . . .T  . . .T R T -.O.O.=.*.*.G H Y G R U #.VXI.Q.I.d.| w.J.K.K.K.K.J.uXp.` c < 2 2 2 2 1 1 1 1 1 1 e 0 1 1 1 1 1 1 1 1 1 1 1 1 1 1 1 1 1 1 1 1 1 7 7 7 7 7 7 9 9 9 9 9 9 9 9 9 9 9 9 0 0 0 0 0 0 0 0 0 0 0 0 0 0 0 0 0 0 0 0 0 0 g L mXmXGXGXGXGXGXGXGXGXGXGXGXGXGXGXGXGXGXGXGXGXGXGXmXmXmXmXGXGXGXGXGXGXGXGXGXmXmXmXmXmXmXmXmXmXmXmXmXmXmXmXGXGXGXGXGXGXGXGXGXGXGXGXGXGXGXGXGXGXGXGXmXSXSXSXSXSXBXBXBXBX",
"+.+.+.+.+.+.%.%.%.%.u.u.u.u.u.u.s.s.s.s.s.s.s.s.s.s.x.x.x.%.x.x.x.I.%.5 m.6Xc +.+.' ^ +.' ^ ] ] ^ ] %.%.+.9 - # @ @ @ @ @ @ @ @ @ @ @ @ @ @ @ @ @ @ @ @ @ @ @ @ @ @ @ @ @ @ @ @ @ @ @ @ @ @ @ @ @ @ @ @ @ > > > > > t t t < h |.u.j d 6 1 3 3 0 G /.x.^ G G H F H U Y Y Y Y Y Y U U U U U U Y U G Y -.=.*.=.-.Y  XPXLXLXJXJXJXJXIXL.I D V V V q e r q q q V e q V V B B B V q e e e e e V V B B B V V V V V V C C C C C C C C C C C C C C C D C V C F H G G E E E E E U I I B B e e V V q q q q q q q q q q q q q q q q q V V q q q q q q q q q q q q q q B B B V G G E =. .E F B B B q q q q q q V V V V V V V V V C C D I I I I I I I I I I I I I I I I I H D D D C C C V D D D D D D G Y R R  .=.=.G -.X.-.-.X.X. . . . . . .X.-.-. . . . .T  . .T  .T -.O.O.O.=.=.=.H H Y R G R Y.LX}./.I.s.0.w.K.K.K.K.K.J.xXl.^ 0 2 1 2 2 2 1 1 1 1 1 1 e 0 1 1 1 1 1 1 1 1 1 1 1 1 1 1 1 1 1 1 1 1 1 1 7 7 7 7 7 9 9 9 9 9 9 9 9 9 9 9 9 0 0 0 9 9 0 0 0 0 0 0 0 0 0 0 0 0 0 0 0 3 0 0 g b b ! m M M ! ! ! ! ! ! ! ! ! ! M M M M m m m m m m m m m m m m m ! P P b b b b b b b b b b b b b b b b b b b b b b J J b b b b b b b b b b b b v b b b b b b b b b ",
"+.+.+.+.+.+.+.%.%.%.%.u.%.%.%.%.%.u.u.s.s.s.s.s.s.s.x.x.s.s.s.x.x.I.c 0 nXu.v %.+.' +.+.' ] ] ] ^ ^ +.*.*.P < o @ @ @ @ @ @ @ @ > > @ @ @ @ @ @ @ @ @ @ @ @ @ @ @ @ @ @ @ @ @ @ @ @ @ @ @ @ @ @ @ @ @ @ @ @ @ @ > > t t t , 4 m.u.j d 6 3 3 3 5 0 Q.I.O.R G U Z H Y R Y Y Y Y Y U U Y Y Y Y Y Y Y U =.Y.Y.O.Y O.LXJXJXLXPXnX XO.I I C V V V e q q q q q q q q q V V V V V V q e e q q q e e V V B V V V V V V C V V C C C C C C V V V V V C B B C D F G I I I I I U U U G H B B e e q q q q q q q V q q q q q q q V q q q q q q q q q q q q q q q q q q q q B B V B B D X.O.E G B B B q q q q q V V V V I I I I E ......o.o.o.o..................... . . . . . . .E E E I I I I F G D V B F I Y  .O.=.G -.-.X.O.O. .R Y Y T  . . . . . . . . . . . . . . .O.O.O.=.*.=.O.H H G U G ^ 6XLXnXc.I.c.l.k.K.K.K.K.K.J.cXc.^ < 2 2 2 2 1 1 1 1 1 1 1 9 0 1 1 r 1 1 1 1 1 1 1 1 1 1 1 1 1 1 1 1 1 1 1 3 7 7 7 7 9 9 9 7 9 9 9 9 9 9 9 9 9 9 9 9 9 9 9 9 9 9 0 0 0 0 0 0 0 0 0 0 0 0 0 g g g v v j j j j v v v v v j j j j j j j g g g g g g d d g g g j j j c c c j g g g j j j h j j j g g g g g g g g 6 0 6 5 6 6 6 0 g g g g g g g g 0 6 6 6 6 6 6 6 6 6 ",
"' ' +.' +.+.+.%.%.%.%.%.%.%.%.%.%.u.u.s.s.s.s.s.s.x.x.s.s.s.s.s.U.' 5 x.eXJ P s.+.+.+.+.' ] ] ] ^ ^ ' %.#.+.c @ # @ @ @ @ @ @ @ > > @ @ @ @ @ @ @ @ @ @ @ @ @ @ @ @ @ @ @ @ @ @ @ @ @ @ @ @ @ @ @ @ @ @ @ @ @ @ > > > t t , 4 m.s.b d 6 6 3 3 1 3 x./.%.^ G Y H H Y R Y Y Y Y Y U U Y Y Y Y Y Y Y O.Y.*.=.O.Y O.nXJXLX|.=. .G F V V V V V V e q e q q q q q q q V V V V V V q q e e q q e e V e V V V V V C C C C C C C C V V V V V V V C V V V C C F G G I I I U I U U G Z B e e e q q q q q q q q V q q q q q q q q q q V q q q q V q V q q q q q q q q q B B V B D D Y O.E I B B B q q q q q V V V V ..........o.o.o.o.&.&.&.&.&.&.&.&.&.o.o.o.o.o.o.o.o............. . .E E E I I V V F G E T *.Y.G  .T T T Y U G H G U R R T T  .O. . . . . . . . .-.O.O.O.=.*.=.O.H H G U R / nXGXmXy.s.p.S.F.K.K.K.K.K.J.cXB.P < 2 2 2 2 1 1 1 1 1 1 1 9 0 1 2 r 1 1 1 1 1 1 1 1 1 1 1 1 1 1 1 1 1 1 7 3 3 3 7 7 9 9 9 7 9 9 9 9 9 9 9 9 9 9 9 9 9 9 9 9 9 9 0 0 0 0 0 0 0 0 0 0 0 0 0 0 g h g h j j g g g g j j g g g g g j j j g g g g g g d g g g g g j j c H c h h h h h h h h h h h g g g g g 0 g 0 0 0 0 0 0 0 0 0 0 0 g g g g g 0 0 0 0 6 8 8 8 8 3 3 ",
"' ' ' ' +.+.+.%.%.%.%.%.%.%.%.%.%.%.u.u.s.s.s.s.u.x.x.u.u.s.s.s.u.g 6 GXx.c %.+.' +.+.' ' ' ] ` ] ] ' #.#.*.R < o @ @ @ @ @ @ @ @ > @ @ @ @ @ @ @ @ @ @ @ @ @ @ @ @ @ @ @ @ @ @ @ @ @ @ @ @ @ @ @ @ @ @ > > @ @ > > > t t , 4 m.x.b j g 0 6 5 1 < T /.Y.O.U Y H F Y R Y Y Y Y Y Y Y Y Y Y Y Y Y R *.Y.*.O.Y H T  XLXLX XG q e F B q V V e e e e V V e q q q V V q q V V V V e e e e q q V V V V V B H I I I I I I I I I I I I I I I I I I D B V C C F G I I I I U G U G H B e e B e q q q q q q q q q q q q q q q q q q q q q q q q q q q q q q q q q q V q V B B D B D H X. .E F B B q q q w B V V V V o.o.o.o.P.o.o.&.&.&.P.P.P.P.P.P.P.o.o.o.o.o.o.o.o.o................... . . .I V V F G Y T Y./.U T R U G H H F Z F H G U U R  .O.O.O.-.O.O. . . .-.O.O.O.O.*.=.R H H G U ^ %.GXVXGXi.y.y.0.k.K.K.K.K.K.J.CX}.c < 2 2 2 2 1 1 1 1 1 1 1 0 e 1 2 r 1 1 1 1 1 1 1 1 1 1 1 1 1 1 1 1 7 7 7 7 3 3 7 7 9 9 7 7 9 9 9 9 9 9 9 9 9 9 9 9 9 9 9 9 0 0 0 0 0 0 0 0 0 0 0 0 0 0 0 0 0 0 0 0 0 0 0 0 0 0 0 0 0 0 0 0 0 0 0 0 0 0 0 0 0 0 0 0 0 0 0 0 0 g h h h h 0 0 0 0 0 0 0 0 0 0 0 0 6 6 6 0 0 0 6 0 0 0 0 0 0 0 0 0 0 0 0 0 0 0 0 5 5 5 3 3 3 3 3 3 ",
"' ' ' ' +.+.+.+.+.%.%.%.%.%.%.%.%.%.%.u.s.s.s.s.u.u.u.u.u.s.s.s.c 4 {.|.J ^ %.%.+.+.+.' ] ' ` ` ] ] ] ' +.%.O.F @ o # # @ @ @ @ @ > @ @ @ @ @ @ @ @ @ @ @ @ @ @ @ @ @ @ @ @ @ @ @ @ @ @ @ @ @ @ @ @ @ @ > > > @ > > > > t , 4 m.m.b j g g 0 5 3 5 H Y.Y.*.R R G F U T Y Y Y Y Y Y Y Y Y Y Y Y Y #.x.*.*.O.Y D G Y.VXVXY.F B B B q w q q e e e e q e e q q q V V q q q e V e e e e e q q q V V V B G  . ....................... . . . . . .E I H D I I I I I I I U U U G F B e B w B q q q q q q q q q q q q q q q q q q q q q q q q q q q q q q q q q q q q q B B B D D H H O.Y F B B B V B w B V V V C ....o.P.P.P.P.P.P.P.P.P.P.P.P.P.P.o.o.o.o.o.o.o.o.o..................... . .I V B F G E T /.|.U T Y G F Z Z Z B B Z F H F G T  .-.O.O.O.O.O.-.-.-.O.O.O. .=.=.Y H H G U ^ I.GXBXGXW.@.@.~ w.J.K.K.K.K.J.CX{.d < 2 2 2 2 1 1 1 1 1 1 1 0 e 1 2 1 1 1 1 1 1 1 1 1 1 1 1 1 1 1 1 1 7 7 7 7 3 7 7 7 9 9 7 7 9 9 9 9 9 9 9 9 9 9 9 9 9 9 9 9 0 0 0 0 0 0 0 0 0 0 0 0 0 0 0 0 0 0 0 e 0 0 0 0 0 0 0 0 0 9 9 9 9 9 9 9 9 9 9 9 6 6 6 6 9 9 9 0 0 0 h h h 0 0 0 8 0 0 0 0 0 0 0 6 6 6 6 5 5 5 6 6 6 6 6 0 0 0 0 8 3 3 5 3 3 5 3 5 5 5 5 5 5 5 5 3 3 ",
"' ' ' ' ' +.+.+.+.+.+.+.%.%.%.%.%.%.%.u.u.s.s.s.s.u.u.u.u.Y.I.L 6 ' VX*.c +.s.%.+.%.%.' ' ' ' L ^ ^ ' ' +.#.+.R 2 X o # @ @ # @ @ @ @ @ @ @ @ @ @ @ @ @ @ @ @ @ @ @ @ @ @ @ @ @ @ @ @ @ @ @ @ @ @ @ @ @ > @ @ @ > > > > > - 4 u.U.b j g j 0 9 3 3 0 %.I.*.] R Y h G T R R R Y Y Y Y Y Y Y Y T R *.*.*.=.T H q H *.nXnXY.F w w e e e e q q q q q q e e e e e q q e e q q q q q q e q q e e e q V V D  .o.&.&.&.&.&.o.&.&.&.o.o.o.o.o.o.o.o..... . . .E E I I I I I I G H B w w w q w w w B q B B B B B B B B q q q q q q B B B B B B B B B B B q q q q q q e q V B B B B F F Y =.I D D B B B B B V V V C o.o.o.P.P.P.P.P.P.P.P.P.P.P.P.P.P.o.o.o.P.P.P.o.o.o.o.o.o.o............... .I V V F I Y ] U.eXY R G w h Z Z Z B B B Z Z F F G R  . .X.X.X.X.O.X.X.O.O.O.O.=.=.F H G U Y U {.VXDXBX2X/ } n w.J.K.K.K.K.k.@Xc.& < 1 2 2 2 2 2 1 2 1 1 1 0 e 1 2 1 1 1 1 1 1 1 1 1 1 1 1 1 1 1 3 3 7 7 7 7 7 7 7 7 9 9 9 9 9 9 9 9 9 9 9 9 9 9 9 9 9 9 9 9 9 9 9 9 9 9 9 9 9 9 0 0 0 0 0 0 0 0 0 e e 0 0 0 0 0 0 0 0 0 9 9 0 0 0 0 0 0 0 9 9 9 9 9 9 9 9 0 0 0 h h 0 0 0 0 0 0 9 9 0 9 0 0 9 9 9 9 9 9 7 7 9 9 9 9 9 0 0 7 7 7 7 7 7 7 7 7 7 7 7 7 9 9 9 9 7 7 ",
"' ' ' ' ' ' +.+.+.+.+.+.+.%.%.%.%.%.%.%.%.u.s.s.s.u.u.u.%.s.L 6 g GX}.J L %.u.%.+.%.%.' ' +.' ^ ^ ^ ^ ^ ' +.#.' H o + # # # # # @ @ @ @ @ @ @ @ @ @ @ @ @ @ @ @ @ @ @ @ @ @ @ @ @ @ @ @ @ @ @ @ @ @ @ @ > > @ @ > > > > > - < u.U.b j g j 0 3 1 3 5 ^ x.*.O.T R F H R R Y R Y Y Y Y Y Y R Y U O.*.*.=.=.R H e F L.nXLX}.F w w 0 e w e e q q q q q e e e e e q q e e 9 9 q q q q e e q q e e q V V D ..o.&.&.&.&.o.o.&.&.&.P.P.P.&.&.&.&.&.&.&.&.o. . .E E I I I I G F w w w w w q w w w B B B B V V B B V B B B B B B w B B B B B B B B B B B q q q q q q e q q q q B B D B F R  .G G V B V B B V V V C o.o.o.P.P.P.P.P.P.P.P.P.P.P.P.P.o.o.o.o.o.o.o.o.o.o.o.o.o.o.................I V V D I Y O.Y.nXT Y F w w Z Z B Z Z Z Z Z F B H Y T  .X.X.X.X.O.O.X.O.O.O.O.*.-.H H G Y Y R nXBXBXDXwXW } m w.J.K.K.K.K.k.D.m.& 4 1 1 2 2 2 2 2 2 1 1 1 0 e 1 2 1 1 1 1 1 1 1 1 1 1 1 1 1 1 1 3 3 7 7 7 7 7 7 7 7 9 9 9 9 9 9 9 9 7 7 9 9 9 9 9 9 9 9 9 9 9 9 9 9 9 9 9 9 9 9 0 0 0 0 0 0 0 0 0 e e e 0 e 0 0 0 0 0 0 0 9 0 0 0 0 0 9 0 0 9 9 9 9 9 9 9 0 0 0 h h 0 0 0 0 0 0 0 0 0 0 0 0 9 9 9 9 9 9 9 9 7 7 7 7 9 9 9 9 7 7 7 7 7 7 7 7 7 7 7 7 7 9 9 9 7 7 ",
"^ ^ ' ' ' ' ' ' +.+.+.+.+.%.%.%.%.%.%.%.%.u.u.u.u.u.u.u.s.L v g 6X|.L J %.u.%.u.%.u.%.+.+.+.+.^ ' ' ^ ^ ^ +.%.#.] 5 + X # # # # @ @ @ @ @ @ @ @ @ @ @ @ @ @ @ @ @ @ @ @ @ @ @ @ @ @ @ @ @ @ @ @ @ @ @ @ > > > @ > > > > > - 2 u.U.b j g j 0 3 3 1 5 v x.*.%.^ Y G F U T R R R Y Y Y Y Y R R R =.*.=.#.O.Y F 9 B Y.Y.O.H F w w e e w w w q q q q q q q q e e q q e e q q 9 q q q e e q q e q q V V H o.o.o.o.o.o.o.o.&.&.&.&.P.&.&.&.&.&.&.&.&.&.o. . .E E I I G G F w e q q w w B B B B V V D D D D D D D B B B B B B B B B B B B B B B w w B q q q q q q e q q q q q B B V q F O.R G D D B B B V V V D o.&.P.P.P.P.P.P.P.P.P.P.P.P.P.P.P.o.P.P.o.P.P.P.o.o.o.o.o.o.o.o.............I V V D I Y O.Y.VX] G B w w Z B Z F F F F F F Z F G T  .X.X.X.X.X.O.O.O.O.O.=.*.Y H H G Y R =.VXVXmXBXmX} u.z.k.J.K.K.K.K.j.G.n.& 3 1 1 2 2 1 2 2 2 1 1 1 0 e 1 2 1 1 1 1 1 1 1 1 1 1 1 1 1 1 1 1 3 1 1 r 1 7 7 7 7 9 9 9 9 9 9 9 9 7 7 9 9 9 9 9 9 9 9 9 9 9 9 9 9 9 9 9 9 9 9 9 0 0 0 0 0 0 0 0 0 0 0 0 0 0 0 0 0 0 0 0 0 0 0 0 0 9 9 9 9 9 9 9 9 9 9 0 0 0 0 h h 0 0 0 0 0 0 0 0 0 0 0 0 9 9 9 9 9 9 9 9 9 9 9 9 9 9 9 9 7 7 7 7 7 7 7 7 7 7 7 7 7 7 7 7 7 7 ",
"^ ^ ^ ^ ' ' ' ' +.+.+.+.+.%.%.%.%.%.%.%.u.%.%.u.u.u.u.u.^ g h Q.nX+.g +.x.%.%.u.%.u.%.+.+.%.+.^ ' ' ^ ^ ^ ' %.%.O.T - $ # # # # # @ @ @ @ @ @ @ @ @ @ @ @ @ @ @ @ @ @ @ @ @ @ @ @ @ @ @ @ @ @ @ @ @ @ @ > @ @ @ > > > > > - 1 s.U.b g g j 0 3 1 3 5 0 s.*.*.O.R U h U T R R R Y Y Y Y Y Y R =.=.=.=.O.O.Y B r B B B H w F w w e e w w w q q q q q q q q e e q q e e q q q q q q q q q e q q e V V H o.o.o.o.o.o.o.o.P.P.&.P.P.P.o.o.&.&.&.o.o.o. . . .E I I I G F w e e q q w w B B B B D D F F F F F F F F D V B B V V B B B B B B B B w w w q q q q q q e q q q q q B B q 9 q G =.E D F B B B V V V C o.&.&.P.P.P.P.P.P.P.P.P.P.P.P.P.P.o.P.P.P.P.o.P.o.o.o.o.o.o.o.o.............E V V D I Y O.s.LX] H w 0 w Z Z F H F F F H H F F H T  .X.X.X.X.X.X.O.O.O.O.*.*.G H G G Y R U.nXBXsXZXDXm.[ i.w.J.K.K.J.K.w.N.T.& 4 1 1 2 2 1 2 2 2 1 1 1 9 e 1 2 1 1 1 1 1 1 1 1 1 1 1 1 1 1 1 3 3 1 1 1 1 7 7 7 7 9 9 9 9 9 9 9 9 7 7 9 9 9 9 9 9 9 9 9 9 9 9 9 9 9 9 9 9 9 9 0 0 0 0 0 0 0 0 0 0 9 0 9 9 0 0 0 0 0 0 0 0 9 9 0 0 9 9 9 9 9 9 9 9 9 9 0 0 0 0 h h 0 0 0 0 0 0 0 0 0 0 0 9 9 9 9 9 9 9 9 9 9 9 9 9 9 9 9 9 7 7 7 7 7 7 7 7 7 7 7 7 7 7 7 7 7 7 ",
"^ ^ ^ ^ ^ ' ' ' ' +.+.+.+.+.%.%.%.%.%.%.%.%.%.%.%.%.%.^ h g %.6Xs.J ^ %.s.%.%.u.x.u.+.+.%.u.+.^ ' ' ^ ^ ^ ' +.+.+.+.H o o # # # # # # # @ @ @ @ @ @ @ @ @ @ @ @ @ @ @ @ @ @ @ @ @ @ @ @ @ @ @ @ @ @ @ @ > > > > > > > > > @ 3 s.Q.c g g g 0 3 3 3 2 h s.x.s.#.^ O.F G T R R Y R Y G Y G Y O.=.=.#.O.-.T H B e 9 e B H B w w w w e w w e q q q q q q q q V V e e e e q q e e e e q q e e V V V V V I o.o.o.o.o.P.o.o.P.P.P.P.o.o.&.&.&.&.&.o. ..... .E U E E I G B q q q w w w w B B B D D D F F F F F F F F F D D D D V B B B B B B B B B B B B q q q q q q q q q q q q V q B q B Y X.I F F F D V V V C o.&.P.P.P.P.P.P.P.P.P.P.P.P.P.P.P.P.P.P.P.o.P.P.o.o.o.o.o.o.o.o.o...........I V V B G Y O.x.GX+.R w w w Z F F F F F H H H H H H T T -.X.X.X.X.X.-.O.=.=.Y.O.H H G R Y O.nX}.BXmXBXDXW.f | q.k.K.K.J.K.w.N.T.4 3 3 1 1 1 2 2 2 1 1 1 1 0 e 1 2 1 3 3 1 1 1 1 1 1 1 1 1 1 1 1 1 1 1 3 3 7 7 7 7 7 9 9 9 9 9 9 9 9 9 9 9 9 9 9 9 9 9 9 9 9 9 9 9 9 9 9 9 9 9 9 9 9 0 0 0 0 0 9 9 9 9 9 9 9 9 0 0 0 7 7 8 0 9 9 9 9 9 9 9 9 5 5 9 9 9 9 0 0 0 0 h F 0 0 0 0 0 0 0 0 0 0 9 9 9 9 9 9 9 9 9 9 9 9 7 7 7 7 7 7 7 7 7 7 7 7 7 7 7 7 7 7 7 7 7 7 7 7 ",
"^ ^ ^ ^ ^ ' ' ' ' ' +.+.+.+.+.+.+.%.%.%.%.+.%.u.%.*.J g c %.6Xs.J L %.s.*.%.%.u.u.%.%.+.%.u.' ' ' ' ^ ^ ^ ^ ^ +.+.#.R 2 o o # # # # # # @ @ @ @ @ @ @ @ @ @ @ @ # # # # @ @ @ @ @ @ @ @ @ @ @ @ @ @ @ @ > > > > > > > > > @ 1 %.'.b j g g 6 3 3 3 2 h O.I.s.%.^ O.J H R R R -.O.Y T R R O.#.=.#.+.O.T Y H D w 9 e D H F w w w w e w w e q e e e q q q q q e e e e q q q e e e e q q e e V V V V V G o.o.o.o.P.P.o.o.P.P.P.P.o.o.o.o.o.o.o.o... . . .E E E E I F B q q q w w w w B B B D D D F F F F F F F F F F F D D V B B B B B B B B B B B B q q q q q q q q q q q q q q V B B H  .O.E F F F B B C C ..&.&.P.P.P.P.P.P.P.P.P.P.P.P.P.P.P.P.P.P.o.P.P.P.o.o.o.o.o.o.o.o...........I V V B G Y ] *.VXs.T w ;.w Z F F F F F H G G G G U T ^ -.-.-.-.X.-.-.O.O.=.*.R H G Y Y Y %.6XQ.5XGXBXBX{.f 0.q.k.K.K.J.K.w.N.c.8 3 3 1 2 1 2 2 2 1 1 1 1 9 e 7 1 1 3 3 1 1 1 1 1 1 1 1 1 1 1 1 1 1 1 1 7 7 7 7 7 7 9 9 9 9 7 7 7 7 9 7 9 9 9 9 9 7 9 9 9 9 9 9 9 9 9 9 9 9 9 9 9 9 0 0 0 9 9 9 9 9 9 7 7 9 9 9 9 9 7 7 7 7 9 9 9 9 9 9 9 9 5 5 9 9 9 9 0 0 0 0 w F 0 0 0 0 0 0 0 0 0 0 9 9 9 7 7 7 9 9 9 9 9 9 9 7 7 7 7 7 7 7 7 7 7 7 7 7 7 7 7 7 7 7 7 7 7 7 ",
"^ ^ ^ ^ ^ ' ' ' ' ' ' +.+.+.+.+.+.+.+.+.+.+.%.%.#.J h v %.|.x.J L #.%.%.%.%.%.%.%.%.%.%.%.%.^ ' +.' ' ^ ^ ^ ^ ^ +.' ] P @ o # # # # # # @ @ @ @ @ @ @ @ @ @ @ @ # # # # @ @ @ @ @ @ @ @ @ @ @ @ @ @ @ @ > > @ @ > > > > > @ < +.|.K k d 0 5 3 3 2 3 h Y /.*.%.^ ] ^ h Y Y T O.*.O.O.=./.#.O.O.O.O.] R Y H D w 9 B H G H w w w w w w w e q e e e e e q q q q e e e e q q q q e e e e e q V V V V V I o.o.o.o.o.o.o.o.P.P.P.P.o.o.&.&.o.&.o.o. . . .E E E Y E H B q q q q w w B B B B D D D D F F F F F F F F F F F D D B D B B B B B B B B B B B q q q q q q q q q q e e q q q q B B F  .X.Y H H D D D D ..&.P.P.P.P.P.P.P.P.P.P.P.P.P.P.P.P.P.P.P.P.P.P.P.P.P.P.P.P.P.o.o...........I C V B G Y -.=.nXU.] v F F F F H H H H H G G U Y R T T -.-.-.-.-.T O.O.O.=.=.H H G Y Y R s./.U.'.GXBXGXsXm y.w.k.K.K.J.K.w.q.y.d 3 3 1 2 1 2 2 2 1 1 1 1 9 0 3 1 1 3 3 1 1 1 1 1 1 1 1 1 1 1 1 1 1 7 7 7 7 7 7 3 3 9 9 9 9 3 7 7 7 7 7 7 9 9 9 7 7 7 7 9 9 9 9 9 9 9 9 9 9 9 9 9 9 0 0 0 9 9 9 9 9 7 7 7 7 9 9 9 9 7 7 7 7 9 9 9 9 9 9 9 9 9 9 9 9 9 9 0 0 0 0 w F 0 0 0 0 0 0 7 7 9 7 9 9 9 7 7 7 9 9 9 9 9 9 7 7 9 9 7 7 7 7 7 7 7 7 7 7 7 7 7 7 7 7 7 7 7 7 ",
"^ ^ ^ ^ ^ ^ ' ' ' ' ' ' +.+.+.+.+.+.+.+.+.%.%.' J 0 H u.|.Y.J J #.%.%.#.%.%.%.%.%.%.%.%.u.%.^ +.+.' ' ^ ^ ^ ^ ^ ' +.O.] 3 o o o # # # # @ @ @ @ @ @ @ @ @ @ @ @ # # # # @ @ @ @ @ @ @ @ @ @ @ @ @ @ @ @ > > @ @ > > > > > @ , ' 2XW b d 6 3 3 3 2 7 c G |.*.%.^ ^ O.e G Y O.*.Y.*.O.*.Y.] R T O.] T Y G H D w 9 B G U G w w w w w w w e q e e e e e q q q q e e e e q q q q e e e e e q q q e e V I o.o.o.o.o.o.o.o.P.&.P.P.o.o.&.&.o.o.o.o. . .I I E E R I D e e q q q w w w B B B D D D D F F F F F F F F F F F D D B D B B B B B B B B B B B q q q q q q q q q q e e q q q q q r V I  .X.Y H F D F H ..&.&.P.P.P.P.P.P.P.P.P.P.P.P.P.P.P.P.P.P.P.P.P.P.P.P.P.P.P.P.o.o...........I D V D G Y -.*.|.|.] F H H F F H H H H H G G G U R T ^ -.-. . .-.^ ^ ^ O.Y.O.H H Y R Y R Y.*.Q.Q.mXGXDXBX} 8.1.w.K.K.J.K.w.w.@.d 4 3 1 2 1 2 2 2 1 1 1 1 9 0 7 1 1 1 1 1 1 1 1 1 1 1 1 1 1 1 1 1 1 7 7 7 7 7 3 3 3 7 9 9 9 7 7 7 7 7 7 7 9 9 9 7 7 7 7 7 9 9 9 9 9 9 9 9 9 9 9 9 9 0 0 0 9 9 9 9 9 7 7 7 7 9 9 9 9 7 7 7 7 9 9 9 9 9 9 9 9 9 9 9 9 9 9 0 0 0 0 w F 0 0 0 0 0 0 9 7 7 7 9 9 9 7 9 9 9 9 9 9 9 9 9 9 9 9 9 9 7 7 7 7 7 7 7 7 7 7 7 7 7 7 7 7 7 7 ",
"^ ^ ^ ^ ^ ^ ^ ' ' ' ' ' +.+.+.' ' ' +.+.' ^ J 6 6 J x.}.u.P J %.%.%.%.%.%.%.%.%.%.%.%.%.s.%.+.+.+.+.' ^ ^ ^ ^ ^ ] +.+.O.^ % X X # # # # # # # # @ @ @ @ @ @ @ @ > > > @ @ @ @ @ > > @ @ > > > @ > > @ @ > > > > > > > > > @ < ^ 6XW b d 6 3 3 1 2 0 Z U Y.I.+.] ^ T H H Y O.=.*.O.^ T O.] O.O.O.^ R G G H Z e e F U E G w q e e w w w e e e q q e e q q q q q q e e q q e e e e e e e e q q e e V D o.&.o.o.o.o.o.o.o.o.P.P.o.o.o.o.o.o.o... .E I I E E G D q e e e e e w B B B B B D D F F F F F F F F F D D D D D D D B B V V B B B B B B B B B q q q q q e e e e e e e e q e q e e e G O.O.H G I G I  .&.&.&.P.P.P.P.P.P.P.P.L.L.L.L.P.P.P.P.P.P.P.P.P.P.P.P.P.P.P.P.o...........I D F F G Y -.] }.eXO.H F H H H H H H H H H B H U R T -.-.-.X.X.-.-.O.%.x.I.J J R R R G ] Y.#.x.s.wXDXDXDXi.8.5.w.K.K.J.J.w.q.} g 4 3 3 1 1 2 2 1 1 1 1 1 9 0 7 1 1 1 1 1 1 1 1 3 3 3 1 1 1 7 7 7 r 7 7 7 7 7 7 7 7 7 7 7 7 7 7 7 7 7 7 9 9 9 9 9 7 7 7 7 7 9 9 9 9 9 9 9 9 9 9 9 9 0 0 0 0 9 9 9 9 9 9 9 9 7 7 7 7 0 0 9 9 9 9 9 9 9 9 9 9 9 9 9 9 9 9 9 9 9 9 w F e 0 9 9 9 9 9 9 9 9 9 7 7 7 7 7 7 7 7 7 7 7 7 7 9 9 9 7 7 7 7 7 7 7 7 7 3 3 3 3 7 7 7 7 7 7 ",
"^ ^ ^ ^ ^ ^ ^ ^ ^ ' ' ' ' ' ' ' ' ' ' ' J g 6 g ^ U.}.%.J J %.u.%.%.%.%.%.%.%.%.%.%.%.%.%.+.+.%.+.+.' ' ^ ^ L ^ ] ' +.+.^ v o X # # # # # # # # @ @ @ @ @ @ @ @ > > @ @ @ @ @ @ > > @ @ > > > @ > @ @ @ > > > > > > > > > @ 2 L 6Xb j j 6 3 3 1 1 0 F U O.|.+.] T R O.w G O.T T Y R O.=.*.=.O.] R Y U G H Z e e F U E G B q e e w w w e e e q q e e q q q q q q e e q q q q e e e e e e q q q V V D ..o.o.o.o.o.o.o.o.o.P.P.o.o.o.o.o.o... .E I I E E G B e e e e e e e w B B B B B D D F F F F F F F F F D D D D F F D B B V V B B B B B B B B B q q q q q e e e e e e q e q q e e e e B G T O.E G I I  .o.o.o.&.P.P.P.P.P.P.P.L.L.P.L.P.P.P.P.P.P.P.P.P.P.P.P.P.P.P.P.o...........I G Y U U T R ] /.nX#.J F H H H H H H H H H Z H U R T -.-.-.-.-.-.O.O.%.I.*.H G R Y Y H *.*.%.U.Q.2XDXDXDXB.| 5.w.J.K.J.J.w.w.} j 4 3 3 1 1 2 2 1 1 1 1 1 9 0 9 1 1 1 1 1 1 1 1 3 3 3 3 1 1 7 7 7 7 7 7 7 7 7 7 7 7 7 7 7 7 9 9 7 7 9 7 9 9 9 9 7 7 9 9 7 7 9 9 9 9 9 9 9 9 9 9 9 9 0 0 0 0 9 9 9 9 9 9 9 9 7 7 7 7 0 0 9 9 9 9 9 7 9 9 9 9 9 9 9 9 9 9 9 9 9 9 h Z w 0 9 9 9 9 9 9 9 9 9 7 7 7 7 7 7 7 7 7 7 7 7 7 7 7 9 7 7 7 7 7 7 7 7 7 3 3 3 3 7 7 3 3 3 3 ",
"^ ^ ^ ^ ^ ^ ^ ^ ^ ^ ' ' ' ' ^ ^ ' ^ J v 6 6 J ' U.x.^ c P %.%.%.%.%.%.%.%.%.%.%.%.%.%.%.%.+.%.+.+.' ' ^ ^ ^ L ^ ] ] O.O.O.^ 3 o o o # # # # # # @ @ @ @ @ @ @ @ @ @ # # @ @ @ @ > > @ @ > > > > @ @ @ @ @ @ @ @ > > > > > % < L 6Xb j j 0 3 3 3 2 0 F U T |.%.O.^ Y =.H H R Y Y ] =.x.Y.Y.*.O.-.Y Y U U H Z w e F U E G B e e e w w w e e e e e e e q q q q q q e e e e q q q e q q e V B B B V V D ..o.o.o.o.o.o.o.o.o.o.o.o.o.o.o.o... .E I E E E G V e e e e e e e e B B B B B B D D F F F F F F F F F F F F F F D D B B V V B B B B B B B B B B w B V q q e e e e e q q q q q q e e q q G O. .E E  .E ..o...o.o.&.P.P.P.P.P.P.P.P.P.P.P.P.P.P.P.P.P.P.P.P.P.P.P.P.o.o...........I G  .Y Y R -.O.U.LX*.Y H F H H H H H H H H F G R T -.-.^ ^ -.-.O.O.*.I.U.^ H Y R G J U *.=.*.x./.Q.GXDXDX].~ 5.w.J.K.J.J.w.5.} A 3 7 7 1 1 2 2 1 1 1 1 1 9 0 9 1 1 1 1 1 1 1 1 1 1 1 1 1 1 7 7 3 3 7 7 7 7 7 7 7 7 7 7 7 7 9 9 9 9 9 9 9 9 9 9 7 7 9 9 9 7 9 9 9 9 9 9 9 9 9 9 9 9 0 0 0 0 9 9 9 9 9 9 7 7 7 9 7 7 0 0 9 9 9 9 7 7 9 7 9 9 9 9 9 9 9 9 9 9 9 0 h Z w 9 9 9 9 9 7 7 7 7 7 7 7 7 7 7 7 7 7 7 7 7 7 7 7 7 7 7 7 7 7 7 7 7 7 7 3 3 3 3 7 7 7 3 3 1 ",
"^ ^ ^ ^ ^ ^ ^ ^ ^ ^ ^ ' ^ ^ ^ ^ v v g g c ' x.U.%.^ c ^ %.%.%.%.%.%.%.%.%.%.%.%.%.%.%.%.%.%.%.+.+.' ' ' ' ^ L ^ ^ ^ ] O.O.O.Y # + o # # # # # # @ @ @ @ @ @ @ @ @ @ @ # @ @ @ @ @ @ @ @ > > > > @ @ @ @ @ @ @ @ > > > > > @ < L 6XK b d 0 3 3 3 2 0 F U R I./.O.O.R R T w R R O.=.x.Y.Y.*.=.O.O.Y Y Y U G Z w e F U E G w e e e w w w e e e e e e e q q q q q q e e e e q q e e q q V V B B B B V C  .o.o.o.o.o.o.o.o.o.o.o.o.o.o.o... .E E E E E G V q e e e e e e e e B B B B B B D D F F F F F F F F F F F F F D D D B B V V B B B B B B B B B B B B V q q q e e e e q q q q V e e e V q w G  . . . .E  .........o.&.P.P.P.P.P.P.P.P.P.P.P.P.P.P.P.P.P.P.o.o.o.o.o.o.o......... .I I  .U U Y T -.*.GXx.L H F H H H H H H H H H U R  .T T ^ ^ ^ O.O.*.Y.}.*.H J T Y R h O.*.=.O.#.Q.m.VXDXDX1X~ 5.w.J.K.K.J.w.~ @.K 3 7 7 1 1 2 1 1 1 1 1 1 9 0 9 1 1 1 1 1 1 1 1 1 1 1 1 1 1 3 3 3 3 7 7 7 7 7 7 7 7 7 7 7 7 9 9 9 9 9 9 9 9 9 9 9 7 9 9 9 9 9 9 9 9 9 9 9 9 9 9 9 9 9 9 9 9 9 9 9 9 9 7 7 7 9 9 7 7 9 9 7 7 9 9 7 7 7 7 9 9 7 9 9 9 9 9 9 9 9 9 h Z w 9 9 9 7 7 7 7 7 7 7 7 7 7 7 7 7 7 7 7 7 7 7 7 3 3 3 3 3 3 7 7 7 7 7 7 7 3 3 3 3 3 3 1 1 2 ",
"L L L L L L L L P J J J J c g 6 v v J ^ %.x.u.^ J P ' %.+.+.+.%.%.%.%.%.%.%.%.%.%.u.u.%.%.%.%.%.+.+.+.+.' ^ ^ ^ ^ ^ ^ ] ' #.] 9 X o # @ # # # # @ @ @ @ @ @ @ @ # # # # > > @ @ @ @ @ @ @ @ @ @ @ @ @ @ > > @ @ > > > > > @ ; P 6XK j d 0 4 3 1 1 w F G O.O.nXO.R R T =.Y H U O.*.s.Y.*.*.=.O.O.Y Y Y U U F w w F U E G w w e w w w e e e e e e e e q e e e q q q q e e q q q q q q q B B B V V V D  .o.....o.o.o.o.o.o.o.o.o.o..... .E I E E E G D q e e e e e e e e B B B Z F F F F F F F F F F F F F H H H F F F F F Z B B B B B B B B B B B B q q q V V V V q q e e q q q q q V q q q q q q B E  . . . . .......o.&.&.&.&.&.P.P.P.P.P.P.P.P.P.P.P.P.P.&.&.o.o.o.o.o.o.o.o.o. . .I I  .Y U Y T G -.|.%.R H F H H H H H H H G G Y R T ^ T T T O.] O.x./.}.T H H R G U v *.O.O.X.+.x.u.BXmXDXsXQ 1.w.J.K.K.J.w.8.} K 3 3 1 1 2 1 1 1 1 1 1 1 9 e 9 1 1 1 3 1 1 1 1 1 1 1 1 1 1 1 1 1 1 1 1 3 3 7 3 3 3 7 7 7 7 7 9 9 9 9 9 9 9 9 9 7 7 7 9 9 9 9 9 9 9 9 9 9 9 9 9 9 9 9 9 9 9 9 9 9 9 9 9 7 7 9 9 9 9 7 7 7 7 9 9 7 7 7 7 7 9 7 7 9 9 9 9 9 9 9 9 h F w 7 7 7 7 7 7 7 7 7 7 7 7 7 7 7 7 7 7 7 7 7 7 7 7 3 7 7 3 3 3 3 3 3 3 3 3 3 3 3 3 3 3 1 1 1 ",
"v v v v v v v v g g g 6 6 g c J L ' %.%.%.' P J L ' %.%.+.+.%.%.%.%.%.%.%.+.+.+.%.u.u.%.%.%.%.%.%.+.+.+.' ^ ^ ^ ^ L T ] ' +.O.H % o # @ # # # # @ @ @ @ @ @ @ @ # # # # > > @ @ # # # # @ @ @ @ @ @ @ @ > > @ @ > > > > @ @ - P eXb j d 0 3 2 1 3 F H Y Y O.|.x.O.R Y T R H G T O.*.*.*.O.O.^ T Y Y Y U U F w w F G U G w w e w w w e e e e e e e e q e e e q q q q e e q q q q q q q B B B B V V D  .......o.o.o. .o.o.o.o..... . .E I I E I F B e e e e e e e e B B B Z Z F H F F F F F H H H G H G I G G H H F F F F F Z B B B B B B B B B B B q q q V V q q q q e e q q q q V V q q q q q q e F E  . .o...........o.o.&.&.&.&.&.&.&.&.&.&.&.o.o.&.&.&.&.&.&.&.&.o.o.&.o.o.o. . .G E  .R R R R Y J Q.*.Y H F H H H H H H G G G Y R T T T T ] %.%.s.U./.=.T Y T Y Y Y R /.R ] X.O.u.@.eXmXGXGX~ 5.w.J.K.K.J.w.8.y.K 2 3 1 1 2 1 1 1 1 1 1 1 9 e 9 1 1 1 3 1 1 1 1 1 1 1 1 1 1 1 1 1 1 1 3 3 3 7 3 3 7 7 7 7 7 7 7 9 9 9 9 9 9 9 9 7 7 9 9 9 9 9 9 9 9 9 9 9 9 9 9 9 9 9 9 9 9 7 7 7 7 9 9 7 9 9 9 9 9 9 9 7 7 9 9 7 7 7 7 7 9 7 7 9 9 9 9 9 9 9 9 h F w 7 7 7 7 7 7 7 7 7 7 7 7 7 7 7 7 7 7 7 7 7 7 7 7 7 7 7 3 3 3 3 3 3 3 3 3 3 1 1 1 1 1 1 1 1 ",
"6 6 6 6 6 6 6 6 g g v c c P ^ +.%.%.+.' P c J ^ ' +.+.%.%.+.%.%.%.%.%.%.%.+.+.%.%.%.%.%.%.%.%.%.+.+.+.+.' ] ^ ^ ^ L ^ ^ ] +.#.T 0 @ o o # # # # @ @ @ @ @ @ @ @ > > > > @ @ @ @ # # # # @ @ @ @ @ @ @ @ @ @ @ @ @ @ > > @ > - P eXb j d 0 3 2 3 7 H G R R R #.|.O.Y R ^ O.G G R T O.#.O.^ T R R Y U Y Y Y F w w w H G H w w w w w e e e e e e e e e q q q e q q q q q q q q q q V q B B B B V V B D  . .....o.o.o. .o.o.o... . .E I I I E I F B e e e e e e e e e B B B B B H H H H F F H H H H G G G G I I I I H F H H H F B B B B B B B B B B B B w w w w q q q q q q q q q q q q q q q q q q q B H E  . . .o.o... . . ...o.o.o.o.&.&.o.o.o.o.o.o.o.o.o.o.o.o.o.o.o.o.o.o.o.o. . .I E R T T Y R L G %.I.L H H G G G G G G G G G Y R T T T O.O.*.x.U./.Y.U Y Y R Y Y R VX}.O.T ^ O.@.#.{.mXmXDX7.1.w.k.K.K.J.j.8.p./ 2 1 1 1 2 2 1 1 1 1 1 1 9 e 9 1 1 1 3 1 1 3 1 3 3 1 1 1 1 7 7 r 1 7 7 7 7 7 7 9 9 9 9 9 9 9 9 9 9 9 9 9 9 9 9 9 9 9 9 9 9 9 9 9 9 9 9 9 9 9 9 9 9 9 9 9 9 7 7 7 7 9 9 9 9 7 7 9 9 9 9 9 9 9 9 7 7 9 7 9 9 7 9 9 9 9 9 9 9 9 9 h H h 9 7 7 7 7 7 7 7 7 7 7 7 7 7 7 7 7 7 7 7 7 7 7 7 7 7 7 7 7 3 3 3 3 3 3 3 3 1 1 1 1 1 1 1 1 ",
"c c J J J J J J P L ^ ] ' ' ' ' ^ P J P L L ^ ' +.' ' +.+.+.%.%.%.%.%.%.+.+.+.%.%.%.%.%.%.%.%.%.+.+.+.+.' ] ^ ^ ^ ^ ^ ^ ^ +.#.] J - o $ # # # # # # # # # # # # > > > > @ @ @ @ # # # # @ @ @ @ @ @ @ @ @ @ @ @ @ @ > > @ > < L eXb j g 0 3 2 3 9 G G R U Y R /.x.R G G T T U G Y T O.T R R R R Y U Y Y Y H w w w F H D w w w w w w e e e e e e e e q q q e q q q q q q q q q q V q w B B B V V V F  . .....o.o.o.o.o. .o. .E I I I E E I H B q e e e e e e e e B B B B B B H H H H I H H I H G G G I I I H H G H H H H H H B B V V B B B B B B B B w w w w q q q q q q q q q q q q q q q e e q q q e B I  . . .o. . . .E  . . . . ..................... . . . . . . . . . .E E  .E G E Y  .T R R U Y ] U.L H H G G G H H H G G Y Y R T T O.O.*.x.U.}.x.T R Y G Y G O.nXKX}.*.R R O.#.^ {.VXwXDXv.M N k.K.K.J.e.8.i./ < 1 1 1 2 2 2 1 1 1 1 1 9 e 0 1 1 1 3 1 1 1 1 1 1 1 1 1 1 7 7 r 1 7 7 7 7 7 7 9 9 9 9 9 9 9 9 9 9 9 9 9 9 9 9 9 9 9 9 9 9 9 9 9 9 9 9 9 9 9 9 9 9 9 9 9 9 7 7 7 7 9 9 9 9 7 9 9 9 9 9 9 9 9 9 9 7 9 9 9 9 7 7 9 9 9 9 9 9 9 9 h H h 9 7 7 7 7 7 7 7 7 7 7 7 7 7 7 7 7 7 7 7 7 7 7 7 7 7 7 7 3 3 3 7 3 3 3 3 3 1 1 1 1 1 1 1 1 ",
"' ^ ^ L L ^ ^ ' ' ' ' ' ' ^ L J J L L ^ ^ ] ' ' ' ' ' +.+.+.%.%.%.%.%.+.+.+.%.u.%.+.+.%.%.%.%.%.+.+.+.+.' ] +.] R ] T R ^ ' O.O.] J 3 % # # # # # # # # > # # # @ @ @ @ @ @ @ @ @ @ @ @ @ @ @ @ @ @ @ @ @ @ @ @ @ > > > @ > 2 ^ 6XJ j j 0 3 2 3 e H Y R R U G #.}.R R Y G Y Y Z H U R T Y Y Y Y Y U Y U U H v w w w w w B e w w e e e e q e e e q q q q q q w w q q q q q q q q q q B B V B B B B G  . ... ..... . . . .E E I I E E E I F B q q e e e e e e e e V B V V B B D F F F F F F F F F F F F F H F F F F F F F F F Z B V V B B B B B B B B B B B B B B q q q q q q q q V V q e q q q e q q B V V C I E  .X.O.o. . . . .E E E E  . . . ... . . .I I C C D C C C C C V V I I H Y R T T R R U J ] *.R G H G G G G G G Y Y Y R T ^ O.=.*.x.Y.}./.#.R G G J J F I.LXnXY.O.Y Y / ^ / Q.GXBXGXR.M 1.j.K.K.J.e.w.T.%.2 1 1 2 2 1 1 1 1 1 1 1 9 0 0 1 1 1 1 1 1 1 1 1 1 1 1 1 1 3 3 3 3 3 3 9 9 9 9 9 9 9 9 9 9 9 9 9 9 9 9 9 9 9 9 9 9 9 7 7 7 9 9 9 9 9 9 9 9 9 9 9 0 9 9 9 9 9 9 7 7 9 9 9 9 7 7 9 9 9 7 7 7 9 9 9 7 7 7 9 9 9 9 9 9 9 9 9 9 7 7 h H h 9 7 7 7 7 7 7 7 7 7 7 7 7 7 7 7 7 7 7 7 7 7 7 7 7 7 7 7 7 7 7 7 7 3 3 3 3 3 3 1 1 1 1 1 1 ",
"^ L L J J J J J J J J c c c J L L ^ ^ ^ ^ ] ' ' ' ' ' ' +.+.%.%.%.%.+.+.+.+.%.%.%.+.+.%.%.%.%.+.+.+.+.+.' ] +.] L ] T L L ^ ] O.] T G 9 2 - # # # # # # # # # # @ @ @ @ @ @ @ @ @ @ @ @ @ @ @ @ @ @ @ @ @ @ @ @ @ @ > > # @ 2 ^ 6XK b j 6 3 2 3 w H Y R R J H Y *.O.Y G G Y G H v H U R Y Y Y Y U U Y U U G H h w w w ;.B w e e w e e e q e e e q q q q q q w w q q q q q q q q q q B B V B B B D I E  . . . . . . . .E I I E E E E I B q e q q q e e e e e e e V V B B B B V B D B D D B B B B D D D B B B B B B B B B B B B B B B B B B B B B B B B B B B B B V V q q q q q q V q q e e q q q e e e q V B V D I E  .o.o. . . .I E  . . . . . . . . . .I G C D D D D D D C D V G G H Y T R R T R Y U R =.^ Y G G G G G Y R T ^ ^ O.O.=.s.Y.Y.I.U.I.%.] G J G H H P I./.Y.O.R T Y ^ L / I.nXBXBX1Xm 1.j.K.K.J.e.q.Q.y., 1 1 2 2 1 1 1 1 1 1 1 9 0 0 2 1 1 1 1 1 1 1 1 1 1 1 1 1 3 3 7 7 3 3 9 9 9 9 9 9 9 9 9 9 9 9 9 9 9 9 9 9 9 9 9 9 9 7 7 7 9 9 9 9 9 9 9 9 9 9 9 0 9 9 9 9 9 9 9 7 9 9 9 9 7 7 9 9 9 9 7 7 9 9 9 9 7 7 9 9 9 9 9 9 9 9 9 9 9 7 h H h 9 7 7 7 7 7 7 7 7 7 7 7 7 7 7 7 7 7 7 7 7 7 7 7 7 7 7 7 3 7 7 7 7 3 3 3 3 3 3 1 1 1 1 1 1 ",
"' ' ^ L P J J J J P P P P L L ^ ^ ^ ^ ^ ^ ^ ' ' ' ' ' ' +.+.+.%.+.+.+.+.%.%.%.%.+.+.%.%.%.%.%.%.+.+.+.+.+.' +.] ] ] ] L L R T ] ' O.T H h 9 2 > # # # # # # # # @ # # # @ @ @ @ @ @ @ @ @ @ @ @ @ @ @ @ @ @ @ @ @ @ @ @ @ @ , R 6XP b g 6 3 1 3 F G U U G H w w H R G G G H G Y F v H U Y Y Y Y U U Y Y Y U J v v v v v ;.;.e e w w w e q q q q q q w w w w w w w w w w w w w w B B B V B B B D F I E E  . . . . .E E I I I E I H F B e 9 9 e q q e e e e e e e q q B B V B B V B B B B B B B B B B B B B B B B B B B B B B B B V V q q q q V V q q q q q q q q q V V V q q q q V q q e e q q q e e e e q q V B B G I E  . .o.o.O.o. . . ..... . . . . .E I I I E I I I I I I G I E G R R R R R R Y U Y O.O.Y G Y Y Y Y R T ] O.O.=.=.*.Y.Y.Y.Y.s.O.T Y G G J H J %.L J T Y Y Y Y U J O.I.6XGXmXsXM M w.K.K.J.w.N.W.u., 1 1 2 2 2 1 1 1 1 1 1 5 e e 2 r r r 1 1 9 9 7 9 7 7 7 7 9 9 9 9 9 9 9 9 9 9 9 9 9 9 9 9 9 9 9 9 9 9 9 9 9 9 9 9 9 9 9 9 0 0 0 0 0 0 0 0 9 9 0 0 9 9 9 9 9 9 7 7 9 9 9 9 9 9 9 9 9 9 7 7 9 9 9 9 7 7 9 9 9 9 9 9 9 9 9 9 9 9 h H Z 9 7 7 7 7 7 7 7 7 7 7 7 7 7 7 7 7 7 7 7 7 7 7 7 7 7 7 3 3 3 3 7 3 3 3 3 3 1 1 1 1 3 3 1 1 ",
"s.%.%.+.' ^ ^ L L L L L L L ^ ^ ^ ^ ^ ^ ^ ' ' ' ' ' ' ' ' +.+.+.+.+.+.+.%.%.%.+.+.+.%.+.%.%.%.+.+.+.+.+.+.' +.] ] ] ] L L L R T O.O.^ J G F h 9 > # # # # # # # # # @ @ # # @ @ @ @ @ @ @ @ @ @ @ @ @ @ @ @ @ @ @ @ @ @ @ @ % J 6X! J g 0 3 1 3 H G U G H Z w 9 w F H H G H G R G F v H Y Y Y Y U U Y Y Y U J H F H H v ;.;.w e w w w w w q q q q q w w w w w w w w w w w w w w w B B B B B B F F I I I I I E E E I I E E E I G e 9 r r r r e e e e q e e e e e e e q q q e e V e e e e q q q q q q e q e e e e e e e e e e e e e e e e e e q q e q e e e e e e q q q q e q e e q q e e e q q q e e e e e q q q B B D I I E  . .o.O.&.&.&.&.O.O.o. . . . . . . . . . . . . . .R Y Y Y T R R R R R Y Y R ^ O.Y Y Y Y Y Y Y R T ^ O.O.=.=.*.*.*.*.O.Y J G J H H P Y.] U R H U Y H U G A #.U.2XwXsXmX8.N w.K.K.J.w.V.'.u.% 1 1 2 2 2 2 1 1 1 1 1 5 e e 1 r r 1 1 1 9 9 9 9 7 7 7 7 9 9 9 9 9 9 9 9 9 9 9 9 9 9 9 9 9 9 9 9 9 9 9 9 9 9 9 9 9 9 9 9 0 0 0 0 0 0 0 0 0 0 0 0 9 9 9 9 9 9 7 7 7 7 9 9 9 9 9 9 9 9 9 7 9 9 9 9 7 7 9 9 7 9 9 9 9 9 9 9 9 9 h H Z 9 7 7 7 7 7 7 7 7 7 7 7 7 7 7 7 7 7 7 7 7 7 7 7 7 7 7 3 3 3 3 3 3 3 3 3 3 1 1 1 1 3 3 1 1 ",
"x.s.u.u.%.{ ^ L ^ ^ ^ ^ L L ^ ^ ^ ^ ^ ^ ^ ^ ' ' ' ' ' ' ' +.+.+.+.+.+.%.%.%.%.+.+.+.+.+.%.+.+.+.+.+.+.+.+.+.+.] ] ] ] L L L L L ' ' O.L P U J H 9 1 - # # # # # # # # # # # @ @ # # # # @ @ @ @ @ @ @ @ # # @ @ @ @ # # @ @ @ J |.^ b d 0 3 2 0 G G G H w w e w e B Y Y w H w H Y Y G H G U Y Y Y Y Y Y Y U U G U G G U F w w w w B w w w w w w w w w w w w B B w w w w w w w w w w B B B B B B F F I I I I I E R R E I F B B e 9 9 9 9 r 9 9 e e e e e e e e e e e e e e e B B B B B B B B B B B B B B B B B B B e e e B B B B e e e w w w e e e e e e e e e e e e q q e e q q q q e e e e e e e e e q e e 9 9 q q V B F I E E R  . . . .O.&.=.=.&.O.O.O.O.O.O.X.X.X.X. . . .T T T T  .R R T R R Y R R R O.T Y G U Y T -.O.O.O.O.=.=.*.=.O.R U H G J v h G =.VX=.R G G G G G G G G ^ #.s.|.6XBXaXOXN N K.K.J.w.N./.s.< 1 1 1 2 2 2 3 3 3 3 3 9 0 w 1 3 3 3 3 3 3 3 3 3 3 3 3 3 9 9 5 5 9 9 9 5 9 9 9 9 9 9 9 9 0 0 9 9 9 9 0 0 0 0 0 0 0 0 0 9 0 0 0 0 0 0 0 0 0 0 0 0 0 0 0 0 9 9 9 9 9 9 9 9 9 9 9 9 9 9 9 9 9 9 9 9 9 9 9 9 9 9 9 9 9 9 9 9 9 9 h H Z 9 7 7 9 7 7 7 7 7 7 7 7 7 7 7 7 7 7 7 7 7 7 7 3 3 3 3 3 3 3 3 3 3 3 3 1 1 1 1 1 1 1 3 1 1 ",
"' +.+.' ` ` ^ ^ ^ ^ ^ ^ L ^ ^ ^ ^ ^ ^ ^ ' ' ' ' ' ' ' ' ' ' +.+.+.+.%.%.%.+.+.+.+.+.+.+.+.+.+.+.+.+.+.+.+.+.+.] ] ] ] L L L L L ] ^ +.L J R R H H c 0 1 , @ # # o # # o o o @ @ # # # # @ # @ @ @ @ @ # # # @ @ @ @ # @ @ @ % J |.[ c d 0 1 1 w G G H Z w e e e 9 7 w |.T w w H G Y G H H G U Y Y Y Y Y Y U Y U U U U G H v w w w B B w B B w w w w w w w w B B w w w w w w w w w w B B B B B B D F I G I I U E E G F B B e 9 9 9 9 9 9 9 9 9 9 9 9 e e e w B B B B B B F H H H H H H H H H H H H H H H H F H H H H H F F Z Z Z B Z Z F F F B B B B B w e e e e e e e q q e e e q q e q e e e e q q q e q e e e e e q q q V V D H I E E E  . .O.O.O.O.O.O.O.O.O.X.X.X.X.O.O.O. . . . .T T R Y Y Y Y R R T -.-.Y -.-.O.O.=.=.=.=.=.O.T Y G H h F F h h H R Y.VXY.O.Y J J G G G G G G ^ #.s./.#XmXyX&X5.N K.K.J.w.N.}.x.3 1 1 1 2 2 2 3 3 3 3 3 9 0 w 1 3 5 5 3 3 3 3 3 3 3 3 3 3 5 5 5 5 9 9 9 9 9 9 9 9 9 9 9 9 0 0 9 0 9 9 0 0 0 0 0 0 0 0 0 9 0 0 0 0 0 0 0 0 0 0 0 0 0 0 0 0 9 9 9 9 9 9 9 9 9 9 9 9 9 9 9 9 9 9 9 9 9 9 9 9 9 9 9 9 9 9 9 9 0 9 Z G h 9 7 7 9 7 7 7 7 7 7 7 7 7 7 7 7 7 7 7 7 7 7 7 3 3 3 3 3 3 3 3 3 3 3 3 1 1 1 1 1 1 3 3 1 1 ",
"/.m.u.u.{ [ ` ^ ^ ^ ^ ^ L ^ ^ ^ ^ ^ ^ ^ ^ ' ' ' ' ' ' ' ' ' +.+.+.%.%.%.+.+.+.%.+.+.+.+.+.+.+.+.+.+.+.+.+.+.+.' ' ] ] L L L L L ^ ^ +.^ J R T J P G F h 1 2 < , % @ # + o o # # # # # # # # # # # # # # # # # # @ @ # # @ @ @ J {.@.c 6 3 2 1 w G H Z w e e e e 9 0 Z R nX^ w h h H G H H H H U Y Y Y Y Y Y Y U U U U U G F ;.;.B D D B B B B B w w B B B B B B B B B w B w B B B B B B B B B B D F G G I I I F Z B B e q 9 9 9 9 9 q q e e e e e e w w B F H H H H G G U U Y Y Y Y Y Y Y Y Y Y Y E E U U U U U Y U E U U U I I G G G U U U G H H H H H F F B B V V V B B B B B B B w w B B B B B B V V e e e e e e e 9 r r 9 e B V D F H G I E Y R T T  . . .-.-.O.O.O.O.O.O.O.O.O.O.O.O.O.O.O.O.O.O.O.O.O.=.O.O.O.O.O.Y Y Y Y w h Z Z h h h h h F Y O.s.|.*.^ R G G G G G G G G H ^ #.s.I.'.wXyXaXF.5.J.K.J.w.z.Q.s.7 1 r 1 2 2 2 1 3 3 1 3 5 0 0 1 3 5 5 3 3 9 5 5 5 5 9 9 5 9 9 9 9 9 9 9 9 9 9 9 9 9 9 9 9 0 0 0 0 9 0 0 0 9 0 0 0 0 0 0 0 e e e e e e e e e e e e 0 0 0 0 9 9 9 9 9 9 9 9 0 0 0 0 9 9 9 9 9 9 9 9 9 9 9 9 9 9 9 9 9 9 9 9 0 0 Z G Z 9 7 9 9 7 7 7 7 7 7 7 7 7 7 7 7 7 7 7 7 7 7 7 3 3 3 3 3 3 3 3 3 3 3 3 1 1 1 1 1 1 1 1 1 1 ",
"/.Q.I.x.s.%.{ ` ^ ^ ^ ^ L ^ ^ ^ ^ ^ ^ ^ ^ ' ' ' ' ' ' ' ' ' +.+.+.%.%.+.+.+.+.+.+.+.+.+.+.+.+.+.+.+.+.+.+.+.+.' ' ] ] L L R L L ^ ^ ' ] P P L L L P J J w 0 0 0 9 3 2 - % @ o # # # # # # # # # # # # # # # # # @ @ # # @ # @ J }.%.c d 3 < 1 F F Z w e e e 9 e 9 e w H ^ nXO.w 0 w H G G H H H G G G J U U Y U U U U G G H F ;.B D D B B B B B w w B B B B B B B B B w B w B B B w B B V V V V D F I I H F V V e e e q 9 9 9 9 9 9 e e e e B B B B F H H G U U U U Y Y Y Y R R Y Y Y Y R R R R R R R Y R R R R R R Y R R R R R Y Y Y R R R Y Y E E E U U G G G G H H F F D B B V V B B V V B B B B B B V q q q q e e e q q e q e e 9 e q q B B B D H I U U U I U U U Y Y R R R T T T T R R R R T T O.O.-.R Y Y G G H Z Z Z Z Z h Z F F F F F c ^ O.=.O.O.^ R F Y G G G G J G G G G ^ #.s.s.n.2XdXuXF.1.J.K.K.w.w.U.u.2 r r 1 1 2 2 1 3 3 1 3 5 0 w 1 1 3 3 3 3 5 5 3 5 9 9 9 5 9 9 9 9 9 9 9 9 9 9 9 9 9 9 9 9 0 0 0 0 9 9 0 0 9 0 0 0 0 0 0 0 e e e e e e e e e e e e 0 0 0 0 9 9 9 9 9 9 9 9 0 0 0 0 9 9 9 9 9 9 9 9 9 9 9 9 9 9 9 9 9 9 9 9 e e F U Z 9 7 9 9 7 7 7 7 7 7 7 7 7 7 7 7 7 7 7 7 7 7 7 7 3 3 3 3 3 3 3 3 3 3 3 1 1 1 1 1 1 1 1 1 1 ",
"Q./.U.m.m.s.%.[ ' ` ^ ^ ^ ^ ^ ^ ^ ^ ^ ^ ^ ^ ' ' ' ' ' ' ' ' ' +.+.+.+.+.+.+.+.+.+.+.+.+.+.+.+.+.+.+.+.+.+.+.+.' ' ' ] ^ L L L L L L ' ' L J L ] R L P P J H h 5 H H v 0 9 5 5 1 @ @ o # # # # # # # # # # # # # # # # # @ @ % g Q.u.c g 6 2 7 H F w e 9 9 e e e e e e e H T }./.G 7 w w H G H H H H G G G G Y Y U G G G H F D w w w w w B B B B B B B B B B B B w B w q q q w w q q q w B B B B B B V V e e 9 9 e e 9 9 7 r e e w w w w w B F H H G G U Y Y Y R Y Y R R R R R R R R R R R R R R R R R R T T T T T T R R T T T T T T T T T T R R R R R R R Y Y Y Y E E U G H H F F F F F B B B B B B B B B B B w w w w e w e e e e e e e e e w w w w w B B D F F F F H H H H G G G G U U G H H H H H H H F D B B w Z Z Z F F F F F F H H H G R T ^ R R P G G G J G J G G G G G G G U / #.s.s.T.'.dXiXOXN j.K.K.w.5.s.u.h 1 r 1 1 1 2 1 3 3 3 3 5 w h 3 1 3 3 3 3 3 3 5 5 5 5 5 3 9 9 9 9 9 9 9 9 0 9 9 9 0 0 0 0 0 9 9 9 0 0 0 0 9 9 9 9 e e e e e e e e 0 0 0 0 e e e e e e e e 0 0 0 0 0 0 0 0 0 0 9 9 9 0 0 0 9 9 9 9 0 0 0 9 9 9 9 9 9 0 0 0 e e F U Z 0 9 9 9 7 7 9 9 9 7 7 7 9 9 7 3 3 3 3 7 3 3 3 3 3 3 3 3 3 3 7 3 3 3 3 3 3 3 3 3 1 3 2 2 2 ",
"{.Q.x.s.u.$.+.{ [ ' ' ] ^ ^ ^ ^ ^ ^ ^ ^ ^ ^ ' ' ' ' ' ' ' ' ' ' ' +.+.+.+.+.+.+.+.+.+.+.+.+.+.+.+.+.+.+.+.+.+.+.' ' ' ] ^ ^ L L L L ^ ] ^ J L ^ ] R L P P P c 5 v J J v v v w 0 5 2 , , > @ % @ @ # # # # # # # # # # # @ + % g U.s.c g 6 1 9 F w e e 9 9 9 e e e e e e 9 H R |.nXU 1 9 e Z F Z F H H H G G G G G G H H F w w w w w w w w w w w w w w w w w q q q q q q q q q q e e e e e e e e e q q q 9 9 9 7 r r 9 9 9 e B B B B B B H G U Y Y Y Y Y Y R R R R R R R R T T T T T T T T T T T T T T T T T T R T T T  .T T T T T T T T T T T T R T R R T T T T R R R R Y U G H H H H H H F F F F Z B B B B B B B B B B B w e e e e e e e e e e e e w w w w w w w w B B B B D D F F F F F Z B B B B B B B w B B w w Z Z F F F F F H H G G G Y R R P J G G G G G G J G G G G G G G U X.#.m.s.s.T.aXuX>XN j.K.K.w.5.u.I.8 3 r 1 1 1 2 1 3 3 3 3 5 h F 9 1 3 3 3 3 3 3 5 9 5 5 5 3 9 9 9 9 9 9 9 9 0 9 9 9 0 0 0 0 0 9 9 9 0 0 0 0 9 9 0 9 e e e e e e e e 0 0 0 0 e e e e e e e e 0 0 0 0 0 0 0 0 0 0 9 9 9 9 0 0 9 9 9 9 0 0 0 0 9 9 9 9 9 9 0 0 e e F U h 0 9 9 7 7 7 9 9 9 9 9 7 9 9 7 7 3 3 7 3 3 3 3 3 3 3 3 3 3 3 3 3 3 3 3 3 3 3 3 3 1 3 1 2 2 ",
"eX|.}././.U.x.%.+.+.{ ' ^ ^ ^ ^ ^ ^ ^ ^ ^ ^ ' ' ' ' ' ' ' ' ' ' ' ' +.+.+.+.+.+.+.+.+.+.+.+.+.+.+.+.+.+.+.+.+.+.+.' ' ' ^ ^ ^ ^ L L L ] ] L J ^ ] ] R L P L J 0 0 c J J J H v v h 0 0 9 3 3 3 3 2 % # # # # # # # # # # @ @ - h I.m.c g 3 3 0 w w 0 9 9 9 9 9 9 e e e e B e G R Y./.Y 7 7 9 e e e w F H H H H H H F D w w e e e w e e e e e e e e e e e q q e e q e e e e e e e e 9 9 9 9 9 9 9 9 9 r r 9 r r r r 9 V B B Z H H G G G U U Y R R Y R R R R R R R R R R R R T T T T T T T T T T T T T T T T  .R R T T  . .T T T T T T T T T T T T T T T T T T T T T T T T T R Y U U U U U U G G G H H F Z F F F Z Z B B B B B B w w w w w w w w w w w w e e e e e e e w w w w w w B B B B B B B B B B B B B B B B B B B Z D F F F H H G G G Y G G J G J J J G G G G G G G G H H H G G X.s.I.s.s.v.&XfXhX5.j.K.K.w.5.p.U.3 7 r 1 1 1 1 1 3 3 1 3 5 F H 0 3 9 9 9 9 9 9 9 9 5 5 3 3 5 5 9 9 9 9 9 9 0 0 9 9 0 0 0 0 0 0 9 9 0 0 0 0 0 0 0 0 0 0 0 0 0 0 0 0 0 0 0 0 0 0 0 0 0 0 0 0 9 0 0 0 9 0 0 0 0 0 0 0 0 0 0 0 9 9 9 9 0 0 0 0 0 0 0 0 9 0 9 9 0 e F Y h 0 9 9 7 7 9 9 9 9 9 9 9 9 9 5 3 3 3 3 3 3 3 3 3 3 3 3 3 3 3 3 3 3 3 3 3 3 3 3 1 1 3 3 2 2 ",
"eXeX6X|./.Q.U.I.s.u.+.+.^ ^ ^ ^ ^ ^ ^ ^ ^ ^ ^ ^ ^ ^ ' ' ' ' ' ' ' ' ' ' +.+.+.+.+.+.+.+.+.+.+.+.+.+.+.+.+.+.+.+.+.' ' ' ] ^ ^ ^ ^ L L ^ ^ ^ J ^ ] ] ] R L L P v 0 v P J J G J c H H H c h h h h 0 3 < % @ @ @ @ @ @ @ @ @ @ - g I.I.c j 3 5 e w e 9 r r 9 9 9 9 9 9 e e e w w Z H Y =.}.U 9 9 e 0 0 e w w w w w w w w e e e e e e e e e e e e e e e e e e e e e e e 9 9 9 9 9 9 r r r r 9 9 9 9 r r r r r r 7 7 9 B F G G G Y Y Y Y Y Y Y Y R R R R R R R R R R R R R R T T T T R T T T T R T T T T T T  . .R R T T  .T T T T  .T T T T T T T T T T T T T T T T T  .T  .T T R R R R R Y Y Y Y Y U G H H H H H H F F Z Z B B B B w w w w w w w w B B B w w e e e e e w w e e w w w w w w w B B B B B B B B B D B B B B B F F F F H G G G G G G H G G G G G G G G G G U G G H H H G G O.I.I.s.s.v.E.yXjXw.j.K.K.k.5.i.U.3 7 r 1 1 1 1 1 3 3 1 3 5 F H h 9 0 0 0 9 9 9 9 9 9 3 3 3 3 3 9 9 0 0 9 9 0 0 0 0 0 0 0 0 0 0 0 0 0 0 0 0 0 0 0 0 0 0 0 0 0 0 0 0 0 0 0 0 0 0 0 0 0 0 0 0 9 0 0 0 9 9 9 0 0 0 0 0 0 0 0 0 9 9 9 9 0 0 0 0 0 0 0 0 9 0 9 9 0 0 H Y w 0 9 9 9 9 9 9 9 9 9 9 9 9 9 9 5 3 3 3 3 3 3 3 3 3 3 3 3 3 7 3 3 3 3 3 3 3 3 3 3 3 3 3 2 2 ",
"6X2X'./.}.Q.I.m.s.%.{ ' ' ' ^ ^ ^ ^ ^ ^ ^ ^ ' ^ ^ ^ ' ' ' ' ' ' ' ' ' ' +.+.+.+.+.+.+.+.+.+.' ' +.+.+.+.+.+.+.' +.' ' ' ' ] ^ ^ ^ L L ^ ^ ] P ^ ] ] ] ] ^ ^ L P v v L P J J J J J J J J H H H H F h 0 3 3 3 5 5 5 5 9 9 9 3 0 v s.U.c j 0 3 9 9 r 1 1 r 7 9 9 9 9 9 9 e e w w w w F Y *.|.O.e e 0 0 0 0 0 0 0 0 e 0 9 9 9 9 9 9 e e e e e e e e e e e e e e e e e e e 9 9 9 9 r r r r r 9 9 r r 1 r 7 e B B H H G Y Y Y Y Y Y Y Y Y Y Y R R R R R R R R R R R R  . .T T T T T T R T T T R R R T T T T T T T T R T T  . . .T T T T T T T T T T T T T T T T T T T T T  . .T T R R R R R R R R R R Y Y Y G G G G G G H H F F Z B B B B B B B B B B B B B B B B B B B B B w w w w w w w w w w w B B B B Z B Z F F F F B F F F F H H H H H G G G G H H H G G G G G G G G Y G G H H H H Y R s.U.U.s.I.~.tXNXF.j.K.K.k.5.p.Q.8 0 w 0 0 6 6 6 6 0 0 0 0 H c c U Y Y G h 0 0 0 0 0 0 0 0 0 0 0 0 g g g g g g g g g g g g h h h h g g g g h h h h h h h h h h h h h h h h h h h c c c c c h h h h h h h h h h h h h h h h w w h h h h h h h h h h h h h 0 h H G P G h h h h h h h h h h w 0 0 0 0 0 0 g g 0 0 0 0 0 0 0 0 0 0 0 0 0 0 0 0 0 0 0 0 0 0 0 0 3 3 ",
"6XeXeXU.I.m.x.s.x.u.%.+.{ ' ' ^ ^ ^ ^ ^ ^ ^ ^ ^ ^ ^ ' ' ' ' ' ' ' ' ' ' ' ' ' +.+.+.+.+.+.+.+.+.+.+.+.+.+.+.+.' +.' ' ' ' ] ] ^ ^ ^ ^ ] ^ ] P ^ ] ] ] ] ] ^ L L c v P L P P P P J J J J J J J J H h 0 5 6 0 0 0 0 0 0 w 0 0 g c u.Q.b j g 3 1 1 1 1 1 r 7 9 9 9 9 9 9 9 e w w w F F H U U G F B w w 0 0 0 0 0 0 9 9 9 9 9 9 9 9 9 9 9 9 9 9 9 9 9 9 9 9 9 9 r r r r r r r r r r r r r r 9 9 9 9 e B H H G G U U Y Y R R R R R R Y Y R R R R R R R R R R R R R R  . . .T T R T T R T T T R T R T T T T T T T T R T T  . .T T T  .T T T T T T T T T R T T T T T T T T  .T T T T T T R R T T T T T T R Y Y Y Y Y Y Y Y G G H H F F F F F F F F F F F F F F F F F F F F F Z Z Z B B B w w w w w B B B B Z Z F F H H F F H H H H H H H H H H G G G G G G G G G G G U G G Y G G H H H G H G %.U./.I.c.(.5XBXH.j.K.K.k.w.i.s.K G G G J J J J J F F F H J H J K Y R Y G J G G G G G G G G G K G K K K K U U U U U U U U U U U U U U U U U U U U P P P P U P U P L L L L U U P P U U U U J J U U U U U U J J J J G J J J J J J J J J J J J J J J J J J J J J U R L J J J J J J J J J J H H c c c c c H H c c F F F F F F h Z Z Z F F F F Z h h h h h h h h h ",
"}.2XVXVX|./.m.u.u.%.{ ' +.{ ' ` ^ ^ ^ ^ ^ ^ ^ ^ ^ ^ ] ' ' ' ' ` ' ' ' ' ' ' +.+.+.+.+.+.+.+.+.+.+.+.+.+.+.+.+.+.+.' +.' ' ' ] ] ] ] ^ ] ^ ' L ^ ] ] ] ] ] ] ^ L P v J P L L L L P P P J J J J J J v 0 0 0 h h h w 0 0 w h h h J %./.b j h 3 < 2 1 1 1 r r 9 9 9 9 9 9 e e w w Z F H F H H H H H H w w w 0 0 0 0 0 9 9 9 9 9 9 9 9 9 9 9 9 9 9 9 9 9 9 9 9 9 r r r 9 9 r r r r r r r q q e w B F H U Y Y Y Y R Y Y Y R R R R R R R R R R R R  . .R R R R R R R T T T T T R R R T T T T T T T  .T T T T T T T T T T T T T  .T T T T T T T T T T T R T T T T T T T T T T T T T T T T T T T T T T T T T T R R R R T R R Y Y Y Y G H H H H H H F H H H H H H H H H H H H H H F F F F B w w w w w w w B F F F F F H H H H H H H H H H H H G H G G G G G G G G G G U U Y Y Y Y G H H H U Z G X.s.|./.m.(.$XsXbXj.K.K.k.w.i.s./ ^ T R R R R L L Y L L L L J J J R / ^ R L L R R ^ R ^ ^ ^ ^ ^ ^ ^ ^ ^ ^ ^ ^ ^ ^ ^ ^ ^ ^ ^ ^ ^ ^ ^ ^ ^ ^ ^ ^ ^ ^ ^ ^ ^ ^ ^ ^ ^ ^ ] ] ^ ^ ^ ^ ^ ^ ^ ^ ^ ^ R L ^ ^ ^ ^ ^ ^ L L L L L L L L L L L L L L L L L L L L R R L L L J U ^ ] L L L L P P P P P P P U J J J J U U U J J U U U U U U U K U U U U G G G G G J J J J J H J ",
"/.{./.6XwX6X|.}.U.m.x.x.%.+.{ ` ^ ^ ^ ^ ^ ^ ^ ^ ^ ^ ' ' ^ ' ' ` ' ' ' ' ' ' +.+.+.+.' ' ' ' +.+.+.+.+.+.+.+.+.+.+.' ' +.' ' ' ' ] ] ] ' ' ' L ^ ] ] ] ] ] ] ] ^ L v c P L L L L L L L P P P P P J c h 0 h c c v h h h c c c c J @.}.c j j 3 < < 1 1 1 1 r r 9 9 9 9 9 e w B w Z F F H G G U G F F F F B w w w w w e e 9 e 9 0 0 e e e 9 e e e e e e e e e e 9 9 e e e e 9 r r r r q B F H H U Y Y R R R R R R R R R R R R R R R R R R R R R  . .T R R R R R R T T T T T R R R T T T T T T T T T R T T T T T T T T T T T T T T T T T T T T T T T R R T T T T T T T T T T T T T T T T T T T T T T T T T T T T T T  .T T T T R R Y Y Y U U G G H H H H H H H H H H H H H H H H H H F F B B w w w w w w B Z F F H H H H G H H H H H H G G G G G G G G G G G G G U U Y Y Y Y H H H G H Z R R O.{.|.U.(.$X5X<Xj.K.K.k.5.a.I./ / / ^ ^ R R L L L L L ^ ^ L P L L ^ / ^ ^ ^ ^ ^ ^ ^ ^ ^ ^ ^ ^ ^ ^ ^ ^ ^ ^ ^ ^ ^ ^ ^ ^ ^ ^ ^ ^ ^ ^ ^ ^ ^ ^ ^ ^ ^ ^ ^ ^ ^ ^ ^ ^ ^ ' ' ' ' ] ] ] ] ] ] ] ] ^ ^ ^ ^ ] ] ^ ^ ^ ^ ^ ^ ^ ^ ^ ^ L L L L ^ ^ ^ ^ ^ ^ ^ ^ ^ ^ ^ ^ ^ J J ^ +.] ^ ^ ^ ^ L L ^ ^ ^ L L L L L L L L L L L L L L P L Y Y L L L Y U U U U U U U L L P U U K ",
"4 |.|./.Q.}.{.}.}.U.m.x.s.%.+.' ] ^ ^ ^ ^ ^ ^ ^ ^ ^ ^ ^ ] ] ' ' ' ' ' ' ' ' ' +.+.+.' ' ' +.+.+.+.' ' ' ' ' +.+.+.+.+.' ' +.+.] ^ ] ] ' ' ] L L ] ] ' ' ] ] ] ^ ] c v P L L L L L L L L L L L L P c v h c H F c c v v c H H J J +./.j g g 3 < < 1 1 1 1 1 r r r 7 9 9 e w Z B F F H H H H H H H H H H F F F D B B w w w w e e w w e e e e e e e 9 9 9 9 e e e e 9 9 e e e e e B B F G U U U Y R R R R R R R R R R R R R R R T T R R R R R R R R T T T R R R T T R T T T T R R R T T T T T T T T  . .T T T  . . .T T T T T T T T T T T T T T T T T T T T T T T T T T T T T T  . . . .T T T T T T T T T T T T T T T T ^ ^  . . . .R R R Y Y U U U G G H H H H H H H H H H H H G G G H H H H B w w w w w w w B H H H H H G G G G G G G G G G G G G G G G G G G G G U R R Y G F H G G H h h ^ Y.eX}.T.].5XiXN K.K.J.5.a.T.! X./ / / ' ] ' ' ^ ^ ^ ^ ^ ^ L L ^ ' ' ^ ^ ^ ' ' ' ' ' ' ' ' ' ' ' ' ' ' ` ` ` ` ` ` ` ` ` ` ` ` ` ` ' ' ' ' ' ' ' ' ' ' ' ' ' ' ` ` ` ' ' ' ' ' ' ' ' ' ` ` ` ` ` ` ` ` ] ] ^ ] ^ ^ ^ ^ ] ] ] ] ] ] ` ` ` ` ` ` ` ` ` ` ^ J J ^ { ^ ^ ^ ^ ^ ^ ^ ^ ^ ^ ^ ^ ^ ^ ^ ^ ^ ^ ^ L L L L L R R R L L L R R R R R Y Y L L Y Y Y Y L L ",
"% J eXeX|.U.m.U.U.I.m.m.u.%.+.' ' ] ^ ^ ^ ^ ^ ^ ^ ^ ^ ^ ] ] ] ] ' ' ' ' ' ' ' ' ' ' ' ' ' ' +.+.+.' ' ' ' ' +.+.+.' +.' +.+.+.^ ] ] ' ] +.^ L L ] ] ' ' ] ] ] ] ] J h P L L L L L L L L L L L L P c v v c H H c c v c c J J J c [ /.g g g 3 2 < 2 2 1 1 1 1 r r 7 9 e e w Z Z F H H H H H H H H H H H H H H F F F D B B B B B B w w e e e e e e e e e e e e e e e e e w B F H G U E Y R Y Y Y R R R R R R R R R R R R R R R T T R R R R R R R R T T T R R R R R T T T R R R T R T T T T R R T T T T T T T  . . .T T T T T T T T T T T T T T T T T T T T T T T T T T T T T T T  . . .T T T T T T T T T T T T T T T T ^ ^  . . . .T T T T R R R R Y Y U G G G G G G G G G G U U U U U U U G G H F w w w e e w w B F F H H G G U U G G G G G G G G G G G G G G U U Y R R U G H G U U H F Z G #.|.|.T.'.5XiXw.J.K.J.5.a.s./ / / ) ) ' ] ' ' O.' ] ^ ^ ^ ^ L ^ ' ' ^ ^ ^ ' ' ' ' ' ' ' ' ' ' +.+.+.+.' ' ' ' ' ' ' ' ' ' ' ' ' ' [ [ [ [ [ [ [ [ [ [ [ [ [ [ ' ' ' ' ' ' ' ' ' ' ' ' ' ' ' ' ' ' ' ` ' ' ' ' ` ` ` ` ` ` ' ' ` ' ' ' ' ' ' ' ' ' ' ' ` P P ` +.' ^ ' ^ ^ ^ ^ ^ ^ ^ ^ ^ ^ ^ ^ ^ ^ ^ ^ ^ ^ ^ ^ L R R R ^ ^ ^ R R R R R L L L L R R R R L L ",
"$ o %.eX6XeX6X/.%.%.%.%.%.%.+.+.' ' ` ^ ^ ^ ^ ^ ^ ^ ] ] ] ] ] ] ' ' ' ' ' ' ' ' ' ' ' +.+.+.' ' ' ' ' ' ' ' +.+.' ' +.' +.+.' ] ] ' ] ^ +.^ L L ] ] ] ' ] ] ] ] ' L h J L L L L L L L L L L L R L J c v H J H H c c c H J J J c ` }.d g g 7 2 < 2 1 1 1 1 1 r r 9 9 e w Z F F H H H H H H H H H H H H H H H F F F F B B F F F B w w e 0 e e e e e w w w w w w w B B F H G E Y Y Y R R R Y Y R R R R R R R R R R R R R R R R R T R R R R T R R R R T R R R R R R T T T T T T T T T T T T R T R T T T T T T T T T T T T T T T T T T T T T T T T T T T T T T T T T T T T T T T  . . . . . .T T T T T T T  .T T T T  . .^ ^ X.X.X.X.T T T T T T T T T R Y Y U U U U U U U U Y Y Y Y Y Y Y Y Y Y U G H F w w w w w w w B F H H H G G G G G G G G G G G G G G U U U U Y R R Y G G G R Y G H H G / I.|.}.~.1XxXj.J.K.J.w.f.(./ ' ' ) ) ' ' ' ' ' ' +.' ^ ' ^ L ^ ' ' ^ ^ ^ ' ' ' +.+.+.+.+.+.+.+.+.+.+.+.+.+.+.+.+.+.+.{ { { +.{ +.+.+.+.+.+.+.+.+.+.+.+.+.+.+.{ { { { { { { { { { { { ' ' { { { { ' ' ' ' ' ' ' ' ' ' ' ' ' ' ' ' ' ' ' ' ' ' ' ' { ' ' L L ' %.' ' ' ' ' ' ' ' ' ' ' ' ^ ] ] ^ ^ ^ ^ ] ] ^ ^ ^ ^ ^ ^ ^ ^ ^ ^ ^ ^ R R ^ ^ L L R R R R R L ",
"% $ % Y.nXeXnXmXeX{.m.u.+.%.%.%.+.' ' ] ^ ^ ^ ^ ^ ^ ^ ' ] ] ] ] ' ' ' ' ' ] ] ] ' ' +.+.+.' ' ' ' ' ' ' ' ' +.' ' ' ' +.+.+.' ] ] ' ] ] +.^ L L ] ] ] ] ] ] ] ] ' ] v P L L L L L L L L L L L L L P J v J J J J H c v J J J J J ' }.d j g 3 < < 2 2 1 1 1 1 r r 9 9 e w Z F F H H H H H H H H H H H H H H F F F F F F F F F F F w w 0 9 e e e e w w B B B B B F H G U E R R R R R R R R R Y R R R R R R R R R R R R R R R R T T R R R R T R R R R R R R R R R R T T T T T T T T T T T  .T R T T T T T T T T T T T T T T T T T T T T T T T T T T T T T T T T T T T T T T T T  . . . . . .T T T T T T  . .T T ^ T  . .^ T  .X.X.X.^ T T T T T  .-. .T T R R R Y R R R R Y Y Y Y Y Y Y Y Y Y Y Y Y G G H H F w w w w w w D F H H G G G Y Y Y U U U U G G G U U U U Y R R R Y G Y R R U G H h P %.|.{.'.-XiXj.j.K.J.w.V.2X! ' / ) [ ' ' ' ' +.+.+.' ' ' ' ^ ^ ' ' ^ ^ ^ ' ' +.+.+.+.+.+.+.#.@.@.#.#.+.@.+.+.+.@.+.@.+.+.+.+.+.+.+.+.@.@.@.@.+.+.@.+.@.@.@.@.+.+.+.+.+.+.+.+.+.+.+.+.+.+.+.+.+.+.{ { { { ' ' ' ' ' ' ' ' { { { { { { +.+.{ { { { { { ' L L ' %.' ' ' +.+.+.' +.+.' ' ' ' ` ` ' ' ' ' ] ] ] ] ^ ^ ^ ] ^ ^ ^ ^ ^ ^ ^ ^ ^ ^ ^ ^ ^ ^ ^ R R L ",
"# @ + + /.eXeXeXeX6X|.}.I.m.x.u.$.+.[ ` ' ^ ^ ^ ^ ^ ^ ^ ] ] ] ] ] ] ] ] ' ' ' ] ' ' +.' +.' ' ' ' ' ' ' ' ' ' ' ' ' ' +.+.+.' ] ' ' ] ' ' ] L ^ ' ' ' ' ' ] ] ] ] ] c P L L ^ L L L L L L L L L R L G v J J J J J J h J J J J J ' }.d j g 3 < < < 2 2 2 1 1 1 r 9 9 e w Z H F H H H H H H H H H H H H H F F F F H H F F B B w w w e e 9 e e w w B B F F F H H G U Y R R R R R R R R R R R R R R R R R R R R R R T T T T T T T T R R R R T T T T R R R R R R R R T  . .T  .T T T  . . . .T T T T T T T T T T T T T T T T T T T  .T T T T T T T T T T T T T T T T T  . . .T T X. . . . . .T T T T T T  . . . .X.X.X.X.-.-.-.-.-.-.^ ^ -.-.-.-.O.O.-. .T T T T T T T T R R R R Y Y Y Y Y Y Y Y Y Y R Y Y G G G H F h w w w h F F H H G G Y Y Y Y Y U U U U U U Y Y Y R R T R H R ^ T H G H G H ' /.2X].oXxXj.J.K.K.w.a.'.[ ' O.[ [ ` ' ' ' +.+.+.+.+.' ' ^ ^ ' ' ' ^ ^ ' [ #.+.+.+.%.%.%.%.$.$.$.$.%.$.@.%.@.@.@.@.@.@.@.@.@.@.@.@.$.$.$.$.@.@.@.$.$.$.$.@.@.@.@.@.@.@.@.@.@.@.@.@.+.+.+.+.+.+.+.+.+.+.{ { { { { { { { +.+.+.+.+.+.+.+.+.+.+.+.+.+.[ ^ L { @.[ [ +.+.+.+.+.+.+.+.+.' ` ' ' ' ' ' ' ' ' ^ ^ ^ ^ ] ] ] ^ ^ ^ ^ ^ ^ ^ ^ ^ ^ ^ ^ ^ ^ ^ R L ",
"# @ @ + < |.eXeX|.}./.U.U.I.x.u.u.%.{ [ ` ' ^ ^ ^ ^ ^ ^ ] ] ] ] ] ] ] ] ' ' ] ' ' +.' ' ' ' ' ' ' ' ' ' ' ' ' ' ' ' ' ' +.' ] ' ' +.] +.' ^ ^ ] ' +.' ' ' ' ] ] ' ] c J L L L L L L L L L L L L T L J 0 J J J J J J h J G G J J ' }.d j g 4 < , , < 2 2 1 1 1 r 9 9 e w Z H F H H H H H H H H H H H H H F F F H H H F D w w w w e e e e e w B D F F H G G U Y Y Y Y R R R R R R R R R R R R R R R R R R R R R R T R T T R T T T R R R R R R R R R R R R R R R R T  . .T  . .R T R R R R R R R R  .T T T T T T T T T T T T T T  .T T T T T T T T T T T T T T T T T  . . .T T X. . . . .X.T T T T T ^  . . . .X.X. . .-.-.-.-.-.-.X.X.-.-.X.X.O.O.X.-.T T T -.-.-.-.-.-.-.T R R Y Y R R R Y Y Y R R R R Y Y Y G G H H F F h w w F F H H G U Y Y Y Y Y Y U Y Y Y Y Y Y R T R G Y ^ T U G H H F L x.6X*XoXxXe.k.K.K.w.f.'.[ [ ' [ [ ` ' ' ' +.+.+.+.+.' ' ^ ^ ^ [ ' ^ ^ ` +.@.%.%.%.%.%.%.%.%.%.%.%.$.$.$.$.$.$.$.$.%.%.%.%.$.$.$.%.%.%.%.%.%.%.%.%.$.$.%.$.$.@.@.@.@.@.@.@.@.@.@.@.+.+.@.@.@.@.+.+.+.+.+.+.{ { { { { { +.+.+.+.+.+.+.+.+.+.+.+.+.+.[ ^ P +.@.[ +.+.#.+.+.+.+.+.+.+.' ` ' ' ' ' ' ' ' ' ^ ^ ^ ^ ] ] ] ] ^ ^ ^ ^ ^ ^ ^ ^ ^ ^ ^ ^ ^ ^ R L ",
"# # # @ $ v |.6XnX6X|.}.I.m.u.%.%.%.@.[ ` ` ' ^ ^ ^ ^ ^ ^ ^ ^ ^ ^ ^ ] ] ] ] ' ' ' ' ' ' ' ' ' ' ' ' ' ' ' ' ' ' ] ' ' +.' ] ' +.' ' ' *.] ^ ^ ' +.+.+.+.' ' ` ] ' ] J J ^ ^ ^ ^ ^ L ^ ^ L L ^ ^ R L G 0 P P J J J J h U U U J J ` }.d g g 4 < , , < 2 1 1 1 1 r 9 e w B F H H H H H H H H H H H H H H H H H H H H F F w w w w w w w w w B F F H G G U U Y Y Y Y Y Y R R R R R R R R R R R R R R R R R R R R R R R R R R R R T T R R R R R R R R R R R R R R R R R R R R R R R R R R R R R R R R T T T T T T  . .T T T T T T  . .T T T T T T T T T T T T T T T T T T T T ^ ^ ^ ^  . .X.X.^ ^ T T ^ ^ X.^ X.X.X.X.-.^ -.^ X.X.X.X.X.X.X.X.O.O.O.O.O.O.-.T -.-.X.-.O.O.-.-.^ ^ T T R R T R R Y R R R R R R R R R Y Y Y G H H F h w h F F H G U Y Y Y Y Y Y Y Y Y Y Y Y R T R G G O.R T G G F h G %.{.2XoXiXJ.j.K.K.w.a.'.[ [ [ [ [ ' ' +.+.+.+.+.+.#.+.' ' ^ ^ ' @.^ ' [ +.%.%.%.%.%.%.%.%.y.y.y.y.%.%.%.%.%.%.%.%.%.%.y.y.%.%.%.%.u.u.u.u.%.%.%.y.y.y.%.%.%.%.$.$.%.%.%.%.%.%.%.%.%.%.%.%.%.%.@.@.@.@.+.+.+.+.+.+.+.+.@.@.@.@.@.@.+.+.+.+.+.+.+.+.[ ^ P +.+.+.+.#.#.+.+.+.+.+.+.+.[ ' ' ' ' ' ' ' ' ] ] ^ ^ ^ ^ ] ] ^ ] ^ ^ ^ ^ ^ ^ ^ ^ ^ ^ ^ ^ ^ ^ R ",
"# # o + o & U |.eXeXeXeX}.Q.I.m.%.u.%.+.[ ' ` ' ^ ^ ^ ^ ^ ^ ^ ^ ^ ^ ] ] ] ] ] ] ' ' ' ' ' ' ' ' ' ' ' ' ' ' ' ' ' ' ' ' ' ' ' +.+.' ' x.^ ^ ] +.%.%.%.%.+.' ' ] ' ] J J L ^ ^ ^ ^ L ^ ^ L L ^ ^ T L G 0 P P J J J J c U U U J J ^ |.j d 6 4 1 , < < 2 1 1 1 r r 9 e w B F H H H H H H H H H H H H H H H H H H H F B w w e w w w B D F F F H H G U U Y Y R Y Y Y Y Y R R R R R R R R R R R R R R R R R R R R R R R R R R R R R R R R R R R R R R R R R R R R R R R R R R R R R R R R R R R R R R R T T T T T T T T T R R R R R R T T T T T T T T T T T T T T T T T T T T ^ T ^ T  . .X.X.^ ^ ^ ^ ^ ^ X.^ ^ ^ X.X.-.^ ^ ^ X.X.X.X.X.X.X.X.O.O.O.O.O.O.O.-.O.O.O.O.O.O.O.O.O.X.-.T T T ^ T R R R Y R R T T T R R R T T R Y Y G H H Z h h F H H G U Y Y Y Y Y Y Y Y Y Y R T R Y G O.R O.G G h h J +.Q.2X@XiXJ.k.K.K.w.f.'.[ [ [ ` ` ' ' +.+.+.+.+.+.#.#.+.+.^ ^ ' %.^ ` +.+.%.%.%.%.%.%.%.%.y.%.u.u.y.y.u.u.u.u.u.u.u.u.u.u.y.y.%.%.y.u.u.u.%.%.%.y.y.y.%.%.%.%.$.$.%.%.%.%.%.%.$.$.%.%.%.%.%.%.@.@.@.@.+.+.+.+.+.+.+.+.+.+.+.+.+.+.+.+.+.+.+.+.+.+.[ ^ P +.+.[ [ +.#.+.+.+.+.+.+.+.[ ' ' ' ' ' ' ' ' ] ] ^ ^ ^ ] ] ^ ] ] ] ^ ^ ^ ^ ^ ^ ^ ^ ^ ^ ^ ^ ^ R ",
"o o o o o & ; ^ |.eXeXeXnX|.}.U.I.s.u.%.+.[ ' ` ^ ^ ^ ^ ^ ^ ^ ^ ^ ^ ^ ^ ^ ^ ^ ' ' ' ' ' ' ' ' ' ' ' ' ' ' ' ' ' ' ' +.' ' ' ' +.' +.%.%.^ +.^ %.x.s.%.%.+.+.' ' ' ] P J ^ ^ ^ ^ ^ ^ ^ ^ ^ ^ ^ ^ ^ L J 0 P J J J J J c P U U J J ^ |.b d 6 4 3 < < < < 1 1 r r r 9 e w B F H H H H H H H H H H H H H H H G G G H F B w e e w Z F F H H H H G U U Y Y R Y Y Y R R R R Y Y R R R Y Y Y Y Y Y R R R R R R R R R R R R R R R R R Y Y Y Y Y Y R R R R R R R R R R R R R R R R R R R R R R R R R R R R T T T R R R R R R R R R R R R R T T T T  . . . . .T T T T  . . .T T T T T T T T T T T T ^ ^ ^ ^ ^ ^ -.-.X.X.X.X.X.X.X.X.-.-.X.X.-.-.O.X.X.X.O.O.O.O.O.O.O.O.O.O.O.O.O.O.O.O.O.X.X.O.^ O.-.T R R T T T T ^ T T T T T T T R R R R U G H F F w h G U U Y Y R R R Y Y Y R T R ^ G ^ =.O.R H F F J ' m.{.5XiX<Xj.K.K.e.f.~.[ [ [ [ [ { { +.+.+.@.@.@.+.#.+.+.^ ^ ' %.^ ` #.@.%.%.%.%.y.y.u.u.u.u.u.u.u.u.u.u.u.u.u.u.u.u.u.u.u.u.u.u.u.u.u.u.u.u.u.u.u.u.u.%.y.%.%.%.%.%.%.%.%.%.y.%.%.%.$.%.%.%.@.@.@.@.@.@.@.@.@.@.@.@.@.@.@.@.@.%.%.%.@.@.+.+.+.+.{ ` P +.$.{ [ +.#.#.#.+.#.+.+.+.+.[ [ [ [ [ [ ' ' ' ' ' ' ' ' ' ' ' ' ' ^ ^ ^ ^ ^ ^ ^ ^ ^ ^ ^ ^ ^ ^ ",
"o o o o o o & ; %.|.eXeX|.}.}.}.m.x.u.$.+.[ ' ` ` ^ ^ ^ ^ ^ ^ ^ ^ ^ ^ ^ ^ ^ ' ' ' ' ' ' ' ' ' ' ' ' ' ' ' ' ' ' ' ' +.' ' ' ' +.' L U.+.] +.' x.m.x.*.%.%.+.+.+.' ' L J ] ' ' ' ' ' ' ' ] ^ ^ ^ ^ L J 0 P P J J J c c L L U J J ^ }.K d 6 4 0 9 < < < 2 r r r r 0 w w F H H H H H H H H H H H H H H H H H H H F Z B w w B F H H G G U U U Y Y Y Y Y R R R Y R Y R R Y Y R R R Y Y Y Y Y Y Y R R Y Y Y Y Y Y Y Y Y Y Y Y Y Y Y Y Y Y Y Y Y Y Y R R R R R R R R R R R R R R R R R R R R R R R R R R R R R R R R Y R R R R R R R R R R R T T T T T  .T T T T  . . .T T T T T T T T  . . . .^ ^ ^ ^ ^ X.-.-.X.X.X.X.X.X.X.X.X.X.X.X.-.X.O.X.X.X.X.O.O.O.O.O.O.O.O.O.O.O.O.O.O.O.O.O.O.O.O.O.O.O.O.^ ] ^ T T T T T T T T T T T T T -.^ R U G H h w w H G U Y R R R Y Y Y Y R T T U R #.O.O.U F F H ^ s./.5XtX<Xw.K.K.e.f.].} { { } +.+.+.%.%.%.%.%.%.%.%.#.#.' ^ ' %.` ` #.%.u.u.u.u.u.u.u.u.s.s.s.s.s.s.s.s.s.s.s.s.s.s.s.s.s.s.s.s.s.s.s.s.s.s.s.s.s.s.s.s.s.s.u.u.u.u.u.u.u.u.s.u.u.u.u.u.u.u.u.u.u.y.%.%.%.%.%.%.%.$.%.%.%.%.%.%.%.%.%.%.%.%.%.%.@.+.P { u.@.{ @.%.%.%.%.%.#.#.+.+.+.+.+.+.{ { [ ' ' ' ' ' ' ' ' ' ' ' ' ' ' ' ' ' ' ^ ^ ^ ^ ^ ^ ^ ^ ",
"o o o o o $ % o < U.}.eXeX{.I.m.I.x.u.%.%.{ [ [ ` ^ ^ ^ ^ ^ ^ ^ ^ ^ ^ ^ ^ ^ ' ' ' ' ` ' ' ' ' ' ' ' ' ' ' ' ' ' ' +.+.' ' ' ' +.^ +.U.] ' ] %.U.U.I.x.x.*.%.%.%.+.+.L J +.+.+.+.+.+.+.+.+.' ] ^ ^ R J h P P G J J H H L L P J J L U.K d d < 0 h < < < 2 r r r r e w B F H H H H H H H H H H G H H H H H F F Z w B Z F F H H G G G G U U Y Y Y Y Y Y R R R Y Y Y R R R Y R R R R Y Y Y Y Y Y Y Y Y Y Y Y Y Y Y Y Y Y Y Y Y Y Y Y Y Y Y Y Y Y R R Y Y Y Y R R R R R R R R R R R R R R R R R R R R R R R R R R Y Y Y Y R R Y Y Y Y R R R R R R R R R T T T T T  . .T T  . .T T  . . . . . . . .^ ^ X.X.X.X.-.-.-.X.X.-.X.X.X.X.X.X.X.X.O.O.X.X.O.O.O.O.O.O.O.O.O.O.O.O.O.O.O.O.O.O.O.O.O.O.O.O.O.O.O.O.] ^ T T ^ ^ ^ ^ ^ ^ ^ ^ -.O.X.X.^ T Y G F h Z Z H G Y R R R Y Y Y R ] R R P O.=.=.^ H H H U +.T.2XrXiXw.K.K.e.N.5Xy.@.@.@.$.%.%.%.%.u.u.u.u.u.%.%.@.` ^ ` @.[ +.$.u.s.s.s.s.s.s.s.s.s.s.x.x.s.s.s.s.s.s.s.s.s.s.s.s.x.x.x.x.x.x.x.x.x.x.x.x.x.x.x.x.x.s.s.s.s.s.s.s.s.s.x.s.s.s.s.s.s.s.s.s.s.s.s.s.s.s.u.u.u.u.u.u.u.u.s.s.s.s.s.u.u.u.%.%.%.u.^ [ s.y.$.u.u.%.%.%.%.%.%.%.%.@.@.@.@.@.+.+.+.+.+.+.+.+.+.+.+.+.+.+.+.+.+.' +.+.+.+.+.+.' ' ' ' ",
"o o o o o o o & $ 6 }.{.eXVXwX}.I.x.u.u.$.+.{ [ ' ` ] ^ ^ ^ ^ ^ ^ ^ ^ ^ ^ ^ ' ' ' ' ' ' ' ' ' ' ' ' ' ' ' ' ' ' ' +.' ' ' ' ' +.L /.+.^ +.^ s.}.U.U.m.x.x.s.%.%.+.+.^ P #.#.#.#.%.%.%.%.+.+.+.' ' ] L v P J G J J c F L L P J J P m.K j g < 0 H < < 2 2 1 r r r e B F H H H H H H H H H H H G G G G H F Z w w w Z F H H G G U U U U U Y Y Y Y Y Y Y Y R Y Y Y Y R R R Y Y Y Y Y Y Y Y Y Y Y Y Y Y Y Y Y U U U U Y Y Y Y Y Y Y Y Y Y Y Y Y Y Y Y Y Y Y Y Y Y R R R R R R R R R R Y Y Y Y Y Y Y Y R R R R R R Y Y Y Y R R Y Y Y Y Y Y R R R R R R R R R R R R R R R R T T T T  . . . . . . .T ^ ^ X.X.X.X.-.-.-.-.X.-.-.X.X.X.X.X.X.X.O.O.O.X.O.O.O.O.O.O.O.O.O.O.O.O.O.O.O.O.O.O.O.O.O.O.O.O.O.O.O.O.O.O.X.X.^ ^ ^ ^ ^ -.-.^ O.O.O.O.O.X.^ ^ R G H Z Z F G Y R R R R Y R T R ^ U T *.*.O.U H J J ' I.#X7XiX1.J.K.w.N.pXy.$.%.$.$.$.%.u.u.u.s.s.s.u.u.u.%.' ^ ` @.#.+.%.s.s.s.s.s.s.s.s.s.x.x.x.x.x.x.x.x.x.x.x.x.x.x.x.x.m.m.m.m.m.m.m.m.m.m.m.m.m.m.m.m.m.m.x.x.x.x.x.x.x.x.m.x.x.x.x.x.x.x.x.x.x.x.s.s.s.s.s.s.s.s.s.s.s.s.x.x.s.s.s.s.s.s.s.s.s.s.^ ` x.s.u.u.u.u.u.u.u.u.u.%.%.%.%.%.%.%.%.%.%.%.%.%.%.+.+.+.+.+.+.+.+.+.+.+.+.+.+.+.+.+.+.+.+.+.",
"# # o o o o X o $ $ J 6X}.{.wXnX}.W.I.m.s.u.+.[ ' ` ] ^ ^ ^ ^ ^ ^ ^ ^ ^ ^ ^ ] ^ ^ ^ ' ' ' ' ' ' ' ' ' ' ' ' ' ' ' ' ' ' ' ' ' ] +.U.' ' %.+./.|.}./.U.I.m.x.s.%.%.%.^ L %.%.%.#.+.%.%.%.%.%.%.%.%.+.^ J L P J J J c H L %.] J J U U./ j j 4 0 U 1 , 1 2 1 1 1 7 e B F H H H H H H H H H H H G U G H H Z w w Z H H H G U U U U Y U Y Y Y Y Y Y Y R Y Y Y Y Y R Y Y Y Y Y Y Y Y Y Y Y Y Y Y Y Y Y Y Y Y Y Y Y U U Y Y U U Y Y Y Y Y Y Y Y Y Y Y Y Y Y Y Y Y Y R R R R R R R Y Y Y Y Y Y Y Y Y Y Y Y Y Y Y R R Y Y Y Y R R R R R R Y Y Y Y R R R R R Y Y R R R R R R R R R T T T T T  .T T  . . . .-.-.X.X.X.X.X.X.X.X.X.X.X.X.X.X.X.X.X.X.O.O.O.O.O.O.O.O.O.O.O.O.O.O.O.O.O.O.#.#.#.O.O.O.#.#.#.#.#.#.=.#.#.O.O.X.^ ^ ^ ^ ^ X.X.O.O.O.O.O.O.O.O.X.Y H w h h H Y R T R R R R R T R R O.*.*.U H G U ^ s.#XsXhX1.J.K.w.C.sXy.y.y.u.u.u.u.u.s.s.s.s.s.s.s.s.s.+.^ %.s.s.u.x.s.s.x.m.I.m.m.m.m.m.m.m.m.m.m.m.m.m.m.m.m.m.I.I.m.m.I.I.I.I.I.I.I.I.I.I.I.I.I.I.I.I.I.I.I.m.x.x.m.I.I.I.m.m.m.m.m.m.m.m.m.m.m.x.x.x.x.x.x.s.s.x.x.x.x.x.x.x.x.x.x.x.x.x.x.x.I.u.P x.I.s.s.s.s.s.s.s.s.s.u.u.u.u.u.u.u.%.%.%.%.%.%.%.%.%.%.%.%.%.%.%.%.%.%.#.#.#.#.#.#.#.#.#.#.",
"# # o o o o o o o $ + ] nX|./.}.|.'.Q.I.s.u.@.{ ' ` ` ^ ^ ^ ^ ^ ^ ^ ^ ^ ^ ^ ] ] ^ ^ ^ ^ ' ' ' ' ] ] ' ' ] ' ' ' ' ' ' ' ' ' ] ' /.*.] ] %.%.{.|././.U.U.I.m.x.s.%.s.^ ^ I.Y.x.s.u.%.%.%.%.%.%.%.s.%.' L R R P P U J J R ^ L J U L I./ k k 4 0 R 0 , 1 2 2 1 1 r e B F H H H H H H H H H H G G G G H F Z B F H G U U Y Y Y Y Y Y Y Y Y R Y Y Y Y R R Y Y Y Y Y Y Y Y Y Y Y Y Y Y Y Y Y Y Y Y Y Y Y Y Y Y Y Y Y Y Y Y Y Y Y Y Y Y Y Y Y Y Y Y Y Y Y Y Y Y Y R R R R R R R R R R R R R R R R R R R R R Y Y Y R Y Y Y Y R R R R R R Y Y Y Y R R R R Y Y Y Y Y Y R R R R R R R R  . .T T T ^  . . . .-.-.X.X.X.X.O.O.X.O.O.O.O.O.O.O.O.O.O.O.O.O.O.O.O.O.O.O.O.O.O.O.O.O.O.O.#.#.#.#.#.#.#.#.=.#.=.#.#.=.=.=.=.=.#.O.O.O.X.^ X.X.O.O.O.O.O.O.#.#.O.O.#.R G H Z F G U R T T R R R T R R O.*.*.^ U U U ^ s.{.sXxX1.J.K.e.C.wXu.p.u.u.u.s.s.s.x.x.x.x.x.s.s.s.s.#.u.%.m.I.y.s.x.s.x.m.I.I.I.I.I.I.I.I.I.U.U.U.U.U.I.I.U.I.Q.U.I.I.U.U.U.U.U.U.U.U.U.U.U.I.I.I.I.I.I.I.I.I.m.m.I.U.U.U.I.I.I.I.I.I.I.I.I.I.I.m.m.m.m.m.m.x.x.m.I.I.m.m.m.m.m.m.m.m.m.m.m.x.I.x.` s.I.x.s.x.x.x.x.x.x.s.s.s.s.s.s.s.s.s.u.u.u.u.u.*.%.%.%.%.%.%.%.%.%.%.%.%.%.%.%.%.%.%.%.%.%.",
"o o o o o o o o o % $ - U.eX6X|.m.m.m.m.x.u.@.+.' ` ] ^ ^ ^ ^ ^ ^ ^ ^ ^ ^ ^ ] ] ^ ^ ] ] ] ] ' ] ] ] ' ' ' ' ' ' ' ' ' ' +.' ] x.U.^ ' +.+.m.|.}././././.Q.U.I.x.s.I.' +././.U.U.x.x.s.%.%.%.%.%.u.%.' U L L L L L J U ^ L L L P ^ x.` c K 4 0 ^ c , 2 2 2 1 1 r w F H H H H H H H H H G G G G H F Z F F F H G U Y Y Y Y Y Y Y Y Y Y R R R R R R Y R Y Y Y Y Y Y Y Y Y Y Y Y Y Y Y Y Y Y Y Y Y Y Y Y Y Y Y Y Y Y Y Y U U U U U U Y Y Y Y Y Y Y Y U Y Y Y Y Y Y Y E E E E Y Y Y Y Y Y Y Y Y Y Y Y Y Y Y Y Y Y Y Y Y Y R R R R R R R R Y Y R R R R Y Y R R R R R R R R R R R R  . .T T T ^ T T  . .-.-.-.-.X.X.O.O.O.O.O.O.O.O.O.O.O.O.O.O.O.O.O.O.O.O.O.O.O.O.O.O.O.O.O.#.#.=.=.=.=.=.=.=.%.=.=.=.=.*.=.*.*.*.*.=.=.#.#.O.O.O.O.O.O.O.#.#.=.=.=.=.*.#.O.U G H F H Y R R R R R T T Y O.*.*.=.^ Y Y ^ u.'.sXfX5.J.bXe.C.wXi.s.s.x.x.x.m.m.m.m.I.m.m.m.x.s.s.@.I.s.I.I.u.c.I.m.m.U.U.U.U.U.U.U.U.Q.Q.Q.Q.Q.T.U.U.T.Q.Q.Q.Q.I.U.Q.Q.Q.Q.Q.Q.Q.Q.Q.Q.Q.Q.Q.Q.Q.Q.Q.U.U.U.I.I.U.Q.T.Q.T.U.U.U.U.U.U.I.I.I.I.I.I.I.I.I.m.m.m.I.I.I.I.I.I.I.I.I.I.I.I.I.I.m.I.I.%.$.U.I.I.I.I.I.I.I.I.I.x.x.x.x.x.x.x.x.x.x.x.x.s.s.%.%.u.s.u.s.u.s.s.u.u.u.u.*.*.%.%.u.u.u.u.",
"o o o o o o o o $ + o $ ; |.eXeX2X{.Q.I.x.u.%.+.` ` ] ] ^ ^ ^ ^ ^ ^ ^ ^ ^ ^ ] ] ] ] ] ] ] ] ] ] ] ] ' ' ' ' ' ' ' ' ' ' ' ' %.|.+.' ' %.+././.}./././././.U.U.I.x.U.' %.6X6X|.|.{.}./.U.x.x.x.x.x.s.+.L ^ ^ L L L P P ' ] ' ^ U ^ s.` c K 4 3 ^ G < < 2 1 1 1 r w F H H H H H H H H H G U G H F B Z F H G G U Y Y Y Y Y Y Y Y Y Y Y R R R Y R R Y Y Y Y Y Y U U Y Y Y Y Y Y Y Y Y Y Y Y Y Y Y Y Y Y Y Y Y Y Y Y Y Y U U U U U U U U Y Y U U Y U U G G G G G G G I I I I I G G G I I G G G U U U Y Y Y Y Y Y Y Y Y Y Y Y Y Y Y Y R R R R R R R R R R R R R R R R R R R R R R R R T T T T T T T T T T T T X.X.O.O.O.O.O.O.O.O.O.O.O.O.O.O.O.O.O.O.O.O.O.O.O.O.O.O.=.O.#.#.=.=.*.=.*.*.*.*.*.*.*.=.*.*.*.*.*.*.*.*.*.*.%.=.#.O.#.#.#.#.+.+.*.*.*.%.=.%.%.+.] G h h G Y R R R R R T Y O.*.*.*.O.^ R L u.'.5XsXw.J.bXk.F.wXm.x.x.c.m.m.m.m.I.I.I.I.I.I.I.m.x.$.U.I.U.u.s.U.Q.I.U.T.Q.Q.Q.Q.Q.Q.Q.Q.Q.Q.Q.Q.Q.Q.Q.Q.Q.Q./.Q.Q.Q.Q.Q.Q.Q.Q.Q.Q.Q.Q.Q.Q.Q.Q.Q.Q.Q.Q.Q.Q.Q.U.U.Q.Q.Q.Q.Q.Q.U.Q.Q.U.U.U.U.U.U.I.I.I.I.I.I.m.I.I.U.I.I.U.I.I.U.U.U.U.I.I.U.I.U.U.s.+.U.Q.U.U.U.U.U.U.I.I.I.I.I.m.m.m.m.x.x.x.x.x.x.s.%.%.x.x.x.x.x.x.x.s.s.s.s.s.s.s.u.u.s.s.s.",
"o o X X o o o o $ + o o + 0 eXeX6X|.eXeX}.Q.m.s.u.%.+.' ] ^ ^ ^ ^ ^ ^ ^ ^ ^ ] ^ ^ ^ ] ] ] ] ] ] ' ' ' ' ' ' ' ' ] ] ' ' ] ^ /.s.' ' ' ] s.U././.U./././.Q.Q.U.I.x.6X+.U.nXeX6X6X6X6X6X|.}.}././.U.x.%.] ^ ^ ^ R ^ L P +.^ ^ ^ ^ ^ s.u.c J < 1 ^ R 1 < < 1 1 1 7 e H H H H H H H H H G G U H F F F F H G U Y Y Y Y Y Y Y Y Y R R Y Y Y Y Y Y Y Y Y Y Y Y Y U U U U U U U U U U U U U E E Y Y Y Y Y Y Y Y Y Y Y U U U U G G G G G G G H H H H H H H H H F H H F H H H H H H H H F H H H H H H H H H H G G G G U U U U U U U U Y Y Y Y Y R R R R R R R R R R R R R Y Y R R R R R R R R R  . . .T T  . . . . . .^ -.-.O.O.O.O.O.O.O.O.O.O.O.O.O.O.O.O.O.O.O.O.#.#.#.#.#.#.#.=.=.%.%.*.*.*.*.*.*.*.*.*.*.*.*.*.*.*.*.*.*.%.*.%.%.%.%.%.%.%.%.*.%.%.*.*.%.*.%.O.^ J c c H J G G R T ^ R R *.s.U.*.^ ^ ' y.~.;XsX1.k.bXF.N.1Xn.m.n.n.n.U.U.U.U.Q.Q.Q.Q.Q.Q.Q.Q.@.{ Q.'.[ i.}.'./.Q./././.Q.}.Q.Q.Q.W././.W.W.W.(.Q.W.W.W./.}.Q.Q.Q./.}./././././.Q./././././.Q.Q./.'././.'.Q.Q./.}./.'.'./.Q.Q.Q.Q.Q.Q.Q.Q.Q.U.Q.Q.Q.Q.Q.U./.T.U.Q.Q.Q.Q.Q.Q.Q.Q.Q.Q.Q.Q.Q.Q./.$.x.I.%.Q.U.U.Q././.U.I.I.I.I.U.m.U.U.x.x.I.I.x.x.x.u.x.m.m.m.m.x.x.x.x.x.x.x.x.x.u.s.x.x.x.",
"o o X X o o o o o o o o o & c eXeXeX|.{.}./.U.I.u.%.+.' ' ^ ^ ^ ^ ^ ^ ^ ^ ^ ] ^ ^ ^ ] ] ] ] ] ] ' ' ' ' ] ' ] ] ] ] ] ' ' I.I.' ] ' ' ' x.U.U.U.U.U.U.U.U.U.I.I.U.eX+.eXLXVXnXnXeXeXeX6X|.|.{.{.}.U.x.%.' ' ] ] ^ ^ P +.+.+.+.+.' s.s.c c < < ] ] 5 < , 1 1 1 7 e H G H H H H H H G U G G H F F H G U U Y Y Y Y Y Y Y Y Y Y R R Y Y Y Y Y Y Y Y Y U U U U U U U U U U U U U U U U U U U Y Y Y Y Y U U G G G G G G H H H H H H H H H F Z Z Z Z F F F D D B B B B D D D D D B B B F F D D F F F F F F F H H H H H H H H H H H H G G G U Y Y Y Y Y Y Y Y Y Y R R R R R R R R R R R R R R R  . .T T T T  . . . .T T T T T R T X.O.O.O.O.O.O.O.O.O.O.O.O.O.O.#.#.=.=.=.=.=.=.=.=.%.%.*.*.*.*.*.*.*.*.*.*.*.*.*.*.*.*.*.*.%.%.%.%.%.%.*.*.%.%.%.*.%.%.*.*.*.*.*.O.^ U J c H J J Y T ^ ^ R #.*.*.Y.O.R ' y.~.1X7X1.e.bXH.D.5XB.n.n.B.T.T.Q.Q.Q.Q.Q.Q.Q././././.@.@./.{.{ x.{.{.{.Q.}.}.{./.{.}.W./.}.'.}.'.'.}././.'.'.'.{.{././.'.{.{.}.}.}.'./.}.}.}.{.{.'.Q.Q.}.{.'.'.{.Q./.}.}.}.{.{.{.}./.}.}././.}.}.Q.Q./././.}./.Q./.Q.Q./.}.}./.Q././././.}./././.}.}.I.@.^ @./.{.{./.}./././.U.U.Q./.U././.m.I.U.U.I.I.I.x.I.U.U.U.U.I.m.x.x.x.x.x.x.x.s.x.m.I.I.",
"o o o o o o X X X o o o + . & +.6XeXeX|.}./.I.x.x.u.%.+.' ^ ^ ^ ^ ^ ^ ^ ^ ^ ] ] ] ] ] ] ] ] ] ] ] ] ] ] ] ] ] ] ] ' ' ' x.I.^ ' ] ' ] %.I.I.U.U.U.U.U.U.U.I.I.m.I.}.L VXKXLXVXGXVXnXeXeX6X6X|.|.|.{./.U.+.+.+.+.+.^ L +.%.%.%.%.%.s.s.c g : 4 +.+.0 2 , 1 1 1 7 w H G H H H H H G U U G H H H H U U Y Y Y Y Y Y Y Y Y Y Y Y R R R R Y Y Y U U U U U U U U U U U U U U U U U U U U G G G G G G G H H H H H F F F Z Z B B B B B B Z B B B w w w w w w w w w w w w B B B B B B B w D D D ;.w w w ;.h Z Z Z Z Z Z Z Z Z Z Z Z Z Z Z H H H H H H G G G G I I U Y R R R R R R R R R R R R R R T T T T T T T T T T T T T R R R R R ^ X.X.X.O.O.O.O.O.O.O.O.=.=.#.=.=.*.*.=.=.=.=.%.%.%.*.*.*.*.*.*.*.%.*.*.*.*.*.*.*.*.*.*.*.u.*.*.*.*.*.*.u.u.*.*.s.*.s.s.s.s.s.%.#.' ^ J c J F G R ^ ^ ^ #.#.^ s.*.R ' y.~.1X4X5.w.bXH.D.qXQ.T.R.Q.W./././.'.}.}.{.{.{.{.{.{.u.u.'.*X$.I.|.|.2XQ.}.2X2X{.6X{.{.'.{.{.{.{.{.{.'.{.{.{.{.2X2X|.}.|.|.{.|.{.{.{.{.{.|.|.|.|.{.}.}.{.{.{.{.{./.'.{.{.{.{.{.{.}.'.}.}.}.}.}.|.Q.}.}.}.}.}.{.T./.}.}.'.{.{.{.}.}.}.{.{.{.{.}.{.{.{./.x.[ +.I./.}./.U.|.|./././.}.}.}.|.}.U././././././.m.U.U.U.U.U.U.I.m.I.U.U.U.U.I.m.m.U.U.U.",
"o o o o o o X o X o o o $ . & - ' |.nXeXnX6X/.I.x.s.%.%.+.' ] ^ ^ ^ ^ ^ ^ ^ R R ^ ] ] ] ] ] ] ] ] ] ] ] ] ] ] ] ] ' ' s.U.' ^ ] ' +.+.x.I.I.m.I.I.I.I.I.I.I.m.x.U.I.L GXHXHXHXHXDXGXVXnXnXeXeXeX6X6X6X6X+.+.+.+.+.' L ' s.s.s.s.u.u.m.g g ; 4 +.%.v 2 < 2 1 1 7 w H G H H H H G U U U G H H G U U Y Y Y Y Y Y Y Y Y R Y Y Y R R Y Y Y Y U U U U U U U U Y Y Y Y U U U U U U U G G H H H H H F F F F F Z B B w w w w w w w w w w w e e e w w w w w w w w w w w w w w w w w w w w w w w w w w w w w w w w w w w w w w B w w h Z B Z Z Z Z Z Z F F H H H H H G U E Y Y Y Y Y Y R R R R R R R R T T T T T T T T T T T T T T R R R R R R R ^ O.O.O.O.O.O.=.=.#.=.*.*.*.*.=.=.=.%.%.%.*.*.*.*.*.%.%.*.*.*.s.s.s.s.s.s.s.s.s.s.s.s.s.s.s.s.s.s.s.s.s.s.s.s.x.x.x.s.s.%.#.^ J c c H P ^ ^ ^ #.#.R / s.^ / y.~.;X3X5.w.bXH.D.wXW.E.E.W.W.{.{.{.{.{.{.|.{.|.|.|.|.s.p.{.2Xu.T.2X2X6X/.{.6X6X2X6X6X{.{.2X2X2X2X2X|.{.{.2X2X2X6X6X2X}.2X6X{.|.|.|.{.{.{.|.2X2X6X2X}.{.2X2X{.|.|.'.'.|.|.|.|.|.|.{.{.|.|.|.|.|.6X}.{.|.|.|.|.|.Q.}.|.{.|.|.2X6X'.}.}.|.|.|.|.{.{.{.{./.{./.s.' +.%.u.u.I.I.Y.x.m.I.U./.|.|./.}.|.|.}.{.}.U././././././.U.U.I.}.}././.U.U.U.U././.",
"o o o o o o o o o o X o X o o o - ' eXeXnXmXeX}.U.I.x.s.%.' ' ` ] ^ ^ ^ ^ ^ ^ ^ ^ ^ ] ] ] ] ] ] ] ] ] ] ' ' ] ] ] ' *.x.%.' ] ] ' +.%.I.m.m.m.m.I.I.I.I.I.I.x.x.I.%.` VXGXGXGXGXGXGXGXGXVXVXmXnXeX6XnXGXs.m.%.%.%.+.L %./.Y.Y.I.x.u.I.j d ; ; +.x.R < < 2 1 r 7 w H H H H H G U U U U U U U U Y Y Y Y Y Y Y Y Y Y R R R Y Y Y Y Y Y U U U U U G U U U U U U U U U U U U G G H F F F F F Z B B B B B B B w w w w w w w w w w w w e e w w w w w w w w h h h h h h w w w w w w w w w w h h w w w w w w w w w w w w w w w w w w w w w w B B B B B B B F H H H H H H H G G G U Y Y Y Y Y Y Y Y R R R R R T T T T T T T T T T T T T T R R R T ^ O.O.O.O.O.O.O.#.#.=.=.%.=.%.=.%.=.*.*.*.*.*.*.*.*.*.*.s.s.s.s.s.s.s.s.s.s.s.s.s.s.s.s.s.s.s.s.s.s.s.s.s.x.x.I.Y.Y.Y.Y.*.#.^ J U G J U K ^ +.*.U R =.O./ s.(.2XyXw.w.bXH.OXwX|.{.{.|.T.2X6X2X6X|.|.{.2X2X6X6XeXc.i.2X2Xu.W.wX6XmX2X{.eXeX6XeXeX|.2X6X6X6X6X6X2X2X2X2X6X6X6XeXeXQ.2X6X2X6X2X2X*X{.|.2X2X6X6XeX{.|.6X6X6X2X6X2X'.6X6X6X6XeXeX|.|.6X6X6X6X6X6X{.|.6X6X6X6X6X'.}.6X|.eX6X6XeX{.|.2X6X6X2X6X|.|.6X{.}.|.|.|./.I.u.%.[ +.' ' ^ ^ L P c L +.s.}.6X6X6X|.6XU.U.|.{./.}.}.}.U.U.{.|.|.}.}./.U.}.|.|.",
"o o o o o o o o o o X X o o O o + + L |.|.2X|.|./.I.x.s.%.+.{ ' ` ^ ^ ^ L L L L ^ ^ ^ ^ ^ ^ ] ] ] ] ] ] ] ] ] ' ] x.m.' ^ ^ ] ] ' +.s.m.x.x.m.m.m.m.m.I.I.m.x.s.I.+.%.nXnXmXVXVXVXVXVXVXGXVXVXVXnXnXVXLXU.Q.x.%.x.%.L *./.U.U.Q.I.x.Q.j g : ; +.Y.] 2 1 2 1 r 7 w H H F F H Y Y Y Y Y Y Y Y Y Y Y Y R R R R R R R R R Y Y Y U U U U U U U U U U U U U G G G G G G G G G H F B B B B B B B w w e e e e e e e e e e w w w e w w w w w w e w 0 w w w w 0 0 w w w w w w w w w w w w w w 0 0 0 0 0 0 w w w w w w w w w w w w h h w w w w w w w w w w w B B D Z B Z Z Z Z F F H H G G G G Y Y U Y Y Y R R R R R T T T T T T T X.X.-.X.T T T T ^ ^ O.X.X.X.O.O.O.O.#.#.=.=.*.*.*.*.*.*.*.*.*.*.*.*.*.*.s.s.s.s.s.s.s.s.s.s.s.s.s.s.s.s.s.s.s.s.x.s.s.s.s.x.I.I.I.I.I.I.Y.s.%.+.^ Y J H H R O.*.^ R / #./ s.(.5XpXw.w.<XH.OXgX6X2X5X2XW.2X6X6X6X6X6X{.6XeXwXwXwXm.c.6XeXi.{.nXwXmX5X{.wXwXeXwXeX6X6X6XeXeXwXnXmX2X2X6X6XeXeXeXwX'.6XeX6XwXeX6X2X2X2X6X6XeXeXwX|.2XeXeXeX6XwX6X'.wXwXwXwXwXwX6X6XeXeXeXeXeXeX|.|.eXeXwXeXeX|.|.eX6XwXeXeXwX6X6XeXwXeXwXwX6X6XeX6X}.{.}./.}.eXnXeX6XQ.}.6X|.|.6X6X|.I.+.J J x.VXnXVXVX}./.mXeXeXeX6X|.}./.6XeXeXeX6X|./.|.nXnX",
"o o X X o o o o o o X X o + + O X $ + %.|.eX|.U.U.x.x.x.%.+.{ { ' ^ ^ ^ ^ ^ ^ ^ ^ ^ R R R R ] ] ] ] ] ] ] ' ' +.%.%.' ] ] ] ] ' +.%.x.x.x.x.x.x.x.x.x.x.x.x.x.s.x.` x.6X|.|.6X6X6X6XeXeXnXnXmXVXnXnXGXDXU./.m.x.x.%.L %.U./././.Q.x.Q.g d : ; ^ U.*.3 1 1 1 r 7 w H H H H U Y R Y Y Y Y Y Y Y Y Y Y R R R R R Y Y Y Y U U G U U U U U U U U U G G G H H H H F F F F F F Z B w w w w w w w w w w e w e e e e 0 0 0 0 0 0 w w w w w w w w h h h h h h h h h h h h h h h h h h h h h h h g g g g h w w h h h w h h h h w w h h h w w w w w w w w w w w B B B w B B B B B B Z Z F H H H H H H G U Y Y Y Y Y Y R R R T T T T ^ -.-.-.^ ^ ^ ^ -.-.X.X.^ ^ ^ X.X.X.O.O.#.=.*.*.*.*.*.*.*.*.s.s.*.*.*.*.s.s.s.s.s.s.s.s.s.s.s.s.s.s.x.x.x.x.x.x.x.x.x.x.x.x.I.I.I.I.I.I.U.I.Y.s.%.' ^ P J L / %.#.L L #./ y.(.wX0Xw.w.J.H.OXmXeXwXwXwX{.6XmXnXnXwXwX2XeXnXmXmXmXn.n.wXmXc.6XmXmXGXwX{.mXnXwXnXwXeX2XqXsXwXmXmXBX5X5XeXwXwXwXwXnX2X6XwXwXwXwXwXeX5X5XwXwXwXwXmX6XeXwXnXwXwXmXwX{.wXwXwXwXwXwX6X6XwXwXwXwXwXwX6X6XwXwXwXwXwX2X2XwXeXnXwXnXmXeXwXmXnXnXnXnXeXeXnXnX/./.}.}.|.nXGXVXVX6Xm.{.nXnXVXGXLXDXGX|.#.c u.LXHXLX|.{.GXLXmXmXeX6X{.|.nXVXGXVXnX|.}.eXLXGX",
"o o o X o o o o o o X X o + + + @ O X 6 U.|.eXnX|./.I.s.%.{ ' ' ' ] ^ ^ ^ ^ L ^ ^ ^ R R R R R R ] ] ] ] ' ' +.%.+.' ^ ^ ] ] ' ' %.s.x.x.x.x.x.x.x.x.x.x.x.s.x.x.x.^ U.|.|.|.|.|.|.|.6XeXeXeXeXnXeXnXVXGXx.U.I.I.I.u.^ %.U./.}././.I./.j 6 4 ; L /.x.3 2 1 1 r 7 B H H G U Y Y Y Y Y Y Y Y Y Y Y Y Y R R R R R Y Y U U U G G U U U U U U U U G G H H H F F F B B B B B B B B e w w e w e e e e e e e e e e e e e e 0 w w w w h w w h h h h A F F F H H H H H H H H H H H A A A H A A j c c c c c A h h h h h h Z A A Z h h h h h w w w w w e e e e w w w w e w w w w B B B B B B B B F F F H H G G G U U U U Y Y R R R R R R T T T ^ O.O.X.X.X.X.O.X.O.X.-.^ ^ X.O.#.=.=.*.*.*.=.=.*.s.s.s.s.*.s.s.s.s.s.s.s.x.x.x.s.x.x.x.x.x.x.Y.Y.Y.Y.Y.Y.Y.x.x.Y.I.I.I.I.U.U.U.U.I.I.s.%.%.' ^ / O.%.#.^ L #./ #.T.sX5X5.5.<XH.@XGXwXmXmXmX2XwXDXDXGXmXnX6XwXmXBXGXGXT.T.mXBXm.sXGXmXGXmX|.GXmXwXmXmXwXqXeXmXmXmXmXmX5XqXwXwXwXwXsXmX6XeXmXmXmXnXwXwXwXwXwXwXwXmXmX6XeXnXmXnXwXBXmX{.mXmXmXmXwXwXeXeXwXsXwXwXwXwXeXeXwXmXmXwXnX6X6XmXwXmXnXmXmXwXmXGXVXVXVXVXeXeXmXmXeX{./.|.|.nXGXVXnXVXeXnXGXGXLXLXHXGXGXnXnX|.c x.LXGX|.|.GXDXGXnXeXeX|.eXeXVXVXVXeX|.}.nXVXnX",
"o o o o o o X X X X X X o o + o o o o o ^ }.|.|.eX|.}./.U.x.s.s.+.{ ' ' ^ L ` ^ ^ ^ L L T T R ^ ] ] ] ] ' ' ' ] ] ] ^ ] ' ' +.%.%.s.s.s.s.s.x.x.x.x.x.x.x.x.x.x.%.^ /.|.{.{.|.|.|.|.|.|.|.|.6XeX|.eX6X{.%.x.I.I.x.s.^ #.I././././.x.}.j d 4 ; c U.I.P < 1 1 7 B F H G U Y R Y Y Y Y Y Y Y Y Y Y Y Y R R R R Y Y U U U U G U U U U Y Y U G G G G H F B w B B B B w e e e e e e e e e e e e e e e e e e e e w h h h h h h h h h A h Z Z F H H H H H K K K K K K K K K K K K K K K K K K K K K J J H H H J K H H K H H H H A A A A Z Z Z h h w w w w w w w w w w w w w w w w w B B B B B B B B F H H H H H H H G G U Y Y Y Y Y Y Y R T -.O.O.O.O.O.O.O.O.O.X.^ T ^ O.O.O.#.=.=.=.=.%.s.s.s.s.s.s.s.UXY.UXs.s.s.s.x.Y.s.x.x.x.I.I.I.I.I.I.I.m.I.I.m.m.I.I.I.U.U.U.Q.Q.Q.Q.Q.Y.Y.s.O.s./ / / %.^ P / / #.'.BX0X8.5.>XH.iXmXwXmXBXBX2XeXGXGXDXmXwXeXwXmXGXDXDXW.].mXmXT.mXDXBXGXmX2XmXmXnXmXmXmXqXwXmXmXmXmXmX5XqXwXsXsXwXsXmXqXeXmXmXmXnXwXwXwXwXwXwXwXmXmX6XwXmXmXwXwXVXmX{.mXmXmXnXwXwXeXwXwXnXnXwXwXwXeXwXwXnXnXwXmX6X6XmXnXmXmXmXnXwXmXmXmXnXwXwXeXwXnXmXmXeXwXwX|.eXVXnXnXnXwXwXVXVXVXVXVXnXeX6XVXVXQ.v 6XGX{.}.nXwXwXeX6X|.|.{.eXeXeXnX|.{.{.6XeXeX",
"o o X X o o X X X X X X o o + + o o o o < %.|.|.6X/.U.U.I.x.s.s.%.%.+.' ^ P ^ L ^ ^ L L T ^ ^ ^ ] ] ] ] ' ' ] ] ] ] ^ ] ' ' +.%.%.*.u.u.u.s.s.s.s.s.x.x.x.x.x.x.+.' /.{.}.}.}.{.}.}.{.}.{.|.|.2X|.6X|.U.%.x.m.m.x.x.' #.I.Q.U.U.U.s./.j g 4 ; c Y.Y.T 2 1 7 e Z H G Y Y Y Y Y Y Y Y Y Y Y Y R R R R R R R Y U U U U U U U U U U G G G G H H H H Z w e e e e e e e e e e e e e e e e e w w e e e w w w w h h Z F Z Z A F H H J J K H G H H K U U K K K K K K K K K K K K L L K K K K P P K K K K K U K U P P K P Y R P K U U U U G G H H H H H Z Z Z Z Z h h w w w w w w w e e w w w w w w B B Z F F F F F F H H H H H H G U Y Y Y Y R T T T -.-.-.O.O.O.O.O.X.X.O.O.O.O.O.O.O.O.*.s.s.*.*.s.Y.Y.Y.Y.Y.s.s.s.s.s.I.I.I.I.I.I.I.I.I.I.I.I.I.I.I.I.I.I.I.U.U.U.Q./././././.Q./.I.s.x.s./ / %.^ R / ' y.'.BXwX0.5.bXOXhXfXsXwXmXmX2XeXBXmXGXmXwXwXwXVXBXGXGX~.{.mXmXW.mXGXmXBXmX2XmXmXwXwXmXwXwXwXmXmXmXmXmX5XwXwXwXwXwXsXmXeXeXmXmXmXwXwXwXwXwXwXwXwXwXwX6XnXnXnXnXnXmXmX2XwXmXmXwXwXwXwXwXwXwXwXwXwXeXeXwXwXnXnXnXmXeXeXmXnXnXnXnXwXwXmXnXmXnXnXwXwXwXnXmXmXeXwXwX6XeXnXwXwXeX2X|.eXeXeXeXeX6X|.|.|.nX6XJ I.nX{./.eXeX6X6X|.{.}.}.|.|.2X6X{.}.{.|.|.|.",
"o o o X o o X X X X X X o o o + o o o o $ g s.|.eXnX|.U.s.%.%.%.+.+.' ' ^ ^ { ` L ^ ^ ^ R T ^ ] ] ] ] ] ] ] ] R ^ ] ] ] ' ' +.+.%.%.%.%.%.*.u.u.u.u.u.u.u.u.u.s.] u.U.}././.}.}.}.}.}.}.}.}.|.|.{.|./.m.%.s.x.x.x.x.' +.x.Q.Y.I.x.s.U.c c 4 ; g s.x.O.3 1 9 w H G Y Y Y Y Y Y Y Y Y Y Y Y R R R R Y Y Y Y U U U U U U U U G G G H H H F B B B B w e e e e e e e e e e e e e w e e e w w e w h h h h h Z Z A F F F F F F H J K J J J H H K K K K K K K K K K K K K K K K W W W W W L L L L L L L L L R R L R ! ! / R L L L L L L P P P K U U U G H H H H H Z h h h h h h w 0 e e e e w w w w w w w w B B Z Z Z Z F F F F F H G U U U Y Y Y Y R R T -.O.O.O.O.O.O.O.O.O.O.O.X.X.X.^ =.*.*.s.s.s.s.s.Y.Y.Y.Y.x.s.s.Y.Y.I.I.I.I.I.I.I.I.I.I.I.I.I.I.I.I.U.U.U.Q.Q././././././.}./.I.x./.#.O.$.+./ / O.s.'.DXsXd.8.rX;XZXsXsXwXnXmX5XwXmXmXmXmXsXwXwXGXBXVXmX{.*XmXmX{.mXVXmXmXGX2XmXVXnXwXwXwXwXwXnXnXnXnXwXwXwXwXwXwXnXmXnXwXeXmXnXnXwXwXeXeXwXwXnXnXwXwXeXwXnXwXnXnXnXmX6XnXmXnXnXnXwXeXwXwXwXwXwXwXeXeXwXwXnXnXnXnXeXeXnXnXnXnXnXwXeXnXnXmXnXnXnXnXnXnXnXnXeXeXeXeXeXwX6XwXeX2X2X|.|.|.|.|.|.{.}.{.|.|.L %.6X/.Q.2X|.|.{.}.}.}.}.}.}.{.{.}./.}.}.}.}.",
"o o o o o o X X X X X X o o o o o o o o % , J Y.6XnXnXeX6X/.u.' ` ^ ^ ! J J ^ ^ ^ ^ ^ ^ R ^ ^ ] ^ ^ ] ] ] ] R L ^ ^ ^ ] ] ' +.+.%.%.%.%.%.%.%.%.*.*.u.u.%.u.u.u.^ m.U.}.Q.Q./././././././.}.{.|./.}./.m.%.s.x.x.x.x.+.+.s.Q.s.s.u.s.I.c c 4 & g %.s.*.5 7 e Z G Y Y Y Y Y Y Y Y Y Y R R R R T R Y U U U U U U U U U U U U G G H F D B w w w w e e e e e e e e e e e e e e e w w w w w w w h Z Z h A h F A A A A A A H H J J J J J J K K K K K K K K K K K K K K K K K K W W W W W W W L W W L L L L L R R / / / / ! L L K K K K K K L K L L P K K U K K H H H A A A A A h h w w w e e e e e w w w w w w B B Z Z Z Z Z Z Z F F H H H G G U U Y Y Y R T -.^ X.X.X.X.O.O.O.O.O.O.O.X.O.O./ s.s.s.s.*.s.Y.s.I.Y.Y.Y.Y.I.I.I.I.I.I.I.I.I.I.I.I.I.I.I.I.I.U.U.U.Q.Q./././././.}.{.}.Q.s.}.Q.s.$.#.[ / [ m.'.DXsXd.0.rX;XAXsXwXnXnXmXwXwXVXmXnXmXnXwXwXGXVXmXmX2X2XVXmX2XmXmXnXmXGX6XnXGXnXwXwXwXwXnXnXnXnXnXwXwXwXnXeXeXnXmXnXwXwXnXnXnXwXwXeXeXeXnXnXnXeXnXeXwXeXeXeXnXnXnXeXnXmXnXnXnXnXeXeXeXeXeXwXwXeXeXnXnXnXnXnXnXnXnXnXnXnXnXnXeXeXnXnXVXnXnXnXnXnXnXnXnX6XeXeXwXeXwX|.}.}.|.|.|.|.|.|.|.{.}.}.{.{.}.P s.|.U./.|.{.}.}.}.}.}./././.}.}./.Q./.}.}.}.",
"# # # # # # X X X X X X o + + + o o o o + $ - ^ U.eXnXnXnXnXeX}.m.u.{ ^ { ' ^ L ^ ^ ^ ^ T L L R ^ ^ ^ ^ R R R R R R ^ ] ' ' +.+.+.+.%.%.%.%.%.%.%.%.%.%.%.%.u.` ` I.U.m.U.U.U.U.U.U.U.U.Q./.}.}.}.}./.U.+.u.s.u.%.%.+.+.s.U.s.s.Y.s.s.J c 4 & 6 +.Y.Y.F w B F H Y Y Y Y Y Y Y Y Y Y R T T R R Y U U U G U U U U Y Y Y G G H H F B w w e e e e 9 e e e e e 0 e 0 0 0 0 0 w h h h h h h h h h A A A F A H A A H H A A H H K K J J J K J J K K K K K K K K K K K K K K K K K K W W W W ! W W W W W L L R R / / / / / ! W K K K K K K K K K L L L K K K K K K K K K K K J K H H Z Z Z h w w w w e e w w w w w w Z Z Z Z Z Z B B Z Z Z F F H H G U U U Y Y R T T ^ -.X.X.O.O.O.O.O.O.O.O.O.O.O.O.O.O.s.s.s.u.s.Y.U.I.I.U.U.I.I.I.U.U.U.U.U.Q.U.I.I.I.U.U.U.U.Q.Q./././././././.}.}.}.s.|./.U.u.#.%.^ ) i.[.HX5Xa.a.4X0XDXnXwXnXnXnXnXnXmXnXmXnXnXmXmXVXVXVXVXnXnXnXnXnXnXnXnXnXnXmXmXmXmXmXnXnXnXnXnXnXnXnXnXnXnXnXnXnXnXnXnXnXnXnXnXnXnXnXnXnXnXnXnXnXnXnXnXnXnXnXnXnXnXnXnXnXnXnXnXnXnXnXnXnXnXnXnXnXnXnXnXnXnXnXnXnXnXnXnXnXnXVXVXVXVXVXVXnXnXnXnXVXVXVXVXVXVXVXVXVXeX6XeX|.I.U./.|.|.{.}.|././.}.}.{.U.j U.|.U.Q.}.}.}.}.}.W././././././.Q.Q./.}././.",
"# # # # # # X X X X X X o + + + o o o o o + + - ^ U.6XnXnXVXnX6X}.Q.I.m.%.@.[ ` ^ ^ ^ ^ R L L L R R ^ ^ L L R R R R ^ ^ ] ' +.+.+.+.+.+.%.%.%.%.%.%.%.%.%.%.u.] %.U.I.m.I.m.m.I.m.I.U.U.U.U.Q././.}.Q.m.{ %.u.%.%.%.+.+.u.U.s.u.s.%.s.K c 4 & 5 ' Y.s.G w Z H G Y Y Y Y Y Y Y Y Y R R T R Y Y U U U U U U Y Y Y Y G H H F D B B w e e e e 0 9 9 e e e 0 0 7 8 0 0 w h h h h F H A j H H j j A A H H A A A A A A A A J J K K K J J K K K K K K K K K K K K K K K K K K W K K W W W W W W W K W W L W W L W W / W W K K K K K K K W W K K K K L K K K K K K K K K K K K K K K U U G H h h h h h h w w w w h h w h Z Z Z Z B B B B B B B B Z F H G G G U Y Y R T T T X.X.O.O.O.O.O.O.O.O.O.O.O.O.O.#.s.s.s.Y.s.s.Y.I.U.U.I.I.U.Q.Q.Q.Q.Q././.U.I.U.Q.Q.Q.Q.Q././././././././.}.}.}.I.}.|.}.I.s.s.#.[ i.#XFX#Xa.V.5XsXHXVXVXVXVXVXVXVXVXVXVXVXVXVXVXVXVXVXGXVXVXVXVXVXVXVXVXVXVXVXVXVXVXVXVXVXVXVXVXGXLXVXLXLXVXVXLXLXLXLXLXLXLXLXLXLXLXLXLXLXLXLXLXLXLXLXLXLXHXHXHXHXHXHXHXKXKXHXKXKXKXHXKXKXKXKXKXKXKXKXKXKXKXKXKXKXKXKXKXKXJXJXJXJXJXJXJXKXKXKXKXKXJXKXKXKXJXJXJXKXnXnXHXLX6X/./.|.|.|.}.}./.}.{.}./.` ^ }.}.I.U././././././.Q.Q.Q.Q.Q.U.U.U.Q./.Q.Q.",
"X o o o o o X X X X X X o o + + O O O o $ % + $ & ^ I.}.nXVXnXnX|.}.Q.m.s.u.@.{ ] ^ ^ ^ R R L L R R L ^ L L R R L R R R ^ ] ' ' +.+.+.+.+.+.%.%.%.%.%.%.%.%.%.^ m.I.U.m.m.m.m.m.m.m.I.m.I.U.U.U.U.U.I.x.[ %.%.%.%.+.+.' %.U.x.%.*.%.u.K c 4 & 6 ] Y.*.R F F G U U Y Y Y Y Y Y R R R R Y Y Y U U U U U U U U U G H F Z B B w e e e e e 9 9 9 9 9 e e 0 0 0 0 0 0 h h A A h A A A j j c c j k j A J J j j j j A A A A A A K K K b b b K K K K K K K K K K K K K K K K K K K K W W W W W W W W W W W W W W W W K K W K K K K K K K W W W W W W W W W W K K K K K K K K K K K K K P P K G H J H H H F h h w h w w w w w w w w B B B w w w w w B Z Z F F H G G U Y Y R R -.-.O.O.O.O.O.#.O.O.O.O.O.O.^ O.=.=.s.Y.x.u.s.I.U.I.U.Q.Q./.Q.Q.Q././.Q.U.Q.Q.Q.Q.Q././././././././.}.}.}.}./.U.6X6X/.I.m.#.[ y.*XFX'.V.~.sXDXHXHXHXKXKXKXKXKXKXKXKXKXKXKXKXKXKXKXKXKXKXJXJXKXKXKXKXKXKXKXKXKXKXKXKXKXKXKXKXKXJXJXJXJXJXJXKXKXKXKXKXKXKXKXKXKXKXKXKXKXJXJXKXKXKXKXKXKXJXJXKXKXKXKXKXJXJXKXKXKXKXKXKXJXJXJXJXJXJXJXJXJXJXJXJXJXJXJXJXJXJXJXJXJXJXJXJXJXJXJXJXJXJXJXJXJXJXJXKXJXnX6XVXJXVX6X|.|.|.|.}.}.}.}././.' c U.{.Q.m.U.Q.Q.Q.Q.Q.Q.U.U.U.U.U.U.I.I.U.U.U.U.",
"o o o o o o X X X X X X o o + + O O O O . $ o + o $ v I.U.|.eXVXnX6X}.m.x.s.%.@.] ^ ^ ^ R R L L R L R L L L R R L L R R ^ ^ ] ' ' ' ' +.+.+.+.+.+.+.+.+.+.%.%.^ U.m.I.I.I.I.m.m.I.m.I.I.I.I.I.U.U.U.m.s.' +.%.+.+.+.+.' #.U.x.+.%.%.u.K b 4 & 6 ^ x.%.O.H H U U U Y Y Y Y Y Y R R R Y Y U U U U U U G G G H H F Z B w w w e e e e 9 9 9 9 9 9 9 e e e w h h Z h A A H A j j j j k k c c k k k A A J j j j j k k A A k k b k c c b b b K K K K K K K K K K K K K K K K K K K W W W W W L K L W W W W W W K K K K K K K K K K K K W W W W W W W W W W K K K K K K K K W W L K L L L P P U K P P P G H F h h h h w w w h h w w w w w w w w w w w B B Z F H H H G U U U R R T -.-.O.O.O.#.#.=.=.=.=.=.*.%.#.=.*.s.s.Y.Y.I.Y.Q.Q././.Q.Q.Q./././.Q./././././././././././.}.}.}.}.}.}.Q.p.6X6X{././.p.} y.1XFX'.(.2XBXHXHXKXJXJXJXKXKXKXKXKXKXJXJXJXJXJXJXJXJXJXKXKXKXKXKXKXKXJXJXJXJXJXJXJXKXKXKXKXKXKXKXKXJXJXJXKXJXJXKXJXJXJXJXJXJXKXJXJXJXJXJXJXJXJXJXKXKXJXJXJXJXJXKXKXKXJXJXKXJXJXJXJXJXJXJXJXKXKXKXKXKXJXKXJXJXJXJXJXJXJXJXJXJXJXJXJXJXJXJXJXJXJXJXJXJXJXJXJXJXKXnXnXLXJXLX|.{.|.|.|.}.|.|.}.I.^ g x./.Q.U.I./.Q.Q.Q.Q.Q.U.U.U.U.U.I.I.I.I.U.U.U.U.",
"o o o o o o o + + + O O O O O + + + + + + + + + @ + & ; +.x.U.|.6X|.|.U.Q.x.$.%.' ' ] ^ L R ^ ^ L L P L L L L L L L ^ ^ ^ ^ ] ] ' ' ' ' +.+.+.+.+.+.+.+.+.+.J u.U.U.U.U.U.I.I.I.I.I.I.I.I.m.I.I.I.I.I.$.' ' +.+.{ ' ' ' +.x.x.+.%.%.#.W ! d ; < H *.|.=.Y Y Y Y U Y R R Y Y Y Y Y Y Y U U U U U U G G H H F B w w q e e e e 9 9 9 9 9 9 9 9 e e w w h A H H H K H H H A A j j k A A k c c k k A A k k k A A J J J J J J b b b b c b b b b K K K K K K K K K K K K K K K K K W W W K W W W W K K K K K W K K K K K K K K K K W W W W W W W W W W W W W W W W W W W W K W W K L L W L W W L L R R L L L P U G G G G G F Z h h w w w w w w w w w w w B B F F F F H H H U U U Y T T -.O.O.O.=.=.*.*.*.=.#.O.#.+.O.#.s.I.I.Y.I.U.I.}./.Q.Q././././././././././././././.'.'.'.'.'.}.{.'.v.#X6X2X2X{.R.p.y.eXHX~.'.nXGXKXKXKXJXKXKXKXKXKXJXJXJXJXJXJXJXJXJXKXKXJXJXJXJXJXJXJXJXJXJXJXJXJXJXJXJXJXJXJXKXKXKXKXJXJXJXJXJXJXJXJXJXJXJXJXJXJXJXJXJXJXJXJXJXJXJXJXJXJXJXJXJXJXJXJXJXJXJXJXJXJXJXJXJXJXJXJXJXJXJXJXJXJXJXJXJXJXJXJXJXJXJXJXJXJXJXJXJXJXJXJXJXJXJXJXJXJXJXJXJXJXJXJXJXJXLX6X}.|.|.|.}.Q.x.' c ^ m./.U.Q.U.x.U.U.U.U.U.U.U.U.U.U.I.I.m.m.I.U.U.U.U.",
"# # # # # # # # @ # # # # # # @ @ @ @ # # # @ @ + + & & & g %.U./.U.I.x.m.x.x.s.+.{ ' ] ] ^ L L L ^ ] ] ^ L L L L L ^ ^ ^ ^ ] ] ] ' ' ' +.+.+.+.+.+.+.+.' ' P I.U.U.U.U.U.U.U.I.I.I.I.I.I.I.I.m.U.I.I.$.` ' { { ' ' ' ' +.*.x.+.+.+.' [ b b & 5 c O.LXY.Y Y Y Y Y Y R R Y Y Y Y Y U U U G G G G H H H F B B w e e e e e e e 9 9 9 9 9 9 9 e w Z h Z H H K K K K H H A A k j k k A A k k k k k c A A k k A A J J J J b K b b b b K b b b K K K K K K K K K K K K K K K K K K K K K K K K K K K K K K K K K K K K K K K K K K W W W W W W W W W W W W W W W W W W W W W W W W W W L L W W L L L L L W W L L Y Y U U U G G H Z h h h h w w w w w w w w w w B Z F F F F H H H G U Y R T T O.O.=.=.=.*.*.=.=.=.+.+.%.O.=.s.U.U.I.s.I./.U.Q./././.}./././././././././.'.'.'.'.'.'.}.{.'.a.W.2XwX5X2X*XT.c.wXHX~.2XVXLXKXKXKXKXJXJXKXKXJXJXJXJXJXJXJXJXJXJXKXJXJXJXJXJXJXJXJXJXJXJXJXJXJXJXJXJXJXJXJXJXKXKXJXJXJXJXJXJXJXJXJXJXJXJXJXJXJXJXJXJXJXJXJXJXJXJXKXKXJXJXJXJXKXKXKXKXJXJXJXJXJXJXJXJXJXJXJXJXKXKXKXKXJXJXJXJXJXJXKXKXJXJXJXJXJXJXJXJXJXJXJXJXJXJXJXJXJXJXJXJXJXJXJXJXKXJXKXKX}.u.%.^ ^ L ` %./.Q.U.I.U.U.x.I.U.U.U.U.U.I.I.I.I.I.I.m.m.m.I.U.U.U.",
"@ @ @ @ @ @ @ @ @ @ @ @ @ @ @ @ = = @ @ @ @ @ % % @ @ % < & - 3 ^ x.U.x.x.x.s.%.{ [ ] ] ' +.%.%.+.' ^ L L L L L L L ^ ^ ^ ^ ] ] ] ] ] ] ' ' ' ' ' ' ' ' ' L ' x.I.U.I.U.I.U.U.U.I.I.I.I.I.m.m.m.U.I.I.$.^ ` ' ' ' ' ' ' +.{ m.%.[ [ ` M.m i.& 0 0 *.|.T Y Y Y Y R R Y Y Y Y Y Y Y Y U G G H H H H F B w q e e e e 9 9 9 0 e e e e e e e Z Z H H H H H H K J J J J J J A K J A J J J k k J J J J J J A J k k A c b k K b K K b b b b b b K K K K K K K K K K K K K K K K K K K K K K K K K K K K K K K K K K K K K K K K K W W W W W W W W W W ! ! ! ! ! ! ! ! ! ! ! ! ! ! ! ! ! ! W W W L L ! ! L L W W L L P P U U G G H H H F Z Z Z Z Z w w w w w w w w w w B B B F F H H H G U Y Y R ^ O.O.O.#.=.*.*.*.%.*.*.*.O.=.s.Y.Y./.}./.I.U.}./.}.{.}.}.}.}.'.'.'.'.'.}.}.'.'.~.'.{.{.{.c.T.1XwXwX2XsX].T.wXDX~.5XVXHXKXKXKXKXJXJXJXJXJXJXJXJXJXJXJXJXJXJXJXJXJXJXJXJXJXJXJXJXJXJXJXJXJXJXJXJXJXJXJXJXJXJXJXJXJXJXJXJXJXJXJXJXJXJXJXJXJXJXJXJXJXJXJXJXJXJXKXKXKXKXKXKXKXKXKXKXJXJXJXJXJXJXJXJXJXJXJXJXJXJXJXJXJXJXKXKXJXKXJXJXKXKXKXJXJXJXJXJXJXJXJXJXJXJXJXJXJXJXJXJXKXKXKXKXJXKXLXLX{.+.' %.s.I.Q.U./.I.I.U.U.U.x.I.U.U.U.U.I.I.I.I.I.I.I.m.m.m.m.I.I.I.",
"% % % % % % % % % % = = - - - - = = = = - - - - - - - % % < & ; 1 4 0 ^ %.I././.U.I.m.m.%.%.+.+.' ] L L L L L L L L ^ ^ ^ ^ ^ ^ R ^ ^ ] ] ] ' ] ' ' ' ' ^ J +.u.x.x.x.x.m.I.U.U.U.I.I.I.I.I.I.I.U.I.I.$.^ ^ ` ' ' ' ' { { ] x.%.` ` ` ).| qX: 6 0 R R H Y Y Y R R Y Y G Y Y Y Y U U U G H H H F B w w e e e e e e 9 9 9 9 9 0 0 e e w w Z H G H H H H H J J J J J J J J J J J J J A A k A J J J J A A A k k k b b k b b K K K b K K b b b b K K K K K K K K K K K K K K K K K K K K K K K K K K K K K K K K K K K K W W W W W W W W W W W W ! ! ! ! ! ! ! ! ! ! ! ! ! ! ! ! ! ! ! ! ! W ! ! ! ! ! ! ! W R L L L L U G G G H G H H H H H Z Z B w w w w w w w w w w w B B B F F F H G G Y Y R T ^ O.O.*.s.s.*.*.s.s.*.=.=.%.%.I.Q.}.I.U././.{.|.{.}.}.}.}.'.'.'.'.'.}.'.}.~.'.{.{.1XB.B.5XwXwX1XDX#XT.2XmX{.mXVXHXKXKXKXKXJXJXJXJXJXJXJXJXJXJXJXJXJXJXJXJXJXJXJXJXJXJXJXJXJXJXJXJXJXJXJXJXJXJXJXJXJXJXJXJXJXJXJXJXJXJXJXJXJXJXJXJXJXJXJXJXJXJXJXJXJXJXKXKXKXKXKXKXKXJXKXJXJXJXJXJXJXJXJXJXJXJXJXJXJXJXJXJXJXJXKXKXJXJXJXJXKXKXKXJXJXJXJXJXJXJXJXJXJXJXJXJXJXJXJXJXKXKXKXKXJXLXnXnXeX}./.}./.Q.U.U.U.I.I.I.U.I.s.I.U.U.U.U.I.I.I.I.I.I.I.m.x.x.m.I.I.I.",
"% % % % % % % % % % % % - - - - - - - - - - - - - , % - , - - - - - - - ; < ^ /.|.|.}.m.x.+.+.+.] ] L L L L L L L L L L ^ ^ ^ ^ R R R ^ ^ ^ ] ^ ] ' ] L J L ' +.%.%.s.s.u.s.x.m.I.I.I.m.I.I.I.I.I.U.U.s.^ ^ ] ` ' ' ' ' +.] x.x.{ ] ` b.!.AX} g c H G G R R R R Y Y G G Y Y U U U U G H H F B B w e e e 0 0 e e 0 9 9 7 9 0 0 w h h h h F H J J H J J K K A K K J J A A K K K J k k k k K K K K J J k k A A K K K K K b K K K K K K K b K K K K K K K K K K K K K K K K K K K K K K K K K K K K K K K K K K K K W W W W W W W W ! ! ! ! ! ! / / ! _ / / / / / / ! ! ! ! ! ! ! ! ! ! ! ! ! ! ! ! R R L L L P P P U U G H H H H H F F F H F Z Z Z Z h w w w w w w w w w w w B B B F F H H G U Y R T T X.O.*.*.*.Y.Y.s.=.=.*.=.=.*.Y./.Q.Q.I./.{.|.2X|.}.}.'.}.{.{.{.}.}.'.'.'.{.{.#X~.B.wXsXsX5XsXwX'.wXnX5XmXDXHXKXKXKXKXKXKXJXJXJXJXJXJXJXJXJXJXJXJXJXJXJXJXJXJXJXJXJXJXJXJXJXJXJXJXJXJXJXJXJXJXJXJXJXJXJXJXJXJXJXJXJXJXJXJXJXJXJXJXJXJXJXJXJXJXJXJXJXJXKXJXJXJXKXKXKXKXJXJXJXJXJXJXJXJXJXJXJXJXJXJXJXJXJXJXKXKXKXJXKXJXJXKXJXJXJXJXJXJXJXJXJXJXJXJXJXJXJXJXJXJXKXJXJXKXJXLXnX|.}.}.}.}.Q.U.I.U.U.U.U.U.U.I.s.Q.U.U.U.U.m.I.I.U.I.I.I.I.m.m.I.I.I.I.",
"% % % % % % % % % - % % - - - - - - - - - - - - - % % - , , , , - - - - - - - 6 R U.|.|.}.I.*.+.] ] ] ] L L L L L L L L L L ^ ^ R R R R ^ ^ ^ ^ ^ ] ^ P P ^ ' +.{ +.%.%.%.%.u.s.s.x.x.x.x.x.x.x.I.U.U.s.^ ^ ] ` ' ` ' { +.] u.x.+.] ' l.DXDXI.h H G G Y R R R Y Y G G U Y U G G G H F F B w e e e e 9 9 9 9 9 9 0 9 9 9 0 h h h h j A A H J K K K K K K A A A K J J J A K K J J k k J J K K K K J J A k J J K K K K K K K K K K K K K K K K K K K K K K K K K K K K K K K K K K K K K K K K K K K K K K K K W W W W W W W ! ! ! ! ! / / / / / / / / / / / / / / ! ! ! ! ! ! ! W ! ! ! ! ! W L L P P P K K K K K H H H H H Z Z Z Z Z Z Z Z Z Z Z h w w w w w w w w w B w B w B B w B F F H H G U U R T T O.O.=.s.Y.Y.s.#.*.*.*.=.%.s.U./.Q.Q.m./.|.|.|.{.{.{.{.{.{.{.{.{.{.{.{.#X*X'.Z.sXsXsXwXwXmXsXmXwXwXmXDXKXKXKXKXKXKXKXKXKXJXJXJXJXJXJXJXJXJXJXJXJXJXJXJXJXJXJXJXJXJXJXJXJXJXJXJXJXJXJXJXJXJXJXJXJXJXJXJXJXJXJXJXJXJXJXJXJXJXJXJXJXJXJXJXJXJXJXJXJXKXJXJXJXKXKXKXKXJXJXJXJXJXJXJXJXJXJXJXJXJXJXJXJXJXJXKXKXJXJXJXJXJXKXJXJXJXJXJXJXJXJXJXJXJXJXJXJXJXJXJXJXKXJXJXKXJXVX6X6X}.}.}.}.Q.U.I.U.U.U.U.U.U.I.s.Q.U.U.U.U.m.I.I.U.U.U.I.I.m.m.I.I.U.I.",
"% % % % % % % % - - % % - - - - - - - - - - - - - - - - , , , , , , , , , , , < - ; P Q.|.|.}.U.s.%.{ ' R R ^ L L L L L L L ^ ^ R R L L L L L L ^ ^ L P L ^ ' ' ' ' ' +.+.%.%.%.%.%.%.%.u.u.s.s.x.x.I.%.^ ^ ] ` ` ] ' +.%.] %.I.%.] +.u.GXDX@.J G G Y Y Y U Y G G G G G U G H H F F B w e e 9 9 0 9 0 9 9 9 0 0 9 0 0 0 g h h h c j j H J J K J J J J J A A J J J J A A K K K A K K K K K K K K K K K K K K K K K K K K K K K K K K K K K K K K K K K K W W W W W W K K K W K K K K K K K K K K K K K W W W W W W W W W ! ! / / / / / / / ) ) / / / / / / / / / ! ! ! ! ! W W W ! ! ! W W L L K K K K K K J J K H H F h Z h h h w w w w h Z h Z h h w w w w w w B w B B w w w w w w w B F F H H G U U R R X.O.O.*.Y.Y.s.UXY.s.=.s.*.s.s.U.{./.Q././.}.2X|.{.{.{.{.{.{.{.{.{.#X*X2X'.R.sXmXsXsXwXGXDXBXwXsXBXLXKXKXKXKXKXKXKXKXKXJXJXJXJXJXJXJXJXJXJXJXJXJXJXJXJXJXJXJXJXJXJXJXJXJXJXJXJXJXJXJXJXJXJXJXJXJXJXJXJXJXJXJXJXJXJXJXJXJXJXJXJXJXJXJXJXJXJXKXKXKXKXJXJXKXKXKXKXJXJXJXJXJXJXJXJXJXJXJXJXJXJXJXJXJXJXJXKXJXJXKXJXJXJXJXJXJXJXJXJXJXJXJXJXJXJXJXJXJXJXJXJXJXJXJXJXJXnX6X|.}.}.}.}.Q.U.I.U.Q.Q.Q.Q.U.I.s.Q.U.U.U.U.m.I.I.U.U.U.U.I.m.m.I.I.U.I.",
"% - % % % % % % - - % % - - - - - - - - - - - - - - - - , , , , , , , , , = = , ; ; + < P U.|.|.}.U.x.%.^ ^ ^ ^ L L L L L L ^ ^ R R L L L L L L L ^ L P L ^ ^ ] ` ` ' ' ' ' +.+.%.+.+.%.%.%.%.%.%.%.s.' ^ ^ ] ` ` ] ' { %.' +.U.*.O.#.s.nXs.P H Y Y R R G G G G G G G G G H F F B w e e 0 0 0 9 9 9 9 9 9 0 0 9 0 0 w h j j j h c c j c c c K b J J J A A A J J J J A A K K K K K K K K K K K K K K K K K K K K K K K K K K K K K K K K K K K K K K K K W W W W W W K K K W K K K K K K K K K K K K W W W W W W W W ! ! / / / / / / / / ) ) ) / / / _ ! / / / / ! ! ! ! ! W W W ! W W W L K K K K K J K J H H A h h h h h h h w w w w w w w w w w w w w w w w w w w w w w w w w w w w B Z Z F F H H G G G ^ -.T O.=.*.*.Y.U.Y.%.s.s.u.s.s.U./.|./.I.n.}.{.|.2X2X*X*X|.{.{.{.*X2X2X].R.gXBXgXsXsXGXGXGXwXsXBXFXKXKXKXKXKXKXKXKXKXJXJXJXJXJXJXJXJXJXJXJXJXJXJXJXJXJXJXJXJXJXJXJXJXJXJXJXJXJXJXJXJXJXJXJXJXJXJXJXJXJXJXJXJXJXJXJXJXJXJXJXJXJXJXJXJXJXJXKXKXKXKXJXJXJXJXKXKXJXJXJXJXJXJXJXJXJXJXJXJXJXJXJXJXJXJXJXJXJXJXKXKXJXJXJXJXJXJXJXJXJXJXJXJXJXJXJXJXKXKXKXKXJXJXJXJXKXnXnX}.}.}.}.}./.U.U.U.Q.Q.Q.Q.U.m.x.Q.U.U.U.U.m.I.U.U.U.U.U.I.I.I.U.U.U.I.",
"- - - - - - - - , , - - - - % % - - - - % , , - - - , - , , , , - - - - , @ , , - - - ; - ; J m.|.|.|.Q.x.%.' ' ] ^ L L L L L ^ ^ ^ L L L L L L L L P L L ^ ^ ^ ^ ^ ] ] ] ' ' ' +.+.+.+.+.+.+.+.%.%.+.` ^ ^ ^ ] ] ] ' +.%.' ^ U.I.=.O.+.%.L P U R R R R U G G U U G G H H F F w w w e 9 9 9 9 9 9 9 9 9 0 0 0 0 h h h c h j j j c c c J J K K K J J J J J J J J K K K A K K K K K K K K K K K K K K K K K K K K K K K K K K K K K K K K K K K K W W K K K K K W W W K K W W K K K K K K W W W W W W W W ! ! ! ! ! ! / / ) ) ) ) ) ) / / / ) / / / / / / / / ! ! ! ! ! ! W W W W W L L K K K J J K H j h h h h h h h h h h w w h 0 w w w w w w w w w w w w w w w w w w w w w w w w w w w w w Z Z Z F F H G G Y R T ^ O.=.*.I./.U.s.I.U.s.s.#.u.Q.{././.c.m.}.{.6X2X*X2X6X{.{.#X2X*X'.Z.5XsX0XgXsXBXDXBXmXgXmXFXHXJXJXJXJXJXJXJXJXKXKXKXKXKXKXKXKXKXKXKXKXJXJXJXJXKXJXJXJXJXJXJXJXJXJXJXJXJXJXJXJXJXJXJXJXJXJXJXJXJXJXJXJXJXJXJXJXJXJXJXJXKXKXKXKXJXJXJXJXKXJXJXJXKXKXKXKXJXJXJXJXJXJXJXJXJXJXJXJXJXJXJXJXJXJXJXJXJXJXJXJXJXJXJXJXJXJXJXJXJXJXJXJXJXJXJXKXKXKXKXKXJXJXKXJXLXeX|.|.}.}./././.U.U.U.U.Q.Q.Q.U.s.x.U.U.U.U.U.I.I.U.U.U.U.U.U.I.I.I.I.U.U.",
"- - - - - - - - - % % - - , , - - - - - % - - - - - , % , , , , , , - - , , , , - - - - & & - 4 J I.|.eX}.U.x.%.{ ' ] ^ ^ L L L L ^ ^ ^ L L L L c P L L L ^ ^ ^ ^ ^ ^ ^ ^ ] ' ' ' ' ' ' ' ' ' ' +.+.' ^ L ^ ^ ] ] ] ' +.%.] L x.I.O.L L L P ^ R R R R Y U G G G G G H F F B w w w e e 9 9 9 9 9 9 9 9 9 0 w w h h c c c j j j j c c c J J J K K J J J J J J J J K K J A K K K K K K K K K K K K K K K K K K K K K K K K K K K K K K K K K K K K W W K K K K W W K K W W W W W W W W W W W W W W W W W W ! ! ! ! _ ! / / ) ) ) ) ) ) ) ) ) / / ! _ ! ! ! ! ! W W W W W W W K K K K K K K J c c c H A h h h h h h h h h g w 0 0 0 0 w w w w w w w w w w w w w w w w w w w w w w w w w w w w w Z Z B Z F F H H G G Y R T ^ O.=.s.I.Y.U.U.Y.s.s.s.s.Q./.{.Q.T.I.I.2X*X6X6X2X6X2X2X*X*X).~.qXsX0XgXsXgXDXGXBXmXBXFXHXJXJXJXJXJXJXJXKXJXKXKXKXKXKXKXKXKXKXKXKXKXJXJXJXKXKXKXKXKXJXJXJXJXJXJXJXJXJXJXJXJXJXJXJXJXJXJXKXJXJXJXJXJXJXJXJXJXJXJXJXKXKXJXJXJXJXJXJXJXJXJXJXKXKXKXJXJXJXJXJXJXJXJXJXKXJXJXJXJXJXJXJXJXJXJXJXJXJXJXJXJXJXJXJXJXJXJXJXJXJXJXJXJXJXKXKXKXKXKXKXKXKXJXKXnX|.|.}.}././.Q.U.U.I.I.U.U.U.U.m.u.m.I.I.I.I.I.m.m.I.I.U.I.I.I.m.m.m.m.m.m.",
"- - - - % % - - - - - - - - - - - - - - - - - - - - - % , , , , , , , , , , , , , - - - - - - - - 1 0 x.|.|.|.U.x.%.+.' ] ] R L L L ^ L L L L P J L ^ L L ^ ^ ^ ^ ^ ] ] ] ] ^ ] ' ' ' ' ' ' ' ' ' ' ] L L L ^ ^ ] ] ' +.+.+.L +.%.] L U J R ^ ^ R R U G U G G G H H F D B w e e e e 9 9 9 9 0 0 0 0 0 e w h h h h F c c j j c j c c J J c c c c J k k k k k J A K K K K K K K K K K K K K K K K K K K K K K K K K W W W K K K K W W K K K K K K W W W W W W W W W W W ! W W W W W W W W W W W W W W ! ! ! ! ! ! _ _ / / ) / ) ) ) ) ) ) ) / / _ _ ! ! W ! W W W W W W K K K K K K K J J c c j j A j h h h h h h h h h h w 0 w 0 0 0 0 w 0 0 w w w w w w w w w h w w w w w w w w w w w w w w Z Z B B w Z Z F H H G U Y R ^ ^ O.x.s.I.Q.I.Y.Y.m.I.m.s.Q.{.6X{.Q.}.(.{.6X6X5X5X5X5X*X~.[.sXsX0XgXsXqXZXDXZXDXDXHXHXKXJXJXJXJXJXJXJXJXJXJXJXJXJXJXJXJXJXJXJXJXJXJXJXJXJXKXKXJXJXJXJXJXJXJXJXKXKXKXKXJXJXJXJXJXJXKXKXJXJXKXKXKXKXJXJXJXJXJXJXJXJXJXKXJXKXJXKXKXKXJXJXKXKXKXJXJXJXJXJXJXJXKXKXKXKXKXKXJXJXJXJXJXJXKXKXJXJXJXJXJXJXKXKXJXJXJXJXJXKXJXJXJXKXKXKXKXKXKXKXKXKXKXLXnX|.}././.U.U.I.I.I.I.I.I.I.I.I.x.s.I.I.I.I.I.x.x.x.m.m.m.m.m.x.x.x.x.x.x.x.",
", % - - - , - - - - - - - - - - - - - - - - - - - - - - , , , , , , , , , , , , , , , , - < 2 - - - < - 0 s.|.6X|.U.x.%.%.' ] ^ ^ ^ L L L L P P ' ^ L ^ L ^ ^ ^ ^ ^ ^ ] ^ ] ] ] ] ] ] ] ' ' ' ' ` ' ^ P L L ^ ^ ] ] ' ' ] +.^ ^ R R L U J Y R U U U Y G U G G G H F B w w w e e e 9 9 9 9 0 0 0 e w w w h h h h h h c c j j c c j j c c j j j j k k k k A k A A K K K J K K K K K K K K K K K K K K K K W K L K K W K K K K W W W W K K K K K K W W W W W W W W W W ! ! ! W W W ! ! ! ! W W ! ! ! ! / / ! ! ! ! _ _ _ _ / / / / / ) / / / _ _ ! _ ! W W W W W W K K K K K K K K K K c A c j j j j h h h h h h h h h h h w 0 w w 0 0 w w 0 0 w w w e e w w w h h w w w w w w w w w w w w w w B B B B w B Z Z Z F H H G G Y R ^ O.#.*.Y.U./.I.I.Q.I.s.I.x./.6X2X/.{.W.W.}.#X2XwXsX2X~.*XgXsX0XgXsX5XBXAXZXDXDXHXHXKXKXKXKXKXKXKXKXKXKXKXKXKXKXKXKXJXJXJXKXKXKXKXKXKXKXKXKXKXKXKXKXKXKXKXKXKXKXKXKXKXKXKXKXKXKXKXKXKXKXKXKXKXKXKXKXKXKXKXKXKXKXKXKXKXKXKXKXKXKXKXKXKXKXKXKXKXKXKXKXKXKXKXKXKXKXKXKXKXKXKXKXKXKXKXKXKXKXKXKXKXKXKXKXKXKXKXKXKXKXKXKXKXKXKXKXKXKXKXKXKXKXHXnXeX|.}./.U.I.I.I.m.m.x.m.x.x.x.x.x.x.I.x.x.x.x.x.s.x.x.x.x.s.s.x.s.s.s.x.x.x.",
", - - - - % , - - - - - - - - - - - - - - - - - % % % % - - - - - , , , , , , , , , , , - , - - - - - , - < c s.}.|.}.U.s.%.+.+.' ] ^ ^ P L L x.] ^ L L L L L L ^ ^ ^ ^ ^ ^ ] ] ] ] ] ] ^ ] ^ ^ ^ ] ^ L L L ^ ^ ] ] ] ] +.+.] P J U U U U U U U G G Y G G H H F F B w w e e e e e 9 9 r 9 0 w h h h h h h A A h H A c c c c c c j j c c A A j j j j J J A A A A A A A J J J K K K K K K K K K K K K K K W W W L W K W W W W W W W W K K K K W W K K K K W W W W W W ! ! ! W W W ! ! ! ! ! ! ! ! ! / / / ! ! ! ! / _ _ _ / / / / / / / / _ _ _ _ ! W W W W K K K K K K K K K J J k k A j H A j j h h j h h h h h h h h h h w w w w w w w w h h h w w w w w w w w h h h h h w w w w w w w w w Z Z Z Z Z Z Z Z Z Z F F H H G G Y R O.#.*.s.I.Q.Q.U.I.s.m.x.c.{./.2X6X{.{.Q.(.'.*X*X5X1XsXgXsXsXgXsX3XDXFXZXFXDXGXHXHXHXHXHXHXKXKXKXKXKXKXHXHXKXKXKXKXHXHXHXKXHXKXHXHXHXHXHXHXHXHXHXHXHXHXHXHXHXHXHXHXHXHXHXHXHXHXHXHXHXHXHXHXHXHXHXHXHXHXHXHXHXHXHXHXHXHXHXHXHXHXHXHXHXFXFXHXHXFXFXFXFXFXFXFXFXFXFXFXFXFXFXFXFXFXFXFXFXFXFXFXFXFXFXFXFXFXFXFXFXFXFXFXFXFXFXFXDXGXGXDXVXwX6X{.}./.U.I.I.x.x.x.x.x.x.x.s.s.s.s.x.x.s.u.u.u.u.s.s.s.s.s.u.u.s.s.u.u.s.s.s.",
"- - - - - - , - - - - - - - - - - - - - - - - - - % % % - - , , - - , , , , , - , , , , - - - - , , - , - - ; < < +.{.}.}.I.*.*.%.' ] L L ^ U.%.^ L L L L L L L L L L L L ^ ^ ^ ^ ^ ^ ^ ^ ^ ^ ^ ^ ^ ^ L L P ^ ^ ] ] ] ] ' R P R J J J U U G G G G G G G H H F B w w e e e e e e e 9 9 9 0 h h A h h h h A A F F A A c c c c c c j j j c A A j j j j J J A A A A A A A J J K K K K K K K K K K K K K K K W W W W W K W W W K W W W W K K K K W W K K K K W W W W W W W W W W W W ! ! ! ! ! ! ! ! / / / / ! _ ! _ _ _ / / / / / / _ / / / ! ! ! ! W W W W K K K K K K A A K A k k k k A j H A j j h h j h h h h h h h h h h w h h w w h h h h h h h h w w w w w w h h h h h w w w w w w w w w h w B Z Z Z Z Z B Z Z Z F F H H G U R ^ O.#.s.Y./.{.Q.m.m.I.I.m.u.}.6X6X6X{.{.{.{.'.*X5XgXmXsXsXsXsX3XZXDXZXSXDXDXHXFXFXFXFXFXFXFXFXFXFXFXFXFXFXFXFXFXFXFXFXFXFXFXFXFXFXFXFXFXFXFXFXFXFXFXFXFXFXFXFXFXFXDXDXFXFXFXFXDXDXAXAXAXAXAXAXAXAXAXAXAXAXAXAXAXAXAXAXAXAXAXAXAXAXAXAXAXAXAXAXSXSXAXAXAXAXAXAXSXSXcXcXcXcXcXcXcXSXSXSXSXSXcXcXcXcXcXcXcXcXcXcXcXcXcXkXkXaXpXsXnXeX2X{./.Q.U.I.m.x.x.s.s.s.s.s.s.u.u.u.u.s.s.u.%.u.u.u.u.u.u.u.u.%.%.u.u.%.%.%.u.u.",
"- - - - - - - - - - - % , - - - - - , - - % % - - - - - , , , , - - , , , , - - , , , , , , , , , , , , , - , - , < Y U.|.|.|.U.x.*.%.+.U./.%.L L L L L L L L L L L L L L L L L ^ ^ ^ ^ ^ ^ ^ ^ ^ ^ L L L P ^ ^ ] ] ] ] R P J P P J U J G G G G G G G H H F w w w e e 9 9 e e e 0 e e w Z F J J H h h h j j j j j j c c c c j j j j j j A A J A j j A J A A A A A A k k J J K K K K K K K K K K K K K K W W W W K K W K K K W K W W W W W W W W W W W W W W W W W W W W W W W W W W W W ! ! ! ! _ _ ! ! _ _ ! / / / / / / / ) _ _ _ / / ! ! W W W W W K K A k k J J k k k k k k A k J k c c j j h h h h h h h h h h h h h h h h h h h h h h h h h h h h h h h h h h h h w w w w w w w w w w w h B w h h Z Z w w Z Z Z Z Z F H G L R R / O.*.Y.Q.}./.U.Q.Q.Q.c.s./.{.wXwX6X6X2X{.2X5XsXmXsXsXsXsX3XBXZXZXMXFXFXDXSXAXAXSXcXcXcXcXcXcXcXcXcXcXvXcXvXvXcXcXcXcXcXcXcXcXcXcXcXcXcXcXcXcXcXcXcXcXvXcXcXcXcXcXcXcXcXcXcXvXvXvXcXcXcXzXzXzXzXzXzXzXzXzXzXzXzXzXzXzXzXzXzXzXzXzXzXzXzXzXzXzXzXzXzXzXzXzXhXhXhXhXhXhXhXhXhXhXhXhXhXhXxXxXxXxXuXuXuXuXuXuXuXiXuXuXdX0X3X5X1X#X'./.Q.U.I.m.x.x.s.u.s.u.u.u.u.u.%.%.%.u.u.%.%.%.%.%.%.%.%.%.%.%.%.%.%.%.%.%.%.%.",
"% - - - - - - - - - , % , % % - - - - - - - , , - - - - , , , , - , , , , , - - , , , , , , , , , , , , , , , , @ < < J x./.|.|.U.U.U.U./.%.] ' L L L L L L L L L L L L L L L L L L L L ^ ^ ^ ^ ^ ^ L L L P ^ ^ ] ] ] ] J U P J J G J J U G G G G H H F F w w e e e 9 9 9 e e 9 0 e w h H G K K J H c h j j j j j j c c c c c j j j j j A A A A j j A A A A A A k k k k J J K K K K K K K K K K K K K W W W W W K K K K K K W K W W W W W W W W W W W W W W W W W W W W ! W W ! W W W W ! ! ! ! _ _ _ ! ! ! ! ! / / / / / / ) _ _ _ ! ! ! W W W W W K K k k k k k k k k k k k k A A J c c c j j h h h j h h h h h h h h h h h h h h h h h h h h h h h h h h h h h h h w w w w w w w w w w w h h B B h h h h w w B B h h Z Z F F G G U R X.O.#.%.Q.}./.{./.Q.Q.I.n.n.{.2XwXnXwXwXsXwXqXsXsXsXsXsX1XfXBXZXSXFXHXgXgXvXvXvXvXvXxXxXxXxXxXxXcXcXvXvXxXxXvXvXzXzXzXzXzXzXzXzXzXzXzXzXzXzXzXzXxXxXxXxXxXzXxXxXxXxXxXxXxXxXxXxXxXxXxXxXxXxXxXxXxXxXiXiXxXiXiXiXiXiXiXiXiXiXiXiXiXiXiXiXiXiXiXiXiXiXiXiXiXiXiXiXiXiXiXiXiXiXiXiXiXiXiXiXiXiXiXiXbXbXbXbXbXbX9X9X3X&X+X+X].'.W.Q.U.I.m.m.x.x.s.u.u.u.u.u.u.u.%.%.%.u.u.%.%.%.%.%.%.%.%.%.%.%.%.%.%.%.%.%.%.+.",
"% , - - - , - - - - - - - - - - - - - - - - - - - , % % , , , , - - - , , , - - , , , , , , , , , , , , , , , , - - - - 5 ] U.}.|.}.U.x././.U.I.x.*.%.{ ' ] ^ L ] P J L L L L L L L L L L L L L L L L L L L T ^ T ] R H R R G J G G G G G G G H H F F B e e e 9 9 9 9 9 9 e 0 0 0 0 h F J K K K J J j h h h j j j j j c H H j j A A j j j j j j j j J J A A A A k k k A A A k k A K K K K K K K K W W W W W W W K K W W W W W W W W W W W W W W W W W W W W W W W W W W W W ! W W ! ! ! _ _ ! ! _ ! ! ! _ _ _ _ _ / ! ! / / _ _ _ _ _ W ! W W W W K K K A A A k A J A k A j k J J J c c c j j j h h h h h h h h h h h h h h h h h h Z F h Z Z h h h h h h h h h h w w w w w w w w w w w w w h h w h h h h w w w w w B B B B B Z F H G Y R R ^ ' %.x./.|.}.Q.Q././.Q.I.n.2X6X5XmXmXmXsXsXsXsXsXsX5XsXZXZXBXSXHXFX:XvXuXbXiXiXiXiXiXzXxXuXzXzXxXuXiXbXiXxXxXiXiXxXuXuXuXuXuXuXuXuXuXuXuXuXuXyXuXiXiXiXiXuXuXuXiXiXiXiXiXiXiXiXiXiXiXiXiXiXrXrXrXrXbXbXbXiXrXrXbXbXrXrXrX4X4X4X7X7X4X4X9X7XrXrXrXrXiXiXrXrXbX4X4X4X7X7X7XrXrXrX4X4XrXrX7X4X>X>X>X>X>X>X;X=X]._.).~.~.W.(.T.n.m.m.m.x.x.s.u.u.u.u.u.%.u.u.+.%.%.%.%.%.%.%.%.%.%.%.%.%.%.%.%.%.%.%.%.%.+.",
"- - - - % , - - - - - - - - - - - - - , - - - - , , % % , , , , - - , , , , - - , , , , , , , , , , , , , , , , - - - - - < < 0 5 4 < ; 6 v ] x././.Q.Q.I.x.%.' ] R L R L L L L L L L L L L L L L L L L L L T ^ ^ J c J Y R G G G G G G G G H H F F w w e 9 9 9 9 9 9 9 e 0 0 0 0 0 h F J K K K J J j h h h j j j j j j H H j j j A j j j h j h j j A A k k k k j j j j j j k k j k A K K K K K K K W W W W W W K W W W W W W W W W W W W W W W W W W W W W W W W W W W W W W W W ! ! ! _ _ ! ! ! ! ! ! _ _ _ _ _ _ ! ! / / _ _ _ ! ! W ! W W W W K K A J J A A J J A k A k A J J J c c c j j j h h h h h h h h h h h h h h h h h h F F h h Z h h h h h h h h h h h h h w h w w w w w w w w w w w w h h h h w w w w B B B B B Z F F F H G U R R ^ +.u.I./.|.|./.Q.{.}.I./.~.W.5XsXsXsXsXsXsXsXsX5XfXBXBXBXBXFXFXAX:X:X0X9XrXrXrXiXrXuXcXxXuXuXuXbXbXrXxXrXrXrXiXuXiXrXrXiXiXyXrXiXyXiXiXyXyXiXyXiXrXrXrXiXiXiXrXrX7X7X7X7X7X>X>X4X4X4X4X>X>X>X>X>X>X>X>X>X>X>X>X>X>X>X>X>X>X>X>X>X>X>X>X>X>X>X>X>X>X>X:X>X;X;X;X;X;X;X;X;X;X;X;X;X>X;X;X;X;X;X;X&X&X@X+X].).~.W.R.T.n.m.m.m.x.x.s.s.u.u.u.%.%.%.%.%.%.+.%.%.%.%.%.%.%.%.%.%.%.%.%.%.%.%.+.+.+.+.+.+.",
"- - - - - - - - - - - - , - - - - - - - - - - - , - - % , , , , , , , , , , , , , , , , , , , , , , , , , , , , , , , - o - ; - - - - - - ; ; & 1 v L +.U./.}.U.I.x.%.+.' ^ L L L L L L L L L L L L L L L R T ^ L c J R Y T G G G G G G G H H F F w w e 9 9 9 9 9 0 0 0 0 0 0 h g h c J J K J K K J c j j j j j j j j j H H j j j j j h h h h j h h h h h h j j j j g g j j j j j j j k J K K K K K K W K K W W W W W W W W W W W W W W W W W W W W W W W W W W W W W W W W ! ! ! W ! ! ! ! / ! ! ! ! / _ _ _ _ _ _ _ _ / ! _ _ / ! ! W ! W W W W K K K A J J J J J A k A j j A k k J c A k j j c c h j h h h h h h h h h h h h h c H H c h c c c c c c h h h h h h h h h h h h h g 0 g 0 0 g 0 h h h h h h h h h h w w w w h Z F F F F F H G P Y ^ #.u.Y.{.|./.U./.{.2X/.{.(.W.#X5XsXsXgXsXsX0X0XfXBXBXBXgXAXFXFXFXdXhX:X>X>X>XbXrXcXyXiXiXrXrX;X&XbXuX;XbXrXrXrXrXrXrXrX9X9X9X9X9X9X9X9X9X9X4X9X>X>X>X>X>X>X>X>X>X>X>X>X>X>X>X>X>X>X>X;X;X;X;X;X;X;X;X;X;X;X;X;X;X;X;X@X@X@X@X&X&X&X@X@X@X@X@X@X@X@X@X@X@X@X@X@X@X@X@X@X@X@X@X@X@X@X$X+X+X+X+X+X+X_.).~.Q.R.T.n.n.m.m.x.x.s.u.u.u.u.%.%.%.%.%.%.@.+.+.@.@.+.+.+.+.+.+.+.+.+.+.+.+.+.+.+.' ' ' ' ' ",
"- - - - - - - - - - - - - - - - - - - - - - - - , - - - , , , , , , , , , , , , , , , , , , , , , , , , , , , - , , , , , % - < < - < - - % - < - - - - 2 5 H Y *.U.|.}./.I.%.%.' ^ L L L R L L L L L L Y L R ^ J Y ^ R Y R G G G G G G H H F w w e e 9 9 9 9 0 0 0 0 0 w w h h g j c K K J J J K J c j j j j j j j j j A A j j j j h h j j j h h h h h h g h g g g g g g g g g g g j j j k J K K K K K K K K K W W W W W W W W W W W W W W W W W W W W W W W W W W W W W W ! ! ! W ! ! ! ! ! ! ! ! ! ! _ _ _ _ _ _ _ _ ! ! _ _ ! ! ! ! ! W W W K K K K J J J J J A A k A j k A A A c c A j j j c c h j h h h h h h h h h h h h h c H H c h c c c c c c h h h h h h h h h h h h h h h h h g 0 0 h h h h h h h h h h h h w w h Z F F F F F H H H R T ^ O.=.s.Q.{.|.|.}.I./.|.{.'.~.'.#X1XsXsX0X5XpXBXBXmXBXwXSXFXFXFXAXgX-X-X;X;X>XkXuX9X4X4X4X4X@X@X>XuXoX;X9X>X9X9X9X4X9X9X9X3X3X3X;X;X=X=X&X&X=X;X;X;X;X;X;X;X;X%X&X&X@X@X@X@X@X@X@X@X@X@X@X@X&X&X&X&X@X@X@X@X+X$X$X$X$XOXOXoXoX+X+XoXOXOX_._._._.OXOX_._._._._._.OXOXOX_._._.OXOXOX_._._._._._._.~.W.B.n.m.m.m.c.m.x.s.u.u.u.%.%.%.%.%.%.+.@.%.{ [ +.+.+.+.+.+.+.+.+.+.+.' ' ' ' ' ' ' ' ' ] ' ' ",
"- - - - - % , - - - - - - - - - - % % , - - - - - - - - - - , , , , , , , , , - , , , , , - - - , , , , , - , , , , , , - % - - , , , - - - , , , , < , , - - ; < - 4 J +.x.Q././.Q.I.x.+.+.] ] R P L +.] ^ L J J R R R R R U G G H H F F h w e 9 9 9 9 0 0 7 1 3 h F h h h h h j c b K W L L L P J J J c j h j j h j j h h j j h h h h h h h h h 0 h h g g g g g g g 0 g g g g g g g j j j k A J K K K K K K K W W W W K W W W W W W W W W W W W W W W W W W W W W W W W W W W W W ! ! ! ! ! ! ! ! ! ! ! ! ! ! ! ! _ _ _ _ _ _ ! ! W W W W W W K K K k k k k A A A k k k k A k k k c k c c c c J H j j j h h h h h h h h h h h h c H H c c c c c c h h h h v h h c c c c c c h h h h h h h h h h h h h h h h h h h v v v v v v v v v F F F F F G U T -.^ O.s.U.}.6X6XQ.m.{.5X5XwX5X*X{.2X2X5X5XsXfXBXfXSXwXgXFXFXqXgX9XyX0XaX&XlX>X=X:X:X;X&X@XOXOX4X;XoX@X&X;X&X=X=X&X&X@X@X&X#X#X#X#X@X@X@X@X$X$X$XOX+XoX+X+XoXoXoXoXoXoXoXoXOXOXOXOX_._._._.oX].]._._.`._.`.`.OXOX^.^.`.`.`.`.~.!.R.!.A._.!.~.~.~.~.!.!.!.!.!.!.!.!.!.!.!.!.!.!.!.!.E.E.R.R.Z.Z.n.n.m.c.i.s.s.s.s.s.u.u.%.%.%.%.%.+.+.+.+.+.{ ' ' ' ' +.+.+.+.+.+.O.' ' ] ] ] ] ' ] ] ^ ^ ^ ^ ^ ",
"- - - - - % - - - - - - - - - - - % , , - - - - - - - - - - , , , , , , , , , - , , , , - % - - - - , - - % - - - - - - - % - - , , , , , , , , , , , , , < , - - < < ; < < 5 0 L #.I.}.|./.U.I.x.+.+.#.] ] R R R R R Y Y Y G G H H F Z w w e 9 9 7 0 0 0 0 0 0 h H U J h j j j c c K L ! ! ! ! L P K K J j j j j j j h j h g g h h g g h g g g 0 0 0 0 0 0 0 0 0 0 0 0 0 g g g g g g g g h j j j k A K J K K K K K K W K L W W W W W W W W ! W W W W W W ! W W W W W W W W ! ! ! ! ! ! ! ! ! ! ! ! ! ! ! ! _ _ ! ! ! ! _ _ W W ! ! W W W W W W W K K k k k k k A A k k k k J J b k J J k c c c J H h j h j H H h h j h h h h h h c H H c c v v c c h h h h v v c c c c c c F c c c c c c h h h h h h h h h h h c c c F H H H H F v ;.;.F F F F H H G U T X.=.*.I.W.{.2X'.{.#X2X5X6X2X2X2X1X5X5XtXsXfXfXBXpXsXDXFXqXE.0XZX3X4XpX&XOX_.@X+XoX_.`.!.D.3X^.OXOX$X@X+X+X+X+X+X+X+X+X+X+X+X+X$X$X$X$X$XOXOXOXOX^._.^.^.~.~.~.~.~.~.~.^.^.^.^.~.~.~.!.!.!.!.!.!.!.!.!.!.!.^.D.D.!.!.!.!.E.R.Z.B.B.R.R.R.R.R.R.Z.Z.R.R.B.A.R.R.R.R.E.R.R.R.Z.Z.(.T.B.n.n.n.c.c.i.s.u.u.u.u.u.u.u.%.+.+.+.+.+.+.+.+.' ' ' ' ' ' ' ' ' ' O.O.' ' ] ^ ^ ^ ] ] ] ^ ^ ^ ^ ^ ^ ^ ",
"- - - - % % % % % % = = - - - - % % % % % % % % % % % % - - % % % % - - - - - - , , , , - % % % - - , - % % % % % % - % % % % % - - , , , , , , , , , , < , , < - 2 2 & < - - < 3 5 5 5 v ] x./.|.|.|.eX%.] R P R Y Y G U G G H F F Z w w e 9 7 7 7 7 7 3 0 h h ^ L J J K c c c b K P W / / / ^ ^ P L K J j j h g g g g g g g g g g 0 g g 0 0 0 0 0 0 0 0 0 0 0 6 6 6 6 6 0 0 0 0 0 0 g g g g h j j k k A K K K K K K K K K W W W W W W W W _ ! ! W ! ! ! ! ! ! ! ! ! ! ! ! ! ! _ _ _ _ _ _ _ _ / / / / _ _ _ _ ! ! _ _ _ _ W W ! W W W W W W W W K K b k k k k K A A k J J c K K K K K b k c c J J h h A J J H c h c c j j j c h j H H H c c c c c c c v v v v c c c c c c F F H H J H F F c c F F Z F c F c c c H H H H H J J H F F v v F F F H H H G Y  . .O.#.i.T.|.2X*X'.'.2X2X2X5X5X5X5XtXtXtXsXfXfXsXqXDXFXFXgX1X3X0X5XoXoXoX_.`.^.!.R.R.A.A.&XV.^.^.OX_.~.~._.`.`.~._._._.).).).'.'.'.~.~.~.~.^.^.^.~.~.(.E.E.E.(.(.E.E.E.E.E.E.R.R.R.R.R.R.R.Z.Z.Z.R.Z.Z.R.R.S.S.S.S.A.A.Z.R.B.n.B.B.B.T.B.B.B.B.B.B.B.n.n.n.n.n.n.n.n.n.n.n.n.n.m.m.c.c.c.i.s.s.s.u.u.u.u.u.%.%.@.+.+.#.#.#.+.+.+.+.+.' ' ' ' ' ' ' ' O.O.O.' ] ] ] ] ] ] ] ] ^ ^ ^ ^ ^ ^ ",
"- - - - % % % % % % = = - - - - % % % % % % % % % % % % - - - - - - - - - - - - - , , , % @ % % - - , - % % % % % % % % % % % % - - - - , , , , , , , , < , < - - < < - - - , - - , - , 2 1 2 2 0 R s.U.] T R Y Y P G G G G H F Z Z w e 0 9 7 7 7 7 7 7 3 0 j K [ ! K P b b b b K P W ! [ { { [ ! ! ! K J j j j g g g g g g 8 8 0 0 0 0 0 0 0 0 0 9 7 7 5 5 3 3 3 3 3 3 3 3 0 0 0 0 0 0 g g g g g j j j j k k k K K K K K K K W W W W W W W ! ! ! ! ! ! ! ! ! ! ! ! ! ! _ _ ! ! _ _ _ _ ! _ _ _ _ _ / / _ _ _ _ ! ! _ _ _ _ ! ! W W W W W W W W W K K k k k k k A K A A J J K K K K K K K b c c J J c c J J J H H H H c c j j j h j H H H c c c c c c c v v v v h h c c c c F F J J H J H H H H H H F F F F F F H H H H J J G G J J H H F F F F F H H H E E E Y ^ { s.I.Q.|.6X2X/.{.*X2X5X5XtXsXtX0XpXsXsXsX1XDXDXFXBXsX#XR.R.!.~.R.A.!.R.A.Z.B.V.!._.z.R.!.~.~.!.E.E.E.!.!.~.~.~.~.~.~.~.~.~.~.(.^.E.(.(.(.R.R.R.R.R.R.R.R.R.R.R.R.R.R.T.T.R.R.R.R.R.T.B.B.B.B.B.Z.Z.B.V.B.B.B.Z.A.T.T.n.R.B.W.T.T.T.T.T.T.T.T.T.T.T.T.T.T.T.T.T.T.U.I.I.I.m.m.c.x.s.s.s.s.s.u.u.u.u.u.u.%.+.%.%.%.%.%.%.#.#.+.+.+.+.+.+.+.+.+.#.#.#.O.O.O.+.+.+.+.+.O.' ' ' ' ' ' ",
"% % % % - - = = = = = = = = = = % % % % % % % % % % % % - - - - - - - - - - - - , , , , - @ @ @ = = = = = = = = = = = @ @ @ = = , , , , , , , , , , , , , , , , , , , - , , ; ; ; ; ; < 2 2 2 2 0 3 0 L T L Y Y Y G G G H H F h w w 0 9 9 7 7 1 w 7 3 0 J L / / y./ W W b b b b K W ! / { @.@.{ ! / ! K c c j j g g g 0 6 6 6 5 8 8 6 6 6 6 6 6 5 6 5 5 3 3 3 3 3 3 3 3 3 0 0 0 0 0 0 0 0 g g g g g h j j j k k k A K K K K K K K W W W W W ! ! ! _ _ _ _ _ ! ! ! ! ! ! _ _ _ _ _ _ ! ! ! _ _ _ _ _ _ _ _ ! _ _ _ _ _ _ ! ! W W ! ! W W W W W W W K K K K b k k k k k k b b K K K K K K K K K c J J j J K K J H J J H H j j j j c c H H c c c c c c c v c h j j j j h j F H J H J J H G J J J J H J J J H H H H J J J J G G U U P Y L R F h h h h Z H H G U E Y Y ^ #.s.Y.Q.|.6X|.{.'.{.5X0XsXsXsXsXsXsXsX1X6XDXGXHXFX+XZ.!.!.].+X#X[.].!.!.z.l.B.E.Z.Z.+X).wX1X#X#X#X#X#X#X#X{.{.#X#X#X#X*X2X2X1X$X].1X5X1X1X1X5X{.{.2X5X5X5X5X'.5XmXwX5XwX5X*X{.mX6X2X#X2X#X'.5X5X5X5XwX*X*XsXmXwXwXmXwX{.2XGXBXwX6XwX{.*X6X5X5X2X2X2X(.2X6X#X2X2X2X/.{.{.{.{./.Q.I.I.I.U.U.I.I.I.x.x.x.x.x.x.s.s.s.s.s.s.s.s.u.*.%.%.%.%.%.%.*.%.*.*.x.%.O.O.#.%.#.+.+.O.+.+.+.+.",
"% % % % - - = = = = = = = = = = % % % % % % % % % % % % - - - - - - - - - - = = , , , , - = @ @ @ @ @ @ = = = = = = @ @ @ @ = = , , , , , , , , , , , , , , , , , , , , , , ; ; ; ; ; ; , , 2 2 5 h J J L Y Y U G G G G H F w w w 0 9 7 7 7 7 7 7 7 w J ' [ / / y.| ! ! K W m W W ! ^ ` +.u.u.{ ! ^ ^ P J c j g g g g 0 6 6 6 6 8 8 6 6 6 6 6 6 5 5 5 5 0 0 9 9 3 3 3 3 7 0 0 0 0 0 0 0 0 0 g g g g g g g j j j j k k k b b K K K K W W W W ! ! ! ! _ _ _ _ / ! _ _ _ _ _ _ _ _ _ _ / ! ! ! _ _ _ _ _ _ ! ! ! ! _ _ _ _ ! ! W W ! W W W W W W W W W W K K K K K b K K K K K K K K K K K K K K K J J J K K K J H H J J H j j j j c c H H c c c c c c v c c c c c c c H H J J K K K K K K K K K K K K J K J J J J J J J K K P P L R / ^ ^ ^ L K H j h h w H G U Y Y Y ^ O.*.Y./.|.|.|.6X2X'.*X5XsXsXsXsXsXsX#XsXDXSXHXDXwXqX5X[.gXDXDXDXGXZX*Xl.Z.{.{.c.mXGXmXGXmXmXmXmXmX5XsXsXwXwXwXwXwXwXwXwXwXwXwXwXwXwXwXwXwX5X2X2X5X6X5X5X5X*X{.'.#X'.{.2X2XW.{.W.'.W.'.'.(.T.R.R.R.{.(.n.m.v.c.c.v.(.n.c.m.s.i.s.T.m.c.i.p.p.i.i.c.} y.6./ ) u.u.[ [ [ [ { [ ` ^ ! L P P P J J c c c c c c v v v v v h h h h g g g g 0 0 6 3 1 4 4 h 6 5 5 5 5 5 5 3 3 4 4 1 1 ",
"% % % % % % @ @ @ @ @ @ = = = = % % % % % % % % % % % % = = = = = = = = = = = = = - , , , @ @ @ @ @ @ @ @ @ @ @ @ @ @ @ = = = = - - - - % % , , , , , , , , , , , , , , , , < < < < < - , 2 3 5 h G Y J Y Y U J G G G H F w w 0 0 9 7 1 1 9 9 9 3 0 J R $.+.! } p.} ! ! W W W ! ! ! ) [ y.c.c.y./ ` / W J j j j g g g 0 6 6 6 6 0 0 0 0 0 0 0 6 5 5 5 5 0 8 7 7 8 5 5 5 8 0 0 0 0 0 0 0 g g g g g g g g g j j j j j j k k k b K K K K W W W W ! ! ! ! ! _ _ / / / _ _ _ / ) / / ) / / / / ! _ _ _ _ ! ! ! ! ! ! ! ! _ _ ! ! W W ! W W W W W W W W W W W K K K K K K K K K K K K K K W W L K K K K K K K J K J H H J J J c c c c c c H H c c c c c c c c c c J J K K K K J J K K K L L L K P K K K K K K K K K K K K P P L L ! ! ! / / / O.+.#.[ L j j g h F G U U Y R ^ O.=.x.I./.{.6X6X#X#X1X5X0X0X0XwX5X*XmXBXBXDXFXqXqX-X+X0.0.p.0.0.Z.m.E.mXmX{.x.i.l.p.y.y.y.y.y.y.8.0.d.6.6.6.6.} } } } } } y.y.| } } } } } } } } } } } } [ ) } } } ) / ) / ! ! ! ! | [ ) / / / / / ) / / / / / / ! / / ! ! ! ! ! ! ! ! ! ! ! ! ! ! ! W K K K K P P P P K K J J c c c v c v g g g 0 0 g 0 0 0 0 0 0 6 6 6 6 5 5 5 6 5 3 1 4 3 3 3 4 3 4 < < < < < < ; ; < ; ; ",
"% % % % % % @ @ @ @ @ @ = = = = % % % % % % % % % % % % = = = = = = = = = = = = = = - - - @ @ # @ # # # @ @ @ @ @ @ @ @ = = = = - - - - % % , , , , , , , , , , , , , , , , < < < < < < 2 3 0 h G P Y P U U G G G H H F w w 0 0 9 9 1 1 3 9 9 9 w J L P { } ! i.p.| ~ ~ ! ! ! ! ! ! ` [ y.m.m.y.^ [ / ! J j h g g g g 0 6 6 6 6 0 0 0 0 0 0 0 6 5 3 5 5 0 0 7 7 8 5 8 8 8 0 0 0 0 0 0 0 g g g g g g g g g g j j j j j j k k k k b K K K W W W W ! ! ! ! _ _ / / / _ _ _ / / / ) / / / / / ! ! _ _ _ ! ! ! ! ! ! ! ! ! _ ! ! W W ! ! W W W W W W W W W W W W W K K K K K W W K K K W W ! W W K K K K K K K K J J J J J J J A k c c c c H H k J c j j c c K K K K K K L L W K L W W W W W W W W L L L L K K L L L K L L L ! ! ! ! ! ! / ! @.u.c.T.s.! b j h h F G U U U R R O.#.*.x.U.}.2XwX5X#X*X1X1X2X2X5XwXwXmXmXBXFXE.Z.*X5XR.| | | ~ y.i.y.l.c.y.$.{ } @.[ } } } } | } 6.6.} } } } } [ [ [ | [ [ [ [ [ | | / ) [ ` ) / [ [ / / ! ! / | ! ! ` ! ! / W ! / [ / / / / / / / / / / ) ) ! ! ! ! W W ! ! W ! ! W W ! W K K K K K P W P J c b c c c c c c c v j v v g g g 6 6 0 6 0 0 0 0 6 6 5 5 5 3 3 3 5 0 3 3 3 3 3 3 1 2 3 5 < , , , , , , , < , , ",
"% % % % % % @ @ @ @ @ @ = = = = % % % % % % % % % % % % = = = = % % % % = = = = = = = - = = @ @ @ @ + @ @ @ @ @ @ @ @ @ - = = = @ @ = = = = - - - - , , , , , , , , , , , , , , < 2 2 1 0 H J J U U U Y U G H H H F F w e e 9 9 9 9 7 9 9 9 9 5 0 c c ^ @.y.} b.d.| ) ~ ! W W ! / ! / } y.s.U.c.! ! / W c j j g g g g 0 6 5 0 g 6 6 0 0 0 0 0 5 6 3 6 5 7 7 9 9 0 0 0 0 0 0 g g g g g g g 0 g 0 g g g g g g g g j j j j k k k k b b b b K K W W W ! ! ! _ / _ / / / _ ) _ _ / / ) ) / / / ! _ _ _ _ ! ! ! ! ! ! ! ! _ _ ! ! _ _ ! ! W W W W W W W W W W W W W W W W W W W W W W W W ! ! ! W L K K K K K K K K K K K K k K K K J c c K J c c K b b b K K K W W W W ! ! ! ! ! ! ! ! ! ! ! ! / ! ! W W W W W W W W W W ! ! ! ! ! ! ! / / ) @.s.T.~.].R.d.W K c h G H G G G G Y T +.*.s.U.|.6XeXwXwX2X].2X#X5X5XsXwXBXmXFXwX} } qXv.~ ! ! ! | ` | | [ [ [ [ [ [ [ [ [ [ [ [ ( ( [ [ | | [ [ / [ [ ` ^ ^ ^ ^ / / / / / / / / / / / / / / / ^ ! ^ ! ! ! ! ! ! ^ ! ! ! ! ! ! ! ! ! ! ! ! ! ! ! ! ! ! ! ! ! ! W P P K P P P P K K J J J J K c c v c c c v v c c h h h h g g g 0 0 0 0 0 0 0 0 0 0 0 5 5 9 9 3 5 3 3 3 1 1 2 2 1 1 1 1 1 1 1 1 1 2 < < < < < ",
"% % % % % % @ @ @ @ @ @ = = = = % % % % % % % % % % % % = = = = % % % % = = = = = = = = = = @ @ @ @ @ @ @ @ @ @ @ @ @ @ = = = = @ @ = = = = - - - - , , , , , , , , , , , , , , 2 2 1 9 c J L Y U U P U G H H H F Z w e 9 9 9 9 3 3 9 9 9 9 9 6 0 g v @.y.0.0.b.0.8.| | ~ W W ~ ) ! / @.p.s.m.i.! ! ! P c j g g g g g 0 6 5 0 0 6 6 0 0 0 0 0 0 0 6 0 0 0 0 0 0 0 0 0 g 0 w h h h h h h g g g g g g g g g g g g g j j j j k k k b k k b b K W W W W ! ! _ _ _ / / / ) ) _ _ / / ) ) ) / / ! _ _ _ _ ! ! ! ! ! ! _ ! _ _ ! ! _ ! ! _ W W ! ! W ! ! ! ! ! ! ! W W W W W W ! ! W W W ! _ ! ! W W K K K K K K K K K K K K A K K K K K K K K K K K K K K K W ! ! ! _ _ ! / / ! _ _ _ / / / / / ) ! ! ! ! ! ! ! ! ! W ! ! ! ! ! ! ! ! ! ) ) ( y.i.B.(.#X].~.B.! k d c H H G G G Y R ] O.+.s.U.|.2XqXsXsXwXmXsXsXsXsXwXBXmXDXmXi.Z.'.#X! ! ! ! / / ) / ` ` ` ` / ) ) ) ) ) ) ) ) ) ) ) / / / / / / / / ^ ^ ^ ^ / / / / / ! ! ! ! ! ! ! ! ! ! ! ^ ^ ^ ^ ! ! ^ ! ! ! ! ! P P P P P P P P ! ! P P P P L P P P P P K K K K K K K J J J J J K c c v v v v v j j v h h h h h g 0 0 0 0 0 0 0 0 6 6 6 5 5 5 5 3 3 3 3 3 3 3 1 1 1 1 1 1 1 1 1 1 1 2 2 < < < < < < ",
"% % % % % % = = = = = = = = = = @ @ @ @ @ @ = = @ @ @ @ = = = = = = = = = = = = = = = = = @ = @ @ @ @ @ @ @ @ @ = = @ @ = = = = @ @ @ @ = = - - - - , , , , , , , , , , , , , , 2 1 9 w H Y R Y Y U U G G H H F Z w e 0 9 7 7 7 5 5 9 9 9 9 9 0 g g c y.p.0.a.V.d.0.0.d.~ ! ! ) | ) | y.i.s.n.p.! ! ! P c j g d g g g g 0 0 0 0 0 0 0 0 0 0 0 0 0 0 0 0 0 0 0 0 0 g g 0 g h h h h h h j j g g g g g g g g g j j j j j j j k k k k b k k k b K W W W W ! ! _ _ _ ) ) ) ) ) ) ) ) ) ) / / ) ) ! _ _ _ _ _ _ _ ! ! _ _ _ _ ! ! _ _ _ _ _ _ _ _ _ _ ! ! ! ! / ! ! ! ! ! ! ! / / ! ! ! / ! / ! ! W W W W W W W W W W W W K K K K K K K K K K K K K K W W ! _ / ) ) / ) ) ) ) ) _ ) ) ) ) ) ) ) ) ) ! ! ! ! ! ! ! ! ! ! ! ! ! ! ! ! ! ~ / ( } d.i.B.A.$X+X+X].T.y.! j h H H G G Y Y T ^ ] +.x.U.}.2XqXwXmXsXmXmXsXsXsXgXgXZXDXwXwXT.W.! ! ! ! / / / / / / ^ ^ / / / / / / / / / / / / / / ^ / / / / / ^ ! ! ^ ! ^ ! ! ^ ! ! ^ ! ! ! ! ! ! ! ! L L L L L L L L L L P P P P P P P P K K P P P P P P P K P J K J J b c c c J c c c J J J c c v g h h h h h h h h g g g g 0 0 0 0 0 9 9 9 5 3 3 3 3 3 3 3 1 1 1 1 1 1 1 1 2 2 2 2 2 < 2 2 < < < < < , , , - - ",
"% % % % % % = = = = = = = = = = @ @ @ @ @ @ = = @ @ @ @ = = = = = = = = = = = = = = = = = @ = @ @ @ @ @ @ @ @ @ = = @ @ = = = = @ @ @ @ = = - - - - , , , , , , , , , , , , , , 1 9 w v G Y R Y U U U G H H F h w e 0 9 9 7 7 7 9 9 9 9 9 9 9 0 v J J ` i.0.z.V.d.d.p.i.| ~ ~ | | ( } p.i.s.m.p.! ! ! P c j g d g g g g 0 0 0 0 0 0 0 0 0 0 0 0 0 0 0 0 0 0 w 0 g g g g h h h h h h h h h g g g j j j j j j j j j j j j j j k k k k k k k k b K W W W W W ! _ _ / ) ) ) ) ) ) ) ) ) ) ) ) ) _ _ _ _ _ _ _ _ ! ! _ _ _ _ ! ! _ _ _ _ _ _ _ / / / / / / / / / / ! ! _ ! / ) ) _ _ _ ! / / _ ! W W W W W W W W W W W W W K W K K K W W W W W W W W ! / / ) ( ) ( ( ( ( ( ( ( ) ) ) ) ) ) ) ( ( ) ) ) ) ) ~ ~ ~ ! ! ! ! / ! ! ! ! ~ ~ ) } } d.a.v.V.OXoX$X=X~.[.W.y.J h F H U Y Y R R L ] %.%.c.Q.{.wXmXwXwXmXsXsXsXgXgXSXZX#X} ! i.! / / / / ! ^ ! / / / / / / / / / / / / / / / / ^ ^ ^ ^ / / / ! ^ ^ ^ ^ ! ^ ! ! ^ ^ ^ ^ ^ ^ ! ^ ! ! ! ! L L L L L L L L L P P P P P J P J J J J J J J J P J J J J J c c c c c c c c c c c c c c c c h g g h g g g g h h 0 0 0 0 0 0 6 0 9 5 5 3 3 3 3 3 3 3 3 1 1 1 1 1 1 1 1 1 2 2 2 2 < < < < < , , , , - - - > > ",
"% % % % % % % % - - = = = = = = = = = @ @ @ = = @ @ @ @ = = = = = = = = % % = = = = = = = = @ = @ @ @ @ @ @ @ @ @ @ @ @ = = = = = = = @ = = - - - - , , , , , , , , , , < < < < 1 9 w F U Y Y Y U G G H F v w 0 0 9 9 9 9 9 9 9 9 9 9 9 =.F 5 0 g %.' { i.0.a.V.a.z.i.b.| ~ ~ ) | | } d.d.a.c.y.! ! ! K c g g d g g g g g g 0 0 0 0 0 0 0 0 0 0 0 0 0 0 g 0 g g g g g g j j j j h h j j j h h j j j j h j j k j j j j j j j k k k k A A k k b K W W W W W W _ _ / ) ) ) ) ) ) ) ) ) ) ) ) / _ _ _ _ _ _ _ _ _ _ _ _ _ _ _ _ _ ) _ _ ) ) / / ) ) ) ) ) ) ) ) ) / / / ) ) ) ) ) / _ ) ) ) ) / _ ! ! ! ! ! _ _ ! ! ! ! ! ! W W W W W W ! ! _ ! _ ! / ) ( } 6.} } } } ( ( ( ( ) ) ) ( ( ( ( ) ( ( ( ( ( ( ( ( ) ) ) | ) ) ) ) / ~ ) ) | } 8.d.a.a.V.^.$XOX;XOX$X5X'.u.P v g F G U Y R L L ^ +.%.x.U.{.6XeXwXwXmXmXgXgXpXmXDXp.b W c.W W W W L L L P ^ / / / ^ ^ ^ ^ ! ! ! ! ! ! ! ^ ^ ^ ^ ^ ! L L L L ! ! L L L L L L L L L P L P P P P P P P P P P P P P P P J J J J J J J J J J J J J J J J J J J J J J J c c c J J F F c F F F F c c h h g g g g g g h 0 0 0 0 0 0 0 0 9 9 7 5 3 3 3 3 3 3 3 3 3 1 1 1 1 2 2 1 2 1 2 2 < 2 < , < < < < < , t , , > > ",
"% % % % % % % % - - = = = = = = = = = @ @ @ = = @ @ @ @ = = = = = = = = % % = = = = = = = = @ = @ @ @ @ @ @ @ @ @ @ @ @ = = = = = = = @ = = - - - - , , , , , , , , < < 2 2 1 1 0 w H G Y Y Y U U G H F h w 0 9 9 7 3 3 9 9 9 9 9 9 0 0 v =.O.U U c ` } | 8.a.A.a.z.z.b.| ~ ~ ) | 6.8.d.p.n.c.} W W K b j g g g g g g g g g 0 0 0 0 0 0 0 0 0 0 0 0 0 0 g g g g g g g g j j j j h h j j j j j j j j j j j j k k j j k j k k A k A k K K k k b K W W W W W ! ! _ / ) ) ) ) ) ) ) ) ) ) / ) ) / _ _ _ _ _ _ _ _ _ _ _ _ _ _ _ _ ) ) ) / / ) ) ) ) ) ) ) ) ) ) ) ) / / / / ) ) ) / ) ) ) ) ) ) ) ) ) ) ) ) ) ) / / ) ) ) ) ! ! ! _ _ _ ) ) ) ) ( ) } 6.6.6.6.6.6.6.6.2.} ( ( ( ( ( ( ( ( ( ( ( ( ( ( ( ( ( ( ( | | | | ) ) ) ) ) ( ( | 8.8.0.a.a.V.^.=XOX$X$X$X3X=XW.y.L J c H U Y Y Y L L / O.%.s.I.'.2XqXwXmXMXjXjXBXZXFXqXQ.p.[ W W W W L L P ! ! ! ! ! / / ^ ! ! ! ! ! ! ! L L ! ! L L L L L L L L L L L P P P P P P P P P P P P P K K J J J J P P J J J J J J J J J J J J J c J c c c c J J J J J c c c c H H F c c c c c c c c h h 0 0 g g g h h 0 0 0 0 0 0 0 0 0 0 9 9 9 5 5 3 3 3 3 3 3 3 1 1 1 1 1 1 1 1 1 2 2 2 2 < , , , 2 < < , t , , , , ",
"% % % % - - - - - - - - = = = = = = = = @ @ @ = = = @ @ = = = = = = = = % % = = = = = = = = @ @ = = @ @ @ @ @ @ @ @ @ @ @ @ = = = = = = = = - - - - , , , , , , < < < 2 1 1 1 1 v G Y Y Y Y Y U G H F v w 0 9 3 3 3 1 3 1 5 9 9 9 0 0 0 w 0 P L ' %.%.} ` 0.V.!.z.V.z.v.| ~ ~ | 8.8.0.i.d.c.d.! W W K b j j g d g d g g g g g g g g g g 0 0 0 0 0 0 0 0 g g g g g g g g j j j j j j j j j j c c k k k k j k k k k k c c k k k k K K K K k k b K W W W W W ! ! _ / ) ) ) ) ) ) ) ) ) ) ) ) ) ) / / / _ _ ) ) ) ) ) ) ) ) ) ) ) ) ) ) ) ) ) ) ( ( ( ( ( ( ( ( ( ) ) ) ) ) / ) _ ) ) ) ( ( ( ( ) ) ) ) ) ) ) ) ) ) ) ) ) ) ) ( ( ( ( ( ( ( 6.6.} } 6.6.6.6.6.6.6.6.6.6.} } } 6.( } ( ( } } ( ( ( ( ( ( 6.} 6.6.6.| } | } | | ( | | | 8.8.0.0.a.a.V.^.$XOX;X%X%X4X5X*XT.@./ L J J R Y Y R R ^ / ' #.u.m./.{.1XwXgXgXgXSXAXDXGXZ.u.b W W L L P P ! W P W ! ! ! ! L ! ! L P P L L L L P P L L P P P P P P P P P K K K K K P P P P K K K K K K J J J J J J J J J J J J J J J J J J J J J c c c J J J J H J c c c c c c c h c c c c c c c h h 0 0 h g h g 0 0 0 0 0 0 0 0 0 0 0 9 9 9 5 5 3 5 5 5 5 5 5 1 1 1 1 1 1 1 1 1 2 2 2 2 2 , , , , < < , > , , , , ",
"% % % % - - - - - - - - = = = = = = = = @ @ @ = = = @ @ = = = = = = = = % % = = = = = = = = @ @ = = @ @ @ @ @ @ @ @ @ @ @ = = = = = = = = = - - - - , , , , , , , , 2 2 1 1 5 5 G R R R Y Y U G H F v w 0 9 5 1 1 1 1 3 1 3 9 9 9 9 0 0 0 0 5 h h c +.} } a.A.!.V.V.z.z.| ~ ! ) 8.0.d.a.y.} ! W W b b j j j g g j g g g g g g g g g g g g g g g g g g g g d d g g g j j j j j j j j j j j j c c A A J k k j k k k k c b b k k k K K K K k k b K W W W W W W ! ! / ) ) ) ) ) ) ) ) ) ) ) ) ) ) ) ) ) / ) ) ) ) ) ) ) ) ) ) ) ) ) ) ) ) ) ) ) ( ( ( ( } } } ( } ( ( ( ( ) ) ) _ ) ) ( ( 6.} } ( ( ( ( ( ( ( ( ( ( ( ( } } } | } } 6.6.6.6.6.6.6.6.6.6.6.6.6.6.6.6.6.6.6.6.6.6.6.6.6.6.6.6.6.6.} } 6.6.6.6.6.6.6.6.6.6.6.6.8.6.8.| 8.8.8.7.8.a.a.V.V.OX%X7X$X%X4X5X5X~.c.} [ ! J P L R R L R ^ / O.' u.c.m.).-X0X0X0XkXZXSXgX2Xy.c W W L L P P L P K K L L P P P P P P P P P P P P P P P P P P P P P P P P K J J K K K K K J J J K K K J J J J J J J J J J J J J J J J J J H H H H c J c c c c c c c c c c c h c c h h h c h c c c h h w 0 0 0 g g 0 0 0 0 0 0 0 0 0 0 9 9 9 7 3 3 3 1 3 3 3 3 1 1 1 1 1 2 1 1 1 2 2 2 2 < 2 , , , < < < < , > , , , , ",
"% % % % - - - - - - - - = = = = @ @ @ @ = = = @ = = = = = = = = = = = = % % = = = = = = = = = = = @ @ @ @ @ @ @ @ @ @ @ @ @ @ @ @ @ @ @ @ @ = = = = - - , , , , , , , , 1 3 0 H ^ T R R Y P U J F w w 0 9 9 3 1 1 1 3 3 3 5 9 9 9 9 0 0 0 3 4 h g ! / } 0.v.V.D.N.V.z.V.8.~ ~ ) 6.d.d.a.0.| ! b b b j j j j j j j j j j j j g g j j g g g g g g g g g g g g j j j j j j j j j j j j k k k k c c c c c k k k k k k k b b k b b K b b b K b b W W W W W W W W W _ _ / ) ) ( ) ( ( ) ) ) ) ) ) ) ) ) ) ) ) ) ) ) ) ) ) ) ) ) ( ( ( ) ) ) ) ) ( ( ( ( ( } } ( ( 6.} } } ( ( ) ) ( ( ) ( } } 6.6.6.6.6.6.6.} 6.} 6.6.6.6.6.6.6.6.8.8.6.6.6.6.6.6.6.6.6.6.6.6.6.6.6.6.6.6.6.} 6.6.6.6.6.6.6.6.6.6.6.6.6.6.6.6.6.8.7.7.7.7.7.7.7.7.7.7.8.8.8.7.8.a.a.f.V..X;X3X4X4X7XtX;XOXa.a.i.@.#.! R K P / U P L ^ ` { y.l.B.`.*X:X9XaXFXgXE.mXmXT./ ! K J J ! P J U P P K P P P P P P P P P P P P J J J J J J U J P P P J J J J J J J J J J J J J J J J J J J J J J J J J J J J J J J J F H H c c c c c c c c c c c c c c c h h h h h h h h h g g g g 0 0 0 0 0 0 0 0 0 0 0 0 9 9 9 9 9 5 9 3 3 3 3 3 3 3 3 1 1 1 1 1 1 1 2 2 2 2 2 2 2 < 2 2 < < < < < , > > % % , , ",
"% % % % - - - - - - - - = = = = @ @ @ @ = = = @ = = = = = = = = = = = = % % = = = = = = = = = = = = @ = @ @ @ @ @ @ @ @ @ @ @ @ @ @ @ @ @ @ = = = = - - , , , , , , , , < 1 v R T R Y Y P U G F h 0 0 9 9 3 1 1 1 3 1 3 9 9 9 9 9 9 0 0 0 h 5 j 6 @.{ } } 0.a._.N.N.V.V.8.~ ~ ) 6.d.a.a.y.} ~ m b k j j j j j j j j j j j j j j j j j j j j j j j j j j g j j j j j j j j j j j j j k k k k c c c c c c c c c c b b k k k b b K b K K K W b W W W W W W W W W _ ) ) ) ) ( ( ( ( ( ( ( ) ) ) ) ) ) ) ) ) ) ) ) ) ) ) ) ) ( ( ( ( ) ) ( ( ( ( ( ( ( ( } 6.6.2.6.} } } ( ( ) ) ( ) ( ( } } 6.6.6.6.6.6.6.6.6.6.6.6.6.6.6.6.6.8.6.6.6.6.6.6.6.6.6.6.6.6.6.6.6.6.6.6.6.6.6.} 6.6.6.6.6.6.6.6.6.6.6.6.6.6.6.6.7.7.t.t.d.d.d.d.d.d.d.d.0.0.7.7.7.a.a.V.^..X$X4X3X4X7X7X7X%XV.9.a.d.s.u.! K K ^ P R L ^ ^ [ } y.a.V.A.`.:XCXDX-X5X].~.T.T.! K v K j P P U U P K J J J J K K K K J J P J J J J J J J J J J J J J J J J J J J J J J J J J J J J J c J J J c c c c H c c c c c c c c c v j v v v v j j j j h h j h h h h h h h h h h 0 0 0 0 0 0 0 0 0 0 0 0 0 0 0 0 9 9 9 9 9 5 3 3 3 3 1 1 1 1 1 1 1 1 1 2 1 2 2 2 2 2 2 2 < < < 2 < < < < < < , > > % % , , ",
"% % % % - - - - - - - - = = = = @ @ = = = = @ @ @ @ = = = = = = = = = = % % = = = = = = = = = = @ @ @ @ @ @ @ @ @ @ @ @ @ @ @ @ @ @ @ @ @ @ = = = = - - , , , , , , , , 1 5 F ] R Y U U G G H c w 0 9 5 3 1 1 1 1 3 3 5 9 9 9 9 9 9 0 0 0 P g 6 d / u.| ! d.V.@XV.V.V.V.8.~ ~ ( 6.0.a.a.0.6.( ! b b k c b b b b k k k k c c c c c k k k b c c k k j j j j k k k k k k k k j j j j j j j c c c c c c J J b b K K K K b b b b b K K W W W W K W W W W W W W W W _ ) ( ( ) ( ( ( ( ( ( ( ( ( ) ) ) ) ) ) ) ) ) ) ) ) ) ) ) ( ( ( ( ( ( ( ( | ( 6.6.6.6.6.6.6.6.6.6.6.} } } ( ( } ( ( } } } 6.6.6.6.6.6.6.6.6.6.6.6.6.6.6.6.6.6.6.6.6.6.6.6.6.6.6.6.6.6.6.6.6.6.6.6.6.6.6.6.6.6.6.6.6.6.6.6.6.6.6.6.6.6.6.7.t.d.t.t.t.d.a.d.a.d.a.a.t.t.t.t.d.a.f.^.^.$X%X;X%X%X4X4XuX>X^.9.7.d.a.s.x.#.R P K P ^ ^ / ! ` } 8.z.A.OXiXFXMXAX5Xi.0.` 2Xu.c v J ^ J J J J K K J J J J J J U U J J J J J K J J J J J J J J J J J J J J J J J J J J J J J J c c c c c c c c c v c c c c c c c c c h h h h h h h j j h h h h h h h h h h h h h h g 0 0 0 0 0 0 0 0 0 0 0 0 0 0 0 0 9 9 9 9 9 5 3 3 1 1 1 1 1 1 1 1 1 1 1 2 1 2 2 2 2 2 2 2 < < < 2 < < < , < < , > > % % , , ",
"% % % % - - - - - - - - = = = = @ @ = = = = @ @ @ @ @ @ = = = = = = = = % % = = = = = = = = = = @ @ @ @ @ @ @ @ @ @ @ @ @ @ @ @ @ @ @ @ @ @ = = = = - - , , , , , , , , 0 w G Y Y Y U U J H F w 0 9 5 3 1 1 1 1 1 5 5 9 9 9 9 9 9 9 9 0 8 / j 4 u.s.y.| ! ) a.3XA.V.V.S.8.~ ~ ( 6.0.a.a.d.0.6.! b b b b b b b b b b b b b K K K K K K K K K K K K K K K b K K K K K k k k j j j j j j j j j c c c c K b K K K K K K K b b b b b K W W W W K W W W W W W W W _ _ ) ) ( ( ( ( ( ( ( ( ( ( ( ) ) ) ) ) ) ) ) ) ) ) ) ) ) ) ( ( ( ( ( ( } } | ( 6.6.6.6.6.6.6.6.6.6.6.6.6.6.6.6.6.6.} } } } 6.6.6.6.6.6.6.6.6.6.6.6.6.6.6.6.6.6.7.7.8.6.6.6.6.6.6.6.6.6.6.6.6.6.6.6.6.6.6.6.6.6.6.6.6.6.6.6.6.6.8.6.6.7.7.7.d.d.t.d.r.r.r.r.a.a.r.a.a.a.a.a.a.a.V.OX^.4X3X%X%X%X>X4X7X>X%Xf.9.a.t.B.U.s.s.%.! ! L ! ! ! ! | | V.OX9XNXCXNXsX0.~ y.b U.Q.{ j y.^ P c J J K K J J J J J J J U J J J J J J J J J J J J J J J J J J J J J J J J J J J J J J c c c c c c c c c c c c c c c c c j c h h h h h h h h h h j h h h h h h h h h h h g g 0 0 0 0 0 0 0 0 0 0 0 0 0 0 0 0 9 9 9 9 9 5 3 3 1 1 1 1 1 1 1 1 1 1 1 1 1 2 2 2 2 2 2 2 < < < 2 < < < , < < , > > > , , , ",
"- - - - - - - - - - - - % % - - = = = = = = = = = = = = = = = = @ @ = = = @ @ @ = = = @ @ = = = = = = = = = = = @ @ @ @ @ @ @ @ @ @ @ @ = = @ @ = = = = - - , - , 2 2 2 0 F Y R Y Y Y Y F D w 0 9 r 1 1 1 1 1 r 9 9 9 9 9 5 9 0 e 9 7 0 6 ^ ! 4 y.Q.s.} } | 0.0XS.S.V.a.8.~ ~ ( 6.0.a.a.a.d.0.| ! m b b b b b b b K K K W K K W K K K K W W W W W W W W W ! ! ! ! W W K K K b b k k c k b b b b b b b b b b K K K K b b b b b b K W W W W W W W W W W W W _ ) ) ) ( ( ( ( ( ( ( ( ( ( ( ( ( ) ) ) ) ) ) ) ) ( ( ( ( ( ( ( ( ( ( ( ( 6.6.6.6.6.6.6.6.6.6.6.6.6.6.6.6.6.6.6.6.6.6.6.} } } 6.6.6.6.6.6.6.6.6.6.6.6.6.6.6.6.6.y.y.y.6.6.6.6.6.6.6.6.6.6.6.6.6.6.6.6.6.6.6.6.6.6.6.6.6.6.6.6.6.6.7.7.6.8.7.d.d.d.t.r.r.a.a.a.a.a.a.a.a.a.a.a.a.f.V.V.D.$X;X;X%X;X%X4XxX7X;XC.8.8.a.a.a.d.a.i.6.6.! ) ! | } 0.a.@XjXCXCXAX9Xz.p.b b b p.| y././ J c c J J J K K K J J J J J J J J J J J J J J J J J J J J J J J J J J J J J J c c c c c c c c c c c c c c c j h h h h h h h h h h h h h h h h h h h h h h h h g g 0 0 0 g g 0 0 0 0 0 0 0 6 6 0 0 0 0 0 9 5 5 5 5 5 5 5 5 3 3 3 1 1 1 1 1 1 1 1 1 1 1 2 2 2 2 2 2 2 2 2 < < < 2 < < < , , , , , , , , > > ",
"- - - - - - - - - - - - % % - - @ = = = = = = = = = = = = = = = @ @ = = = @ @ @ = = = @ @ = = = = = = = = = = = @ @ @ @ @ @ @ @ @ @ @ @ = = @ @ = = = = - - , , , , , , H Y R R Y Y U U D w 9 1 1 1 1 2 < 2 9 0 e 9 9 5 5 9 9 9 9 3 7 h h /.s.b p.n.i.6.6.| 0.0X`.S.V.0.8.~ ~ ~ 6.0.a.a.a.d.6.! ~ W b b K K K K K W ! ! W W W W W W W W W W W W W W W W _ _ ) ) ) ) ) / / / ! W K K K K K K K K K K K K b K K W W K K K K K K K W W W W W W W W ! ! ! ! _ ) ) ) ) ( ( ( ( ( ( ( ( ( ( ( ( ( ) ) ( ( ) ) ) ) ( ( ( ( ( ( ( ( ( ( ( ( 2.2.6.6.6.6.6.6.6.6.6.6.6.6.6.6.6.6.6.6.6.6.6.} } } 6.6.6.6.6.6.6.6.6.6.6.6.6.6.6.6.6.6.6.6.6.6.6.6.6.6.} } } } } } } } } } } 6.6.6.6.6.6.6.6.6.6.6.6.6.7.7.7.8.7.d.d.d.a.a.a.a.a.a.f.a.f.f.f.f.a.a.a.a.f.f.D.OX%X;X%X>X<X4XxXiX7XOXV.1.q.V.f.a.a.a.6.a.B.(.y.0.c._.=XaXAXCXAXCXkX!.!.m } n.p.'.5Xy.[ J c J K J K J J J J J J J J J J J J J J J J J J J c c J J J c c J c c c c c c c c v v v v v v c c c c j h j h h h h h h h h h h h h h g g g g g g g g g g g g g 0 0 0 0 0 0 0 0 0 0 0 0 0 3 3 5 6 5 5 5 5 5 5 5 5 3 3 3 3 1 1 1 1 1 1 1 1 1 1 2 2 2 2 < < < < < < < < < < < < < , t > > > > > % % % % % % ",
"- - - - - , - - - - - - , , - - @ = = = = = = = = = = = = = = = @ @ = = = = @ @ = = @ @ @ @ = = @ = = = = = @ @ @ @ @ @ @ @ @ @ @ @ @ @ = = = @ = = = = - - - - - @ , 0 T T R Y U U H H w 9 1 1 1 2 2 2 2 1 9 e 0 9 5 r 5 9 9 9 1 1 9 h J +.VXmX'.).T.} } | 0.0XoXz.V.0.8.| ( ~ 6.d.a.a.d.d.0.6.~ m b b W W W W W ! / / ! W W W ! ! W W W W W W W _ _ _ / / ) ) ) } } } } [ ) / ! ! ! ! W W W W W W W W W W W W W W W W W W W W W W W ! ! ! ! ! _ ! _ _ _ ) ) ) ( ( } } } } 2.( 2.( ( ( ( ( ) ) ( ( ( ( ( ( ( ( ( ( ( ( 2.2.2.2.6.6.6.6.6.6.6.6.6.6.6.6.6.6.6.6.6.6.6.6.6.6.6.6.6.6.6.6.6.6.6.6.6.6.6.6.6.6.6.6.6.6.6.6.6.6.6.6.} } } ( ( ( ( ( ) ) ( ( ( ( ( ( ( } } } 6.6.6.6.6.6.6.6.6.6.7.7.7.8.t.t.d.r.a.a.a.a.f.f.a.a.f.f.f.f.a.a.a.a.a.f.S..X$X%X%X4X7X<XuXxXiX>X$Xa.9.f.V.a.0.0.8.v.].'.B.T.[.sX0X9XkXuXaXlXtX=XV.E.W i.} | n.! ! ` J J J J J J J J J J J J J J c c c c c c J J c c J J J J c c c c c c v v v c v v v v v v h h h h h h h h h h h h h h h h h h h h h h g g g g g g g g g g g g 0 0 0 0 0 0 0 0 0 0 0 0 0 0 3 3 6 6 5 5 5 5 5 5 5 5 3 3 3 3 1 1 1 1 1 1 1 1 1 1 2 2 2 2 < < < < < < < < < < < < < < > > > > > > % % % % % % ",
"- - - - - - - - - - , - , , - - @ @ = = = = = = = = = = = = = = @ @ = = = = @ @ = = @ @ @ @ = = @ = = = = = @ @ @ @ @ @ @ @ @ @ @ @ @ @ @ @ = = = = = = - - - - - - 9 R O.T Y U U G F w 9 r 1 1 2 2 1 1 9 9 9 9 9 r r 1 5 5 9 9 2 2 0 c b ! c.'.gXB.y.} | ) 8.9X`.q.S.z.5.8.( ~ 6.0.a.a.V.v.a.6.~ m m m W ! W ! ! / / ) ) _ _ _ _ _ _ _ W W W W ! _ ) ) / ) ) ) ) ) } } } } [ ) ) / ) / / / _ _ ! _ _ ! W W W ! _ _ _ ! ! W W W W W W W ! ! ! ! _ _ ! _ ) ) ) ( } } } } 6.} 6.6.( ( ( ( ( ( ( ( ( ( ( ( ( ( ( ( ( ( ( ( 2.2.2.2.6.6.6.6.6.6.6.6.6.6.6.6.6.6.6.6.6.6.6.6.6.6.6.6.6.6.6.6.6.6.6.6.6.6.6.6.6.6.6.6.6.} } } } } } } ( ( ( ) ) ) ) ) ) ) ) ) / ) ) / ) ( ( } } 6.6.6.6.6.6.6.7.7.t.t.7.7.t.d.d.r.a.a.a.a.f.f.a.a.f.f.f.f.a.f.f.f.N.V.V..X,X$X;X7X7X<XxXxXuX7X7XOX9.a.S.a.0.8.| a.'.E.v.R.].1X&X@XdX>XhXdXNXaXV.Z.Z.! W b } K c m.c H J J J J J J J J J c c c c c c c c c c c v c c c c c c c c c c c j v j j h h h h h h h h h h h h h h h h h h h h h h g g g g g g g g g g g g g g 0 0 g 0 0 0 0 0 0 0 0 0 0 0 0 0 0 6 3 3 6 6 5 5 3 3 3 3 3 3 3 3 1 1 1 1 1 1 1 1 1 1 1 1 2 2 2 2 < < < < < < < < < < < < < , > > > > > > % % % % % % ",
"- - - - - - - - - - - - - - - - = = = = = = = = = = = = = = = = @ @ = = = = = @ = = @ @ @ @ = = @ @ = = = = @ @ @ @ @ @ @ @ @ @ @ @ @ @ @ @ @ @ @ @ = = - - = = , 5 ^ *.O.R U G G H w 9 9 1 1 2 2 2 r 0 9 9 9 r 9 r 1 1 1 1 5 5 - 5 v @.! W p.Z.-Xz.6.p.| ) 0.`.;XN.S.D.~ 8.( ~ 6.t.v.A.V.a.d.6.~ W m m W W ! ! / ) ) ) ) ! ! ! ! _ _ _ ! W W W _ _ ) ) / ) ) ) ) ) } } } } ( ( } } } ) ) ) ) ) ) ) ) ) ) _ ) / ) ) ) ) / W W W W W W W ! ! _ _ _ _ ) ) ) ) ( ( ( ( } } 6.6.6.6.} } } ( ( ( ( ( ( ( ( ( ( ( ( ( ( ( 2.2.2.2.6.6.6.6.6.6.6.6.6.6.6.6.7.7.6.6.6.6.6.6.6.6.6.6.6.6.6.2.6.6.6.6.6.6.6.6.6.6.6.6.6.} } @.} } ( ) ) ) ) ! W W W W W W W W ! ! _ _ _ ! ! / ) ( ( ( } } } 6.6.6.7.0.d.d.t.t.t.t.t.r.r.a.a.f.f.f.f.f.f.f.g.V.f.g.f.V.C.C.C..XOX$X%X%X7X7XxXxXiXxXxXxX$Xr.S.a.0.8.8.a.'.T.B.a.A.+X+X@X4X9X;X>XlXMX8.| v.! d.W p.b c I.^ c H H J J H H H H H H H H c c H c c j c c c c c c h h c c c c c h h h h h h h h h h h h h h h h h h h h h h h w w g g g g 0 0 0 0 0 0 0 0 0 0 0 0 0 0 0 0 0 0 0 0 0 0 0 0 0 0 6 6 6 6 3 3 3 0 9 5 5 3 5 5 1 3 1 1 1 1 1 1 1 1 1 1 2 2 1 1 2 2 2 2 < < < < < < < < < < < < < , , , , , , , , , , , % % ",
"- - - - - - - - - - - - - - - - = = = = = = = = = = = = = = = = @ @ = = = = = @ = = @ @ @ @ = = @ @ = = = = @ @ @ @ @ @ @ @ @ @ @ @ @ @ @ @ @ @ @ @ = = = - = = , G *.*.T Y G H F w 9 3 1 1 1 2 2 1 9 9 9 r 1 1 1 1 1 1 1 5 1 2 < 4 6 @.P } | +XS.a.| } } ! p.S.:XD.N.S.| 8.( ( 6.d.V.A.A.a.d.8.( ~ W W W W ! ~ / ) } } ) / / ) ) ) ) ) _ _ _ _ _ _ ) ) / ) ) ) ) ( ( } ( } ( ( } ( ( ( ( ( ( ( ( ( ( ( ( ) ) ) ( ( ) ) ( ) ) _ _ _ _ _ _ _ ) ) _ ) ) ( ( ( } 6.( ( 6.} 6.6.6.6.} } } ( ( ( ( ( ( ( ( ( ( ( ( ( ( ( 2.2.2.2.6.6.6.6.6.6.6.6.6.6.6.6.6.7.6.6.6.6.7.7.6.6.6.6.6.6.6.2.} } 6.6.6.6.6.6.6.6.6.6.} } } } [ [ ) ) ! W K K K K K K K K K K W W W W ! ! ! / ) ) ) ) ( ) ( } 6.6.7.0.d.d.t.t.t.t.t.t.r.a.f.f.g.g.f.f.f.V.V.g.V.V.g.g.V.C.D..X.X$X%X%X4X7XxXxXiX7XuXxX3XC.V.a.8.6.8.a.~.B.B.V.v.!.D.&X;XiX@XCX@XNXdXz.b.} ~.#X/ b b %./ U J J J J H H H H F F c c c c c c c j c c h h h h h h h h h h h h h h h h h h h h h h h h g g g g g g h 0 h 0 0 0 0 0 0 0 0 0 0 0 0 0 0 0 0 0 0 0 0 0 0 0 0 0 0 0 6 6 6 6 5 5 3 3 3 3 3 3 3 3 3 3 3 3 1 1 1 1 1 1 1 1 1 1 1 1 1 1 2 2 2 2 < < < < < < < < < < < < < , , , , > > > > % % % > > > > % % ",
"- - - - , % - - - - - - - - - - = = = = = = = = = = = = = = = = = = = = = = = = @ @ @ @ @ @ @ @ @ @ @ = = = @ @ @ @ @ @ @ @ @ @ @ @ @ @ @ @ @ @ @ @ @ = = = = = , ^ Y.*.R G H c w 9 3 1 2 2 2 1 1 9 9 r r 1 1 1 1 1 1 1 1 < 9 U 1 < g n.c.).0.z.D.V.d.) | | ~ V.&XoX0.z.0.( | ~ 8.d.V.A.R.V.a.0.| ~ W W W ! ~ ) ( | } } | ( ( ) ) ) ) ( ) ) ) _ ) _ ) ) ) ( ) ( ) ( ( ( ( ( ( ( ( ( ( | } } } } ( ( ( ( } } } } ( } } } ( ( ( ) ) ) ) ) ) ) ) ) / ) ( ( ( ( ( ( 6.6.} } 6.6.6.6.6.6.6.6.6.2.( ( ( ( ( ( 2.2.2.2.2.2.6.6.6.6.6.6.6.6.6.6.6.6.6.6.6.6.7.7.6.6.6.6.6.6.6.6.6.6.6.6.6.2.} } ( ( 2.( 6.6.6.6.} ( } } } [ ) / ! W K k k k k k A K K K K K K K W W W W W ! ! / / ) ) ) ) ) ( 6.6.t.t.d.t.t.t.t.t.r.a.a.f.f.g.g.V.V.V.V.V.V.V.V.f.g.V.C.D..X.XOX%X%X4X4X7XxXxX7XiXxX7X$X^.f.8.1.( a.A.B.V.A.a.R.N.OX&XiX>XzX9XdXAXD.0.~ v.i.| / ^ ! L J J J J J H F F F c F c c c c c c v c c c c c c h c c h h h h h h h h h h h h h h h h w 0 g g g g g h g g h 0 0 0 0 0 0 0 0 0 0 0 0 0 0 0 0 0 0 0 0 0 0 0 0 0 0 0 5 5 5 5 5 5 5 5 5 5 3 3 3 3 3 3 3 3 1 1 1 1 1 1 1 1 1 1 1 1 1 1 2 < 2 2 < < < < < < < < < < < < < , < , , , , , > > % % % % > > % % ",
"% % - - , % - - - - - - - - - - = = = = = = = = = = = = = = = = = = = = = = = = @ @ @ @ @ @ @ @ @ @ @ = = = @ @ @ @ @ @ @ @ @ @ @ @ @ @ @ @ @ @ @ @ @ = = = = = < T Y.=.U H F 0 9 3 1 2 2 1 1 r 9 9 r 1 2 2 1 1 2 1 1 1 1 2 9 H T J P I.eX].).S.S.a.8.| ) ) | S._.`.0.0.z.~ 8.~ 8.d.V.A.^.V.a.d.8.~ ~ ! ~ ~ ( ( ( 6.6.6.| ( ( ( ) ) ) ) ) ) ) ) ) ) ) ) ) ) ) ( ( ( ( ( ( ( ( ( ( ( | } 6.6.6.6.6.6.6.6.6.6.6.6.} } } } } ( ( ( ) ) ) ) ) ) ) ) / ) ( ( } } } ( 6.6.} } 6.6.6.6.6.6.6.6.6.2.( ( ( ( ( ( 2.2.2.2.2.2.6.6.6.6.6.6.6.6.6.6.6.6.6.6.6.6.7.7.6.6.6.6.7.7.6.6.6.6.6.6.6.2.} ( ( ( ( ( } } } } ( ( ( ( } ) / ! c k k j k j j j j j j j j j c c K K K K K W W ! ! ! / ! / ) ) ( 6.7.7.t.t.t.t.t.r.a.a.a.f.g.g.g.V.V.V.V.V.C.V.V.V.V.C.C.C.^..XOXOX%X%X%X>XiXxXiXxXxXxX4X$XV.q.8.~ a.V.V.a.A.a.^.S.D.;XrX>XrXCXrXkXD.~ d.].n W ` u.J J j F H H H c c c c c c c v v h v v h h h h h h h h h h h h h h h h h h h h g g g h 0 0 0 0 0 0 0 0 g g g 0 h 0 0 0 0 0 0 0 0 0 0 0 0 0 0 0 0 0 0 0 0 0 0 0 0 5 5 5 5 5 5 5 5 5 5 5 3 3 3 3 3 3 3 3 3 3 1 1 1 1 1 1 1 1 1 1 1 2 1 1 2 < 2 2 < < < < < < < < < < < < < , , , , , , , > > % % % % > > % % ",
"% % % % % % % % % % % % % % % % = = = = = = = = = = = = = = = = = = = = = = = = @ @ @ @ @ @ = = = = = = @ @ @ @ @ @ @ @ @ @ @ @ @ @ @ @ @ @ @ @ @ @ @ @ = = = = < F Y.Y.^ H h 0 0 5 0 < < 1 0 w 0 5 1 2 1 1 1 1 2 2 2 < 2 2 r 2 9 5 P }.GXSXpX9Xz.| M ! m ~ ~ a.`._.V.0.a.5.~ ~ 8.a.S.^.^.f.V.8.8.~ ~ ~ ~ ( 6.6.0.7.7.6.| ( ( ( ( ( ( ( ( ( ) ) ) ) ) ( ( ( ( ( ( ( ( ( ( ( ( ( 2.6.6.6.6.6.6.6.6.2.6.6.6.6.6.6.6.6.6.6.} } } ( } } ( ) ) ) ) ) ) ) ( } 6.6.6.6.6.6.6.6.6.6.6.6.6.6.6.6.2.2.2.2.} ( ( ( ( ( 6.6.6.6.6.6.6.6.6.6.6.6.6.6.6.8.8.8.6.6.7.7.8.8.8.8.6.6.6.6.6.6.6.6.6.( 2.} } ( ( ( ( } } ( ( ) ) ) ! W b b K K c j j j h j j g 0 6 6 g j j c c c c K K K W W ! / / K W W _ _ ( 6.8.8.8.7.d.t.a.a.a.f.f.f.f.f.g.V.C.V.C.V.C.V.V.V.C.C.^..X.X.X$X%X%X7XiXxX7XxXjXjXuX$XS.a.8.| 8.z.V.d.V.V.V.V.S.&X;XrX>XrXlXzXyXq.oXm f ! s.L j K J F F F c c c c c v v v v h h h h h h h h h h h h h h h h g g h h g g h h 0 0 0 0 0 0 0 0 0 0 0 0 0 0 0 w 0 0 0 0 0 0 0 0 0 0 0 0 0 0 9 9 9 9 9 9 0 0 0 0 0 5 5 5 5 5 5 5 5 5 3 3 3 3 3 3 3 3 3 1 1 1 1 1 1 1 1 1 1 1 1 1 1 2 2 2 < < < < < < < < < < < < < < < , , , , , , , , , > % % % % % % % % % ",
"% % % % % % % % % % % % % % % % = = = = = = = = = = = = = = = = @ @ @ @ = = = = @ @ @ @ = = = = = = = = @ @ @ @ @ @ @ @ @ @ @ @ @ @ @ @ @ @ @ @ @ @ @ @ = = = = 2 w O.*.#.Y F 0 5 0 1 3 w w 0 9 5 1 2 2 2 2 2 2 2 2 < < 2 2 1 2 9 3 h ! VXgX0X=Xa.| ~ W ! m | 0.D.OXD.q.0.0.~ ~ 8.a.S.^.^.V.V.a.8.6.~ ~ ( 6.6.7.d.d.d.6.6.2.( ~ ) ( ( ( ( ( ( ( ( ( ( ( ( ( ( ( ( ( ( ( ( ( ( ( 6.6.6.6.6.6.6.6.6.6.6.6.6.6.6.6.6.6.6.6.} } ( ( } } ( ) ) ) ) ) ) ) ( } 6.6.6.6.6.6.6.6.6.6.6.6.6.6.6.6.2.2.2.2.} } ( ( ( ( 6.6.6.6.6.6.6.6.6.6.6.6.6.6.6.8.8.8.6.6.7.7.8.8.8.8.6.6.6.6.6.6.6.6.( 2.2.( } } } } ( ( ( ( ( ) ! W W K b b j j j j c J J J J H j h g 0 0 g h j j j j J K K L ! ! / / ! W W Q _ ~ ( 6.6.7.t.t.a.a.a.a.f.f.f.f.g.V.C.C.C.C.C.V.V.V.V.C.^..X.X.X%X%X4X7XiXxX7XxXxXxXxX%XD.f.0.0.| 8.V.V.z.V.S.0.8.S.>XbX>X>XuXuXkXoX0.n ! W I.k j K J h h c c c c c c h h h h h h h h h h h h h h h h h h h h g g 0 g 0 0 0 0 0 0 0 0 0 0 0 0 0 0 0 0 0 0 0 0 0 0 0 0 0 0 0 0 0 0 0 0 0 0 6 6 6 6 6 6 5 5 5 5 5 5 5 5 5 5 5 3 3 3 3 3 3 3 3 3 3 3 1 1 1 1 1 1 1 1 2 1 1 1 1 2 2 < < < < < < < < < < < < < , , , , , , , , , - , % % % % % % % % % % % @ @ ",
"% % % % % % % % % % % % % % % % = = = = = = = = = = = = = = = = @ @ @ @ @ @ = = @ @ = = = = = = = = = = @ @ = = @ @ @ @ @ @ @ @ @ @ @ @ @ @ @ @ = = @ @ = = = = 2 2 H ] #.^ G v v 0 9 G H v 9 1 2 2 2 2 2 2 2 2 2 2 < < 2 2 2 2 1 < 4 g Q.mXb.z.0.8.~ M ! m ~ | D.!.`.V.0.0.5.~ 8.a.S.^.^.D.^.V.q.6.6.6.8.8.7.t.a.a.t.8.6.2.( ( ( ( ( ( ( ( ( ( ( ( ( ( ( ( ( ( ( ( ( ( ( ( ( ( } 6.6.6.6.6.} } } @.} @.6.6.6.6.6.6.6.6.} } ( ( } } } ( ) ) ) ) ) ( ( ( 6.} 6.6.} } 6.6.6.6.6.6.6.6.6.6.6.6.2.2.6.6.( ( 2.2.6.6.6.6.6.6.6.6.7.7.6.6.6.6.6.6.8.8.6.7.7.7.6.6.6.6.6.6.6.6.} } } ( } } 2.2.} } } } ( ( ( ( ) _ W b b b b b k b c K L ! L L R R P U J h g g g g g g h j h K K P L ! / / / ! W W Q ~ ( 6.6.7.7.t.a.a.a.f.f.f.V.V.C.C.C.C.C.C.C.V.V.C.C.^..X.X.X$X;X<X7XiXuXiX7XxXxXxX;X^.N.q.a.~ ~ z.+XS.V.V.V.~ 8.D.;X;X>X9XzXzX`.0.| p.i.K j j K J h h h h h h h h v v v v h h h h h h h h h h h h h h h h w 0 0 0 0 0 0 0 0 0 0 0 0 0 0 0 0 0 0 0 0 0 0 0 0 0 0 0 0 0 0 0 0 0 9 9 6 6 5 5 5 5 5 6 5 5 5 5 5 5 5 5 5 5 5 3 3 1 1 1 1 1 1 1 1 1 1 1 1 1 1 1 2 2 2 2 2 2 2 2 < < < < , , , , < < , , < , , , t t > > , , - % % % % % @ % @ @ % % % % @ @ ",
"% % % % % % % % % % % % % - % % = = = = = = = = = = = = = = = = @ @ @ @ @ @ = = = = = = = = = = @ @ = = @ @ = = @ @ @ @ @ @ @ @ @ @ @ @ @ @ @ @ = = @ @ = = = = , @ < 0 U O.O.U H U ] Y h 0 1 < < 2 2 2 2 2 2 2 < < < < < < 2 2 , < < 6 b 2XA.a.0.8.| | M M m | `.V.`._.a.8.8.5.8.a.S.^.^.^.^.^.V.8.6.8.8.8.0.a.a.a.t.7.6.6.2.( ( ( ( ( 2.2.6.} 6.( ( } } } ( ( ( ( ( ( ( ( ( ( } } } } } } } } } } } } 6.6.6.6.6.6.6.} 6.} ( ( } } } ( ) ) ) ) ) ) ( ( ( ( 6.6.} } 6.6.6.6.6.6.6.6.6.6.6.6.2.6.6.6.( ( 2.2.6.6.6.6.6.6.6.6.7.7.6.6.6.6.6.6.8.6.6.7.7.7.6.6.6.6.6.6.} ( ( ( ( ( ( ( ( ( ( ( ( } ( ( ( ( ) W b k k k k c b K L ! / / ^ ^ / / ^ ^ R P J c h h h h g g h h A J K P ! / ) } ) ~ Q ~ ~ 2.6.6.7.t.a.a.a.a.a.f.N.V.C.C.V.V.V.V.V.V.V.V.C.^..X.XC..X%X>X7XiXuXiX7X7XxXxX>X^.N.q.a.8.( 8.S.!.`.^.V.5.8.V.OX@X;X9XzX&XoXV.E.| / / j j K J h h h h h h h h h h h h h h h h h h w h 0 0 h 0 0 0 0 0 0 0 0 0 0 0 0 0 0 0 0 0 0 0 0 0 0 0 0 0 0 0 0 0 0 9 9 9 5 5 5 5 5 5 5 5 5 5 5 5 5 5 5 5 5 5 5 5 5 5 5 3 3 1 1 1 1 1 1 1 1 1 1 1 1 1 1 1 1 2 2 2 < < < < 2 2 2 < < , , , , , , , , , < < , , , , > > > % % % % % @ @ @ @ @ % % % % % % % @ @ ",
"% % % % % % % % % % = = = = = = = = = = = = = = = = = = = = = = @ @ @ = @ @ @ @ = = = = = = = = @ @ @ @ = = = = @ @ @ @ @ @ @ @ @ @ @ @ @ @ @ @ % % % % % % % % % % % < 1 0 U ] R U H F 9 1 , , < < 2 2 2 2 2 2 < < < < < < 2 2 2 < < : d i.qXZ.a.8.| | ! m m 8.V.V.!.+XV.0.5.5.8.a.D.OXOXOXOX.XV.a.8.8.8.8.a.a.a.a.t.7.7.8.8.2.( ( 2.( 2.2.6.6.6.( | } } } | ( ( ( ( ( ) ) ) ) ( ) ( ( ( ( ( ( ( ( } } } 6.6.6.6.} } } } } 6.6.6.6.( ( ( ( ( ) ) ) ( ( ( ( ( ( } } 6.6.6.6.6.6.6.6.6.6.6.6.6.6.6.6.2.2.6.6.6.6.6.6.6.6.6.6.7.7.7.7.7.7.7.7.7.6.6.6.6.6.6.6.6.} ( ( ( ) ( ( ( ( ( ( ( ( ( ( ( ( ) ) ) ! W W b b b b b K K W ! ! ^ ^ ^ / / / ^ ^ ^ ^ ^ P H A h h h h w h h h h 0 H L / } ( ) ~ ~ ~ ( 6.6.7.d.d.a.a.a.a.V.N.V.C.V.C.V.V.V.C.V.V.C.C.C.^..XD..XOX%X<X7XiXiXiXiXiXiX>X.XN.9.a.8.~ ( a.z.V.R.`.a.8.q.S.D.rXuX9XoX@XA.m j b [ L j / 0 h h v v h h h h h h h h h h h h 0 0 0 0 w w w 0 w w w w 0 0 0 0 0 0 0 0 0 0 0 0 0 0 0 0 0 0 0 0 0 0 0 0 9 9 9 9 5 5 5 5 5 5 5 5 5 5 5 5 5 5 r r 5 5 3 3 3 3 3 3 1 1 1 1 1 1 1 1 1 1 1 1 1 1 1 2 2 2 2 2 < 2 2 2 < 2 < < < , , , , , , , < < , , , , , , > > % % % % % % % @ @ @ @ @ @ @ @ @ @ @ @ @ ",
"% % % % % % % % % % = = = = = = = = = = = = = = = = = = = = = = @ @ @ = @ @ @ @ = = = = = = = = @ @ @ @ = = = = @ @ @ @ @ @ @ @ @ @ @ @ @ @ @ @ % % % % % % % % % - % % , 2 1 0 0 5 1 < , , , , , , , , , , , , , , , , < < 2 2 2 2 < : d | E.!.V.0.| ~ ~ m m 8.z.D.z._.S.a.5.5.8.a.D.OXOXOXOX.XD.f.q.9.8.9.a.a.f.a.a.9.7.8.8.2.2.2.2.2.2.6.6.6.6.( | | | | ( ( ( ( ( ) ) ) ) ) ) ) ) ) ) ) ) ) ) ( } } ( } } 6.6.6.6.} } } 6.6.6.6.( ( ( ( ( ( ( ( ( ( ( ( ( ( ( } 2.6.6.6.6.6.6.6.6.6.6.6.6.6.6.6.2.2.6.6.6.6.6.6.6.6.6.6.7.7.7.7.7.7.7.7.7.6.6.6.6.6.6.6.| ( ( ( ( ) ( ( ( ( ( ( ( ( ( ( ( ( ) ) / W W W K b K K K K K ! ! / / / / / ^ ^ ^ ^ ^ ^ ^ P H F Z h h h h h h h w 0 g j K ! ) } ( ~ ~ ~ ( 6.8.7.d.d.a.a.f.V.V.C.C.V.V.V.V.V.V.C.V.C.C.C.^.^..X.X%X<X<X7X7XiXiXiXiXiX<X.XN.q.a.0.| ( | | 8.0.N.`.V.N.S.9X4XCXbXN.`.m d K y.I.g ! A h h h h h w w w w h h h h w h h h 0 0 0 0 0 0 w 0 0 0 0 0 0 0 0 0 0 0 0 0 0 9 9 0 0 0 0 0 9 9 0 0 9 9 9 9 5 9 9 9 5 5 5 5 5 5 5 5 5 5 r r 3 3 3 5 3 3 3 3 3 3 3 1 1 1 1 1 1 2 2 2 1 1 1 1 2 2 2 2 2 2 2 2 < < < < < < < < , , , , , , , , , , , , , , % > > > % % % % % @ @ @ @ @ @ @ @ @ @ @ @ @ @ @ ",
"% % % % % % % % % % @ @ @ = = @ = = = = = = = = = = = = = = = = @ @ = = = = = = @ @ @ @ @ @ = = @ @ @ @ @ @ @ @ @ @ @ @ @ @ @ @ @ @ @ @ @ @ @ @ % % % % % % % % % % - @ - , , 2 1 2 < , , , , , , , , , , , , , , , , , , , < < 2 2 2 : d b 0.1X).0.| | ~ m m 8.z.A.0.!.!.N.8.5.8.a.D.OX$XOXOXOXS.a.9.8.9.a.a.f.V.f.a.a.9.8.8.8.6.6.6.6.6.6.6.6.} ( | | | ( ) ~ _ _ _ _ _ W W W W W ! ! ! ! W W _ ) ) ) ) ) ( ( ( } } } 6.} 6.6.6.6.} ( ( ( ( ( ( ( ( ( ( ( ( ( ( } } 6.6.6.6.6.6.6.6.6.6.6.6.6.6.6.6.6.6.6.6.6.6.6.6.6.6.6.6.6.8.6.7.7.7.7.7.6.6.6.6.6.6.| ( ( ( ( ) ) ( ) ( ( ( ( ( ( ( ( ( ( ) ) W K b W b b K K K K W ! / / / ^ ^ ^ ^ ^ ^ ^ / / ^ U H F Z h h h h h h h w 0 0 g j b / } } ( W ~ ( 6.8.7.t.t.a.a.f.V.V.C.C.C.C.V.V.V.V.C.N.C.C.C.D.^..X.XOX%X%X<X7XiXiXiXiXiX7X.XV.r.a.a.8.( 5.0.0.a.z.z.OX@XOXoX>XxXrX:X&Xl.'.m.[ c K / g h h h h h 0 0 0 0 h h w w w w h h 0 0 0 0 0 0 0 w 0 0 0 0 0 0 0 0 0 0 0 0 0 9 0 0 0 0 0 9 0 0 0 0 9 9 9 9 5 9 9 9 5 5 5 5 5 5 5 5 5 5 r 1 3 5 5 5 3 3 3 2 2 2 2 2 1 1 1 2 1 2 2 2 2 2 2 2 2 2 2 2 2 < < < < < < < , , , , , , , , , , , , > , % % % % % % > > % % % % % % @ @ @ @ @ @ @ @ @ @ @ @ @ @ ",
"% % % % % % % % % % @ @ @ = = = = = = = = = = = = = = = = = = = @ @ = = = = = = @ @ @ @ @ @ = = @ @ @ @ @ @ @ @ @ @ @ @ @ @ @ @ @ @ @ @ @ @ @ @ % % % % , , % % % % % - - - % , , , , , , , - - , , , , , , , , , , , , , , < < < 2 2 < : d n 5X_.a.8.0.~ m m 8.z.V.0.V.S.V.0.5.8.a.D.OX$X$XOXOX^.V.a.q.q.a.f.V.V.f.a.a.9.7.8.8.8.7.7.6.6.6.6.6.6.( ( ( ( ) _ ! W W W W W K K K K K K K K b k k k K W W ! / ) ) / ) } } } } } 6.6.6.} ( ( ( ( ( ( ( ( ( ) ( ) ) ( } 6.6.6.6.6.6.6.6.6.6.6.6.6.6.6.6.6.6.6.6.6.6.6.6.6.6.6.6.6.6.8.6.6.6.7.7.7.6.6.6.6.6.| ( ( ( ) ) ) ) ) ) ( ( ( ( ( ( ( ( ( ( ) ! K b b W W W K K W L ! / / ) / ` ` ' ' ' ' / / / ^ U H F H h Z F F F h w w 0 0 g j j W / } 6.) ~ ( ( 6.6.7.t.a.a.f.V.V.C.C.C.C.V.V.g.g.V.V.C.C.C.C.^.C.C..X%X%X<X7X7X7XiXiXiX7X%XC.a.a.a.8.| 8.8.8.8.0.V.^.;X&XdXhX&XuXdXSXZX` j g c s.L A h h h h h 0 0 0 0 h h w w w w h h 0 0 0 0 0 0 0 w 0 0 0 0 0 0 0 0 0 0 0 0 0 9 0 0 0 0 9 9 9 9 9 9 9 9 9 9 5 5 5 5 5 5 3 3 3 3 5 5 5 5 r 1 3 5 5 5 3 3 3 2 2 2 2 < 2 1 1 2 1 2 2 2 2 2 2 2 2 2 2 2 2 < < < < < < < , , , , , , , , , , , , > , % % % % % % > > % % % % % % @ @ @ @ @ @ @ @ @ @ @ @ @ @ ",
"% % % % % % @ = @ @ @ @ @ @ @ @ @ @ = @ = = @ = = = = = @ @ = = @ @ @ @ @ @ @ @ @ @ @ @ @ @ @ @ @ @ @ @ @ @ @ @ @ @ @ @ @ @ @ @ @ @ @ @ @ @ % % % % , , - - - - = = @ = - = = = = = = - - - - - , , , , , , , , , , , , , , < < < < & g d b d 0.+XA.8.z.~ m M 0.V.0.| 0.!.V.a.5.~ q.^.%X4X%XOX%XOXS.f.a.a.a.f.V.N.f.a.a.t.9.7.8.8.8.7.6.6.6.6.} } ( ) ) _ ! W W m b K K b b k k k k k j k j d d d d j k K K W W / ) [ } } } } } } } } ( ( ( ( ( ( ) ) ) ) ) ) ( ( ( ( ( } } 6.6.6.6.6.6.6.6.6.6.6.6.} } 2.2.2.2.2.2.6.6.6.6.6.6.6.6.6.6.6.6.6.6.6.6.} ( ( ) ( ) ) ) ) ) ) ) ) ) ) ) ( ( ) ) ) ) _ W b b K W W K K W ! ! ! / ) [ [ +.[ [ [ [ [ [ ' ' ^ U H F H w 0 0 0 0 w Z e h h h j j j W | 6.| ( ( ( ( 8.8.7.a.a.f.V.V.V.S.V.C.V.V.g.f.g.V.C.C.C.C.D.D.D..X%X%X<X7X7XiXiXiXiX7X%XC.a.V.a.0.| | 0.8.a.8.8.a.V.@XxXrXOXuX4XqX-Xy.@.{ I.*./ H h h h g g 0 0 w w 0 0 0 0 w w w 0 0 0 0 0 9 9 9 9 0 0 0 0 0 0 0 0 9 9 9 9 9 9 9 9 9 9 9 5 5 5 5 5 3 3 3 3 3 3 3 3 1 1 1 1 3 3 3 3 1 1 1 4 < < 2 2 2 2 2 < , 2 2 < < < 2 2 2 2 2 2 2 2 2 2 2 2 2 2 2 < < < < < < < < < < , , , , , , , , , > > % % > > % % % @ % @ % % % @ @ @ @ @ @ @ @ @ @ @ @ @ # # ",
"% % % % % % @ = @ @ @ @ @ @ @ @ @ @ @ @ = = @ = = = = @ @ = = = @ @ @ @ @ @ @ @ @ @ @ @ @ @ @ @ @ @ @ @ @ @ @ @ @ @ @ @ @ @ @ @ @ @ @ @ @ @ @ @ @ @ @ @ @ @ % % = = @ = = = = = = = = - - - - - , , , , , , , , , , , , , , < < < > , 1 6 n d ! *XZ.z.z.~ m ~ 0.z.0.| 0.N.D.a.5.5.a..X4X4X%X$X%XOXD.V.a.a.a.f.V.N.f.a.a.t.9.7.7.8.8.7.6.6.6.6.| ( ( ) ! W W W W b b b b k k j d d j j j g g g 6 4 6 g d d d j j K L / / ) ( } @.} ( ( ( ( ( ( ( ( ( ) ) ) ) ) ) ( ) ( ( ( ( } } ( ( 6.6.6.6.6.6.6.6.6.} 2.2.2.2.2.2.6.6.6.6.6.6.6.6.6.6.6.6.6.6.6.6.( ( ) ) ) ) ) ) ) ) ) ) ) ) ) ) ) ( ) ) ) _ W b K W W W W W W W ! / / ) ) [ [ +.[ +.{ #.#.#.' ' ^ G H H H e 9 9 9 9 w w F w h j j j j K _ 6.6.( ( ~ ~ 6.8.7.t.a.f.V.V.V.S.V.C.V.g.f.g.g.f.N.V.C.C.C.H..XOX%X%X<X7X7XiXiXiXiX7X>XC.a.V.0.d.| ~ 8.8.0.| 0.a.z.^.rX;X;X>XyXS.E.P W ! c h h g 0 0 0 0 0 9 9 9 9 9 9 9 9 9 9 9 9 9 9 5 5 5 5 5 5 9 9 9 9 5 5 5 5 9 9 9 9 5 5 3 5 5 3 5 3 1 1 1 1 1 1 1 1 1 1 1 1 1 1 1 2 2 1 2 2 1 1 1 1 1 2 < < 2 2 2 2 3 F c 2 < < 2 2 2 2 2 2 2 2 2 2 2 2 2 2 2 < < < < < < < < < < , < , , , , , , , > > % % % > % % % % @ @ % % % @ @ @ @ @ @ @ @ @ @ @ @ @ # # ",
"% % @ @ @ @ @ @ @ @ @ @ @ @ @ @ @ @ @ @ = = = = = = @ @ @ @ = = @ @ @ @ @ @ @ @ @ @ @ @ @ @ @ @ @ @ @ @ @ @ @ @ @ @ @ @ @ @ @ @ @ @ @ @ @ @ @ @ @ @ @ @ @ @ @ @ @ @ @ @ = = = = = = = - - % - - , , , , , , , - , , , , , , , , < < @ ; ; d f m *XA.l.0.~ ~ | a.a.0.| 8.a.S.a.5.8.V.OX7X4X;X$X%X$X^.V.f.a.a.a.N.V.V.a.a.a.d.9.7.7.7.7.6.6.2.2.( ( ) ! W W m W b b b b k k g d d d g g g 6 6 g g g d g g d 6 4 6 g j c K ! / ) ( } ( ( ( ( ( ( ( ( ) ) ) ) ) ) ) ) ) ) ) ) ) ( ( ( ( } } 6.6.6.6.6.6.} } 2.2.2.2.2.( 2.2.6.6.6.6.6.6.6.6.6.6.6.6.6.( ( ( ) ) ) ) ) ) ) ) ) ) ) ) ) ) ) ) ) ) ! W W W W W W W W W W ! / / / ) ) [ [ [ [ +.#.#.#.{ ' ' ^ G H H w 7 1 1 3 3 0 H Z 0 h j j j j b W ) 6.( ( ( ~ 6.8.8.t.a.f.V.C.C.S.V.V.f.f.f.f.f.f.g.N.V.C.C.D..XOX%X%X<X7X7XiXiXiXiX7X>XS.a.V.0.d.| ~ 0.8.0.( 0.a.V.$X^.;XOX@XoXwX).! j 6 4 5 0 0 0 7 3 3 3 3 3 3 3 5 5 5 5 3 3 3 3 5 5 5 5 5 5 5 5 9 9 9 9 3 3 3 3 3 3 5 5 3 3 3 3 3 1 3 3 1 1 3 3 1 1 1 1 1 1 1 1 1 1 2 2 2 2 2 2 2 2 2 1 < 5 0 c H H H H h Y J 5 < < < < 2 2 2 2 2 2 2 2 2 2 2 < < < < < < < < < , , , , , > > > % % % % % % % % @ @ % @ @ @ @ @ @ @ @ @ @ @ @ @ @ @ @ @ @ @ @ @ # # ",
"% % @ @ @ @ @ @ @ @ @ @ @ @ @ @ @ @ @ @ @ @ @ @ @ @ @ @ @ @ @ @ @ @ @ @ @ @ @ @ @ @ @ @ @ @ @ @ @ @ @ @ @ @ @ @ # @ @ @ # # # # @ @ @ @ @ @ % % % - - % + # # + + + @ @ @ @ @ @ = = = = % % % % = - - - = = = = = = = = - , , , < o %.s.4 : d d z.V.0.z.~ | 8.0.0.0.| | z.0.a.8.q.V.@XiX4X;X%X;X%X^.C.f.a.a.f.N.V.V.f.a.a.a.t.t.t.7.t.6.6.2.2.( ) W W W m m W W b b k k j d d d d d 6 6 g g j H J J j j j g 8 3 3 5 6 j c K ! / ( ( ( ( ( ( ( ( ) ) ) ) ) ) ) ) ) ) ) ) ) ) ) ( ( ( } } 6.6.6.6.6.( 6.} 2.( ( ( ( ( 2.2.2.6.6.6.6.6.6.6.6.6.6.6.( ( ( ( ) ) ) ) ) ) ) ) ) ) ) ) ) ) ) ) / ! W W W W W W W W W W ! / / ) ) ) ) [ #.#.#.#.#.#.#.#.' ' L H F G 9 1 2 2 1 1 1 R 9 w Z h j j k k m W 6.( ( ( ~ 6.8.8.9.a.f.V.C.V.C.V.N.f.f.f.f.f.f.f.g.N.C.C.D..XOX%X%X<X7X7X7X7X7XiX7X>XS.f.V.a.8.8.| 0.8.a.0.0.a.a.^.S.OX;XD.oXl.! $.^ 6 6 5 8 8 7 3 3 3 3 1 1 1 1 5 5 5 3 1 1 1 1 3 3 5 5 5 5 5 5 3 3 3 3 1 1 1 1 3 1 1 3 1 1 1 1 1 1 1 1 1 1 3 3 1 1 1 1 1 1 1 1 1 1 2 2 2 2 2 2 2 2 2 1 h c J J H H H F h F 0 2 < < < 2 2 2 2 2 2 2 2 2 2 2 2 < < < < < < < < < , , , , , > > > % % % % % % % % @ @ % @ @ @ @ @ @ @ @ @ @ @ @ @ @ @ @ @ @ # @ @ # # ",
"@ @ @ @ @ @ @ @ @ @ @ @ @ @ @ @ @ @ @ @ @ @ @ @ @ @ @ @ @ @ @ @ @ @ @ @ @ @ @ @ @ @ @ @ @ @ # # @ @ @ @ @ @ @ @ @ @ @ @ # @ @ @ @ @ @ @ @ # @ - 3 < 0 v v 5 2 O O + + @ + @ @ @ @ @ @ = @ @ @ @ @ = = - = = = = @ @ @ @ = = , , , # 1 Y.{.s.} | p.i.0.0.| 0.0.0.8.0.5.5.~ 0.q.q.q.V.4X7X7X;X>XOXOX.XC.V.f.f.f.f.V.C.f.f.a.a.d.t.t.7.7.6.2.2.( ) _ W m W _ _ W W b k k d d d d d g j J P P K K K P R L J g 0 7 5 0 0 0 0 6 j K ! / / ) ) ) ) ( ) ) ) ) ) ) ) ) ) ) ) ) ) ( ) ) ) ) ( } } 6.6.6.6.6.2.( ( ( ( ( ( ( ( ( ( 2.2.6.6.6.6.6.6.6.6.} | ( ) ) ) ) ) ) ) ) ) ) ) ) ) / / ) / / _ _ W W W W W W W W W W ! / ) [ [ [ [ [ [ } #.#.} #.} } +.[ ` ^ H F G 9 1 9 9 9 9 w L.H H H h g b K b b b ( ( ( ( ( 6.8.8.9.a.f.V.C.C.C.V.f.f.f.a.a.f.f.f.g.N.C.C.C.H..X%X%X<X<X7X7X7X7X7X7X>X.XN.V.a.d.d.d.d.0.8.~ ~ ( q.a.N.D.9XzX0.: d b ^ v 5 3 7 7 7 3 3 5 5 5 5 9 9 5 5 3 3 3 3 1 1 1 1 5 5 5 5 1 1 3 3 3 3 3 3 3 3 3 3 1 1 1 1 3 3 3 3 3 3 1 1 1 3 1 1 1 1 1 1 1 1 1 1 1 1 2 2 2 2 2 2 2 1 R U U H F H J c h h 2 , < < < < 2 2 2 2 2 2 2 2 2 2 2 < < < < < < < , , , , , > , > % > % % > > % % % % @ @ @ @ @ % % % @ @ @ @ @ @ @ @ @ @ @ # # # # # # # ",
"@ @ @ @ @ @ @ @ @ @ @ @ @ @ @ @ @ @ @ @ @ @ # # @ @ # # @ # @ @ @ @ @ # @ @ @ @ @ @ @ @ # # # # # # # + # # + # + # # # # # # # # # # # # + + 2 H h J J J J v $ + + + + + @ @ # # # @ @ @ @ @ @ @ @ @ @ @ @ @ @ @ @ @ @ @ @ > > < @ < 3 ' ! d d } p.p.i.| 0.0.8.8.5.| ~ M ~ 8.q.a.OXiX4X7X;X>XOX.X^.^.C.g.g.g.N.V.C.V.f.a.a.t.9.7.7.7.2.2.2.( ! W W W ! W W W b k d d d d j K W L ! ^ ^ ^ ^ ^ ^ ^ ^ L J 0 5 3 9 9 9 9 6 0 0 j j K / / / / ) ) ) ) ) ) ) ) ) ) ) ) ) ) ) ) ) ) ) ) ) ) ( } } 6.} ( ( ( ) ( ( ( ( ( ( ( ( 2.2.2.2.6.6.6.6.6.6.( ( ) ) ) ) ) ) ) ) / / ) ) _ _ / _ _ _ _ ! W W W W W W W W W W W / ) ) } } +.[ #.#.#.#.@.@.+.+.@.@.{ [ ^ K F H e 1 9 9 9 9 w *.=./.G H K K K K b b ) ~ ( ( ( 6.6.8.t.a.a.g.V.V.V.g.f.f.a.a.f.f.f.f.N.V.C.C.C.D..X%X%X%X<X<X<X<X7X7X7X<X.XV.a.V.V.d.0.8.8.6.~ ~ 1.a.5.V.OXuX&Xz.a.| b g v 3 3 7 7 7 3 3 5 5 5 5 9 9 5 5 5 5 7 7 3 3 3 3 5 5 3 5 1 1 3 3 3 3 1 3 3 3 3 3 1 3 1 1 3 1 3 3 3 3 1 1 3 3 1 1 1 1 1 1 1 1 1 1 2 2 2 2 2 2 2 2 2 1 c J T ^ +.+.+.+.^ A 9 , < < < < 2 2 2 2 2 2 2 2 2 2 2 < < < < < < < , , , , , , , % % % % % > > % % % % @ @ @ @ @ % % % @ @ @ @ @ @ @ @ @ @ @ # # # # # o o ",
"@ @ @ @ @ @ @ @ @ @ @ @ @ @ @ @ # @ @ @ @ @ @ @ @ @ # # # # # # @ @ # # # @ @ @ @ @ @ @ @ @ # # # + + + # # # # # # # # # # # # # # # # @ @ X 0 T G J J J R Y X O O O O O O + + # # # # @ @ # # @ # @ @ @ @ @ @ @ @ @ @ @ @ > > @ @ 1 % ; P { d } p.p.i.0.a.a.0.8.8.5.| ~ ~ 8.q.V.@X7XaX7X>X>X$X.X^.D.C.C.V.V.V.C.V.V.f.a.a.a.9.7.7.8.2.2.( ) W W ! _ ! b k k k d d j k b W / / / / ^ ^ ^ / / / ^ ^ U c 9 3 9 0 0 0 0 0 0 0 0 0 g K W / / / / ) ) ) ) ) ) ) ) ) ) ) ) ) ) ) ) ) ) ) ) ) ( | } } ( ( ) ) ( ) ( ( ( ( ( ( ( ( 2.2.6.6.6.6.6.6.( ( ) ) / _ ) ) ) ) / / / ) _ _ _ ! _ ! W W W W W W W W W W W W ! / ) #.#.#.} } } #.} } @.@.@.@.y.y.@.@.' L G H h 3 9 9 0 0 9 H Y |.R H K K K K b W W ~ ~ ( ( 6.6.7.d.d.a.f.f.f.f.a.a.r.a.a.a.f.f.f.N.V.C.C.D..X.X%X%X%X<X<X<X<X<X7X<X%X.XV.a.V.V.a.0.8.8.5.( ~ ( 9.r.a.%XxXoXoXn : 4 6 6 4 3 7 7 9 5 5 5 5 9 9 9 9 9 9 9 9 9 9 5 5 5 5 5 5 5 5 5 5 5 5 3 3 1 1 3 3 3 1 1 3 1 1 1 1 1 1 1 1 1 1 1 1 1 1 1 1 1 1 1 1 2 2 2 1 2 2 2 2 2 2 2 5 O.*.*.%.O.J J +.O.O.H < < 2 2 2 2 2 2 2 2 2 2 2 2 2 2 < < < < < < < , , , , , , , > % % % > > > % % % % % % @ @ @ % % % @ @ @ @ @ @ @ @ @ @ @ # # # # # o o ",
"# # # # # # @ @ @ # @ @ # # # @ + # # # # # + + + # # # # # # # # # + + + # # + # # # # # # # # + + + + + + + + + + # # # # # # # # # # @ # X F *.] ] R L L J = X X X X X O + + + O + + + + # # + O # # # # @ @ @ @ @ @ @ # # @ w 9 # % & & : b u.i.y.0.i.z.a.8.a.0.0.8.8.8.8.q.S.4X7XuX7X;X>X$X.X^.C.C.C.C.V.V.V.C.V.f.a.a.a.9.7.8.8.2.6.~ ~ ! _ ) ) W k k d d d k k b ) / ) ) ) [ ' ' / / ^ / ^ ^ J 0 9 9 0 e e 0 9 0 0 0 0 3 3 0 H L ! / / / / ) ) ) ) _ ) ) _ _ _ _ _ _ _ _ ) ) ) ) ) ( ( ( ( ) ) ) ) ) ) ) ( ) ( ( ( ( 2.2.6.6.6.6.6.6.( ( ) ) _ _ ) ) ) ) / / / ! _ _ _ W W W W W W W W W W W W W W W / ) ) } #.#.} } #.#.#.} @.@.y.y.y.y.y.%.+.^ U H H 3 9 9 0 0 9 w H Y.s.h K K K K b b m ! ) ~ ( ( 6.6.0.t.r.a.a.a.a.a.r.r.r.r.a.f.f.f.N.V.C.C.C..X.X,X%X%X%X<X<X<X<X7X%X%X.XV.a.a.a.a.0.0.0.8.0.a.D.%X^.1.>XiXN.5.M * m.g 6 6 3 5 9 9 5 5 5 5 9 9 9 9 9 9 9 9 9 9 5 5 5 5 5 5 5 5 5 5 3 3 3 3 1 1 3 3 3 1 3 3 1 1 1 1 1 1 1 1 1 1 1 1 1 1 1 1 1 1 1 1 2 2 2 2 2 2 2 2 2 2 2 1 /.Y.P - 5 3 3 5 H ^ 2 < 2 2 2 2 2 2 2 2 2 2 2 2 2 2 2 < < < < < < < , , , , , , , > % % % > > > % % % % % % @ @ @ % % % @ @ @ @ @ @ @ @ @ @ # # # # # # o o ",
"@ @ @ @ # # @ # # # # # # # + + + + + + + + + + + + + + + + + + + + + + + + + + + + + + + + O O + + O O X X # # + # # # # X X X # # # # @ O $ Y U.U.U.Y.x.*.*.% $ X o o + o # + + O O O O O O O O O O O # # # # # # @ @ @ @ @ o % 1 0 0 6 6 6 6 d b ! 0.| 0.8.0.a.V.d.0.| ( 8.a.^.tXjXhX7X%X%X.X.XD.C.C.C.V.V.N.C.C.D.f.a.a.a.9.8.8.8.2.2.Q ~ ) 6.( W k d d j j k W ) ) @.@.#.#.[ ) [ ' / / / ^ #.^ H 0 0 e 0 0 9 r r 9 9 9 7 7 7 7 h H J K W W ! ) ) ) _ _ _ _ _ _ ) ) _ _ _ _ ) _ ) ~ ~ ) ) ) ( ) ) ) ) ) ) ( ) ) ) ) ( ( ( ( 2.6.6.6.6.6.( ) ) ) ) ) ) ) ) ) / / / / _ _ ! ! W W W W W W W W W K K W W ! ) ) @.@.} @.#.#.#.#.@.d.s.s.s.s.s.s.s.s.%.+.^ J F H 0 9 1 5 0 w F R O.H J K b K W W ! W ! ~ ) ( ( 6.7.0.d.r.r.a.a.r.r.r.r.r.a.f.f.f.N.V.C.C.C..X.XOX%X%X%X<X<XiXxX7X<X%X.XV.a.0.0.8.0.0.a.8.5.0.9.^..X9.%X%X>XS.| Z.b v g 6 0 5 9 9 9 5 5 5 9 9 9 9 9 9 9 9 9 9 9 9 9 9 5 5 5 5 5 5 5 5 5 5 3 3 3 3 3 3 r r 3 3 3 3 3 3 3 1 3 1 1 1 1 1 1 1 1 1 1 1 1 1 1 1 1 1 1 1 1 1 2 1 O.] R O.s.s.s.s.G < o < 2 2 2 2 1 2 2 2 2 2 2 2 2 2 2 2 2 < < < < < < < , , , , , , > > , , , , > % % % % % % % @ % % @ @ @ @ @ @ @ # # # # # # # # # # # # ",
"+ + # # # # + + + + + + O O + + O O O O O O O O O O O O O O O O O O O O O O O O O O O O O O O O X X X X X X X X O O # O X X X X X X X X @ @ $ 5 x.Y.U.U.Q./.+.+ $ o o o o o X O O O O O O O O O O O O O X X # # # # # # % < 9 0 0 9 0 w h h g d b v ! @.p.p.0.a.V.V.0.~ ~ | 8.a..XiXhXxXiX<X%X.X^.D.C.C.C.C.V.N.C.D.D.V.a.r.t.9.8.8.8.2.~ Q ( | | _ b k d d k k K W ) ) @.@.#.#.#.+.[ / / / / / O.R c 0 0 0 0 9 r 1 1 1 1 r r r 7 7 3 0 h K K W W ! ) ) _ _ _ _ _ _ _ _ _ _ _ _ ) ) _ _ _ ~ / ) ) ) ) ) ) ) ) ) ( ( ) ) ( ( ( ( 2.6.6.7.6.6.( ) ) ) ) ) ) ) _ _ ) / / _ _ _ ! ! ! W W W ! W W W b b W / _ ) ) } @.@.@.@.#.#.@.@.} s.m.s.s.s.s.s.s.s.s.@.#.^ ^ ^ J F 0 9 c F H G R G K K k k b m W W W ! _ ( ( 6.8.6.8.9.9.9.t.t.r.r.r.r.a.f.f.g.N.V.C.C.C..X.XOX%X%X%X<X7XiXiX7X<X%X.XN.a.q.0.8.0.8.a.8.0.8.N.>X,XN.OXiX>XCX&Xd d : 6 6 6 6 w 9 5 6 9 0 9 9 0 0 9 9 9 9 9 9 9 9 9 9 5 5 5 5 5 5 9 9 5 5 3 3 3 3 3 3 r r 3 3 3 3 3 3 3 1 3 1 1 1 1 1 1 1 1 1 1 1 1 1 1 1 1 1 1 1 1 1 2 2 2 H x./.U.Y.*.=.3 < < < 2 2 2 2 1 1 2 2 2 2 2 2 2 2 2 2 2 < < < < < < < , , , , , , > > , , , , > % % % % % % % @ @ % % @ @ @ @ @ @ # # # # # # # # # # # # ",
"+ @ @ @ # + + + + + + + + + + + O O O O O O O O O O O O O O O O O O O O O O O O O O O O O O X X X X X X X X X X X X X X X X X X X X X X # + $ $ X 1 v G L G 1 X o o o o X X X X X X O O O O O O O O O O O X X X X X X X o + @ @ @ @ % % o - 3 0 6 : b b | 0.z.z.V.V.8.~ M ~ 8.N.OXuXhXxXxX7X%XOX.XC.C.C.C.V.V.f.V.C.^.C.a.r.t.7.8.8.2.~ ~ ~ 7.| _ m k f k k k b ! ) } 6.} } #.#.#.#.#.+.O./ / / / P h 9 9 9 9 1 1 2 2 2 1 1 1 1 7 9 7 5 g k K W W W ! / _ _ _ _ _ ! ! ! ! ! _ _ _ _ _ _ _ _ _ / ) ) ) ) ) ) ) ) ( ( ) ) ) ) ( ( ( 6.7.7.7.6.( ) ) ) ) ) ) ) _ _ ) ) ) ) / / / / ! ! ! ! ! W W K b k W / ! ) ) } @.@.@.@.@.@.y.y.y.u.s.s.s.s.s.s.x.s.s.s.#.^ L L L P J c F F G Y U L L W b b W W ! Q W ~ ) ( 6.6.8.8.8.9.9.9.t.9.r.r.r.r.f.f.f.N.N.C.C.C.D..X.XOX%X%X%X>X<X7XiX7X<X%X.XN.N.q.q.8.q.5.0.8.8.a.D.D.lXf.OXuXcX;X:X_.! d 4 4 h 5 Y 1 9 9 0 0 0 0 0 0 0 0 9 9 9 9 9 9 9 9 5 5 5 5 5 5 5 5 5 5 3 3 3 3 3 3 r r 3 3 3 3 1 1 r 1 3 1 1 1 1 1 1 1 1 1 1 1 1 1 1 1 1 1 1 1 1 1 2 2 3 - 0 G G v 5 , , 1 3 , 1 1 1 1 1 1 2 2 2 2 2 2 2 2 2 2 2 < < < < < < < , , , , > , , > , > , , > > % % % % @ @ @ @ @ @ @ @ @ @ @ @ # # # # # # # # # # # # ",
"+ @ @ @ # + + + + + + + + + + + O O O O X X X X X X X X X X X X X O X X X X X X X X X X X X X X X X X X X X X X X X X X X X X X X X X X X X $ . $ X $ X X X X X X X o X X X X X X X X O O O O O + + + + # # # X X X X X o o # # @ # + o o % ; 4 4 b b n b 8.V.z.a.V.8.| M ~ 0.V.@XaXhXuXxX7X>X,X.XC.C.C.V.V.V.N.V.C.^.V.a.a.t.8.8.8.2.~ Q ( d.( m k f f k b b W ) } d.v.} } @.#.#.#.+.#.#.O./ / / K g 3 3 7 9 1 2 2 2 < 2 2 2 1 1 7 9 5 0 j K K W W W W ! ! ! / ! ! ! ! ! ! ! ! _ _ _ _ ! _ _ ) ) ) ) ) ) ) ) ) ) ) ) ) ) ) ) ( ( 6.7.7.7.6.( ) ) ) ) _ ) _ _ _ ) ) ) ) ) ) ) ) / / / ! W W W W W K K W W ! / / ( } @.@.@.y.y.d.@.s.c.s.s.s.s.s.n.m.x.s.s.#.^ J J U L P H c J U R ! ! ! W W ~ ) ~ ~ ~ ~ ( 6.6.8.7.9.a.a.a.a.a.a.r.r.r.a.f.f.N.C.C.C.D.D.D..X.XOX%X%X<X<X<X7X7X<X<X%X.XN.N.a.a.0.q.5.0.0.a.a.OX;XD.q.D.rXlXN.&X3XR.! 6 : 5 J F 9 9 9 0 0 0 0 0 0 0 0 0 0 9 9 9 9 9 9 9 9 5 6 5 5 9 9 9 9 9 9 9 9 5 9 9 9 5 5 3 3 5 5 5 5 3 3 1 1 1 1 1 1 1 1 1 1 1 1 1 1 1 1 1 1 1 1 2 2 < 2 - 1 1 2 2 2 1 1 1 2 2 2 2 2 2 2 2 2 2 1 1 1 1 2 2 2 2 < < < < < < < , , > > % % % > > > , , % % % % @ @ @ @ @ @ @ @ @ @ @ @ @ @ # # # # # o o o X X X X ",
"O O O O + + + + O O O O o o o o X X X X X X X X X X X X X X X X X X X X X X X X X X X X X X X X X X X X X X X X X X X X X X X X X X X X X $ X X X X X X X X X X X X X X X X X X X X X X X X # # X X X X X X X X X X X X o o o o + o X X + % 2 * 4 4 6 v n l.a.5.a.0.5.~ ~ 8.0.D.;XaXxXiXaX7X4X^.C.C.C.C.C.N.V.V.V.C.^.D.f.r.9.8.8.2.~ ~ Q 2.~ m k f k k W W W ) ) @.v.~.s.@.@.#.@.@.#.#.#.#.[ O.' U 0 3 3 0 9 1 2 1 1 < < 1 1 1 1 7 9 8 5 g j K K K W W W ! / / / / _ _ ! ! ! ! ! ! ! _ ! _ _ _ ) ) ) _ ) ) ) ) ) ) ) ) ) ) ) ) } 7.t.7.7.6.( ) ) ) _ _ _ ) / / ) ) ) ) ) ) ) ) / / ! K K K W W ! ! W K W W ! _ ) ( ( @.@.y.d.d.s.s.m.T.T.T.I.I.I.I.I.I.s.s.+.K P L L K K J J L K W ! ) ) ( 2.8.0.a.q.a.a.f.f.a.t.a.a.f.f.f.f.f.r.a.r.a.f.g.N.C.C.C.D.D.H..X.X.X%X%X<X<X<X<X<X<X<X%X.XC.N.N.a.q.q.w.8.q.q.N.>XD..XN.%X,XiXuX~ n R.{ u.J g x.w 0 5 5 5 5 9 9 9 9 9 9 9 9 9 9 9 9 9 9 5 5 5 5 5 5 5 5 5 5 3 3 3 3 5 5 5 5 3 3 3 3 3 3 3 1 3 1 1 1 1 1 1 1 2 2 2 2 1 1 1 1 1 1 1 2 1 1 1 2 2 < , , , , , , , < , < < < < < < < < < < < 1 1 1 < < < < < < < < , , > , , , % % % % % @ @ % @ @ @ # @ # # # # # # # # # # # # o o o o o o o o X X X X X X ",
"O O O O + + + + O O O O o o o o X X X X X X X X X X X X X X X X X X X X X X X X X X X X X X X X X X X X X X X X X X X X X X X X X X X X X X X X X X X X O O O O o o o o o X X X X X X X $ $ $ $ $ $ X X X X X X X X X X X X X X X $ $ $ o - J 6 ; : 6 n | 0.5.5.V.8.~ ( ~ ~ a.S.4XaXxXxXaX7X4X.XC.C.C.N.N.N.V.N.V.C.D.^.V.a.9.9.8.2.~ ~ ~ ( ~ m f f k k b b W ( d.d.(.5Xs.6.} @.6.@.@.@.#.#.#.#.+.L g 3 1 1 9 ;.;.e 9 1 2 2 1 1 1 9 9 7 5 6 j k K K W W W W ! / / ) ) ) / ! ! ! ! ! ! ! ! _ _ _ ) ) ) _ ) _ ) ) ) ) ) ) ) ( ) ) 6.7.d.t.7.6.( ) ) ) _ _ ) ) ) / ) ) ) ) ) ) ) / ! W K k k K K W W W W K W W ! ! _ ) ( ( @.6.d.d.s.s.s.I.(.(.(.U.I.I.U.U.m.s.u./ ! ! K J K j K K / / _ ) ( 7.a.V.f.N.a.r.a.f.a.t.a.a.f.f.f.f.f.a.a.a.a.a.r.f.f.V.C.C.C.C.H.H..X.X%X%X<X<X<X<X<X<X<X%X.XC.F.N.f.q.a.q.q.N.N.D.D.%X.Xe.>X>XlXjXfX-X2Xm.v I.}.- < - 2 2 2 2 < < < < 2 2 2 2 < < < < 2 2 2 2 , , < < < < < < < < < < < < < < , , , , , , , , < < < < < < < < , , , , , , < < < < < < < < < < , , , , - - - - , , , , , , , , , , < , % > < < < % @ , , , , , > > > > > , % % % % % @ # # # # # o X X o o o o # # # # o o X X X X X X X X X X X X X X X X ",
"O O O O + + + + O O O O o o o o X X X X X X X X X X X X X X X X X X X X X X X X X X X X X X X X X X X X X X X X X X X X X X X X X X X X X X X X X X X X O O X X o o o + # X X X X X X X $ $ $ $ $ $ X X X X X X X X X X X X X X X $ $ $ - 2 J 6 & & 4 n ~ a.0.z.V.0.~ ~ M M a.D.7XaXaXjXxX7X7X.XC.C.N.N.N.N.N.C.C.V.D.^.S.f.a.9.8.8.~ ~ ~ 2.~ m f k k m k m ) d.'.n.{.DX(.y.} @.6.6.6.@.#.#.#.#.+.^ c 5 1 1 9 ;.;.e 9 1 2 1 1 1 7 9 9 9 8 5 g j J K K W W W ! / ) ) ) ) ) _ ! ! ! ! ! ! ! _ _ ) ) ) ) _ ) _ ) ) ) ) ( ( ) ( ) ) 6.7.d.d.d.6.( ) ) ) _ _ ) ) ! ! ) ) ) ) ) ) / ! K k j k k k k b K K K b b K W W W ! ) ) ) @.y.d.d.s.s.m.I.(.(.I.m.I.I.I.m.s.s.s./ ! K K K k K L W W _ ( a.a.V.OX.XC.C.V.C.D.C.V.f.f.f.f.f.f.f.f.f.a.a.r.a.f.f.V.C.C.C.D..XH..X.X%X<X<X<X<X<X<X<X%X%X.XD.D.F.N.q.N.a.N.F.OXOXOXiXD.D.%X%XiX&XSXqX].W.^ ; ] h + = - - - - - - , , , , , , , , , , , , - - - - - - , , , , % % - - - - - - - - - - % % - - % % , , , , , , - - - - - - , , , , , , , , , , , , , , % - % % % % % % , , , , > > > @ @ @ , < < @ @ % > > % % @ @ @ @ , , , , % % % @ @ @ # # # # # # # # # o X X X X o X o o X X X X o o o o X X X X X X ",
"O O O O O + + + O O O O o o o o X X X X X X O O O O O O O O O O X X X X X X X X X X X X X X X X X X X X X X X X X X X X X X X X X X X X X X # # # O # # # # # # + + # # # o # # # # # # O O # # O O O O X X X X X X X X o o o o + o o X o 3 1 c $ * : n 0.S.V.a.z.z.8.m m ~ 8.D.uXaXaXNXxX7X7X.XC.C.N.N.g.N.N.C.C.V.V.D.D.V.a.a.8.8.~ ~ ~ ~ Q m k k m m m W 6.B.(.v.'.GX*Xd.6.6.6.6.6.@.@.#.#.#.#.' J 5 9 0 e 9 9 9 r 1 2 1 1 1 7 9 9 9 8 5 8 j j k K K W ! / / ) ) ) ) ) _ _ _ ! ! ! ! ! _ _ ) ) / ) _ ) _ ) ) ) ) ) ) ) ( ) ) 6.7.d.d.7.6.( ) ) ) ) _ ) / ! ! / ) ) ) ) ) ! W k d d k k k k k k k k k k k K K K W W W ) ) 6.y.d.d.s.s.s.T.T.s.s.s.s.s.s.s.s.s./ ! K K K K K W ! | a.V.V.^..X^.^.C.^.C.D.^.^.C.V.V.f.f.f.f.f.f.f.g.g.g.g.g.V.C.C.C.D.^..X.X.X.X,X%X<X7X<X<X<X<X%X,XXXH..XC.N.q.N.N.F.H.OXF.<X,Xw.OXN.q.^.&XoX! | {.! & ; H - , - - - - , , , , , , , , , , , , , , , , - - - - , , , , , , , , , , , , - - - - - - , , % % - - - - - - = = = = - - , , , , , , , , , , , , , , - - - - - - , , , , , , , , % % > , < 2 2 , % , > % % % % > > > , , , , , , , % % , , , , , , , , < , , , , , , % % % % @ @ @ @ @ @ @ # # o X X X O ",
"# # # # # # # # + + + + + + O O O O O O O O O O O O O O O O O O o o o o o X X X X X X X X X X X X X X X X X X X X X X X X X # # + + + + # # + # # # # # # @ @ @ # @ # @ @ = = = = = - @ = @ = = @ @ @ @ @ @ @ # # # @ @ @ @ @ @ o % - 5 - - 6 J 6 ; b b 0.V.V.D.V.a.0.m M 8.8.^.aXaXaXaXiXiX7X.XC.C.g.N.g.N.V.C.C.N.V.C.S.V.a.a.8.8.~ ~ ~ Q m m m m m m W 6.d.sXwX(.T.].T.d.y.6.y.y.y.y.#.#.#.O.O./ Y H h 3 e H G H F ;.w 9 1 1 7 9 9 7 7 8 0 h g j k K W ! / / ) ) ) ) / ! ! _ _ _ ! ! ! _ _ ) ) ) ) ) ) ) ) ) ) ) ) ) ) ) ( ( 6.6.7.d.7.6.( ) ) ) ) ) ) ) / / / / / / / ! W K k j j k k k k k k k k k k k k k K K K W W ! ) ( #.#.@.6.y.u.u.y.y.u.s.s.u.y.y.y.) ! K K W K ! ( ( a.a.V.V.V..X.XOX.X.X.X.X.X.X^.C.C.g.f.f.V.V.V.V.C.C.V.g.g.C.C.C.C..X.X.X.X.XXX,X%X<X<X<X<X7X<X<X,X.X.XH.D.F.N.N.N.F..XN.C.,Xe.N.D.>XF.D.>X_.d d ! x.4 < 0 1 2 2 2 2 1 1 1 1 1 2 2 1 1 2 2 2 2 1 1 1 1 2 2 2 2 < < < < < < < < < < < < < < , , , , , , , , , , , , , , , , , , , , , , , , , , < < < < , , , , , , < < < < < < , , , < 2 < 2 2 1 1 1 1 3 1 < , , % , , , , , , , , , , , , , < < < 2 2 2 2 2 2 < < < < < < < < < , , , , , % % % @ @ @ @ @ @ @ # # ",
"@ @ @ @ @ @ @ @ # # @ @ @ @ # # # # + + + + + + + + + + + + + + o o o o o X X X X X X X X X X X X X X X X X O O + + # # # # @ @ @ @ = @ @ @ @ @ @ @ @ @ @ @ @ @ @ @ @ @ @ - , , , , , - - = = = = = = @ @ @ # # # # @ @ @ @ @ @ @ + < U < < 2 < v c ! ! 8.V.S.D.D.V.8.n ~ 8.5.D.aXaXaXaXxXxXxX%XC.g.f.f.g.N.V.C.V.f.g.C.V.V.a.a.7.8.~ ~ ~ Q m m m m m m ~ d.(.DXwX(.B.T.d.d.y.y.d.d.d.d.#.#.#.#.#./ ^ T F 0 e ;.;.;.;.w w 9 7 7 7 9 9 7 7 8 0 h g g g j K W ! / ) ) ) ) / ! ! _ _ _ ! ! ! ! _ ) ) ) ) ) ) ) ) ) ) ) ) ) ) ) ( ) 2.6.6.7.6.6.( ) ) ) ) ) ) ) ! ! / / / / ! W W K K K b b b b b b k k k k k k K K K K K K W W W ! W W W W W ! ! W K W W W ! ! ! ! W ! ! ! / ) ( 6.d.V.a.R.^.^..X.X.X$X%X;X%X%X.X.XC.C.V.g.V.V.V.V.V.V.V.V.g.C.C.C.C.^..X.X.X.X.XXX,X%X<X<X<X<X7X7X<X,XOXOXH.D.F.F.N.D.H.D.D.,X,Xw.F.D.xXF.N.OXA.| l d i.d 4 U 3 2 1 1 5 5 5 5 5 5 5 5 5 5 3 3 3 3 5 5 5 5 3 3 3 3 3 3 3 3 1 1 1 1 1 1 1 1 1 1 1 1 1 1 1 1 1 1 1 1 1 1 1 1 2 2 2 2 2 2 , , , , , , 2 2 2 2 < < < < < < 2 1 1 1 1 1 1 1 1 1 2 < < < < < < , 5 3 1 < < < < < < < < < < < < < , , , < < < < < < < < < , , , , > > > > , , , , % % % % @ @ @ @ @ # @ @ # # ",
"= = = = = = = = @ = = = @ @ @ @ @ @ @ # @ @ # # # # # # + + + + o o o + o o o o o o o o o o o X X X X X X X O O + + # # # # @ @ @ @ = @ @ @ @ # @ @ @ @ @ @ @ @ @ @ @ @ # @ @ @ @ @ @ @ @ @ @ @ @ @ @ @ @ @ @ @ # @ @ @ @ @ @ @ % - % *.0 2 1 g g n.` 0.8.V.D.S.D.D.8.m 5.8.~ D.aXaXaXaXxXxXxX%XC.g.f.f.g.N.V.C.V.f.f.N.N.f.r.9.8.8.~ ~ ~ Q Q W Q W Q Q ) a.(.mX2X(.B.a.d.d.d.d.d.d.d.d.d.y.$.#.#.#.O.O.Y F 0 0 w w ;.w w 0 7 7 7 7 7 7 8 8 0 h g d d d k K W / / ) ) / / ! ! ! _ ! ! ! ! _ _ ) ) ) ) / ) ) ) ) _ _ ) ) ) ) ( ) ( 2.6.6.6.6.( ) ) ) ) ) ) _ ! ! _ _ / ! W W K K K K K K K K K K K K K K K K K K K K K K W W W W W W W W W ! ! W K W W W W W W W ! ) ) ) } 6.d.a.a.V.V.^..XOXOX$X%X%X4X7X4X%X$X.XC.C.V.f.f.f.f.f.f.f.f.f.g.C.C.C.C.^..X.X.X.XXXXX%X%X<X<X<X<XiX7X7X%X,X,X.XD.D.D.D.H.H.C.e.OXD.e.OXD.,X;XF.V.6.v.d : u.K v P 0 1 5 6 6 0 5 5 5 5 9 9 9 9 5 5 5 5 5 5 5 5 5 5 5 5 3 3 3 3 3 3 3 3 3 3 3 3 1 1 1 1 1 1 1 1 1 1 1 1 1 1 1 1 1 1 1 1 2 2 < < < < < 2 1 1 1 1 2 2 2 2 2 2 1 1 1 1 1 1 1 1 1 1 < 2 3 3 3 1 1 1 0 9 3 1 1 1 1 2 < < < < < < < < < < < < < , , , , , , , > % % @ @ @ @ @ @ @ @ @ @ @ @ @ @ @ @ @ @ # # # # # ",
", , , , - - - , - - - - - - = = = = @ @ @ @ # # # # # @ @ @ + + # # + + o o o o o o o o o o o X X X X X O O O O + + # # # # @ @ @ @ @ @ @ @ # # @ @ @ @ @ @ @ @ @ @ # # + + + + + + # # + + @ @ # # # # @ @ @ @ @ @ @ @ @ @ @ @ o + < % I.J % 4 6 ^ c.| m z.OX@XV.D.0.~ ~ | ~ OXaXaXaXaXiXiX7X.X^.V.f.N.g.N.V.V.V.f.a.f.f.a.9.9.8.8.~ ~ Q Q Q Q Q Q W W 7.(.].#X].(.T.a.d.d.d.y.y.y.y.y.d.s.s.s.s.u.%.%.O.G w h w w w w w 0 8 7 7 7 7 7 8 8 g g d 8 8 8 j k K ! / / / / / ! ! ! _ _ ! ! ! _ _ ) ) ) ) / ) _ _ _ _ _ _ _ _ ) ) ) ( ( 2.6.6.2.( ) ) ) ) ) ) _ ! ! W W ! ! W K K K K K K K K K K K K K K K K K K K K K K W W W W W ! W ! W ! / / W W W ! ! ! _ / ) ) ( } } 6.a.a.a.a.C.D.^.^.%X%X7X%X>X7X7X<X%X$X.XC.C.V.V.f.f.f.g.f.f.f.g.g.C.C.C.^.^.D..X.X.XXX,X%X%X<X<X<X<X7X7X7X%X,X,XOXH.H.H.OXD.D.D.F.,XN.D.%XD.iX;XOXq.W ) ~ f ! L ^ h h 9 6 6 6 0 5 5 5 5 9 9 9 9 5 5 5 5 5 5 5 5 5 5 5 5 3 3 3 3 3 3 1 3 1 1 1 1 1 1 1 1 1 1 1 1 1 1 1 1 1 1 1 1 1 1 1 1 < < < < 2 2 2 2 1 1 1 1 1 1 2 1 2 2 1 1 1 1 1 1 1 1 1 1 1 7 0 h 0 0 0 0 0 0 9 3 3 3 1 1 2 < < < < < < < < < < < , , , , , , , , , > % > % % % @ @ @ @ @ # # @ @ @ @ @ @ @ # # # # # ",
", , - - - - , , - - - - - - = = = = = @ @ # # # # # @ @ @ @ @ @ @ @ @ + + + @ + o # $ X X X o + + O + + + + O O + + + + # # # # @ @ @ @ @ # # # # # # # @ @ @ # # # # + + + + + + + + + # # # # # # @ @ @ @ @ @ # # # # @ @ @ @ @ @ @ + 2 s.s.& g b ` ].m 8.;X&XD.D.8.8.5.5.5.^.aXxXaXuXxXuX7X$X.XC.N.V.g.g.V.V.N.f.a.a.q.a.9.9.8.2.1.~ ~ ~ ~ ~ ~ Q m ~ 6.v.~.$X(.(.V.d.a.d.d.d.y.y.y.d.d.d.s.s.u.y.u.u.#.O.U h 0 0 0 0 0 0 8 8 8 7 8 8 8 8 g 8 d 8 8 8 d j K W / / / / _ ! _ ! _ ! ! ! ! _ _ ) ) ) ) ) _ _ _ _ _ _ _ _ _ ) ) ) ) ) ( 2.2.2.( ) ) ) ) ) ) _ ! W W W ! W W K K K K K K K K K K K K b b K K K K K K K W W W W W ! ! ! ! / ) ) / / ) ) ) ) ) ( | } 6.6.6.0.0.a.V.V.V.^.^.^.%X%X%X%X>X4X4X%X%X%X$X.X.XC.C.C.f.f.f.f.f.f.f.g.g.C.C..X.X.X.X.X.XXXXX,X%X<X<X<X7X<X<X7X7X<X,X,X,XH.H.,X%XD.F.H.H.H.e.<X7X,XxXOXD.=X: f p.c [ [ 6 6 0 0 9 9 0 0 9 9 9 6 9 9 9 9 9 9 9 9 9 9 9 9 9 9 9 9 9 9 5 5 3 1 3 3 3 3 3 3 1 1 1 1 3 3 1 1 1 1 1 1 1 1 1 1 1 1 1 1 1 1 2 2 2 2 2 2 1 1 2 2 2 2 1 1 2 1 1 1 1 1 1 1 3 3 3 3 , w F 0 9 3 9 h 5 9 0 , 3 3 3 1 1 1 2 2 2 2 < < < < < < < < , , > > , , % > % , % % % @ @ @ @ @ # # # # # @ @ # @ # # # # o ",
", , , , - - , , - - - - - - = = = = @ @ @ # # # @ @ @ @ @ @ @ @ @ @ @ + + @ % - 9 , % $ X X X X O O # + + + O O + + + + # # # # + + # # # # # # # # + + @ @ @ @ # # + # + + # # # # # # # # # # # # # # + + # # # # + + + + @ @ + + + + % % R U.u.: b v.A.=XoXtXD.q.0.~ 5.5.8.OXaXfXaXuXxXuX7X$X.XC.V.V.g.g.N.N.g.f.a.a.a.a.q.9.7.8.8.2.1.9.t.~ 2.( ~ ( ~ ( d.V.T.B.V.a.a.a.d.d.d.d.d.d.d.d.s.s.s.s.s.u.s.%./ P h 0 6 5 3 8 8 8 8 8 0 0 0 g g g d g d g j k K W / / / / ! ! _ _ _ ! ! ! ! _ _ ) ) ) ) _ ~ _ _ _ ~ ~ _ _ _ _ ) ) ) ) ) ( 2.( ( ) ) ) ) ) ) _ ! W W W W W W W K K K K K K K K K K K b K K K K K K K W W W W W ! ! ! / / ) ) ) ) ) ) ) ( ( ( | 6.6.6.7.d.d.a.V.V.D.^.^.^..X.X.X%X%X%X%X%X%X3X%X$X.X.XC.C.C.f.r.r.r.f.f.f.g.g.C.C.^.^..X.X.XXXXXXXXX%X<X<X<X<X<X<X7X7X<X%X,XOXH.H.,XH.H.,XH.H.N.F.iX,XOXbXOX@XjX8.W d.i.c g 6 6 0 0 0 0 0 0 9 9 9 6 9 9 9 9 9 9 9 9 9 9 9 9 9 9 9 5 9 9 5 5 3 3 3 3 3 3 3 3 1 1 1 1 3 3 1 1 1 1 1 1 1 1 1 1 1 1 1 1 1 1 2 2 2 2 2 2 1 1 2 2 1 1 1 1 2 1 1 1 1 1 1 1 3 3 3 3 3 H 3 6 9 3 9 h 0 5 0 1 3 3 3 1 1 1 2 2 2 2 < < < < < < < < < , , > , , > > % % % % % @ @ @ @ @ @ @ @ @ # @ @ # @ @ # # + o ",
", , , - , , , , - - - - - - = = = = = = @ @ @ @ @ @ @ @ @ @ @ @ @ @ @ @ < 9 H Y H 0 9 1 < - O X X O + + + + + O O O + + @ @ # # + + # # # # # # # + + + @ @ @ @ + + + + + + # # # # # # # # # # # # # # + + + # # # + + + + @ @ + + @ @ - , < J x.x.W ! A.D.@XrXS.8.~ ~ 8.8.8.OXaXhXaXiXxXuX7X$X.X^.C.C.g.g.g.g.f.f.a.a.a.a.a.q.9.7.9.9.f.^.^.a.d.7.6.~ ~ ~ Q ( t.d.a.t.d.d.d.d.d.d.d.d.s.s.s.s.s.d.y.#.u.#.^ R c j g 6 8 d d g g g g g h j j j j j j j A K K W ! / / / ! ! ! _ _ _ ! ! ! _ _ ) ) ) ) ~ ~ _ _ _ ~ _ _ _ _ ) ) ) ( ) ) ) 2.( ( ) ) ) ) ) ) _ _ ! W W W W W W K K K K K W K K K K K b K K K K K K K W W W ! ! / / / ) ) ) ) ) ) ) ) ( ( ( | 6.8.8.7.d.d.a.a.V.V.C.C.C.^.^..X.X.XOX%X%X%X%X4X%X$X.X.XC.C.f.f.a.a.a.f.f.f.g.g.C.C.D.D.H..XXXXX.XXX,X%X<X<X<X<X7X7X7XiX7X<X,X,XH.H.H.,X,X,XF.H.D.H.H.<X,XH.D.OX;Xa.W n ! ^ 6 6 0 0 0 0 0 0 0 9 9 6 6 9 9 9 9 9 9 9 9 9 9 9 9 9 9 5 5 9 9 5 5 1 1 1 1 3 3 3 3 1 1 1 1 3 1 1 1 1 1 1 1 1 1 1 1 1 1 1 1 1 1 1 1 2 2 1 1 1 1 1 1 1 1 1 1 1 1 1 1 1 1 1 1 3 3 3 3 0 F 1 3 9 3 9 h F 9 0 9 3 3 3 3 1 1 1 1 2 2 < < < < < < < < < , , > > , % % % % % % % @ % @ @ @ @ @ @ @ # # # # @ @ @ # + o ",
", , , - , , , , - - - - - - = = - - = = @ @ @ @ @ @ @ @ @ @ @ @ @ @ @ @ H G Y R H F 9 5 0 w c v 9 = X O + + + + O O + + @ @ # # + + # # # # # # # + + + @ @ @ @ # + + + + # # # # # # # # # # # # # # @ + + + + # # # + + + @ @ @ @ @ @ + + 1 c ^ 6 ! l.B.S.D.OXV.M 5.~ 8.8.0.@XaXhXaXiXxXuX7X$X.X.XC.C.V.g.N.V.f.f.f.a.a.a.a.r.9.9.a.a.D..X.XD.f.a.d.( ~ ~ Q M Q ~ ( ( 6.6.7.d.d.y.y.y.6.@.@.y.y.y.} ) / / W L J c k j j A j j j j j j j k A A A A A A K K K W ! / / / ! ! _ _ _ ! ! ! ! _ _ ) ) ) ) ~ ~ _ _ _ ~ ~ _ _ _ ) ) ) ( ) ) ) ( ( ( ) ) ) ) _ _ _ ! ! W W W W W W K K W W W W W K K K K b K K K K K K W W W ! ! / ) ) ) ) ) ) ) ) ( ( ( ( | 2.6.8.7.7.0.t.a.a.a.f.g.g.g.C.C.C.D..X.X.X%X4X7X>X3X%X$X.X.X^.C.a.f.f.a.a.f.f.f.g.g.C.C.D.D..X.XXXXX.XXX,X%X<X<X<X<X7X7X7XiX7X<X%X,XH.H.H.,X<XH.,XF.F.H.%X%X,XD.,X&Xa.d.6.k j I.^ 0 0 0 0 9 9 0 0 9 9 6 6 9 9 9 9 5 9 9 9 9 9 9 9 9 9 5 5 5 5 5 5 3 1 3 3 3 3 3 3 1 1 3 3 1 1 1 1 1 1 1 1 1 1 1 1 1 1 1 1 1 1 1 1 2 2 1 1 1 1 1 1 1 1 1 1 1 1 3 3 3 3 3 1 3 3 3 3 0 0 0 0 9 3 9 h H 9 0 0 3 3 3 3 1 1 1 1 2 2 < < < < < < < < < , , > > , % % % % @ @ @ % % @ @ @ @ @ @ @ # # # # # # # # # o ",
", , , , , - , , - - - - - - , - = = = @ % @ @ @ @ @ @ @ % % @ @ @ @ @ @ 2 w P R w w w w 1 H H J 2 @ X O + + + + O O + + # # # # + + + + O + O + + + + + # # # # + + + + O O O O + + + O O O + + + + O O + + + + + + + + + + # # + + + + o o - g 6 P b b l.z.V.S.8.~ 5.0.a.0.q.`.aXNXuXxXhX7X%X%X.X.X^.C.C.C.V.C.C.V.N.f.f.f.a.a.f.a.a.a.V.^..X^.C.V.f.a.8.2.~ ~ ~ Q Q Q Q Q W W W W W W W W W W K K K K K K K K K K K K K K A A A A A A A K K K K K K K K W W W ! / / / / _ _ ! _ _ ! ! ! _ _ ) ) ) ) _ _ _ _ _ _ _ _ _ _ _ ) ) ) ) ) ) ( ( ) ) ) ) ) _ _ _ ! ! W W W W W W W W W W W K K K K K K K K K K K K W W W ! / / / ) ) ( ( } [ ( } } ( } } 6.6.7.7.t.t.a.a.a.f.V.V.C.C.C.C.C.D..X.X.X.X%X%X%X%X%X%X$X.X.X^.C.f.f.f.f.r.r.f.f.f.g.N.C.D.H..X.XXXXXXXXX,X%X<X<X<X<X7X7X7XiX7X<X,X,X,XH.H.<X<X,X<XH.F.,XD.OX%X<X>XiXS.8.b +.j c s.Y.%.*.] 0 0 0 0 0 0 0 0 9 9 9 9 9 9 9 9 5 5 5 9 5 5 5 5 3 3 3 3 1 1 3 3 3 3 3 3 1 3 3 3 1 1 1 1 1 1 1 1 1 1 1 1 1 1 1 1 1 1 1 1 1 1 1 1 1 1 3 3 3 3 3 3 3 3 3 3 3 3 3 3 3 3 3 3 h h 0 0 5 5 0 H R 1 9 5 3 3 3 3 3 1 1 1 2 2 2 2 < , , , , , , , , % % % % % % % @ @ @ @ @ @ @ @ @ @ # # # # # # # # # o o o ",
", , , , - - , , - - - - - - - - = = = @ % @ @ @ @ @ @ % % @ @ @ @ @ @ + + % % < 0 0 0 0 - U v - , # O O + + + + O O + + # # # # + + + + + + O O + + + + # # # # + + + + O O O O + + + + O O + + + O O O + + + + + + + + + + # # + + + + o + - 5 h J c d b 0.a.S.5.0.a.0.q.V.8.S.4XjXaXzXhX7X%X%X.X.X.X.X^.C.C.C.D.V.V.V.N.f.f.f.V.V.V.V.V.^.^.^.C.C.g.f.a.a.9.8.2.~ Q Q m m m m W W W W b b b b K W W W W K W K K W W W K K K K K K K K K K K K K K K K K W W W ! ! ! ! _ _ _ ! _ ! ! ! ! _ _ ) ) ) ) _ _ _ _ _ _ _ _ _ _ _ ) ) ) ) ) ) ( ( ) ) ) ) _ _ ! ! ! ! W W W W W W W W W W W W W W K K K K K K K K W W W W _ / / / / ) ) ) } } } } } } 6.6.7.t.t.t.a.a.a.a.f.V.C.C.C.C.C.^.^..X.X.X.XOX%X%X%X%X%X%XOX.X^.C.g.f.f.r.r.r.r.f.f.f.g.N.C.C.H..X.XXXXXXXXX,X%X<X<X<X<X<X7X7XxX7X<X,X,X<X<X,X,X<XH.,XH.H.,X,X,XzXzXbX;XD.! b h c 6 c h g h 0 0 0 0 0 0 0 0 0 9 9 9 9 9 9 9 9 5 5 9 9 5 5 5 5 3 3 3 3 1 1 3 3 3 3 3 3 1 1 3 3 1 1 1 1 1 1 1 1 1 1 1 1 1 1 1 1 1 1 1 1 1 1 1 1 1 1 3 3 3 3 3 3 3 3 3 3 3 3 3 5 3 3 3 5 0 h h g 0 h 5 H h 3 5 5 5 5 5 3 3 1 1 1 1 2 2 2 < , , , , , , , , % % % % % @ @ @ @ @ @ @ @ @ @ @ @ # @ # # # # # # o # o o ",
"- - , , , - , , - - - - - - - - = = = = % % % % @ @ % % % % @ @ @ @ @ @ @ @ - 2 0 0 0 0 - < O X X X O O + + + + + + + + # # # # O O + + + O O O + + + + # # # # + + + + + + O O + + + + O O O + + + O O + + + + + + + + + + # # + + + + + & - 3 0 6 g b b m d.0.5.a.a.8.q.V.8.S.>XxXiXhXhX7X%X%X.X.X.X.X.XC.C.^.^.C.V.V.C.V.C.V.C.C.V.C.V.C.C.D.C.C.C.C.V.V.f.a.t.2.~ ~ M Q W W W W W W W W W W W ! ! ! W W W W W W W W W W W W K K K K K K K K K K K K W W W W ! ! ! ! ! ! _ _ _ ! ! ! ! _ ) ) ) ) ) _ _ _ _ _ _ _ ! _ _ _ _ / ) ) ) ) ( ( ( ( ) ) ) _ _ W W ! W ! W W W W W W W W W W W W W K K K K K W W W W W _ ) ) / / ) ( ) ) ( } } } 6.6.6.6.7.d.t.t.a.a.a.a.f.g.g.V.V.V.C.D.^.^.^..X.X.X.X$X%X%X%X$X.X^.C.g.r.r.r.r.r.r.f.f.f.g.g.N.C.C..X.XXX.XXXXX,X,X%X<X<X<X7X7X7X7XxX7X<X,X,X<X7X<X,X,XH.H.>X,XzX,X,XD.iXbX;X8.n / j g c h 0 h w c 0 0 0 0 0 0 0 0 9 9 9 9 9 9 9 9 9 9 9 9 5 5 9 9 3 3 3 3 1 1 3 3 1 1 3 3 1 1 1 1 1 3 1 1 1 1 1 1 1 1 1 1 1 1 1 1 1 1 1 1 1 1 3 3 3 3 3 3 3 3 3 3 5 5 9 5 0 0 6 6 6 6 6 6 0 h c c 0 0 0 J c 2 5 5 5 5 5 5 3 3 3 1 1 2 2 < < , , , , , , , > > % % % % @ @ @ @ @ @ @ @ @ @ @ @ @ @ # # # # o # o o o o ",
"% % , , , , , , - - - - - - - - = = = = % % % % @ @ % % % % @ @ @ @ @ @ # o % 3 9 9 0 6 - - O + + X O O O O O + + + + + # # # # O O + + + + O O + + + + # # # # + + + + + + + + + + + + O O + + + + O O O + + + + + + + + + # # + + + + % - < 2 H 2 ; j n m ~ d.8.8.8.a.a.0.q.`.7XhX4X7XhX7X%X%X%XOX.X.X.XD.D.^.^.C.D.S.C.D.S.D.D.D.C.V.V.C.C.^.C.C.C.^.^.D.C.V.V.a.8.8.~ ~ ~ _ _ _ _ _ ! ! ! ! _ _ _ ! ! W W W W W W W W W W W K K K K K K K K K K K K W W W W W W ! ! W ! _ ! _ ! ! ! ! _ ) ) ) ) ) _ _ _ _ _ _ _ ! ! _ _ _ / ) ( ) ) ( ( ( ( ) ) ) _ _ W ! ! W ! W W W W W W W W W W W W W W W W W W W W W W _ _ ) / / / ) ) ) ) } } } } 6.6.6.6.7.t.7.t.a.r.r.a.f.g.g.g.C.C.C.C.D.D.^.C.^.^..X.X%X%X$X$X.XC.V.r.r.r.r.r.r.r.f.f.f.g.g.N.C.C..X.XXX.XXXXX,X,X%X<X<X<X7X7X7X7XxX7X<X,X,X<X7X7X<X,XH.H.>X>X<XF.e.F.>X>XNX!.b } g h c 0 h F 5 0 0 0 0 0 0 0 0 0 9 9 9 9 9 9 9 9 9 9 9 9 5 9 9 9 3 3 3 3 1 1 3 3 1 1 3 3 1 1 1 1 3 3 1 1 1 1 1 1 1 1 1 1 1 1 1 1 1 1 1 1 1 1 3 3 3 3 3 3 3 3 3 3 5 5 9 9 0 0 0 0 0 0 0 0 0 g c J v 6 ' +.L I.P c 5 5 5 5 3 3 3 1 1 2 2 < < , , , , , , , > > % % % % @ @ @ @ @ @ @ @ @ @ @ @ @ @ # # # # o # o o o o ",
"% % % , , , , , - - , - - - - , - - - - % % % % % % % % % @ @ @ @ @ @ @ # # % 5 0 0 0 6 , % + + + + + + O O O + + + O O + # + + + + O O O O O O O O O O + + + O O O O O O O O O O O O O O O O O O O O O O O O O O O O O o + + + O O + + 2 % + % 0 J J +.W } | ( 0.| 8.8.0.~ N.^.>XrX4X7XiXiX>X%X%XOX.X.XH.D.C.^.^.D.D.D.D.D.C.S.C.^.^.C.C.V.C.^.C.^.^.^.^.^.^.^.f.a.7.2.6.6.2.( ( ( ) _ ) _ _ _ ) _ _ _ _ _ _ _ W W W W W W W W W K K K W W W W K K K K W W W W W W W W W W ! ! ! ! ! ! ~ _ ) ( ) ) ) _ _ _ _ _ _ ! ! ! _ _ ) ) ) ) ) ) ( ( ( ( ( ) ) _ ! _ ! _ _ ! W W W W W W W W W W ! W W W W W ! _ ! ! ! ! _ ) ) ) / ) ) ) ) ( ( } } 6.6.6.6.6.7.7.t.t.t.r.a.a.a.f.g.g.g.g.C.C.C.C.C.C.C.D.^..X$X%X$X.X^.C.r.r.r.r.r.r.r.f.f.f.f.g.N.C.C.H..XXX.X.X,X,X,X,X%X<X<X7X7XxXxXxXxX7X7X7X,X<XiXiX,X,XH.H.<XxX>XH.w.,X>XrXNX8.W b 6 0 h h h h 0 0 0 0 0 0 0 0 0 0 0 0 0 0 9 9 9 9 9 9 9 9 5 5 5 5 9 9 3 3 1 1 3 3 1 1 3 3 1 1 1 1 3 3 1 1 1 1 1 1 1 1 1 1 1 1 1 1 1 1 1 1 1 1 3 3 3 3 3 3 3 3 5 6 9 9 9 0 0 0 0 0 g g g g g j v g j s.x.s.! x.c /.U.3 0 3 3 3 3 3 1 2 2 < < , , , , , , - > > % % @ @ @ @ @ @ @ @ @ @ @ @ # # # # o # # o X o # o o o ",
", , , , , , , , - - - - - - - - - - - - % % % % % % % % % % @ @ @ @ @ @ @ @ % 2 0 0 0 6 , % + + + + + + O O O O + + O O # + + + + + O O O O O O O O O O + + + + O O O O O O O O O O O O O O O O O O O O O O O O O O O O o o + + O O + + 2 @ + @ 2 0 c ` ` | p.8.8.5.0.q.8.1.N.S.@X>XrXuXiXiX7X%X,X.X.X^.D.D.C.^.^.D.D.C.S.C.C.C.D..X.X^.C.C.^.^.^.^.^.^.^.^.^.^.V.V.a.t.7.7.6.6.6.( ) ) ) ) ( ( ) ! _ _ _ _ _ _ _ _ ! W W W W W W K K K W W W W K K W W W W W W W W W W W W ! ! ! ! ! ! _ ) ) ) ) ) ) _ _ _ _ _ _ _ ! ! _ _ ) ) ) ) ) ) ) ( ( 2.( ( ( ) _ _ _ ! _ _ W W W W W W W W W W _ W W W W ! _ _ _ _ _ _ / ) / / ) ) ) ) ) ( ( } 6.6.6.6.6.6.7.7.7.t.t.r.a.a.a.a.f.g.g.g.V.V.C.C.C.C.C.C.^..X.X.X.X^.C.g.r.r.r.r.9.r.r.f.f.f.f.g.N.C.C.H.H.H..XXX,X,X,X,X%X<X<X7X7XxX7XxXxXiX7X7X7XxXxX7X,XH.,X,XbXCXxXOXD.%XD.uX^.n ~./ #.J 0 w g 0 0 0 0 0 0 0 0 0 0 0 0 0 0 0 9 9 9 9 9 9 9 9 5 5 5 5 5 5 3 3 1 1 3 3 3 3 3 3 1 1 1 1 3 3 1 1 1 1 1 1 1 1 1 1 1 1 1 1 1 1 1 1 3 1 3 3 3 3 3 3 3 6 5 6 9 9 9 0 0 0 0 g h h h h g v c P m.U.! { ! b g $.nX*.3 3 3 3 3 3 1 2 2 2 < , , , , - - % > > % % @ @ @ @ @ @ @ @ @ @ @ @ # # # # o o o @ # o o X X X ",
"1 2 , % % > - - - - - - - - - - - - - - % % % % % % % % % % % % @ @ @ @ @ @ @ - 9 0 0 5 , @ + + + + + + + O + + + + + + # + + + + + O O O O O O O O O O + + + + O O O O O O O O O O O O O O O O O O O O O O O O O O O O o o + + + O + + 2 @ + @ - ; 6 ^ c b p.b.!.0.0.0.5.1.N.F.@X>XrXuX7XiX7XOXOX.X.XD.D.D.^.^.^.C.C.C.C.C.C.C.D.$X%X.X^.^.^.^.^.^.^.^.^.^.C.C.V.V.V.a.d.d.t.7.6.2.( ( ( ( ( ) ) ) _ _ ) _ / / _ _ _ ! W W W W W W K K W W W W W W W W W W W W W W W W W W W W W W ! ! _ ) ) ( ( ( ) _ _ _ _ _ _ _ ! ! _ _ ) ) ) ) ) ) ) ( 2.6.6.6.( ( ) _ _ _ _ _ _ W W W W W W W W _ _ _ ! ! W ! _ / ) ) ) ) ) ) ) ( ) ( ( ( ) ( ( 6.6.6.6.6.7.6.7.7.t.t.t.r.a.a.a.a.a.f.g.g.g.g.g.g.g.g.C.C.^.^..X.X^.C.f.r.9.9.9.9.9.r.r.f.f.f.g.g.N.C.C.H.H.H.H..X,X,X,X,X%X<X<X7X7X7XxX7XxXiX7X7X<XxXxX7X<X<XxX<XiXbX>XzX,XN.OX7X`.$XW k P 0 5 0 g g 0 0 0 0 0 0 0 0 0 0 0 0 0 0 9 9 9 9 9 9 9 9 5 5 5 5 5 5 3 3 3 3 3 3 3 3 3 3 1 1 1 1 1 1 1 1 1 1 1 1 1 1 1 1 1 1 1 1 1 1 1 1 3 3 3 3 3 3 6 6 6 6 0 0 0 0 0 0 w w h h j c c c J h ^ s.y.` ` n.BXm.*XP }.nX< h 9 3 3 3 1 1 2 < < , , , , - - % % % % % @ % @ @ @ @ @ @ @ @ @ @ # # # # @ - < < < > @ # o o ",
"5 3 < , % % - - - - - - - - - - - - - - % % % % % % % % % % % % @ @ @ @ @ @ % - 9 0 0 5 , @ + + + + + + + + + O + + + + # + + + + + O O O O O O O O O O + + + + O O O O O O O O O O O O O O O O O O O O O O O O O O O O o o + + O O + + 2 + + @ - % & c u.y.| 0.!.R.D.V.8.5.N.N.>X7X7X7XuX7X>X,X.X.X.XD.D.D.^.^.^.C.V.N.N.V.V.V.D.%X4X$X.X.X^.^.^.^.C.^.^.^.C.V.f.f.a.a.t.d.t.7.6.6.6.2.( ( ( ( ( ) ) _ _ _ _ / / _ / ! W W W W W W W K W W W W W W W W W W W W W W W W W W W W W W ! ! ) ( ) ( ( ( ) _ _ _ _ _ _ _ _ _ _ _ ) ) ) ) ) ) ) ( 2.6.6.6.6.( ) ) _ _ _ _ _ W W W W W W W W _ ) ) _ _ W ! / ) ) ) ) ) ) ( ( ( ( ( ( ( ( ( 6.6.6.6.6.6.7.6.7.7.t.t.t.r.r.a.a.a.a.a.f.g.g.g.f.g.g.f.C.C.^.^..X.XC.g.f.9.9.9.9.9.9.r.r.f.f.f.g.g.N.C.C.C.H.H.H.XXXX,X,X,X%X<X<X7X7X7X7X7XxXiX7X7X<XxXzXxX<XxX<X<XxXH.F.iXxXM D.aXOXf : g g h 0 0 0 0 0 0 0 0 0 0 0 0 0 0 0 0 0 0 9 9 9 9 9 9 9 9 5 5 5 5 5 5 3 3 3 3 5 5 3 3 3 3 1 1 3 3 1 1 1 1 1 1 1 1 1 1 1 1 1 1 1 1 1 1 1 3 3 3 3 3 3 3 6 6 6 6 0 0 6 0 0 0 w h h c c c H H J J +.m.} } } |.Q.'.W.! +.Y.h h w 9 3 3 1 1 2 < < , , , , - - % % % % % % % @ @ @ @ @ @ @ @ @ @ @ # # # @ 9 w 9 1 1 < @ o o ",
"9 3 1 < , , , , , , , - - - - - - - % % % % % % % @ @ @ @ @ @ @ @ @ @ @ @ % % , 9 0 0 5 , @ + + + + # # # + @ + # # # + + + O O O O O O O O O O O O O O O O O O X X X X X O O O X X X X O O X X O O O O O O O O O O O O O O O O + + + + + @ + # - < & L j W b n ( V.V.V.q.5.N.D.,X7X7XiX<X<X>X%XOX.X.XD.D.D.D.D.C.C.N.f.N.N.V.C.%X4X.X.X.X.X^.^.C.C.C.C.C.V.f.f.f.f.f.a.a.t.t.d.t.7.6.6.6.6.6.6.( ) ) ) ) ) ) _ / _ _ _ ! W W W W W W W W W W W W W W W W W W W W W W W ! W ! ! _ ! _ ~ ) ( ( ( ( ( ) ) _ _ _ ! ! W W _ _ _ ) ) ) ) ) ) ( ( 2.6.6.6.6.6.( ) ) ) _ _ W W W W W W W W ! _ ) ) ) ) _ _ ) ) ) ) ( ( ( ( ( ( ( ( ( ( ( } 6.6.6.6.6.6.7.7.7.7.d.t.a.a.a.a.a.a.r.f.f.f.f.f.f.f.g.g.C.C.^.^.C.C.C.f.r.9.9.9.9.9.9.r.r.f.f.f.g.g.C.C.C.C.H.H..XXXXX,X,X%X<X<X<X<X7X7X7X7X7XxX7X<X7XzXxXxXbXxX<XxXzXD.5.F.xXw.>X4X8.d g g 0 0 0 0 0 0 0 0 0 0 0 0 0 0 0 0 9 9 9 9 9 9 9 9 9 9 9 9 5 5 3 3 3 3 3 3 3 3 3 3 1 1 1 1 1 1 1 1 3 3 3 3 1 1 1 1 1 1 1 1 1 1 1 1 1 1 3 3 3 3 3 3 6 6 6 6 6 6 0 0 6 0 0 h h h c J L L L L ' %.I./.u.c.u.T.Q.(.| [ u.L F 0 w 9 3 3 1 1 < < , , , , , % % % % % @ @ @ @ @ @ @ # # # # @ @ @ + + + o % w w 9 3 3 , o o X ",
"9 5 1 1 1 , , , , , , , - - - - - - % % % % % % % @ @ @ @ @ @ @ @ @ @ @ @ @ % , 9 0 0 5 , @ + + # # # # # + + + # # # + + + O O O O O O O O O O O O O O O O O O X X X X X X O O X X X X O O X X O O O O O O O O O O O O O O O O + + + + + # + # o 3 % c g b b ! f 8.a.q.5.N.N.D.,X7XiXxX7X7X>X%X.X.X.XD.C.C.C.C.C.N.N.N.N.N.C..X%X7X%X.X.X^.C.C.C.C.C.^.^.^.^.^.C.V.g.f.a.a.a.d.t.t.6.6.6.6.6.6.2.( ) ) ) ) ) _ / _ _ _ _ _ W W W W W W W W ! ! ! ! ! W W W W W W W W W ! W _ _ _ ) ) ) ) ( ( 2.2.( ) ) ) _ _ ~ W W ! _ _ _ ) ) ) ) ) ) ( ( 2.6.7.7.6.6.6.( ( ) ) _ _ W _ ! W W W W ! _ ) ) ) _ ) ) ) ) ) ( ( ( ( ( ( ( ( ( ( ( ( } 6.6.6.6.6.8.7.7.t.t.9.t.a.a.a.a.a.a.g.g.g.g.V.V.C.V.C.V.V.V.V.f.f.f.f.r.9.9.9.9.9.9.9.r.r.f.f.f.g.g.C.C.C.H.H.H..XXXXX,X,X%X<X<X<X<X7X7X7X7XiXxXiX<X<XxXxXxX<X<XbXlXzXD.M F.D.OXiX:XM d d 0 5 0 0 0 0 0 0 0 0 0 0 0 0 5 5 5 5 3 3 3 1 1 1 1 1 1 1 1 1 1 1 1 1 1 1 1 1 1 1 1 1 1 1 1 1 1 1 1 1 1 1 1 1 1 1 2 1 1 1 1 1 1 1 1 1 1 3 3 3 3 3 3 6 6 0 0 0 0 0 0 0 0 h h c H J U P R ^ ' %.6XeXKX2X/.n.c.y.s.| #./ ' h 0 w 9 3 3 1 1 < < , , , , , - % % % % @ @ @ @ @ @ @ @ # # # # @ @ + + + + < H F w 0 0 1 + X X ",
"9 5 1 1 1 1 , , , , , , - - - - - - % % % % % % % % % % % % @ @ @ @ @ @ % % @ , 5 0 0 3 , @ # # # # # # # # # # # # # + + O O O O O O O O O O O O O O O O O O O X X X X X X X X X X X X X X X X O O O O O O O O O O O O O O O O + + + + + # + # @ + 6 5 g 6 b ! n M 0.~ 5.D.N.D.%XiXxXxXiX7X>X%X.X^.D.C.C.C.C.C.C.N.g.N.g.N.S.%X7XjX4XOX.X^.C.C.C.C.C.^.^.D.V.V.V.g.f.a.a.a.a.t.t.d.7.6.6.6.6.6.6.6.( ) ) ) ) ) ) / _ _ _ _ _ W W W ! ! W W _ ! _ _ _ _ W W W W W W W W _ _ ) ) ) ) ( ( ( ( 6.6.6.( ) ) ) _ _ _ ! ! ! ~ _ _ ) ) ) ) ) ) ( 2.6.7.t.t.t.t.7.6.( ) ) ) _ _ W _ ! W W ! ! _ _ ) ) ) ) ) ) ) ( ( ( ( ( ( ( ( ( ( ( ( 6.6.6.6.6.6.7.7.t.t.d.t.t.a.a.a.a.a.a.a.g.g.C.V.V.V.C.D.C.C.V.C.g.g.g.f.r.9.9.9.9.9.9.9.r.r.f.f.f.g.g.C.C.C.H.H.H..XXXXXXX,X,X%X<X<X<X<XxXxXxXxXxXxXxX7X<XxXxX7X<X<XxXhX,X;XD.F.N.^.:X3Xd : : 1 3 3 1 2 2 2 2 2 < < < < < < < < < < < < < < < < 2 1 1 1 1 1 1 1 2 2 2 2 2 2 2 2 < < < < < < 2 2 2 2 1 1 2 2 1 1 2 1 1 1 1 1 1 1 3 1 3 3 3 3 5 5 6 6 0 0 6 6 0 0 g g v c J J L L / #.s.U.nXLXKXKXDX6X/.Q.I.x.#./ / Q.h h 0 9 3 3 1 1 < , , , , , , % % % @ @ @ @ @ @ @ @ # # # # # # # # + + + + 9 Y G H G H 0 , X X ",
"9 5 5 1 1 3 1 < , , , , - - - - - - % % % % % % % % % % % % % % @ @ @ @ % % % < 3 9 9 3 , @ # # # # # # # # # # # # # + + O O O O O O O O O O O O O O O O O O O X X X X X X X X X X X X X X X X O O O O O O O O O O O O O O O O O O O O o + O + @ o 2 3 v ; d m l 8.0.8.8.N.F.D.;XiXxXzXxXrX>X%X.XC.C.C.C.C.C.C.N.g.g.g.N.V.^.>X7XxX7X%X.X.X^.^.C.C.C.C.C.C.V.V.f.f.a.a.t.d.t.t.d.d.7.6.6.6.6.6.6.6.6.( ) ) ) ) ) ) _ _ _ _ _ _ _ _ _ _ _ _ _ _ _ _ _ _ W W W W W W _ _ _ _ ) ( ( ) ( ( ( 2.6.6.6.2.( ) ) ) _ _ ! W W ~ _ _ ) ~ ) ) ) ) ( 2.6.7.t.t.t.t.t.7.6.( ) ) _ _ _ _ _ W _ ! ! _ _ ) ) ) ) ( ( ( ( ( ( ( ( ( ( ( 2.2.2.2.6.6.6.6.6.6.7.7.t.t.d.d.a.a.a.a.a.a.a.a.f.g.g.g.V.V.V.V.C.C.C.g.g.f.r.a.t.9.9.9.9.9.9.9.r.r.f.f.f.g.g.C.C.C.H.H..XXXXXXXXX,X,X%X%X<X<X<XxXxXxXxXxXzXxXiX<XiXxX<X<XiXzX>XN.F.F.M N.q.;X!.b v 6 0 0 w 0 0 0 0 0 0 0 0 0 0 0 0 0 0 9 9 9 9 5 5 5 5 5 3 3 3 3 3 3 3 1 1 1 1 1 1 1 1 1 1 1 1 1 1 1 1 1 1 1 1 1 1 1 1 1 1 1 1 1 1 1 1 1 1 3 3 3 3 5 5 3 5 0 6 0 d g g j j c c K P ^ ^ #.s.Q.nXLXKXKXKXLXnXeX|./.I.s.#.I./ g 0 0 9 3 3 1 1 < , , - - - - % % @ @ @ @ @ @ @ @ @ # # # # # # # # + + + + w T R U G F 3 + X X ",
"5 0 5 5 3 3 3 1 2 , , , - - - - - - - - - - - % % % % % % % % % % % % % % @ % 2 9 0 0 1 , @ @ @ # @ @ @ @ @ @ # # O O + O O O O + + O O + + + + O O O O + + O O O O X X X X X X O O X X X X O O O O O O O O O O O O O O O O X X O O O O O X O O # o + ; 6 d : ! d 0.0.~ a.D.D.D.%XiXxXzXhX7X%X.XD.D.C.C.C.C.C.N.g.f.f.f.g.V..X4XjXxX7X%X.X.X^.C.C.C.V.N.f.f.f.a.a.a.a.r.t.t.t.9.t.7.7.7.6.6.6.6.6.6.6.( ) ) ) ) ) ) ) _ _ _ ) ) ) _ ) ) ) ) _ _ _ _ _ _ _ W _ _ W W _ _ ) ) ) ) ( ( 2.2.2.2.6.6.6.2.( ( ) ) ) _ _ _ ~ ~ _ _ ) ) _ _ ~ ) 2.3.6.7.t.t.d.d.t.t.7.6.2.( ) ) _ _ _ W _ _ _ _ _ ) ) ) ( ( ( ( ( ( ( ( 2.2.2.( 2.2.6.6.6.6.6.6.7.7.t.t.t.t.t.t.t.t.r.r.f.f.a.a.f.f.g.g.V.V.g.g.g.g.g.f.f.f.r.r.t.t.9.9.9.9.t.r.r.r.f.g.g.g.g.C.C.H.H.H..XXXXX,X,X,X,X%X%X7X7X<X7X7XxXxXxXxXxXiX<XxXxX<XxXxX<XF.k.iXD.S.V.&XjX0.m v g e e w 0 0 0 0 0 0 0 0 0 0 0 0 0 0 9 9 5 3 3 3 3 3 1 1 1 1 1 1 1 1 1 1 1 1 1 1 1 1 1 1 1 1 2 2 2 1 2 1 1 1 2 2 2 2 1 1 1 1 2 1 1 1 3 3 3 3 3 8 6 6 0 0 6 6 g g j j c c J K ^ / [ y.m./.nXLXKXKXKXKXKXKXLXnX6X{.}.|./ J h 0 0 9 3 1 1 2 , , , , , - - % % @ @ @ @ @ @ @ # @ # # # # # # # # o + # @ @ @ % % @ o X X o o ",
"5 3 3 3 3 3 5 3 1 1 < , - - - - - - - - - - - % % % % % % % % % % % % % % @ % 2 0 w 0 3 , @ @ @ # @ @ @ @ @ @ # # + O O + O O O + O O O + + + + O O O O + + O O O O X X X X X X O O X X X X O O O O O O O O O O O O O O O O X X X X X X X X O X X O + - ; j d f b 0.V.M 5.f.w.H.,XrXhXzXuX4X%X.XD.C.C.C.C.C.N.g.f.f.f.f.N.C..X%X7XxX7X.X^.^.C.C.V.V.g.f.f.f.a.r.r.r.r.t.t.t.9.9.7.7.7.8.7.6.6.6.6.6.6.( ) ) ) ( ) ) ) ) ) ) ) ) ) ) ) ) ) _ _ _ _ _ _ _ _ _ W W W _ ) ) ) ) ( ( ( 2.2.2.2.2.6.6.6.2.( ( ) ) ) _ ~ ~ _ _ ) ) ) ) _ _ ~ ( 2.3.7.7.t.d.t.t.t.t.t.7.6.2.( ~ ) _ _ _ _ _ _ _ _ ) ) ) ( ( ( ( ( ( ( ( 2.2.2.2.2.2.2.2.6.7.7.7.7.7.t.t.t.t.t.t.t.t.r.a.a.f.a.a.r.f.f.g.g.g.f.f.a.a.a.a.r.r.9.9.9.9.9.9.9.9.r.r.f.f.g.g.g.g.g.C.C.H.H..X.XXXXXXX,X,X,X%X%X7X7X7X7X7XxXxXxXxXxXxX7XxXxX7X<XiX<XH.D.D.w.f z.aX#X: d 4 2 2 2 2 < < < < < < - - - - - - - - , , , , - - , , , , , , , , , , , , , , , , , , , , , , , , , , < < < < , , < < 2 1 1 1 1 1 1 3 3 3 3 3 0 0 0 6 0 0 6 6 g j v b b K W W [ } u.m./.VXLXKXKXKXKXKXJXJXKXKXLXLXLXs./ J h 0 0 9 3 1 1 2 , - , , , % % @ @ @ @ @ @ @ # # # @ # # # # # # # # o o o o o o o X X X X o o o ",
"6 1 3 h 5 3 5 5 5 5 2 < , - - - - - - - - - - - % % % % % % % % % % % % % % % 1 0 w 0 3 , @ @ @ # # @ @ @ @ @ + # + + + + + O O + + O O + + + + + O + + + + O O O O X X X X O X X X X X X X X X O O O + + O O O O O O O O O X X X X X X X X O X X O X + - ; b j W M z.8.~ q.M D.%XrXhXlX7X>XOXD.C.C.C.C.C.N.N.f.f.f.f.f.f.V.C..X%X4X%X.XC.C.V.V.N.f.f.f.a.a.r.r.r.r.r.r.t.t.9.9.9.7.7.7.7.7.6.6.6.6.2.2.( ( ( ( ) ) ) ) ) ) ) ) ) ) ) ) ) ) ) ) _ _ ) ) ) ) _ _ _ ) ) ( 2.2.2.2.3.3.6.6.6.6.6.6.6.2.( ( ) ) ) ) ) _ _ ) ) ) ) ) _ _ ) ( 3.6.7.t.r.r.d.t.t.t.t.t.7.6.2.( ) ) ) ) ) _ ) _ _ ) ( ( ( ( ( ( 2.2.2.2.2.6.2.2.6.6.6.6.6.7.7.7.7.7.t.t.t.t.a.a.t.t.t.a.a.a.r.a.r.r.r.a.f.r.r.r.t.t.t.t.t.9.9.9.9.9.9.9.9.r.r.f.f.g.g.g.g.g.g.C.C.H.H..X.XXXXX,X,X,X%X%X%X<X7X7X7X7XxXxXxXxXxXxXxXxXxXxXbXbXH.,X>Xw.w.n oXqXn : 6 4 1 1 1 5 3 3 3 3 3 3 2 2 2 2 2 2 2 2 2 2 1 1 1 1 1 1 1 1 3 3 1 1 1 1 1 1 1 1 1 1 3 3 3 3 5 5 3 3 3 3 5 5 5 5 3 3 3 3 3 3 3 3 3 3 3 5 3 5 5 0 0 0 0 0 g g j g v c b K ! ! / ) @.i.n.{.mXVXKXJXJXJXKXKXJXJXJXJXJXJXnX*.^ J h 0 0 5 5 1 1 2 , - , - - % % @ @ @ @ @ @ @ # # @ @ # # # # # # # # o o o X X X X X X X o o o o ",
"R h 3 5 0 5 3 5 5 5 5 2 < , - - - - - - - - - - % % % % % % % % % % % % % % % 1 0 w 0 1 , @ @ @ # # @ # @ + + + # + + + + + O + + + O O O + + + + + + + + + O O O O X X X X O O X X X X X X X X O X O # + O O O O O O O O O X X X X X X X X O X X X X O o & 6 ` W ! 0.~ 5.q.1.N.%XrXhXzX7X%X.XD.C.C.C.C.C.N.g.f.f.f.f.f.q.f.V.C..X.X.XD.V.N.V.V.g.f.f.a.a.a.a.r.r.r.r.r.t.t.9.9.9.7.7.7.8.7.6.6.6.6.2.2.( ( ( ( ) ) ) ) ) ) ) ) ) ) ) ) ) ) ) ) _ _ ) ) ) ) ) _ ) ( ( 2.2.2.2.3.3.6.6.6.6.6.6.6.6.2.( ( ) ) ) ) ) ) ) ) ) ) ) _ _ ) ( 2.6.7.t.t.r.r.d.d.d.t.t.t.t.7.6.2.( ( ) ) ) ) ) ) ) ) ( ( ( ( ( ( 2.2.2.2.2.2.2.2.6.6.6.6.6.7.7.7.7.7.t.t.t.t.r.a.t.t.t.r.r.r.t.t.t.t.t.r.t.t.t.9.t.9.7.t.9.9.9.9.9.9.9.9.r.r.r.f.g.g.g.g.g.g.g.C.H..X.XXXXXXXXX,X,X%X%X%X<X<X7X7X7X7XxXxXxXxXxXxXxXxXxXxXbXzX,XF.>Xw.5.z.0Xb.: v c v v w 0 w 0 0 0 0 0 0 0 0 0 0 0 0 0 0 9 9 9 9 9 9 9 9 9 5 5 5 9 9 9 5 3 3 3 3 3 3 3 3 3 1 1 1 3 4 4 4 3 3 3 3 3 3 3 3 3 3 5 5 5 5 5 5 6 0 0 0 0 g g h g g v v c b b K ! ) | } i.T.|.nXLXJXJXJXJXJXKXKXJXJXJXJXJXKX|.Y.^ J h 0 0 5 5 1 1 2 , , , - - % % @ @ @ @ @ @ @ # # @ @ # # # # # # # # o o o o o o o o + o o o o o ",
"s.+.c < 4 0 0 5 5 5 5 3 2 2 , - - - - - - - - - - - - - % % % % % % % % % % % 1 0 0 0 1 , @ @ @ @ # @ + # # # O + + + + + + + + O O O O O O O O O O O O O O O O X X O O X X X X X X O O X X X O O X + # # O O O O O O O O O O O X X X X O O O X X X X o o o + & ` } | 0.5.a.M 5..X>XxXjXuX7XOXD.C.C.C.N.V.V.g.f.f.f.f.f.f.f.g.C.C.C.C.C.C.C.V.g.g.f.f.f.f.a.a.r.a.r.r.r.r.t.t.9.9.9.7.7.7.8.8.7.6.6.6.2.2.2.( ( ( ( ( ) ) ) ) ) ) ) ) ) ) ) ) ) ) ) ) ) ) ( ( 2.( 2.3.3.7.7.7.7.7.7.7.7.7.6.6.6.2.2.( ( ) ) ) ) ) ) ) ) ~ _ _ _ ~ ) ( 2.6.7.t.t.t.r.r.r.r.t.t.t.t.t.7.6.2.2.( ( ( ( ( ( ( ( ( ( 2.2.2.2.2.2.2.2.6.6.6.6.6.6.6.6.7.7.7.7.7.7.7.7.7.t.t.t.t.t.t.t.t.t.t.9.7.9.9.9.9.9.9.7.7.7.7.7.9.9.9.9.t.r.9.9.r.r.r.f.g.g.g.g.g.g.g.C.C.H..X.XXXXX,X,X,X%X%X<X<X<X7X7X7XxXxXxXxXxXxXxXxXxXxX<X<XzX,XF.H.w.q.&Xp.J c v v v w 0 w v h h 0 h h h 0 0 0 0 0 0 0 0 0 0 0 0 9 9 9 6 5 5 5 5 5 5 3 3 5 5 3 3 3 3 5 3 3 3 3 3 3 3 3 4 3 3 3 3 3 3 3 3 5 5 5 5 6 0 0 0 0 0 0 0 g g g g v v c c K K W ! ~ | d.i.T.2XnXLXKXKXKXKXJXJXJXKXJXKXJXJXJXnX/.*.R J h g 0 5 3 1 1 2 , , , % % % % % % @ @ @ @ @ # # # # o o o o o o o o o o # # # # # # @ o o $ $ & ",
"J +.+.J 6 4 4 5 5 5 5 5 5 3 1 2 , - - - - - - - - - - - % % % % % % % % % % % 1 0 0 0 1 , @ @ @ # # @ + # + O O + + + + + + + + O O O O O O O O O O O O O O O O X X O O X X X X X X O O X X X O O X + @ # O O O O O O O O O O O X X X X O O O X X X X X o o o * ; f l.z.8.N.M 5..X4XxXxX7X>XOXD.C.C.N.N.N.g.g.f.f.f.f.f.f.f.f.V.C.C.C.C.V.g.f.f.f.f.f.f.f.a.a.r.a.r.r.r.r.r.t.9.t.t.t.t.7.7.8.8.6.6.6.2.3.3.2.2.( ( ( ( ( ( ( ( ( ) ) ) ) ) ) ) ) ) ( ( ( ( 2.2.6.6.6.7.7.7.7.7.7.t.t.t.7.6.6.6.6.2.( ( ( ) ) ) ) ) ) ) ~ _ _ _ ~ ) ( 3.7.7.t.t.t.r.r.r.r.t.a.t.t.t.t.7.6.6.2.2.2.2.2.2.2.2.2.2.2.2.2.2.2.2.2.2.6.6.6.6.6.6.6.7.7.7.7.7.7.7.7.7.7.7.7.7.t.t.t.t.9.7.7.7.7.7.7.7.7.7.7.7.7.7.7.7.9.9.9.9.r.r.r.r.r.r.f.g.g.g.g.g.g.g.C.C.H.H..X.XXXXX,X,X,X%X%X<X<X<X7X7XxXxXxXxXxXxXzXzXxXxXzXbXbXxX,X<X>XOXF.D.W g h c h h w 0 0 w 0 0 0 0 0 0 0 0 0 0 0 0 0 0 9 9 9 9 6 5 5 5 5 5 5 5 5 5 3 3 3 3 3 3 3 3 3 3 3 3 3 3 3 3 3 3 3 3 3 3 3 3 3 3 5 5 5 5 6 0 0 0 0 0 0 0 g g j h v c c J L W ! / | 0.a.B.2XnXLXKXKXKXKXKXJXJXJXJXJXKXJXJXLX|.Y.^ U F h 0 0 5 3 1 1 < , , , % % % % % % @ @ @ @ @ # # # # # # o o o o o o o o # # # # # X X X o . 3 L ",
"+.+.+.+.L 6 4 5 5 5 5 5 5 5 5 3 2 - - - - - - - - - - - % % % % % % % - - % - 3 0 0 0 1 , @ @ @ @ @ @ + # + + + + + + + + + + O O O O O O O O O O O O O O O O O X X X X X X O O X X X X X X X O O X + @ @ O O O O O O O O O O O O O X X O O O O X X X X X X o o * P 0.a.V.D.N.D.OX4XuXuX>X%X.XD.C.C.N.N.N.g.g.f.f.f.f.f.f.f.r.g.V.V.N.N.g.g.f.f.f.f.f.f.a.r.r.r.a.a.a.a.r.r.a.t.t.t.t.t.t.7.7.8.8.8.6.6.6.3.6.2.2.2.( 2.2.2.2.( 2.( ( ( ( ( ( ( ( ( ( ( 2.2.6.6.6.7.7.7.7.7.9.7.7.7.7.t.t.7.7.6.6.2.( ( ) ) ) ) ) ) ) ) ~ ~ ) ~ ) ( 2.3.7.7.t.t.r.r.r.a.r.r.a.t.a.t.t.t.7.7.7.6.6.6.6.6.6.6.6.6.3.3.3.3.6.2.6.6.6.6.6.6.6.6.6.6.7.7.7.7.7.7.7.7.7.7.7.7.7.7.7.7.7.7.8.8.8.8.8.7.7.7.7.7.7.7.7.9.9.9.9.t.r.r.r.r.r.f.g.g.g.g.g.g.g.C.C.C.H.H..XXXXXXX,X,X%X%X<X<X<X<X7X7XxXxXxXxXxXzXzXzXzXxXzXxXbXbX<X7XD.OXN.a.c c g h h h h g 0 h 0 0 0 0 0 0 0 0 0 0 0 0 0 0 9 6 9 6 6 5 5 5 5 5 5 5 5 5 3 3 3 3 3 3 3 3 3 3 3 3 4 4 3 3 3 3 3 3 3 3 3 3 5 5 5 5 6 6 6 6 0 0 0 0 0 0 g g g v c c J K W / } 6.d.v.(.{.nXLXJXJXJXJXJXJXJXJXJXJXJXKXKXLXnXU.*.^ H h g 0 5 5 3 3 2 < , , - % % % % % % @ @ @ @ @ @ @ # # # # # # # # o # o o # # # # # o $ o $ v ^ ' ",
"%.' ^ ^ %.] g 4 5 5 5 5 6 5 5 5 3 2 - - - - - - - - - - % % % % % % % - - % - 3 0 w w 1 - @ @ @ @ @ @ @ # + + + O + + + + + + O O O O O O O O O O O O O O O O O X X X X X X O O X X X X X X X O O X + @ @ O O O O O O O O O O O O O O X O O O O X X X X X X o o & 6 ! ` 0.0.A.D.$X7XiXiX%X$X.XD.C.V.N.N.g.g.g.g.f.f.f.f.r.r.r.f.f.g.g.f.g.g.f.f.f.f.f.f.a.r.r.r.a.a.a.a.r.r.a.a.a.t.t.t.t.t.7.8.7.8.8.7.6.6.6.3.3.3.2.2.2.2.2.2.2.2.2.2.( ( ( ( ( ( 2.2.2.2.6.6.7.7.7.7.t.t.t.9.7.7.7.t.t.7.7.7.6.2.( ( ) ) ) ) ) ) ) ) ~ ~ ) ~ ( ( 2.2.3.7.7.t.r.r.a.a.r.r.a.a.t.t.t.t.t.t.7.7.7.7.6.6.7.6.6.6.6.6.3.3.3.2.6.6.6.6.6.6.6.6.6.6.7.7.7.6.7.7.7.7.7.7.7.6.3.3.6.3.3.3.3.3.2.3.8.7.7.7.7.7.7.7.7.9.9.9.9.r.r.r.r.r.r.g.g.g.g.g.g.g.g.C.C..XH.H..XXXXXXX,X%X%X%X<X<X<X<X7XxXxXxXxXxXzXzXzXzXzXzXzXxXbXxXxX<XN.D.D.~ d F J h h h h 0 0 0 0 0 0 0 0 0 0 0 0 0 0 0 0 0 6 6 6 6 5 5 5 5 5 5 5 5 5 5 3 3 3 3 3 3 3 3 3 3 3 3 4 4 3 3 3 3 3 3 3 3 3 3 5 5 5 5 6 6 6 6 0 0 0 0 0 0 g g j c c K K W ! / 6.d.v.W.*XeXLXJXJXJXJXJXJXJXJXKXJXJXJXKXLXnX|.Y.O.J F h 0 0 5 3 3 2 < , , - % % % % % @ @ @ @ @ # @ @ @ # # # # # # # # # # o o # # # o o o $ $ c ] ' s.",
"%.` %.%.+.' ' v 6 6 4 5 6 6 6 6 5 3 2 < - - - - - - - - - - - - - - - - - @ % 5 0 v v 1 - @ @ @ @ @ @ @ + + + + O O + + + + O O O O O O O O O O O O O O O O O O X X X X X X X X X X X X X X X X X O O = @ O O O O O O O O O O O O O O O O O O O O O O O O O o o & & d / W b | a.^.7XiXfX>X$X.XH.C.N.N.N.N.g.g.g.f.f.f.r.r.r.r.r.r.r.f.f.f.g.g.g.f.a.f.a.r.r.r.a.f.f.r.r.r.r.r.a.t.t.t.t.t.t.7.8.7.7.7.6.6.6.3.3.3.3.3.3.3.3.2.2.2.2.2.2.2.2.2.2.2.2.2.2.2.7.7.7.9.t.t.t.t.t.t.9.9.7.7.t.t.7.8.7.7.3.2.( ~ ~ ( ( ~ ~ ( ( ( ( ( ( ( 2.2.2.2.3.7.t.a.r.a.a.t.t.t.t.t.t.t.t.t.t.t.t.7.7.7.7.7.7.7.7.7.6.7.3.3.3.6.6.6.6.7.7.7.7.7.7.7.7.6.6.7.7.7.7.7.7.3.3.2.3.2.2.2.2.3.2.2.3.3.7.7.7.7.7.7.7.7.7.9.t.t.r.r.r.r.r.f.g.g.g.g.g.g.g.C.C..X.X.X.XXXXXXXXX,X%X%X%X<X<X7X7X7XxXzXxXxXxXzXzXzXzXzXzXzXxX<XxX>XD.^.0.E.d j h h h h h h 0 0 0 0 0 0 0 0 0 0 0 0 0 0 0 0 0 6 6 6 5 5 5 5 5 5 5 5 5 5 5 3 3 3 3 1 1 3 3 3 3 1 1 4 4 1 1 3 3 3 3 3 3 3 3 5 5 6 6 6 0 0 0 0 0 0 g g g g j c c K P ! ! _ 6.d.a.~.#XnXLXKXJXJXJXJXJXJXJXKXKXKXKXJXLXnX|.U.*.^ J v g 0 6 5 3 3 2 < < , % % % % % % @ @ @ @ @ # # # # o o o o o o o o o o X X X X X . X $ ; L ] { %.u.",
"' s.%.+.@.^ +.' L 4 4 4 5 6 6 6 5 5 3 2 < - - - - - - - - - - - - - - - - @ % 5 w v v 1 % # @ @ @ @ @ # + + + + O O + + + + O O O O O O O O O O O O O O O O O O X X X X X X X X O X X X X X X X X O O - @ O O O O O O O O O O O O O O O O O O O O O O O O O o o + o ; b ! b W 8.^.7XuXxX>X%X.XD.C.N.N.N.N.g.g.g.f.f.f.r.9.9.r.r.9.9.r.r.f.f.g.g.f.f.f.f.f.f.f.f.f.f.r.r.r.r.r.a.t.t.t.9.t.t.7.8.7.7.7.6.7.3.3.3.3.3.3.2.3.3.2.2.2.2.2.2.2.2.2.2.2.2.3.3.8.7.7.9.t.t.t.t.t.t.t.t.t.t.7.t.t.7.8.7.7.3.2.( ~ _ ~ ~ ~ ~ ( ( ( ( ( ( ( 2.2.2.2.3.7.t.a.r.a.t.t.t.t.t.t.t.t.t.t.t.t.t.t.t.7.7.7.7.7.7.7.7.7.7.3.3.6.6.6.6.7.7.7.7.7.7.7.7.6.3.3.7.7.7.7.3.3.2.2.2.2.2.2.2.2.2.2.3.3.7.7.7.7.7.7.7.9.9.t.t.r.r.r.r.r.r.f.g.g.g.g.g.C.C.C.H..X.XXXXXXXXXXXXX,X%X%X%X<X<X7X7X7XxXxXxXzXzXxXzXzXzXxXxXxXiX>XzXiXOXA.~ 0.b j h h h h h h 0 0 0 0 0 0 0 0 0 0 0 0 0 0 0 0 0 6 6 6 5 5 5 5 5 5 5 5 5 5 5 3 3 3 3 1 1 3 3 3 3 1 1 4 4 1 3 3 3 3 3 3 3 3 3 5 5 6 6 6 6 0 0 0 0 0 g j j j v c K P ! ! ) ( d.a.(.2XnXGXKXJXJXJXJXJXJXJXJXKXJXJXKXKXnX|.Y.s.+.L H h 0 6 5 3 2 2 < < , % % % @ @ % % @ @ @ @ @ # # + # o o o o o o o o o o X X X X + o $ 5 P +.[ { u.u.",
"s.@.+.' %.%.%.^ %.' g 4 5 5 5 6 5 5 5 3 2 < - - - - - - - - - - - - - - - @ - 5 w v v 1 % + @ @ @ @ @ # @ + # # O O O + + + O O O O O O O O O O O O O O O O O O X X O O X X X X O O X X X X X X X + X - @ O O O O O O O O O O O + O O X X O O O X X X X O O O o + $ & 4 ^ b K b ^.tXaXuX>X%X.XD.C.N.N.N.g.g.g.g.g.f.f.r.r.9.9.9.9.9.9.t.r.r.f.r.r.r.f.g.f.f.f.f.g.g.f.r.r.r.a.a.a.t.9.9.t.t.7.8.7.7.7.6.7.7.3.2.3.3.3.3.3.3.3.3.3.2.3.3.3.3.6.6.7.7.7.7.8.7.9.t.a.a.a.a.r.t.t.t.t.t.t.t.t.7.8.7.7.7.3.2.( ( ~ _ ~ ~ ( ( ( ( ( ( 2.2.2.2.2.3.7.t.a.r.a.t.t.t.t.t.t.t.t.t.t.r.r.r.r.t.t.t.t.7.7.7.7.7.7.7.6.3.6.6.6.7.7.7.7.7.7.7.7.7.6.3.3.6.6.6.3.3.3.3.3.3.3.3.2.2.2.2.2.3.3.7.7.7.7.7.9.9.9.9.t.t.r.r.r.r.r.r.f.g.g.g.g.C.C.C.C..X.X.XXXXXXXXXXX,X%X%X%X<X<X<X7X7X7X7X7XxXzXzXzXzXlXzXzXxXiXxXzXlX;XN.!.~ b c j h h h g g 0 0 0 0 0 0 0 0 0 0 6 6 0 0 5 5 5 5 6 6 5 5 5 5 5 5 5 5 5 5 3 3 3 3 3 3 1 1 3 3 3 3 2 1 1 1 1 1 3 3 3 3 5 5 9 9 0 0 0 0 0 0 0 0 0 0 g g j j b b J P ! ! ) 6.d.B.(.#XnXGXKXJXJXJXJXJXJXJXJXJXJXJXJXLXnX|./.*.#.^ U h g 0 6 3 2 2 2 < , , % % % @ % % @ @ @ @ # # # + + + o o o o o o X X X X X X X X + X 0 ] +.%.{ $.u.u.",
"[ %.{ s.%.[ %.+.%.%.' v 5 5 5 5 5 5 5 5 3 2 , - - - - - - - - - - - - - - @ - 5 v v v 5 % # @ @ @ @ @ # @ + # # O O + + + + O O O O O O O O O O O O O O O O O O X X O O X X X X O O X X X X X X X + X - @ O O O O O O O O O O O + O O X X O O O X X X X O O O O o X + ; 6 ! d b R.uXxXiX>X%X.X^.C.C.C.N.V.g.g.g.f.f.f.r.r.9.9.9.9.9.9.9.9.t.r.r.9.9.r.f.f.f.f.f.g.g.f.r.r.r.r.a.t.9.7.9.t.t.7.8.7.7.7.6.7.3.3.2.3.3.3.3.3.3.3.3.3.3.3.3.7.7.7.7.7.7.7.7.9.t.t.t.a.r.r.a.r.t.t.t.9.t.t.t.t.7.8.7.7.7.6.2.2.~ _ _ _ _ ~ ( ( ( 2.2.2.2.2.2.2.3.7.t.a.r.a.t.t.t.t.t.t.t.t.t.a.a.a.a.r.r.t.t.t.t.7.7.7.7.7.7.6.3.6.6.6.7.7.7.7.7.7.7.7.7.6.3.3.6.6.3.3.2.3.3.3.3.3.3.2.2.2.2.2.3.3.7.7.7.7.7.9.9.t.9.t.r.r.r.r.r.r.f.g.g.g.g.C.C.^..XH..X.X.XXXXXXXXX,X%X%X%X%X<X<X<X7X7X7X7X7XxXzXzXzXzXzXzXzXxXxXxXbXxXOX0.| b n J g h h h g g 0 0 0 0 0 0 0 0 0 0 6 6 6 0 5 5 5 5 6 6 5 5 5 5 5 5 5 5 5 5 3 3 5 5 3 3 1 1 3 3 3 3 2 2 1 1 1 1 3 3 3 3 5 5 5 9 0 0 0 0 0 0 0 0 0 0 g j c b b b K W ! ) 8.d.a.R.$X6XGXKXJXJXJXJXJXJXJXJXKXJXKXKXLXVX|./.s.O.^ L G h 0 0 6 3 2 2 < < < , % % % @ % @ @ @ @ @ # # # # + + o o o o o o X X X X X X X X - v ^ { %.%.@.u.u.u.",
"%.$.u.@.` %.%.%.%.L P ] J 0 4 4 5 5 5 5 5 5 3 2 , - - - - - - - - - - - - % - 5 h F v 5 - @ @ @ @ @ @ @ @ + + + # # # # + + + + + + + + O O O O O O O O O X X X X X X X X X X X X X X X X X X X O + X = @ X X X O O O O X X X O + + X X X X O X X X X X X X X X X X X $ 4 c P c d.aX7X4X;XOX.XD.C.C.C.N.g.g.g.g.g.f.f.r.r.r.9.9.7.7.7.7.9.9.9.9.9.9.r.f.f.r.r.f.a.g.r.r.r.r.r.r.t.9.9.9.9.9.9.7.7.7.7.7.7.3.2.2.3.3.6.6.3.3.3.3.3.3.3.7.7.7.7.7.7.7.t.t.r.a.r.r.r.r.r.r.r.r.t.t.t.9.9.7.7.7.7.7.7.7.3.2.2.2.~ _ Q Q ( ( ~ ~ 2.2.2.2.2.2.2.3.7.9.r.r.r.t.t.t.9.9.t.t.r.r.f.f.a.a.a.a.a.r.r.t.t.7.7.7.7.7.7.7.7.7.7.7.7.7.7.7.6.6.7.7.7.7.7.6.6.3.3.2.3.3.3.3.3.3.3.3.2.2.2.2.3.7.7.7.7.9.9.9.9.9.t.r.r.f.f.f.g.g.g.g.g.C.C.C..X.X.X.X.XXXXXXXXXXX,X%X<X%X%X<X<X<X<X7X7XiXxXxXzXzXxXzXxXxXzXzXiXxXzXzX`.0.| d v L h h h g g 0 0 0 0 0 0 0 0 0 0 0 6 0 0 0 5 5 5 5 5 5 5 5 3 3 3 3 5 5 3 3 3 3 3 3 3 3 3 3 3 3 3 3 2 2 4 4 4 4 3 3 3 3 5 5 5 5 0 6 0 0 0 6 6 6 0 g j c c c K W W ~ | 8.d.a.R.{.6XVXKXKXJXJXJXJXJXJXJXJXJXKXKXLXVX|./.Y.%.O.Y K H j g 0 3 3 2 2 < < , , - % % @ @ @ @ @ @ @ # # # # # # # o o o # # # # o + O O $ < J ] { +.%.$.$.u.u.u.",
"%.u.` ` @.%.+.' +.+.{ ] +.^ v 4 5 5 5 5 6 5 5 5 2 , - - - - - - - - - - - % - 5 w c v 5 - @ @ @ @ @ @ @ @ + + + # # # # + + + + + + + + O O O O O O O O O X X X X X X X X X X X X X X X X X X X O + X = @ X X X O O X X X X X O + + X X X X O X X X X X X X X X X X X X & 5 c W ~ 7X4XOX$X.X.XD.C.C.C.C.C.C.g.g.g.f.f.r.r.r.9.9.9.7.7.7.7.7.9.9.9.r.f.f.f.r.r.r.r.f.9.r.r.r.r.t.t.t.t.9.9.7.7.7.7.7.7.7.6.2.3.2.3.3.6.6.3.3.3.3.3.3.7.7.7.7.7.7.7.t.t.r.f.f.f.r.r.a.a.a.r.r.r.r.t.t.9.9.9.9.7.7.7.7.7.2.2.2.~ _ Q _ ( ( ~ ~ 2.2.2.2.2.2.2.3.7.t.r.r.r.t.t.t.9.9.t.t.r.r.f.f.f.a.a.a.a.a.a.t.t.t.7.7.7.7.7.7.7.7.7.7.7.7.7.7.6.6.7.7.7.7.7.7.6.3.3.2.3.3.3.3.3.3.3.3.2.2.2.2.3.7.7.7.7.7.9.9.t.t.t.r.r.f.f.f.g.g.g.g.C.C.C..X.X.X.X.X.XXXXXXXXX,X,X%X<X%X%X<X<X<X<X7X7X7XxXxXzXzXzXzXxXxXzXlXbXxXcXlXV.0.| c ^ v h h h g g 0 0 0 0 0 0 0 0 0 0 0 6 0 6 0 5 5 5 5 5 5 5 5 3 3 3 3 3 5 3 3 3 3 3 3 3 3 3 3 3 3 3 3 2 2 4 4 4 4 3 3 3 3 5 5 5 5 6 6 6 0 6 0 0 6 g g v c c K K W ! ~ 8.d.a.R.{.eXVXKXKXJXJXJXJXJXJXJXJXJXKXKXLXVX6XQ.Y.%.O.^ U J j g 0 6 3 1 2 < < < , , % % % @ @ @ @ @ @ # # # # # # # # o o o # # # o o + $ $ 0 L ] { $.%.%.$.$.%.u.u.",
"x.[ %.x.%.u.] +.%.s.+.L ] %.' c 5 4 5 5 6 5 5 5 5 2 , - - - - - - - - - - % - 5 0 v 0 1 - @ @ @ @ @ @ @ @ @ # # # # # # + + + + + + + + O O O O O O O O O O X X O O X X O O X X X X O O O O X X O + X = # X X X X X X X X X X O # + X X X X X X X X X X X X X X X X X X $ % 0 ! | uX4XOX.X.XD.C.C.C.C.C.C.C.C.g.g.f.f.f.r.r.r.9.9.9.7.7.7.7.7.7.7.7.9.r.r.r.r.r.r.r.9.9.t.t.t.t.9.t.t.9.7.7.8.8.7.7.6.6.3.3.2.2.3.3.7.7.3.3.7.7.6.7.7.7.7.7.7.t.t.t.a.a.g.g.f.a.a.a.a.r.r.r.r.r.a.t.t.9.9.9.9.9.7.7.7.7.3.2.( ~ ~ ( ( 2.2.2.2.2.2.2.2.2.2.3.7.t.t.r.r.t.t.9.9.9.t.t.r.r.f.f.f.f.a.a.a.a.a.r.t.t.t.t.t.7.t.7.7.7.7.7.7.7.7.7.6.6.7.7.6.6.7.7.7.3.3.3.7.7.6.3.6.3.7.3.3.3.2.2.7.7.7.7.7.9.9.9.t.t.t.r.r.f.f.g.g.g.g.C.C.^..XH..X.X.X.X.XXXXXXXXX,X%X,X%X%X<X<X<X<X<X7X7X7XxXxXzXzXzXlXxXlXzXiXzXxXiXhX$Xa.n d %.v h h h g 0 0 0 0 0 0 0 0 0 0 0 0 5 5 5 5 5 5 5 5 5 5 5 5 3 3 3 3 5 5 5 3 3 3 3 3 3 3 3 3 3 3 3 3 1 2 4 4 4 4 3 3 3 3 5 5 5 6 0 0 0 0 0 0 0 0 g h c J J P b W ~ ( d.a.R.{.eXVXKXKXJXJXJXJXJXJXJXKXJXKXHXLXVX6XQ.s.%.O.^ U J h h 0 0 3 3 2 2 < < , , % % % @ @ @ @ @ @ # # # o # # # o # o o o o o o o o o $ v L [ ] { $.%.%.$.$.%.u.u.",
"%.s.$.` %.L u.%.] ' %.%.%.^ L ' c 5 4 5 6 5 6 5 5 5 2 , - - - - - - - - - % - 3 9 0 9 1 , @ @ @ @ @ @ @ @ @ # # # # # # O + + + O + + + O O O O O O O O O O X X O O X X O O X X X X O O O O X X X + X = # X X X X X X X X X X O + + X X X X O O X X X X X X X X X X X X X O 3 P d.tX$X.X.X.XD.C.C.C.C.C.C.C.C.g.g.f.f.f.r.r.r.9.9.9.7.7.7.7.7.7.7.7.7.7.7.7.9.9.9.t.7.9.9.9.9.9.7.9.7.7.7.3.8.3.3.2.3.2.3.3.3.3.3.3.7.7.3.3.7.3.7.7.7.7.7.7.7.t.t.r.a.g.g.V.g.f.f.f.f.a.r.r.a.a.a.a.t.t.t.t.t.t.t.t.7.3.3.2.2.( 2.2.2.( ~ 2.2.2.2.2.2.2.2.3.7.t.t.r.r.r.t.9.9.t.t.r.r.a.f.f.f.a.a.r.r.r.r.r.r.t.t.t.t.t.t.t.7.7.7.7.7.7.7.7.6.6.6.6.6.6.7.3.7.3.3.3.7.7.6.3.6.3.7.7.7.3.2.3.3.7.7.7.7.7.9.t.t.t.r.r.f.f.g.g.g.g.C.C.C..X.X.X.X.X.X.X.XXXXXXXXX,X%XXX%X%X<X<X<X<X<X<X7XiXxXxXxXxXzXlXzXlXzXxXxXxXbXxX^.V.: ! L 0 0 0 g 0 0 0 0 0 0 0 0 0 5 5 5 5 5 5 5 5 5 5 5 5 5 5 3 3 3 3 3 3 3 3 3 3 3 3 3 3 3 3 1 1 1 1 2 2 1 2 4 4 4 4 3 3 3 3 5 3 5 6 0 0 0 0 g g g 0 g v J J K P W ! | 8.a.R.{.6XVXKXKXKXJXJXJXJXJXJXKXJXJXKXLXVX6X/.s.#./ ^ U H j h g 0 6 4 1 2 < < < , , % % % @ @ @ @ @ @ @ # # # # # o o # o X o o o o o o o P L ` @.` { +.%.%.@.$.u.u.u.",
"%.$.+.u.%.u.{ ^ [ %.%.%.+.+.+.+.%.L 6 ; 4 3 5 5 0 0 9 9 2 , - - - - - - - - - 1 5 9 6 5 , @ @ % = = = @ @ @ @ @ @ @ @ @ + + + # O O O O O O O O O O O O X X X X X X X X O O X X X X X X X X X X X O X = @ X X X X X X X X X X X + O O X X O O O X X X X X X X X X X X X X O - j 0.tX@X.X.X.X.XD.C.C.C.C.C.C.C.C.g.f.f.f.r.r.r.r.9.9.9.7.7.7.7.3.3.3.3.3.3.7.7.7.7.7.7.7.7.9.7.3.3.7.7.3.3.3.3.3.2.2.2.2.3.2.3.3.2.2.3.3.3.3.7.7.7.3.7.7.t.7.t.t.t.r.a.g.V.C.V.g.g.g.g.f.r.r.a.a.a.a.r.r.r.r.t.t.9.9.7.3.3.3.2.2.2.2.2.2.2.1.2.2.2.2.2.2.3.3.7.9.t.t.r.r.r.t.t.r.r.r.f.f.a.f.f.a.r.r.r.r.r.r.r.t.t.t.t.t.t.7.7.7.7.7.7.7.7.7.7.7.3.3.7.3.3.3.3.3.3.3.7.7.7.7.7.7.3.3.3.7.7.7.3.3.7.7.7.7.9.9.t.r.r.r.f.f.f.g.g.g.g.C.C..XH..X.X.XH.H..X.XXXXXXX,X,XXX%X%X<X<X<X<X<X<X7XxXxX7X7XxXxXlXzXlXlXxXxXxX%XiXq.| m P v h 0 0 0 0 0 0 0 0 0 0 0 0 5 5 5 5 5 5 5 5 5 5 3 3 3 3 3 3 3 3 3 3 3 3 3 3 3 3 1 1 1 1 1 1 1 1 2 2 3 1 3 3 3 3 3 3 3 3 3 5 6 0 0 0 0 g j j j j v c c J K K ! | 8.a.(.'.2XGXKXJXJXKXJXJXJXJXJXJXJXKXKXLXVX6X/.I.$./ ! K J c j g g 0 5 3 1 2 < , , , - % % % @ # # # @ # # o o o o o o o o o X X X X % $ < P ^ ` { @.' [ $.%.$.{ $.u.u.u.",
"+.u.m.%.s.[ [ u.u.{ { { +.+.+.+.^ { ] v 4 5 5 0 0 0 9 9 1 2 , - % % % % - - - < 1 5 5 1 2 % @ @ = = = @ @ @ @ @ @ @ @ @ + + + # O O O O O O O O O O O O X X X X X X X X O O X X X X X X X X X X X O X = @ X X X X X X X X X O O O O O X X X X X X X X X X X X X X X X X X o & 6 | tX;XOXOX.X.X.XC.C.C.C.C.C.C.C.g.f.f.f.r.r.r.r.9.9.9.9.7.7.7.7.3.3.3.3.3.3.7.7.3.3.3.3.7.9.7.2.2.2.2.2.3.3.3.3.2.2.2.2.3.3.3.3.2.2.3.3.3.3.7.7.3.2.7.t.t.t.t.r.r.r.a.f.g.V.g.g.g.g.g.f.r.r.a.a.r.r.r.r.r.t.t.t.9.9.7.3.3.3.2.2.2.2.2.2.2.2.2.2.2.2.2.2.3.3.7.9.t.t.9.9.r.r.r.r.r.r.f.f.f.a.a.r.r.r.r.r.r.r.r.r.t.t.t.7.7.7.7.7.7.7.7.6.7.7.6.6.3.3.7.3.3.3.3.3.3.7.7.7.7.7.7.7.7.7.7.7.t.7.7.7.7.7.t.t.9.9.t.r.r.r.f.f.f.g.g.g.g.C.C..XH.H.H..XH.H..X.XXX,XXX,X,XXX%X%X<X<X<X<X<X<X7XxXxX7X7X7XxXzXzXlXlXlXxXxX%X%X8.m b j g h 0 0 0 0 0 0 0 0 0 0 5 5 5 5 5 5 5 5 5 5 3 3 3 3 3 3 3 3 3 3 3 3 3 3 3 3 1 1 1 1 1 1 1 1 1 1 2 2 1 1 3 3 3 3 3 3 3 3 3 5 6 0 0 0 0 g h j j j c J J K P ! ) } a.B.{.2XVXLXJXJXJXJXJXJXJXJXJXJXKXKXLXVX6X/.I.s.O./ K J j j h g 0 5 3 1 2 < < , , , - % % @ # # # # # o o o X X X X o o o o o $ $ $ $ 0 ^ ' ` ` { { [ { $.$.$.{ $.u.s.s.",
"%.x.u.x.+.x.x.{ +.] %.%.%.%.%.%.%.+.{ { c g 4 0 0 0 9 9 5 1 2 , - - - - - - - , 2 1 1 2 < - % % = @ = @ @ @ @ @ @ @ @ @ + + + @ + + O + O O O O O O O O X X X X X X X X X X X X O O X X X X X X X O X - @ O X X X O O X X X X O O O O X X # - , @ X X X X X X X X X X X o X o ; ~ rX4X%X%XOX.X.X.XD.D.C.C.C.C.C.g.f.f.f.r.r.r.r.r.9.9.9.9.9.9.9.3.3.3.3.3.3.3.7.3.3.3.3.7.7.7.2.2.3.2.2.2.2.2.2.2.2.2.2.3.3.3.3.3.3.3.3.3.3.7.7.3.3.7.t.t.t.t.r.a.a.f.f.g.g.g.g.g.g.g.g.r.r.a.r.r.r.r.r.r.r.t.t.9.7.7.3.3.3.3.2.2.2.2.2.2.2.2.2.2.2.2.2.3.3.7.9.t.t.9.9.t.t.r.r.r.r.f.f.f.f.a.r.r.r.r.r.r.r.r.r.t.t.t.7.7.3.7.7.7.7.7.6.7.7.7.7.3.3.7.3.3.3.3.3.7.7.7.7.7.7.7.7.7.7.7.t.t.t.7.7.7.t.t.t.9.t.t.r.r.r.f.f.g.g.g.g.g.C.C.H.C.C.C.H.H..X.XXXXX%XXX,X%X,X<X<X<X<X<X<X<X<X<XxXxX7X7X7XxXzXlXlXlXlXxXiX7XzXOXm d d 0 0 0 0 0 0 0 0 0 0 0 0 5 5 5 5 5 5 5 5 5 5 3 3 3 3 3 3 3 3 1 1 1 1 1 1 1 1 1 1 1 1 1 1 1 1 1 1 2 2 1 1 3 3 3 3 3 3 3 3 3 6 6 0 0 0 0 g h j j c b J K P ! / } p.V.~.6XGXLXKXJXJXJXJXJXJXKXKXJXJXKXLXVX6X/.s.u.#.) ! J k j g g g 0 3 1 1 2 < , , , % % @ @ @ # # # # # o o o X X X X o o o o o $ o < c L ^ ^ ` ` [ [ { $.$.$.$.{ $.u.s.s.",
"6 ^ s.u.m.u.$.%.%.' x.] %.%.%.%.%.{ { +.' L 4 h 6 0 6 9 6 5 1 < - , - - - - - , , 2 2 2 , % % % = @ @ @ @ @ @ @ @ @ @ @ + + + @ + + + + O O O O O O O O X X X X X X X X X X X X O O X X X X X X X O X = @ O X X X O X X X X O O O O O X X @ 2 2 = X X X X X X X X X X X o o o & m rXrX;X;X%X.X.X.XC.D.C.C.C.C.C.g.f.f.f.r.r.r.r.r.9.9.9.9.9.9.9.7.3.7.3.3.7.3.3.3.3.8.3.7.7.3.2.2.3.3.2.3.3.3.3.2.2.2.2.3.3.3.3.3.3.3.3.3.3.7.7.3.3.7.t.r.t.r.r.a.a.a.f.g.g.g.g.g.g.g.g.f.r.r.t.r.r.r.r.r.r.t.t.7.7.7.3.3.3.3.2.2.2.2.~ 2.2.2.2.2.2.2.2.3.3.7.9.9.t.t.r.r.r.r.r.r.r.f.f.f.f.a.r.r.r.r.r.r.r.r.r.t.t.t.7.3.2.2.2.3.7.8.6.7.6.6.7.3.3.7.3.3.3.3.3.7.7.7.7.7.7.7.7.7.7.7.t.t.t.7.7.t.t.t.t.t.t.t.t.r.r.f.g.g.g.g.g.g.C.C.C.C.C.C.H.H..X.XXXXX,X,X%X%X%X<X%X<X%X<X7X<X<X<X7X7X7XxXxXxXzXlXlXlXzXxXbX<XiX$X! d 6 0 0 0 0 0 0 0 0 0 0 5 0 5 5 5 5 5 5 3 3 3 3 3 3 3 3 3 3 3 3 1 1 1 1 1 1 1 1 1 1 1 1 1 1 1 1 1 1 2 2 1 1 3 3 3 3 3 3 3 3 3 6 6 0 0 0 0 g h j c c K K K ! ` | y.b.!.[.mXHXJXKXJXJXJXJXJXJXKXKXJXKXLXVX6X/.s.u.[ / ! L j j g g g 0 5 3 1 2 2 , , , - % % @ @ @ # # # # # o o o X X X X o o o o $ $ < J ^ ' ^ ' ` ` ` [ [ { $.$.$.@.$.u.s.s.",
"; ; J x.%.u.x.s.$.{ ` $.%.$.$.{ %.u.u.{ L *.^ g 4 5 0 0 5 5 5 5 3 ; - - - - - , , < 2 2 , - % % @ @ = @ @ + + + + + + + # # @ @ # # # # + + + + + + + + O O O O O O O X X X X X X X X X O O X X X O X = @ O X X X O O X X X X X X X X X X # , , @ X X X X X X X X X X X $ $ $ * M tXrX>X>X%X%X.X.XC.C.C.C.C.C.C.g.f.f.f.f.f.f.r.r.r.9.9.t.r.r.r.9.9.7.7.7.3.3.3.3.7.3.3.3.7.2.2.2.3.3.2.3.3.3.3.2.2.2.2.2.2.3.3.2.2.3.2.2.2.3.3.7.7.7.t.r.r.r.r.r.r.r.f.f.f.g.g.g.g.g.g.f.r.r.r.q.r.r.r.r.9.9.9.9.9.7.7.7.7.3.2.1.1.~ ~ ~ 2.2.2.2.2.2.2.3.3.3.3.7.t.r.r.r.r.r.r.r.r.f.f.f.r.r.r.r.r.r.t.t.t.t.t.t.t.7.7.3.2.2.3.3.7.7.7.7.6.3.3.3.3.3.3.3.3.7.7.7.7.7.7.7.7.7.7.7.7.7.t.t.t.7.t.t.t.t.t.r.t.t.t.r.f.g.g.g.g.g.C.g.C.C.C.C.C.H.H.H..XXXXXXXXX,X,X%X%X%X%X%X%X<X<X<X<X<X7X7X7XxXxXxXxXzXlXlXzXxXbX,X,Xa.n d 6 6 0 9 9 0 9 9 9 9 6 5 6 5 5 5 5 5 5 5 5 5 5 5 5 1 1 1 1 1 1 1 1 1 1 1 1 1 1 1 1 1 1 1 1 1 1 1 1 1 1 1 1 1 3 4 3 3 3 5 5 6 6 0 0 0 0 g h j c c b K ! M ~ | 0.m.W.|.mXHXJXJXKXJXJXJXJXJXJXKXKXJXLXnX6X/.I.s.#.^ ^ P J j g g g g 6 3 1 2 2 , , , % % % % % @ @ # o o o o o o X o o o X o + o . o 0 L L ' ' ` ` ' ` ` ` ` { $.$.%.%.%.%.m.m.",
"; ; ; 4 [ s.%.%.` $.x.[ $.^ $.u.{ @.' u.%.] ' ] c 6 4 5 5 5 5 5 1 < - - - - , , < < 2 2 , - % % @ @ = @ @ + + + + + + + # # @ @ # # # # + + + + + O + + O O O O O O O X X X X X X X X X O O X X X O X @ @ O X X X O O X X X X X X X X X X O # # O X X X X X X X X X X X $ $ $ * ! 0X4X4X4X%X%X.X.XC.D.C.D.C.C.C.g.f.f.f.f.g.g.f.f.f.r.9.r.r.r.r.r.r.9.9.7.7.3.3.3.3.7.7.3.3.2.2.2.7.8.2.2.3.3.3.2.2.2.2.2.2.3.3.2.2.3.3.3.3.3.3.7.7.7.t.r.r.r.r.r.r.r.r.a.f.g.g.g.g.g.g.f.r.r.r.r.r.r.r.t.r.9.9.9.9.9.9.9.7.3.3.2.1.~ ~ ~ 2.2.2.2.2.2.2.3.3.3.3.9.r.r.r.r.r.r.f.f.f.f.f.f.f.r.r.r.r.r.t.9.9.9.9.7.7.7.7.3.2.2.2.2.3.7.7.7.6.3.3.3.3.3.3.3.3.7.7.7.7.7.7.7.7.7.7.7.7.t.t.t.t.7.t.r.t.r.r.r.t.t.r.f.g.g.g.g.C.C.C.C.C.C.H.H.H..X.XH.XXXXXXXXXX,X,X%X%X%X%X%X<X<X<X<X<X<X<X7XxX7XxXxXxXxXlXzXxXxX<X,XOXD.l 6 6 0 0 6 6 0 5 9 9 9 9 5 5 5 5 5 5 5 5 5 3 3 5 1 1 1 1 1 1 1 1 2 2 2 2 2 2 2 2 2 2 1 1 1 1 1 1 1 1 1 1 1 1 1 3 4 3 3 3 5 5 6 6 0 0 0 0 h h c c c K ! ! ~ | 0.z.W.{.mXLXJXJXKXKXJXJXJXJXKXKXKXKXLXVX6X/.m.u.#.^ L U J j g g g g 0 6 4 1 2 , , , % % % % % @ @ o o o o o o X X X o o o o $ $ $ - 0 J L ^ ' ' ` ` ' ` ` ` ] { %.%.%.%.%.%.x.Q.",
"; 4 < ; 4 L s.%.u.s.[ %.^ u.M.' u.{ x.x.+.u.] %.+.P 0 ; 5 5 5 4 4 4 ; - - - - , ; < < < , - - % @ = = @ @ + + + + + + + # # # @ # # # # + + + + O O O O O O O O O O O X X X X X X X X X X X X X X O X = @ + X X X O O X X X X X X X X X X O # @ + X X X X X X X X X X X o o $ * ~ 4X4X4X7X%X%X.X.XC..X^.D.C.C.C.N.N.N.g.f.g.g.f.f.f.f.r.r.r.r.r.r.r.r.t.t.t.7.3.7.7.7.7.7.3.2.2.2.7.7.2.2.2.2.2.2.2.2.2.2.2.3.3.2.2.3.3.3.3.3.3.7.7.t.t.r.r.r.r.r.r.r.r.a.f.g.C.C.g.g.g.f.r.r.r.r.q.r.r.t.t.t.t.9.9.9.9.t.9.7.3.3.2.1.1.~ 2.2.2.2.2.3.3.3.3.3.3.r.r.r.r.r.f.g.g.g.f.f.f.f.f.f.f.f.r.r.t.7.7.7.7.7.7.7.6.3.2.2.2.2.2.3.3.7.3.3.3.3.3.3.3.3.3.6.6.7.7.7.7.7.7.7.7.7.7.t.t.t.t.t.t.r.r.r.r.r.r.r.a.f.g.g.g.C.(.C.C.C.C.H..X.X.X.XXX.XXXXX%X,X,X%X%X%X%X%X%X%X<X<X<X<X<X<X<X7XxX<XxXzXzXzXlXlXxXiX<X,XOX^.: 6 6 0 9 6 6 6 6 9 6 9 6 5 5 5 5 5 5 5 5 5 3 5 5 1 1 1 1 1 1 1 1 2 2 2 2 2 2 2 2 2 2 2 2 2 2 1 1 1 1 1 1 1 1 3 3 4 3 3 3 5 6 6 6 6 0 0 g h c J K b K ! ~ | 0.z.R.{.VXDXKXKXJXKXKXKXJXJXKXKXKXKXLXVX6X/.I.u.#.^ ! J J g g 0 g 0 6 6 3 1 2 , , , % % % % % % @ # # o o o o o X X X o o o $ $ $ < 0 L L L ] ' ' ' ' ` ' ' ' ` %.u.%.s.s.s.s.m./.",
"4 < ; 4 4 ; g %.u.%.u.u.u.%.^ u.$.u.@.[ %.%.+.%.^ { ] v 4 4 4 4 4 4 ; ; - - - - < < < < , - % @ % = = @ @ + + + + + + + # # # # # # # # + + + + O O O O O O O O + O O X X X X X X X X X X X X X X O X = @ O X X X O O X X X X X X X X X X X # @ + X X X X X X X X X X X O X $ * ~ 3X4X7X7X>X%X.X.XD..X.XD.C.C.C.C.C.C.N.g.g.g.f.f.f.f.r.r.r.r.r.r.r.r.9.t.t.t.7.7.7.7.7.7.3.3.2.2.3.8.2.2.1.2.2.2.2.2.2.2.2.2.2.2.2.3.3.3.3.3.3.7.7.7.t.t.t.r.r.r.r.t.r.r.f.V.C.C.g.g.g.f.r.r.r.r.q.r.r.r.r.t.t.r.r.r.r.t.9.9.7.3.3.2.1.1.2.2.2.2.2.3.3.3.3.3.7.r.r.r.r.r.f.g.g.f.g.f.f.f.f.f.f.f.f.r.r.7.3.3.3.2.3.7.7.3.2.2.2.2.2.2.2.3.3.3.3.3.3.3.3.3.3.6.6.7.7.7.7.7.7.7.7.7.7.t.t.t.t.t.t.r.r.r.r.r.a.f.g.g.g.g.g.(.(.C.C.C.C..X.X.X.X.X.XXXXX,X,X,X%X%X%X%X%X%X%X%X<X<X<X<X<X7X7X7XxX7XxXxXxXxXlXCXcX7X<X,X,XD.l 6 6 9 9 5 5 5 5 5 5 5 5 5 5 5 5 3 3 1 1 1 1 1 1 1 1 1 1 1 1 1 1 2 2 2 2 2 2 2 2 2 2 2 2 2 2 2 2 1 1 1 1 1 1 3 3 4 3 3 5 5 6 6 6 0 0 g g c J J J b W ! ~ 0.z.R.'.mXLXKXKXJXKXKXKXKXKXKXKXJXHXLXLX6X/.I.s.#.^ ! P c v 0 6 0 0 5 3 3 1 1 < , , % % % % % % @ # # # o o o o o X X X o o $ X . < v J L ^ ^ ' ' ' ^ ' ` ' ' ' [ %.u.s.s.x.x.x.U.U.",
"< < < < < ; ; ; ^ x.s.u.{ x.x.@.$.%.%.x.u.@.u.u.$.{ ] ] J 4 ; 4 4 4 ; ; & - < ; < 2 2 < - - % % % - - % % % @ @ @ @ @ @ @ @ @ @ # # # # O O O O + + + O O O O O O O X X X X X X X X X X X X O O X O X = = O X X O O O X X X X X X X X X X O # @ + X X X X X X X X X X X + X X * b :X4XiXiX%X%XXX.X.X.XH.D.C.C.C.C.C.C.N.g.g.g.g.g.f.f.f.r.r.r.f.r.r.9.9.9.9.9.7.7.7.7.7.7.3.7.3.2.3.3.2.2.2.2.2.2.2.2.2.2.2.2.2.2.2.2.2.3.3.3.3.3.7.7.t.t.t.t.t.t.t.t.9.9.f.V.C.g.g.g.g.f.f.r.r.r.r.r.r.r.r.r.r.r.r.r.r.t.t.9.7.3.3.3.3.2.2.3.3.3.3.3.3.3.7.9.9.r.r.r.f.f.C.C.g.C.g.g.f.f.f.f.f.f.r.r.r.r.3.1.1.2.2.3.3.2.2.2.2.2.2.2.2.2.2.2.2.3.3.3.3.3.3.7.7.7.7.7.7.7.7.7.7.t.t.t.t.t.t.t.t.t.r.r.r.a.f.g.g.g.g.g.g.(.C.C.C.C.C.H..X.XXXXXXXXXXX,X,X,X%X%X%X%X%X<X%X%X<X<X<X<X<X<X<X7X7XxXxXxX7XxXzXcXlXiX<XiX7XD.: 4 3 5 5 5 5 5 5 5 5 5 5 5 5 3 3 1 1 1 1 1 1 1 1 1 1 1 1 2 2 2 2 2 2 2 2 2 2 2 2 < < 2 2 2 2 2 2 2 2 2 2 1 1 1 3 3 3 3 3 3 5 6 g g g j g c J K P W ! | } l.R.{.wXLXKXKXKXJXJXKXKXKXKXKXJXKXLXVX6X/.I.s.#.^ L J c v g g 0 6 3 3 3 3 2 2 < - - % % % % @ @ @ @ # # o o o o o o o X o o o o 5 c U L L ^ ^ ' ' ^ ] ] ` ' ' { { $.u.x.x.m.x.x.m.m.",
"< < < < ; ; ; ; ; c %.u.x.u.+.x.$.m.M.%.m.@.M.M.x.x.x.%.[ P 6 4 4 4 ; - + & 4 ; 3 3 3 2 - % % % % % - % % % @ @ + + @ @ @ @ @ @ # # # # O O O O + + + + O O X X X X X X X X X X X X X X X X O O X O X = = X X X O O O X X X X X X X X O O X + @ + X X X X X X X X X X X o $ X & b :X4XuX7X%X,X.XH..X.XD.D.C.C.C.C.C.C.C.C.N.N.g.g.g.f.f.f.f.f.f.r.r.r.9.9.9.7.7.7.7.7.7.7.7.7.3.3.3.3.2.2.2.2.2.2.2.2.2.2.2.2.2.2.2.2.2.3.3.3.3.3.7.7.7.t.t.t.t.t.t.9.9.9.a.g.g.g.g.g.g.f.f.f.r.r.r.r.r.r.r.r.r.r.f.f.r.t.t.9.7.7.7.3.3.3.3.3.3.3.3.7.3.7.7.9.9.r.f.f.g.g.C.C.g.C.g.g.g.f.f.f.r.r.r.r.r.r.7.1.1.~ 2.2.2.2.2.( ( 2.2.2.2.2.2.2.2.2.2.3.3.3.3.7.6.6.6.7.7.t.t.t.t.t.t.t.t.t.t.t.t.t.r.r.r.f.f.g.g.g.g.g.g.C.C.C.C.C.C.H..X.X.XXXXXXXXX,X,X,X%X%X,X%X<X<X<X%X<X<X<X<X<X<X7X7X7X7X7X7X7XiXxXlXzXxXiXxX>X>X: 4 3 3 3 3 5 5 5 5 5 5 5 5 5 1 1 1 1 1 1 2 2 2 2 2 2 2 2 2 2 2 2 2 2 2 2 2 2 2 2 2 2 2 2 2 2 2 2 2 2 2 2 1 1 1 3 3 3 3 3 5 6 0 g g j j v c J P ! ! | 0.p.R.{.wXLXKXKXKXKXJXJXKXKXJXJXKXKXLXVX6X}.I.s.#./ ! J c g g 6 6 5 3 1 3 3 3 2 < , % % % % % @ @ @ @ @ # # o o o o o o o $ $ $ ; 0 c P L ^ ^ ^ ^ ' ' ] ^ ] ' ' +.+.$.$.u.x.x.x.m.x.x.x.",
"< < < < ; ; ; ; < ; 6 ' x.%.s.x.m.m.' U.m.}.M.x.U.m.x.%.[ u.] v 4 ; ; - + - 5 < 5 5 5 < - % & & % % - % % @ @ @ + + + + @ @ # @ # # # # + + O + + + + + O O O # # + X $ $ X X X X X X X X X X X X O X - - X X X O O O X X X X X X X X O O X + @ # X X X X X X X X X X X $ $ o & m :XrXuX7X%X,X.XD..XD.C.C.C.C.C.C.C.C.C.C.C.C.N.g.g.f.f.f.g.g.g.f.r.r.r.9.9.7.7.7.7.7.7.7.7.7.7.7.3.3.2.3.3.3.3.2.2.2.2.2.2.2.2.2.2.2.2.3.3.3.3.3.7.7.7.7.7.t.7.7.7.7.7.7.r.g.g.g.g.g.f.f.f.f.f.f.r.r.r.f.f.f.r.r.f.f.r.t.t.9.7.9.7.7.3.3.3.3.7.7.7.7.7.7.9.t.r.f.g.g.g.g.C.C.C.C.g.g.g.g.f.r.r.r.r.r.r.9.9.1.Q Q ~ 2.2.2.2.( ( 2.2.2.( ( ( 2.2.2.2.2.2.2.2.3.3.3.6.7.7.t.t.t.t.t.t.t.t.t.t.t.t.t.r.a.a.f.g.g.g.g.g.g.g.g.g.C.C.C.C.C.H..X.X.XXXXXXXXXXX,X%X%X%X%X<X<X<X%X<X<X%X%X<X<X7X7X7X7X7X7X7XiXxXzXzXxX7X7X7XNXM : 5 3 1 3 5 5 5 5 1 1 1 1 5 1 1 1 1 1 1 2 2 2 2 2 2 2 2 2 2 2 2 < < < < < < < < 2 2 2 2 2 2 2 2 2 2 2 2 1 1 1 3 3 3 3 3 5 0 g g g g j c c P ! ! | 0.l.Z.{.wXLXKXKXKXKXKXJXJXKXKXJXKXKXHXVX6X/.(.s.#./ ! K c j d 6 6 3 3 3 1 1 3 2 2 , - % % % % @ @ @ @ @ # o # o o o o o o o $ $ - g P U L L L ^ ^ ^ ' ' ] ^ ` ' +.%.%.%.%.u.m.m.u.x.x.x.x.",
"< < < < ; ; ; ; - ; 4 4 c x.m.x.x.M.m.x.x.U.Z.U.x.x.x.M.x.$.u.$.v ; ; - + - 5 < 6 6 5 < - & & & % % - % % @ @ @ + + + @ @ @ # # # # # # + + + + + + + + O O O O X = , , , @ # # X X X X X X X X X O X - - X X X O O O X X X X X X X X O O X + @ # X X X X X X X X X X X $ $ o ; m :XtXaXuX%X%X.X.X.XD.C.C.C.C.C.C.C.C.C.C.C.C.C.g.g.g.g.g.g.g.g.f.f.r.r.9.9.7.7.7.7.7.7.7.7.7.7.7.3.3.3.3.3.3.3.3.3.2.2.2.2.2.2.2.2.2.2.3.3.3.3.3.7.7.7.7.7.7.7.7.3.7.7.9.r.f.g.f.g.g.g.g.g.g.f.f.f.f.f.f.f.f.f.r.r.r.r.t.t.9.9.9.9.7.7.3.7.t.t.7.7.7.7.9.t.r.r.f.g.g.C.C.C.C.^.^.C.g.g.f.f.r.r.r.r.9.t.9.9.3.Q Q Q ~ ( ( ( ( ( ( ( 2.( ( ( 2.2.2.2.2.2.2.2.3.3.3.7.7.t.t.t.t.t.t.t.t.t.t.t.t.t.r.r.a.a.f.g.g.g.g.g.g.g.g.g.C.C.C.C.C.H.H.H..X.XXXXXXXXX,X,X%X%X%X%X<X%X%X<X<X%X,X%X<X<X7X7X7X7X7X7XiXxXzXxXiX<XxXxXCX[.4 4 3 1 1 5 1 1 1 1 3 1 1 1 1 1 1 1 1 1 2 2 2 2 2 2 2 2 2 2 2 2 < < < < < < < < 2 2 2 2 2 2 2 2 2 2 2 2 1 1 1 3 3 3 3 3 6 g g g g g j v b W ! ~ | i.B.~.wXLXKXKXKXKXKXKXJXJXKXKXKXHXLXLX6X'.I.s.#./ ! K c j g 6 5 3 4 3 4 1 2 1 2 < , % % % % @ @ @ @ @ @ # o o o o o o o o $ o ; v L P L L L L ^ ^ ^ ^ ] ^ ] ^ { +.%.%.%.%.u.x.x.x.u.m.x.x.",
"< < 4 4 < ; ; ; ; ; ; ; : g m.Q.U.I.u.I.U.n./.{./.c.U.W.m.m.m.I.x.c ; $ $ + 0 5 v 0 v 2 - - & & & - - - @ @ @ % @ @ @ @ # # @ # @ @ @ @ + + # # # # + + O o o o - < v v 5 1 , < 2 @ X X X O O X O O X , - X X X X X X X X X X X X X X O O X + @ # X X X X X o X X X X X X $ $ & ~ >XuXxXiX%XXXXX.X.XH.C.C.D.C.C.C.C.C.C.C.C.C.C.C.g.g.g.g.g.g.f.r.r.f.r.t.t.9.7.7.7.7.7.7.7.7.7.7.3.3.3.3.3.3.3.3.3.2.2.2.2.2.2.2.2.2.2.3.3.3.3.3.3.7.7.3.3.7.7.7.2.7.9.9.r.f.f.f.f.f.g.g.g.g.g.g.f.f.f.f.f.f.f.f.f.f.r.r.r.9.9.9.9.9.7.7.7.t.t.t.t.t.t.9.r.r.r.f.g.g.C..X.X.XXXXX.Xg.g.g.f.f.r.9.9.9.t.9.7.3.Q Q Q _ ~ ( ( ( ( ( ( ( ( 2.2.2.2.2.2.2.2.2.2.3.3.6.7.7.7.t.t.t.t.t.t.t.t.t.t.r.r.r.r.r.a.f.f.g.g.g.g.C.C.C.C.C.C.C.C.C.C.H.H.H..X.XXXXXXXXXXX,X%X%X%X%X<X<X<X<X%X,X%X%X<X7X7X7XxX7XxXxXiXzXxXxX7X7XxXCXB.P 4 < 3 1 1 3 3 1 1 3 1 1 1 1 1 1 1 1 1 1 1 2 2 2 2 2 2 2 2 2 2 2 2 < < < 2 2 2 < < < < 2 2 2 2 2 2 2 2 2 2 1 1 4 4 3 6 0 g g g j v c b m ~ | | i.Z.[.2XLXKXKXKXKXJXJXJXJXJXJXJXHXLXnX6X/.n.d.#./ W K J j g 6 6 3 3 3 1 2 2 1 1 2 < , % % % @ @ @ + o o o o o X X o + o o $ o 6 v U L L L L ^ ^ ^ ^ ^ ` ] ^ ] ] { +.$.$.%.%.u.s.x.x.s.x.s.x.",
"4 < 4 4 < ; ; ; ; ; ; ; : ; : ^ $.` c.u.$.$.[ x.m.U.$.$.m.x.$.{ ` $.P $ . $ J c P P P 6 < - % & % - - - @ @ @ + @ @ @ @ # # # # @ @ @ @ + + # # @ @ + + O o O o 9 < Y G 5 5 1 5 9 1 @ X X O O X O O X , - X O X X X X X X X X X X X X O O X + @ # X X X X X o X X X X X o $ X & 0.tXuXuX7X%X,XOX.X.X.XD.D.D.C.C.C.C.C.C.C.C.C.C.C.g.g.g.g.g.g.f.r.9.r.r.r.t.t.9.7.3.3.3.7.7.7.7.7.3.3.3.3.3.3.3.3.3.2.2.2.2.2.2.2.2.2.2.3.3.3.3.3.3.3.3.3.3.3.3.3.2.2.9.9.r.f.f.f.f.f.g.g.g.g.g.g.g.g.f.f.f.g.g.g.g.g.f.r.r.t.9.9.9.9.9.9.9.t.r.r.t.t.t.r.r.f.f.g.g.g.C.XX.X.XXXXX.Xg.f.g.f.r.r.9.9.r.9.9.9.3.2.Q Q Q _ _ _ ) ) _ ~ ( ( 2.2.2.2.2.2.2.3.3.3.6.3.7.7.7.7.t.t.t.t.t.t.t.t.t.t.r.r.r.r.r.f.f.f.g.g.g.g.g.C.C.C.C.C.C.C.C.C.C.H.H.H.H..XXXXXXXXXXX,X%X%X%X<X<X<X%X%X%X%X%X<X<X<X<X7X<XiXxXxXCXzXxXxX,XiXCXa.P < < 1 1 2 1 1 1 1 3 1 1 1 1 1 1 1 1 1 1 1 2 2 2 2 2 2 2 2 2 2 2 2 < 2 < < 2 2 < < < < 2 2 2 2 2 2 2 2 2 2 1 1 4 4 5 0 g g j j j c b W ) ( a.p.Z.{.2XDXKXJXKXKXJXJXJXJXJXJXKXKXLXVX6XQ.I.d.( / W K J j g d 6 6 3 1 2 2 < 2 2 1 2 < , % % % @ @ # o o o o o o o o o o $ $ o 0 c J P L L L L ^ ^ ^ ^ ^ ` ` ` ` ' { %.%.%.%.%.u.%.u.x.x.s.s.s.",
"< < 4 < ; < ; ; < < ; ; ; : c K ` { [ [ { ` { { [ $.u.$.$.+.{ { { $.$.{ L P ] c P L P < 1 ; - % % - - - @ + @ + @ @ @ @ @ @ @ @ @ @ @ @ + + + + @ @ @ @ + + O + + + < 5 9 6 1 1 5 < X X + O O X O O X , , X O X X X X X X X X X O X O O O X + @ # X X X X X X X X X X X X X @ 4 a.uXuXiX4X%X,X,X.X.X.XD.D.D.D.C.C.C.C.C.C.C.C.C.C.g.g.g.g.g.g.f.r.9.r.r.r.r.r.t.7.3.3.3.7.7.7.7.7.7.3.3.3.3.3.3.7.3.2.2.2.2.2.2.3.3.2.2.3.3.3.3.2.2.2.2.2.2.2.2.2.2.2.7.9.r.r.f.f.f.g.g.g.g.g.g.g.V.V.g.g.g.g.g.g.C.C.g.f.r.r.t.9.9.9.9.9.9.t.r.r.r.r.r.r.r.f.g.g.g.C.^.XXXXXXXXXX.Xg.g.g.f.r.r.9.9.r.r.t.9.7.3.Q Q Q _ _ _ _ _ ~ ~ ( ( 2.2.2.2.2.2.2.3.3.3.6.7.7.7.7.7.t.t.t.t.t.t.t.t.t.r.r.r.r.f.a.f.f.f.g.g.g.g.g.g.g.g.g.g.C.C.C.C.C.C.C.H.H.H.H.XXXXXXXXXX,X%X%X<X<X<X%X%X%X%X<X<X,X<X<X<X<X7XxXlXCXzXiXxX,X7XCX0.P < < 1 1 2 3 3 1 1 1 1 1 1 1 1 1 1 1 1 2 2 2 2 < < , , 2 2 2 2 < < < < < < < < < < < < 2 2 2 2 2 2 2 2 2 2 1 1 4 4 6 g g g g j c b W ! | v.~.T.{.6XDXKXKXKXJXJXJXJXKXKXJXKXKXLXVX6X/.s.d.#./ W K J j g 6 6 6 5 3 2 2 2 < 2 < 2 < , - % % % @ @ @ @ o o o o o o o X o + 1 v h c J P L L L L ^ ^ ^ ^ ^ ` ' ' ' ' +.%.u.%.%.u.u.%.%.u.x.x.s.u.",
"< < < < ; ; ; ; < < ; ; ; 6 ^ ` ^ %.u.u.x.c.x.m.M.n.Q.Q.U.U.I.m./.I.U.m.m.x.] J Y T L - 1 < - % & & - - @ + @ @ @ @ @ @ @ @ @ @ @ @ @ @ + + + + @ @ @ @ + + + + + + + 3 6 6 2 + X X X X X O O X O O X , , X + X X X X X X X X X O O O O O X + @ # X X O X X X X X X X X X X % 6 0.9XtXtX4X%X%X%X%X.X.XD.D.D.^.C.C.C.C.C.C.C.C.g.C.g.g.g.g.g.g.f.r.r.r.r.t.r.r.r.t.9.7.7.7.7.7.7.7.7.3.3.3.3.3.3.7.3.2.2.2.2.2.2.2.3.2.2.3.3.2.2.2.2.2.2.2.2.2.2.( ~ 2.7.9.r.r.r.f.f.g.g.g.g.g.g.g.g.C.N.g.g.g.g.g.g.g.f.f.f.r.r.9.9.9.9.9.9.r.r.r.r.r.r.f.r.f.g.g.C.C..XXX%X%XXXXX.Xg.g.g.f.r.r.9.9.r.r.t.9.7.3.( Q Q Q Q Q _ _ _ _ ( ( ( 2.2.2.2.2.2.3.3.3.7.7.7.7.7.7.7.t.t.t.t.t.t.t.r.r.r.f.f.f.f.f.f.f.g.g.g.g.g.g.g.g.g.g.g.g.C.C.g.C.C.C.H.H.H.H..XXXXXXX,X%X%X%X<X<X%X%X<X<X<X<X,X<X<X<X7X7XxXzXlXxX<XxXxX<XNX0.P < < 1 1 2 1 2 1 1 1 1 1 1 1 1 2 2 2 2 < < 2 2 , , , , < < < < , , , , , , < < < < < < 2 2 2 2 2 2 2 2 2 2 1 1 4 5 0 g g h j c K W ! ~ ) 1X2XW.6XLXKXKXKXKXJXJXKXJXKXKXJXKXLXVX6X/.s.u.( / W K K j g 6 6 6 5 3 2 2 < < < < < < , % % % % @ @ @ + + o o o o o o . . o 2 J J P P J P P P L L ^ ^ ^ ^ ] ' ' ' ' { +.%.u.u.u.u.u.%.%.%.u.s.s.u.",
"; ; < < < < ; ; ; ; ; ; ; 4 ^ ^ P ^ ^ ` %.u.u.i.x.m.I.U.U.I.x.U.U.U.U.I.m.I.%.L ^ ' L + < ; ; ; - & % % % % % % % % @ @ @ @ @ @ @ @ @ @ @ @ @ @ @ @ @ @ + + + + + + @ 1 9 6 2 X X X X X X O O O O + X , , X # O O O O O X X X X X X X O O X + @ # O X X X X X X @ X X X X X X j V.9XuX;X;X%X%X%X%XXX.X.X.X.XD.C.C.C.C.C.C.C.C.C.C.C.g.g.g.g.g.g.g.f.f.r.9.9.9.r.r.t.9.7.7.7.7.7.7.7.7.3.3.3.3.3.3.3.2.2.2.2.3.3.3.3.3.3.3.3.3.3.2.2.2.2.2.2.( ( ~ _ 2.7.9.9.9.9.r.f.f.g.g.g.g.g.g.g.g.C.C.g.g.g.g.g.g.f.f.f.r.r.r.9.9.9.t.t.r.r.r.r.r.r.f.f.g.g.C.C..X.X.XXXXXXXXX.XC.g.g.f.f.r.r.r.r.r.t.9.t.7.2.Q Q Q Q Q Q _ _ _ _ ~ ( ( ( ( 2.2.2.2.3.3.7.7.3.7.7.7.7.7.t.t.t.t.t.t.r.r.f.f.f.f.f.f.f.f.g.g.g.g.g.g.g.g.g.g.C.C.C.C.g.C.C.C.C.C.H.H.H..XXXXXXX%X%X%X%X%X%X%X<X<X%XXX%X<X<X%X%X<XiXzXcXiX<X<X<XiXCX_.{ - , < 3 2 , 2 2 2 2 2 1 1 1 1 2 2 2 2 2 2 2 2 , , , , < < < < < < < < , , , < < < < < < < < 2 2 2 2 2 2 2 1 1 3 6 0 0 g j j J K K ! } 0.1X].|.LXKXJXJXJXJXJXJXKXKXKXKXKXLXVX6X/.I.y.) / ! K c h j g 0 6 6 5 1 < - - - , , , , % % % @ @ @ @ + o o o o o o X $ $ ; 0 J P P P J K K P P L L ^ ^ ^ ^ ` ' ' { +.+.+.%.u.u.u.%.%.%.%.%.%.u.u.u.",
"; ; ; ; < < ; < ; ; ; ; ; J nXVXnXVXnXnXnXnXnXmXeXwXnXnXmXnXeXwXeXwXeXeXeXnXI.+.] ' ^ 4 ; ; ; ; ; - & % % % % % % % @ @ @ @ @ @ @ @ @ @ @ @ @ @ @ @ @ @ + + + + + @ @ 1 9 5 , + X X X X O O O O O + X , , X # O O O O O X X X X X X X O O X + @ # O O O X X X X # X # 2 < X X P p.9X4X>X%X>X<X%X%X%XOX.X.X^.D.D.^.^.C.C.C.C.C.C.C.C.g.g.g.g.g.g.g.g.f.f.r.r.r.r.r.t.t.7.7.7.7.7.7.7.7.3.3.3.3.3.3.3.2.2.2.2.2.2.3.3.3.3.3.3.3.3.2.2.2.2.( ( ( ~ _ ~ 3.7.9.9.9.9.9.r.f.f.g.g.g.g.g.g.g.C.C.C.C.C.g.g.g.f.f.f.f.r.r.r.t.9.t.r.r.r.r.r.r.r.f.f.g.g..X.X.XXXXXXXXXXXXX.XC.g.g.g.f.r.r.9.r.r.t.9.t.7.3.1.Q m Q Q Q _ _ _ _ _ _ ( ( ( ( 2.2.2.2.3.3.3.3.3.7.7.7.7.t.t.t.t.t.t.r.r.r.f.f.f.f.f.f.f.g.g.g.g.g.g.g.g.g.g.g.g.g.C.g.C.C.C.C.C.H.H.H.H.H.H.XXXX%X%X%X%X%X%X%X<X%XXX%X<X7X7XXX%XiXzXlXxX<XH.H.iXCX-X$.- , 9 < H *.2 < 2 2 2 2 2 2 2 2 2 < < < 2 , , , , , , , , , , , , , , , , , , < < < < < < < 2 2 2 2 2 2 2 1 1 3 6 0 0 g j J K P W [ y.m.{.|.GXKXJXJXJXJXJXJXKXKXKXKXKXLXnX6X/.I.u.[ ! ! K c j g g 0 6 6 5 1 < ; - - - % % % % @ @ % @ @ + + + o o o o X $ $ $ 2 0 J U P P P U K K P P P L ^ ^ ] ' ' ' { { +.%.%.+.%.%.u.%.%.%.%.%.%.%.u.u.",
"; ; ; ; < < < < < < ; ; ; ; L %.{ %.u.x.s.x.x.x.x.x.u.u.%.x.s.x.x.x.m.I.x.I.%.L ^ P P g < < ; ; < ; - & - - % % % % % % @ @ @ % @ @ @ @ @ @ @ @ @ @ + + + + + + + + + 1 9 5 , + X X X X O O O O O O X , , X # O O O O X X X X X X X X O O X O @ @ O O O X X X X X $ O 1 , X X K | ;X>X4X;X<X<X<X<X%X,XXX.X.XD.^..X.XC.C.C.C.C.C.C.C.C.g.g.C.g.g.g.g.g.g.g.f.r.r.r.r.9.9.t.7.7.7.7.7.7.7.7.7.7.7.7.3.2.2.2.2.3.3.3.3.3.3.3.3.3.3.2.2.2.2.~ _ _ Q Q 2.7.9.9.9.9.9.9.9.r.f.g.g.g.g.g.g.C.C.C.C.C.C.g.g.g.f.r.f.f.r.r.r.r.t.r.r.r.r.r.r.r.r.f.f.g.g..X.X.X.XXXXXXXXXXX.Xg.g.g.g.f.f.r.r.r.r.r.r.t.7.7.2.Q m Q Q _ _ _ _ _ _ _ ( ( ( ( 2.2.2.2.2.2.3.3.3.7.7.7.7.7.t.t.t.t.t.r.r.r.f.r.r.a.f.f.f.f.f.f.g.g.g.g.g.g.g.g.g.g.g.g.C.C.C.C.C.C.H.H.H.H.H.H.H.XX%X%X%X%X%X,X%X%X,X,X%X<XxX%X<XiXzXlXxX<XH.k.xXuX[.{ g w *.Y.] - , < < 2 2 2 < 2 2 < < < < < 2 , , , , , , , , , , , , , , , , , , , < < < < < < < 2 2 2 2 2 2 1 1 3 6 0 g h j K L W ! @.c.R.*XDXKXJXJXJXJXJXJXJXJXKXKXKXLXnX6X/.s.@.[ ! P K c j 0 0 6 6 6 5 4 2 < - - - - - - % - @ @ @ @ @ + + + o o o o $ $ o < c J U J U P P U K P P P L ^ ^ ^ ' ' ' ' { { +.%.%.%.+.%.%.%.u.%.%.%.%.%.%.%.",
"; ; ; ; < < < < < < ; ; 4 ; ; ; & ; - ; 4 4 4 6 ` ^ L P L [ L P J P ] ` P P ] v 4 & ; ; < < < < < < ; - % - % % % % % % @ @ @ % @ @ @ @ @ @ @ @ @ @ + + + + + + + + + 1 9 6 , + X X X X O O O O O # X , , X @ O O O X X X X X X X X X O O X O @ @ X X X X X X X X . $ , X X X j ~ ^.4X>X7X%X%X<X<X%XXXXX.XC.D.C.D.C.C.C.C.C.C.C.C.C.g.g.g.C.g.g.g.g.g.g.g.f.r.t.9.r.9.9.9.7.7.7.7.7.7.7.7.7.7.7.7.3.2.2.2.2.3.3.3.3.3.3.3.2.3.3.2.2.2.( _ _ Q Q Q 2.9.t.9.9.9.9.9.9.r.r.f.g.g.g.g.C.C.C.C.C.C.C.g.g.g.f.r.f.f.f.r.r.r.r.r.r.r.r.r.r.r.r.f.f.g.g.C.C..X.XXXXXXXXXXXH.g.g.g.g.g.f.r.r.r.r.r.r.9.9.7.3.Q Q Q Q Q _ Q _ _ _ _ ( ( ( ( 2.2.2.2.2.2.2.3.3.7.7.7.7.t.t.t.t.t.t.r.r.r.r.r.r.r.r.r.r.f.f.f.g.g.g.g.g.g.g.g.g.g.g.g.g.C.C.C.C.C.C.H.H.H.H.C.C.H.%X,X,X,X,X,X%X%X,X%X,X,X<X7XiXxXzXlXxX,XH.,XzXZX[.d ' U.0 - o 5 - < < 2 2 < < 2 2 < < < < , , , , , , , , , , , , , , , , , , , , , < < < < < < < 2 2 2 2 2 2 1 1 4 6 0 g j c K W ! ) d.n.{.GXKXKXJXJXJXJXJXJXJXJXKXKXLXVX6X/.s.u./ ! K c c j 0 6 5 5 5 3 4 2 2 < - - - - % % % , @ @ @ @ + o o o o o o + o % 5 c J J J U U U U J J P P L L ^ ^ ' ' ' ' ' ' +.+.+.%.%.%.%.%.%.%.%.%.%.%.%.%.%.",
"< < < < ; ; ; ; ; ; ; < < ; ; - - - - ; ; ; ; - ; v L ^ P J J J P ^ c P P L J L c c h 6 6 < 5 < < < ; - & % & & % % % % @ @ @ @ % % % % @ @ @ + + + + + + + + @ + O + 1 0 0 2 + X O O O O O O O @ @ X = , X @ O O O X X X X X X X X X O O X O @ O X X X X X X X O . X , % o , P ~ OXrX>X4X>X<X7X7X%X.X.X.XC.D.C.C.C.C.C.C.C.C.C.C.C.g.g.C.C.g.g.g.g.g.g.g.g.r.9.9.9.9.9.9.7.7.7.7.7.7.7.7.7.3.3.3.3.3.3.3.3.3.3.3.3.3.3.3.3.3.3.2.2.( ~ _ Q Q Q ~ 7.r.9.9.9.9.9.9.9.r.r.f.g.g.g.C.C.C.C.C.C.C..XC.g.f.r.r.f.f.f.f.r.r.r.r.r.r.r.f.f.f.f.f.f.g.g.C.C.H..X.X.X.X.X.XH.g.g.g.g.g.g.f.f.f.r.r.r.9.9.9.9.3.Q Q Q W _ _ _ _ _ _ ( ( ( 2.2.2.2.2.2.3.3.3.3.7.7.7.7.t.t.t.t.t.t.r.r.r.r.r.r.r.r.r.r.r.f.f.f.f.f.g.f.g.g.g.g.g.g.C.C.C.C.g.C.C.H.H.H.H.H.C.C.H.%X7X%XXXH.,X,X%X%X%X,X,X<X<X7XxXzXzXiX,X,X%XZXHXwXU.eXI.+ + +.0 < , < < 2 < < < < < < < < , , , , , , , , , , , , , , , , , , , , < , , , < < < < 2 2 2 2 2 2 4 4 3 6 0 0 h c W ~ 8.0.(.2XVXKXKXKXJXJXJXJXJXJXJXJXJXLXVX6X{.s.%./ / ! J c j g 6 6 5 3 3 4 2 2 2 ; - % % % % % @ < @ @ @ + o o o o o o o . 1 0 c J P P P U P U J J J P L L L ^ ^ ' ' ' ' ' +.+.+.%.%.%.%.%.%.%.%.%.%.%.%.+.+.{ ",
"< < < < ; ; ; ; ; ; ; ; - - - - - - - - ; ; ; ; - ; 4 c P P J c c v c v c v c c c J P J v 6 & 4 < ; - - % % & & % % % % @ @ @ @ % % % % @ @ @ + + + + + + + + + + + O 1 0 0 1 + X O O O O O + + + @ O , , X + O O X X X X X X X X X X O O X O @ O X X X X X X X O . X , 6 H h L ~ :XtX>X>X%X%X<X<X%X.X%X.X.X.X.XC.C.C.C.C.C.C.C.C.C.C.C.C.C.g.g.g.g.g.C.C.g.r.r.9.9.9.9.t.9.7.7.7.7.7.7.7.7.7.3.3.3.3.3.3.3.3.3.3.3.3.2.2.2.2.2.2.2.( _ Q Q Q Q 1.9.r.r.9.9.9.r.9.9.r.r.f.g.g.g.C.C.C.C.C.C.C.C.C.g.f.r.r.r.r.f.f.f.r.r.r.r.f.f.f.f.f.g.g.g.g.g.C.C.H.H..X.X.X.X.XXXC.g.g.g.g.g.g.g.f.g.g.f.r.9.9.9.7.Q Q Q Q _ _ _ _ _ _ ( ( ( 2.2.2.2.2.2.3.3.3.3.7.7.7.7.t.t.t.t.t.t.r.r.r.r.r.r.r.r.f.f.f.f.f.f.f.f.f.g.g.g.g.C.g.g.g.g.C.C.g.g.g.g.C.H.H.H.H.C.H.XX<X<X%XXX,X,X%X%X%X,X,X<X<X7XxXzXxX7X<X,X>XZXFXFXwX$.b $ J v + - , , < < , , , , < < < , - , , , - - - - , , , , , , , , , , , , < , , < < < < < 2 2 2 2 2 2 4 4 3 6 0 0 v b M ~ 8.V.#XGXKXJXKXKXJXJXJXJXJXJXJXKXLXVX6XQ.U.+.^ P P K v j g 6 6 6 3 3 2 < 2 2 ; - % % % % @ % @ < @ @ @ o o o o o $ $ + < g J J J P P P U J J J J J P L L L ^ ^ ' ' ' ' ' ' ' +.+.+.%.%.%.%.%.%.%.+.+.{ { ' ' ",
"; ; < < ; ; ; ; ; ; ; ; ; ; ; - - - - - ; ; ; ; - + - 4 v P L J L P v v J c P c c J P P c P h 5 ; - - - - - - - - & - - % - @ @ @ @ % % @ @ @ + + + O + + + + + + + O 1 0 0 1 + X + + + O O O X X + X 1 2 X X X X X X X X X X X X X X X X X + @ O X X X $ $ X X X . $ - < 0 h c ~ oXrX>X%X,X,X%X%X%XOX.X.X.X.X.XD.C.C.C.D.D.D.C.C.D.D.C.C.C.g.g.g.g.C.C.C.g.f.r.r.r.r.r.t.t.9.7.9.7.9.7.7.7.3.3.7.7.3.3.3.3.3.3.3.3.2.2.2.2.2.2.2.~ _ Q Q Q Q Q 2.t.r.r.9.9.r.r.r.r.r.r.f.g.g.g.C.C.C.C.C.C.C.C.C.f.f.f.f.f.r.r.r.r.f.r.f.f.f.f.g.g.f.f.g.g.g.g.g.C.C.H..X.X.X.X.X.XH.g.g.g.g.g.g.g.g.g.g.g.f.r.9.r.t.2.Q Q Q _ _ _ _ _ _ ( ( ( 2.2.2.2.2.2.3.3.3.3.7.7.7.7.t.t.t.t.r.t.r.r.r.r.r.r.r.r.f.f.f.f.f.f.f.f.f.f.f.g.g.C.g.g.g.g.g.g.g.g.g.g.g.g.g.C.C.C.H.XX%X<X<XXXXXXX,X%X%X,X,X<X<X7XxXzXzXiX7XH.,XZXFXFXHXeX' J 4 $ O + % - , , , , - - , , , , - , - , - - - - - - - - , , , , , , , , < < , , < < < < 2 2 2 < 1 1 4 4 4 6 0 g c b ! 5.a.R.GXHXKXJXJXJXJXJXJXJXJXKXKXLXVX6X(.s.s.^ P J c j g 6 6 6 3 3 3 2 < < < , - - % % % % @ % @ 1 @ @ + o o o o o $ & 3 v J P P P P P P J P J J J U L L L ^ ] ' ' ' ' ' ' +.+.' +.+.+.%.%.+.+.+.+.{ { ' ' ' ' ",
"; ; ; ; ; ; ; ; ; ; ; ; ; ; ; ; - - - - - ; ; ; - ; ; + < J ] ^ L P %.+.^ ' L ] ' L P L ^ J L J - - - - - - - - - % - - % & + + @ @ @ @ @ @ + + + + O O + + + + + X - < 0 0 ; + o o O O O + + o O + + < 1 X X o X o o o X X X X X X X X X X + + X $ $ $ $ $ $ $ X . X - - + v c | z.>X@X%XOX.X%X%X%X%X.X.X.X.XD.C.D.D.C.C.C.D.C.C.C.C.C.C.C.g.g.g.g.g.g.g.g.f.r.r.r.r.r.r.t.t.9.7.7.9.7.7.7.3.3.7.7.3.3.3.3.3.2.2.2.2.2.2.2.2.2.( ~ Q Q Q Q m m 7.r.r.r.r.9.r.r.r.r.r.r.f.g.g.g.C.C.C.H..X^.C.C.g.g.f.f.f.f.f.r.r.r.f.f.f.f.f.f.g.g.f.f.g.g.g.g.g.g.g.C.H..X.X.X.X.X.XH.H.H.C.g.g.g.C.g.C.g.g.f.r.r.9.3.Q Q Q _ _ _ _ _ _ ( ( ( ( 2.2.2.2.2.3.3.3.3.7.7.7.7.t.t.t.t.t.t.t.t.t.t.r.r.r.r.r.r.f.f.f.f.f.f.f.f.f.g.g.C.g.g.g.g.g.g.g.g.g.g.g.g.g.g.C.C.H.XXH.%X%XXXXXXXXX,X%X,X,X%X<X7XxXzX7XiX7X<XxXCXFXAXHXHXFXeXeX4 $ $ o + % - , , , - , , , , - - , , - - - - - - - - - - , , , < < < < < , , < < < < 2 < < < 1 1 4 4 4 6 g g c K ~ a.S.qXFXHXKXJXJXJXJXJXJXKXJXKXLXnX6XQ.s.@.#.K J c j j g 6 3 3 3 4 < ; - - , - - - % % % % @ @ @ 2 o o o o o o o o & 6 c J L L P P P J P J P J J J U L L R ^ ] ' ' ' ' ' +.' +.' ' { +.+.+.+.+.+.{ ' ' ' ` ` ] ",
"; ; ; ; ; ; ; ; ; ; ; ; ; ; - - - - - - - - - - & & & & - ; 6 J ] L J c P L P J J J L P J P P J H 6 & % ; ; ; ; - - - & & & & + + + + + % % & + + + + + + + + + + v +.< 5 0 - + + + + + + & - - - - - - < + + & + + + + + + + O + + + o o + + & + $ o X $ $ $ o o o O O - + 4 d ! D.4X;X;X%X,X%X%X%X%X.X.XXX.XH.D.D.D.D.C.C.C.C.C.C.C.V.C.C.g.g.g.g.g.g.g.f.f.r.r.r.r.r.r.r.t.9.9.9.7.7.7.7.7.7.7.7.7.3.3.3.2.2.2.2.2.2.2.2.2.( _ _ Q Q Q Q m Q r.r.r.r.r.r.r.r.r.r.r.f.g.g.g.C.C.C.H..X.X.XC.C.g.g.f.f.f.f.r.r.r.f.f.f.f.f.f.f.g.g.f.f.g.g.g.g.g.g.g.C.H.H.H.H.H.H.H.H.H.H.H.H.C.C.C.C.C.C.g.g.f.r.r.7.Q Q Q Q _ _ _ _ _ ~ ( ( ( ( 2.2.2.2.3.3.3.3.7.7.7.7.t.t.t.t.t.t.t.t.t.t.r.r.r.r.r.r.r.r.r.f.f.f.f.g.g.g.g.g.g.g.g.g.g.g.g.g.g.g.g.g.g.g.g.H.H.,XXXC.XXXX.XXXXX,X,X<X,X%X<X7XzXxXiX,XbXH.<XlXAXkXAXFXHXHXFX|.M.^ ; & & % & % ; , , , , , - - , , ; ; ; ; - - - - ; ; - - - , , , , , , , < < < < 2 2 < 4 4 1 4 4 3 6 g g K ! 8.V.^.ZXHXKXKXJXKXKXJXKXKXKXKXLXnX|.U.d.y.+./ K c g 6 6 6 6 3 3 3 4 < ; ; ; & ; - - & + & % + + + < o o o o o $ + ; 6 c J J ^ J J P J J J J P P U J U L L ^ ] ' ' ' ' +.+.+.+.' ' ' ' { +.+.+.{ { ' ` ` ` ^ ^ ^ ",
"- - - - ; ; ; ; & & & ; ; ; - - - - - - - - - - & & & - & & & - v L J ^ c J J J L 6 J v J c c v P P 5 o $ + - ; - - - & & & & & + + + + + + + + + + + + + + + + & ; ; < 5 5 5 - - ; ; - ; ; < 4 5 5 & ; < ; ; ; ; ; ; ; ; ; ; ; ; ; ; ; ; ; ; ; ; - - - ; ; ; ; - - - - < 4 4 j | ^.4X4X;X%X%X%X%X,X.X.X.X.X.X.XH.H.H.D.C.C.C.C.C.C.C.g.g.g.g.g.g.g.g.g.g.f.f.r.r.r.r.r.r.r.t.9.9.7.7.7.7.7.7.7.7.7.7.3.3.3.2.2.2.2.2.2.2.2.2.( _ _ Q Q Q Q m 2.r.r.r.r.f.f.f.g.f.g.g.g.g.g.g.C.C..X.X.X.XH.C.C.g.g.f.f.f.r.r.r.r.f.f.f.f.f.f.f.g.f.f.f.g.g.g.g.g.g.g.C.H.H.H.H.H.H.H.H.H.H..X.X.X.X.XC.C.C.C.g.f.r.r.t.Q Q Q _ _ _ _ _ ~ ~ ( ( ( ( 2.2.2.2.3.3.2.3.7.7.7.7.7.7.t.t.t.t.t.t.t.r.r.r.r.r.r.r.r.r.r.r.f.f.f.f.g.f.g.g.g.g.g.g.g.g.g.g.g.g.g.g.g.g.g.H.C..XXXC.H.XXXXXXXXXXXX<XXX<X<XxXxXxX<X,XxX,X,XbXhXdXkXSXFXFXFXHX{.^ c . - $ + ; % , - - - - - % % % ; ; ; ; ; - - - - - - - - - - - - - , , < < < 2 2 < < < < 4 4 4 6 6 g j W ! 8.V.3XFXHXKXKXJXKXJXJXKXJXKXLXnX2X(.y.[ / W ! K c j 6 6 6 6 6 6 3 3 1 < ; ; & % & & + + + + + + + < o o $ * $ + ; v c P L P L J c J J J J J P P P U P L L ^ ] ' ' ' ' ' +.+.' ' ' ' { ' { +.{ { ' ` ] ] ^ ^ ^ L ",
"- - - - ; ; - - & & ; ; ; ; ; - - - - - - - - - - & & & & & & + & 6 L c P J c c c J c 6 c c c v c c ^ 0 & + & & - - - & & & & & + + + + + + + + + + + + + + + & ; 4 - 4 5 5 5 < < 4 4 4 ; 4 4 6 6 6 & 4 6 4 4 4 4 4 4 4 4 4 4 4 4 4 6 6 6 4 4 4 4 4 4 4 6 6 6 5 6 6 4 4 4 6 4 j ! A.OX4X>X%X%XOX.X.X.X.X.X.X.X.X.X.XH.D.C.C.C.C.C.C.C.g.N.N.V.V.g.g.g.g.f.g.f.f.r.r.r.r.r.r.t.t.9.9.7.7.7.7.7.7.7.7.7.3.3.3.2.2.2.2.2.2.2.2.( ( ~ _ Q Q Q Q m 3.r.f.f.f.g.g.g.g.g.g.g.g.g.g.C.C.H..X.XH.C.C.C.g.g.g.f.f.r.r.r.r.f.f.f.f.f.f.f.f.f.f.g.g.g.g.g.g.g.g.g.g.C.C.C.C.g.C.g.g.H.H..X.X.XH..XH.C.C.C.C.g.f.r.r._ Q _ _ _ _ _ _ ~ ( ( ( 2.2.2.2.2.2.2.2.2.3.7.7.7.7.7.7.7.7.t.t.t.t.t.t.r.r.r.r.r.r.r.r.r.r.f.f.f.f.f.f.f.f.f.f.g.g.g.g.g.g.g.g.g.g.g.g.g.C.C..X.XH..XH.H.XXXX,XXX%XXX<X<XxXzX<X%X,XiX<XxXiXiXrXuXgXSXAXDXDXHXFX/.c . + o J % % % % & & % % % % % % ; ; ; ; ; ; - - ; ; - & - , - - - - , , , , < < < 4 4 4 4 4 6 g v c ! ) 0.V.qXDXHXKXKXJXKXKXKXKXKXLXnX2X(.s.} / W K P K c c 6 6 6 6 6 6 6 6 5 3 4 1 2 ; % + + + + + + o @ < o o o o $ 6 c c J L ^ L P c c c J J J J P P P P L L ^ ^ ] ' ' ' ' ' ' ' ' ' { ' { ' ' { [ ` ` ^ ^ ^ ^ L L P ",
"- - - - - - - - & & ; ; ; ; ; ; ; ; ; ; ; ; - - - & & & & & * * $ * ; c c c J c J v L P L J J P P J J ^ J 4 & + ; - - & & & & & + % + + + + + + + + + + + + + - 4 < 6 5 5 g 5 4 4 6 6 4 4 4 6 6 6 ; ; 6 6 6 6 6 6 6 6 6 6 6 6 6 6 6 6 6 6 6 6 6 4 6 6 6 6 6 6 6 6 6 6 6 6 4 g j | !.oXtX<X%X%XXX.X.X.X.X.X.X.X.X.X.XH.C.C.C.C.C.C.C.C.g.C.N.V.V.g.g.g.g.f.f.f.r.r.r.r.r.r.r.t.t.t.9.7.7.7.7.7.7.7.7.7.3.3.3.2.2.2.2.2.2.2.2.2.( ~ _ Q Q Q z M 9.g.g.g.g.g.g.C.C.C.C.C.C.g.C.C.C.H..XC.C.C.C.C.g.g.g.f.f.r.r.r.r.r.f.f.f.f.f.f.f.f.f.g.g.g.g.g.g.g.g.g.g.g.g.g.g.g.g.g.g.g.H.H.H.H.H.H.H.H.C.C.C.g.g.r.r.2._ _ _ ) _ ( ) ( ( ( 2.2.2.2.2.2.2.2.2.2.3.7.7.7.7.7.7.7.7.t.t.t.t.t.t.r.r.r.r.r.r.r.r.r.r.f.f.f.f.f.f.f.f.f.f.f.g.g.g.g.g.g.g.C.g.g.g.g.C.C.H.H.H..X.XH.H.XX,X.XXX<X<X<XxXxX<X<X,X,XbX<X%X>XrX9XyXhXkXSXSXDXFXHXHX{.J & %.& + & & & & & & % & & & ; ; ; ; ; ; - - ; ; ; ; < < < < 4 4 3 3 3 3 3 4 4 4 6 6 6 6 g c J K W | 0.S.qXAXHXKXKXKXKXKXKXKXLXeX{.(.i.y.} ! ! ! K K J c 6 6 6 6 6 0 0 0 0 0 6 6 0 5 < & + + + + + o % < o o o $ g h c P P ^ ^ L J c c c J J J J P P L P L L ^ ^ ] ' ] ] ' ' ' ' ' ' ' ' ' ' ' ' ] ] ] ^ ^ L P L P P ",
"5 5 5 5 5 5 6 6 6 6 6 3 4 4 4 4 4 4 4 4 4 : < < 4 4 4 4 4 4 4 4 4 4 4 4 v c c v g v c P v c c v c c c v v 6 ; - ; ; < ; ; ; ; ; ; ; ; - % - - & & & & & - 4 6 6 6 < c v c g ; g 6 6 6 6 4 6 6 6 g ; 6 g d d g g d d d d g g g g d d d 6 d d d 6 d d g g g g g g g g g g j j j j ! a.`.zXrX7X%X.X.X.X.X.X.X.XXX,X.XXX.XC.C.C.C.C.C.C.N.N.g.g.g.g.g.f.f.f.f.f.r.r.r.r.r.r.r.r.t.t.t.9.7.7.7.7.7.7.7.7.3.3.3.3.3.2.2.2.2.2.2.2.2.2.~ _ Q Q m z Q r.g.g.C.C.C.C.C.C.H.H.H.C.C.C.C.H.H.H.C.C.C.C.C.g.g.g.f.f.r.r.r.r.r.r.f.f.f.f.f.f.g.g.g.f.g.g.g.g.g.g.g.g.g.g.g.g.g.g.g.C.C.C.C.C.C.C.C.C.C.C.C.C.g.g.f.r.3.Q _ _ _ _ ( ( _ ( ( 2.2.2.2.2.2.2.3.3.3.3.7.7.7.7.7.7.7.7.t.t.t.t.9.t.t.t.r.r.r.r.r.f.r.r.r.r.f.f.f.f.f.f.f.f.f.g.g.g.g.g.g.C.C.g.g.g.g.C.N.C.H.H.H..XC.H..X,X%X.X%X%X<X7X<XiXH.H.%XxXH.,X>X;X9XrXyXuXjXSXDXDXFXHXHXFXx.6 m.& * ; & & P +.4 < 4 4 4 4 3 5 5 5 g h 4 5 6 6 6 6 v J g 6 c c g v c c c c c L c c K ^ K ! ) } p.z.oXuXvXFXHXKXKXKXHXGXnX|./.n.p.} ` / ! ! ! K K J v g g v g g g g g g 0 0 g 3 0 < + o o + o $ & < . . & h v J P L ^ L P P J v v c c J J P P L L L L ^ ^ ^ ^ ] ' ' ' ' ' ' ` ' ' ' ` ] ] ` ` ] ^ ^ ^ P J P J c ",
"6 6 6 6 6 0 6 6 6 6 6 6 d d d d 6 6 6 6 6 6 6 6 6 6 6 6 d d g g g g g g d d g j v v v g g v v g v v g 6 6 6 6 4 4 4 4 5 5 4 4 4 4 4 1 3 1 1 1 4 4 & - 4 6 g v v v 4 P c c g : g g g g g 6 6 6 g 6 : g j d d g g j j j j j j g g g g d d g g g g g g j g v v v v v v v v v v c c m 0.D.hXiX7X%X.X.X.X.X.X.X.X.X.X.X.XC.C.C.C.C.N.N.g.g.g.g.g.g.g.f.f.f.f.f.f.r.r.r.r.r.r.r.r.r.t.9.9.7.7.7.7.7.7.7.7.3.3.3.3.3.3.2.2.2.2.2.2.2.2.~ _ Q Q m z Q r.C.C.^..XC.C.C.C.H.C.C.C.C.C.C.C.C.C.C.g.g.g.g.g.g.g.f.f.r.r.r.r.f.f.f.f.f.f.f.f.g.g.f.f.g.g.g.g.g.g.g.g.g.g.g.g.g.g.g.g.g.g.g.g.C.C.C.C.g.C.C.C.g.g.f.r.3.Q ( _ ( ( ( ( ( ( ( 2.2.2.2.2.2.2.3.3.3.3.7.7.7.7.7.7.7.7.t.t.t.t.9.t.t.t.r.r.r.r.r.f.f.r.r.r.f.f.f.f.f.f.f.f.f.f.g.g.g.g.g.g.g.f.g.g.g.C.N.C.C.C.H..XH.H..X.X,X,X,X,X<X<X<X7XH.%XbX<X<XH.,X;X>X>XrXrXuXdXjXSXDXFXFXHXGXeX$.{.x.: v ^ 6XU.g 6 c c c c v L L v J ^ L J L L P P ! ` ^ P ! ! b b P L L L ^ ` ! K / [ / [ } 0.a.z.D.>XbXvXFXFXFXDXmXwX{.U.c.p.} ` ` / ! ! ! P P J c g g c v v v v c h g g h 0 g 6 + o o o & o & ; $ < h v c J P L L L L L P c c c J J P L L L L ^ L ^ ^ ^ ^ ^ ] ' ' ' ` ` ] ` ` ] ] ] ] ^ ^ ^ L L L P J J J L ",
"g g g g g g g g g g g g g g g g g j j g g g g v g g v v j j v v v v v v v v v c c c v v v g g v v v g 6 6 0 g g g 6 6 6 0 6 g 0 0 0 0 0 0 0 6 6 4 ; 4 v c c c c c 6 L J J 6 4 6 v v v v 6 g g v : : j c j j v v v v c c v v c c c c c c c c c c c c c c c c c c c c c c b b b b m 0.D.dXiX7X%X.X.XC.C..X.XD.C.D.D.C.N.N.g.g.g.g.g.g.g.g.g.g.g.f.f.f.f.f.f.f.f.f.f.r.r.r.r.r.r.r.t.9.9.9.t.t.t.t.7.7.3.3.3.3.3.3.3.3.3.2.2.2.2.( ~ _ Q Q Q m ~ f.C.C..X.XC.C.C.C.C.C.C.g.g.g.g.C.C.C.g.g.g.g.g.g.f.g.f.f.r.r.r.r.f.f.f.f.f.f.g.g.g.g.g.g.g.g.g.g.g.g.g.g.g.g.g.g.g.g.g.g.g.g.g.g.g.g.g.g.g.g.g.g.g.g.f.r.3.Q ( _ ( ( ( ( ( ( 2.2.2.2.2.2.2.2.2.2.3.3.7.7.7.7.7.7.7.t.t.t.t.t.t.t.r.r.r.r.r.r.f.f.r.r.f.r.f.f.f.f.f.f.f.f.f.f.f.g.g.g.g.g.f.f.g.f.g.C.N.F.C.C.C.C.H.H..X.XXX%X%X<X<X<X,X<XH.<XbX,XbXD.D.,X,X;X;X>X9XyXaXgXSXDXDXFXFXHXGX2X2X{.Q.` K ` P K ! ! ! ^ ^ +.+.^ ^ +.%.^ ' ' ` ` ` [ $.` $.[ { ` [ [ [ [ ^ ` [ ! } } y.} y.p.a.z.N.D.oX:X0XgXwX1X1X[.Q.i.i.0.} | ` / ! ! ! ! P K c j j c J J J J J J c h c c g h o * o o o o & < 4 v v 0 J J L P L L L ^ ^ P c J J P L L ^ ^ ^ ^ ^ ^ ^ ^ ^ ^ ^ ] ' ' ` ] ^ ^ ^ ^ ^ ^ ^ ^ ^ L L P J P J c v 4 ",
"v v v v v v v v c c c c c v v v j j j j c c c c c c c c c c c c c c c c b b c b c c c c c v v c c v v g g g g g v v v v v v c v v g g g j g g g 6 6 g c c c c J c 6 L J J 6 6 6 v v v v g g g v 4 : j c c c c c c c c c c c c c c b b b c c c c c c b b b b b c b b J J b b b b ! 0.S.rXiXrX%X.XC.C.C..XD.C.C.N.C.N.f.g.g.g.g.g.f.f.f.f.g.g.f.f.f.f.f.f.f.f.f.f.f.r.r.r.r.r.r.r.t.9.9.9.7.t.t.7.7.7.3.3.3.3.3.3.3.3.3.2.2.2.2.( ~ _ Q Q Q Q 1.g.C.C.C.C.C.C.C.C.C.C.g.g.g.g.g.g.g.g.g.g.g.g.f.f.f.f.f.f.f.f.f.r.f.f.f.f.f.f.f.f.f.f.g.f.f.g.g.g.g.g.g.g.g.g.g.g.g.g.g.g.g.g.g.g.g.g.g.g.g.g.g.g.g.g.f.f.3.Q ( ( ( ( 2.( ( ( 2.2.2.2.2.2.2.2.2.2.3.3.7.7.7.7.7.7.7.t.t.t.t.t.t.t.t.t.r.r.r.r.f.f.f.f.f.r.r.f.f.r.r.f.f.f.f.f.f.f.g.g.g.g.f.f.g.f.g.N.N.g.C.C.H.H.H.H.H.H..X<X<X7X<X<X,X,X,X<X<X,XbXH.D.D.D.OX,X;X>X4X0XyXgXBXSXDXDXHXHXHXDXDXDXeX|.y.! x.` ` ` ` ' ' ' +.^ L +.' ` ` ` ` ! ! $.` ` P ^ P ! ! ! ! P ! $.[ y.} u.@.p.i.l.z.z.D.D.`.oX-X+XZ.!.!.Z.p.p.0.} ` ` / ! ! ! ! P K J c v c P P P P U J J J J P h c o $ o o . $ ; 0 J h 6 0 J P P J P P L ^ ^ ^ c J P P L L ^ ^ ^ ^ ^ ^ ^ ^ ^ ^ ^ ^ ^ ] ` ] ^ ^ ^ ^ ^ ^ ^ L ^ L P J J P J h $ + ",
"c c c c c c c c c c c c c c c c b b b b b J J J J b J J J K K K K c c K K K K K b b b b J K K J c v c v c c J c c c c c c c c c c c c c c c v g 6 g P J P P P P j c ^ L L 6 g g c c c c v j g g : g v c c c c c c J c c c b b J J J J J J J J J J J K P P K b b ! b ! K b b ! ! ~ ~ 0.&XuXxX%X.XD.D..XH.C.g.g.C.C.g.e.9.f.f.f.f.f.f.f.f.f.f.f.f.r.r.f.f.f.f.f.f.r.r.r.r.r.r.r.t.t.t.9.9.t.9.7.7.7.7.7.3.3.3.3.3.3.3.2.2.2.( ( ( ~ _ Q Q Q Q 3.g.C.C.C.C.C.g.g.g.g.g.g.g.g.g.g.g.g.g.g.g.g.g.f.f.f.f.f.f.f.f.f.f.r.r.f.f.f.f.f.f.f.f.f.f.f.f.f.g.g.g.g.g.g.g.g.g.g.g.g.g.g.g.g.g.g.g.g.g.g.g.g.g.g.g.g.f.2._ ( ( 2.2.2.2.2.( 2.2.2.2.2.2.2.2.2.2.2.2.7.7.3.7.7.7.7.t.t.t.t.t.t.t.t.t.r.r.r.r.f.f.f.f.f.r.r.g.f.r.r.f.f.f.f.f.f.g.g.g.f.f.f.f.g.N.g.N.N.g.N.N.D.H.H.H.,XH..X<X<X,X<X,XH.,XH.,XxX,XzXH.k.F.D.D.OX%X@X;X4XpXyXaXgXBXSXDXFXFXHXHXDXDXwXW.M.W.u.y.u.x.u.x.u.m.s.u.u.u.%.+.x.x.u.x.u.x.u.' $.%.u.y.u.s.x.` $.$.y.u.u.} l.l.l.l.z.S.S.z.A.!.E.V.z.a.p.0.} 8.} ! ~ ~ ! K ! ! P J J c v c J L L J J J J J J P J g 4 $ $ o $ ; g J J c g g J J J J U L L ^ ^ x.J J L L L L ^ ^ ^ ^ ^ ^ ^ ^ ^ ^ L L ^ ^ ^ ^ ^ ^ L L L L L L L J P ^ ^ J 1 $ o o ",
"c c c J J J J J J J J J J b b J b b b b J J P P P P P P K K K P P J J P ! W ! P P K P P P P K J b v b c c J J J c c J J c c c c c c c c c c c v d c L P L L L L v c ^ ! P d j v c c c c c g v g : v v b c c b c c P c J J b b J J J J J J J K K P P P P P K K P ` P ! ^ P W ! ! ~ ! 8.OXuXhX%XOX.X.X.XH.C.C.C.C.C.N.f.9.f.f.f.f.f.f.f.f.f.f.f.f.r.r.f.f.f.f.f.f.r.r.r.r.r.r.t.t.t.t.9.9.t.7.7.7.7.7.7.3.3.3.3.3.3.3.2.2.2.2.2.2.2.~ Q Q Q Q 3.f.g.C.C.g.g.g.g.g.g.g.g.g.g.g.g.g.g.g.g.g.g.g.f.f.f.f.f.r.f.f.f.f.r.r.r.r.f.f.f.f.r.r.f.r.r.f.f.g.g.g.g.g.g.g.g.g.g.g.g.g.g.g.g.g.g.g.g.g.g.g.g.g.f.g.f.t.2.~ ( ( 2.2.2.2.2.( 2.2.2.2.2.2.2.2.2.2.2.2.7.7.3.3.7.7.7.t.t.t.t.t.t.t.t.t.r.r.r.r.f.f.f.f.f.f.r.f.g.f.r.r.f.f.f.f.f.f.f.f.f.f.f.f.f.N.g.g.g.g.g.N.C.H.H.H.,XH..X%X<X,X<X,X,X,X,XH.,X%XzXxXN.F.D.F.D.%X@X%X;X:X9X0XyXpXgXBXGXZXFXFXHXFXFXGXgX2X}.i.c.n.U.Q.I.I.m.m.m.m.m.m.M.M.m.x.x.x.M.x.c.c.x.m.x.c.I.@.s.s.y.i.i.y.i.i.i.a.a.V.S.z.z.b.b.i.p.p.0.0.} } } ! ! / / P ! ! P J K c j c J L L J J J J J J U J v 6 $ . $ ; j J J J c g g J J J P L L ^ ^ L I.L P L L ^ ^ ^ ^ ^ ^ ^ ^ ^ ^ ^ ^ L L L L L ^ ^ L L L L L L L L L L L 2 % o + + o ",
"J J J J K K P K P P P P P P P P K K K K P P L L L L L L ! L L ! ! P P ! ! ! ! ! ! P L P P P K K J c K b c J P P J J P P J b c c J b b b c c c c g P ! ! ^ ^ ^ ^ c b ` ^ P g c b b b b b c d c 6 4 c c J J J b b J L c J b b b b b b b K P P P P P P L L P P K P c j ! ^ ! ! ^ / | ! 8.^.rXhX%X%X.X.X,X.XC..X.XC.C.C.f.e.f.f.f.f.f.f.f.f.f.f.f.f.r.r.r.r.f.r.f.f.r.r.r.r.r.r.r.t.t.t.t.t.9.9.7.3.7.7.7.7.3.3.3.3.3.3.3.2.2.2.2.2.2.2._ Q Q Q 2.r.g.g.g.g.g.g.g.g.g.g.g.g.g.g.g.g.g.g.g.g.g.g.f.f.f.f.f.r.r.r.r.r.r.r.r.r.r.r.r.f.r.r.r.r.r.f.f.g.g.g.g.g.g.g.g.g.g.g.g.g.g.g.g.g.g.g.g.g.g.g.g.g.f.f.f.3.~ 2.( ( 2.2.2.2.2.2.2.2.2.2.2.2.2.2.2.2.2.2.7.7.3.7.7.9.9.t.t.t.t.t.t.t.r.r.r.r.r.r.f.f.f.f.f.f.f.r.g.f.r.f.f.f.f.f.f.f.f.f.f.f.r.a.f.g.f.f.f.f.f.N.C.D.C.H.,X.X.X,X,X,X<X<X,X,X%XF.,X%X,XiXiXF.F.F.D.OXOX,X,XOX;X:X9X0X0XaXgXjXSXZXFXFXFXFXFXmX|.{.n.u.I.c.W.u.x.x.x.x.x.x.x.u.$.u.[ u.{ y.$.$.{ } { m.T.$.c.i.y.s.c.i.p.p.p.p.p.i.l.l.p.i.p.y.y.@.} } | { } ! ! ` [ ^ ! L P J K c j c J L L J J J J J v J U J h $ * ; g J J J J v 6 g J J J L ^ ^ ^ ^ ^ %.%.P L L ^ ^ ^ ^ ^ ^ ^ ^ ^ ^ ^ ^ L L L P L L L L L L L L L L L ^ c % o o o o o o ",
"P P P P P P P P L L L L ! P P P P P P P P P L L L L ! L ! ! ! ! ! P P ! ! ! ! ^ ! ! L L P P K P K c P J J P P L P P L L P P P J b P b b b b b c v ^ ! ^ ^ ^ ^ ^ c b ` ^ J g b P K J J J c 6 b 6 4 c c P P P P P P L J J J b b b J b P P L L L ! L L L ^ ! ! P b K L ! d ! ! / [ } ~ 0.!.>XxX>X,X.X.X,X.XC.H.H.D.H.C.f.f.f.f.f.f.f.f.f.f.f.f.f.f.r.r.r.r.r.r.r.r.r.r.r.r.r.r.r.t.t.t.t.t.9.7.7.3.7.7.7.7.3.3.3.3.3.3.3.2.2.2.2.2.2.2.~ _ Q Q 1.t.g.g.g.g.g.g.g.g.g.g.g.g.f.g.g.g.f.f.f.g.g.g.f.f.r.r.r.r.r.r.r.r.r.r.r.r.r.r.r.r.r.r.r.r.r.f.f.f.g.g.g.g.g.g.g.g.g.g.g.g.g.g.g.g.g.g.g.g.g.f.f.f.f.f.9.2.~ 2.2.( 2.2.2.2.2.2.2.2.2.2.2.2.2.2.2.2.2.3.7.7.3.7.7.7.7.9.9.t.t.t.t.t.r.r.r.r.r.r.f.f.f.f.f.f.f.f.f.f.f.f.f.f.f.f.f.f.f.f.f.f.q.r.f.f.f.f.f.f.f.g.F.C.C.H.,XH..X.X,X,X<X<X<X,XH.H.D.bXH.k.>XcXD.D.D.F.D..X.X.XOX$X;X:X9X0XyXaXfXjXBXZXFXFXFXFXBX2XT.$.! g n.b b c b b 6 ` 4 ` : ^ 4 ` v ! b b P b b Q.Q.y.m.m.y.i.m.l.y.y.y.y.y.y.p.l.y.p.p.@.@.@.@.@.[ } { ^ ! ` [ ^ ! ! P J P c j c J L L J J J J J g J P J g o 6 c J J c J J c g g J J L L ^ ^ ^ ^ ` ' s.^ L L L L ^ ^ ^ ^ ^ ^ ^ ^ ^ ^ L L P L P P P P L L L R ^ ^ P 4 X o $ X o o @ o ",
"^ ^ ^ ! ! ! ! L ! ` ! ! ! ! ! ! ! L ^ ! ! ! ! ! ` ` ^ ! ^ ^ ^ ^ ` ! ` ` / ! ` ^ ! ! ` ` ^ ! ! ! ! ! ^ P P ^ L ^ L L ^ L L L L P P L ! ! P ! b b b ` ^ ` ` ` ` ` b L [ { K b b b P K ! v j d c 4 4 c c P J b b P P J b b J J J P P L L ! ^ ] L ! ^ L P ! { ! b ` [ ! ` : b ^ ` ! } } 0.0.V.>X>X%X.X.XOX.XC.C.C..XH.D.C.f.f.f.f.f.f.f.f.f.f.f.f.r.r.r.r.r.r.r.r.r.r.r.r.r.r.9.9.9.9.9.9.9.t.7.7.7.7.7.7.3.3.3.3.3.3.3.3.3.2.3.3.3.2.2.2.( ~ Q 1.7.g.g.g.g.g.f.f.f.f.f.f.f.f.f.f.f.f.f.f.f.f.f.f.f.r.r.r.r.r.r.r.r.r.r.r.r.r.r.r.r.r.r.r.r.r.r.g.g.f.g.g.g.f.f.9.9.9.9.r.f.g.g.g.g.f.f.f.r.r.r.r.r.r.9.3.1.2.2.2.2.2.2.2.2.2.2.2.2.2.2.2.2.2.2.2.3.3.7.7.7.7.7.7.7.7.7.t.t.t.t.t.t.t.t.r.r.r.r.r.r.r.f.f.f.f.f.f.f.f.f.f.f.f.f.f.f.f.f.f.f.a.f.f.f.f.f.f.f.f.f.N.N.C.H..X,X,X<X.X<X<X,XH.H.F.,X%XxXOXk.F.,XH.D.D.D.D.D.H.D..XOX@X;X;X>X4XrXiXaXjXkXSXAXFXFXFXDXGXl.Q.v l.$.U.v P ` c [ P @.v $.c y.b $.^ / | ` ! 2X{.c.p.T.p.p.c.n.0.l.l.y.c.p.y.i.} $.p.u.` { ` $.{ ` ` { ! ^ [ [ L ! P c J v j c c J ] J L P c L J P ^ J J v v J J L L J P c g v P J ^ ^ ' ' { ' ' ' ' ` ^ L L L L ^ ^ ^ ^ ^ ^ ^ ^ ^ L L P P L L P ' +.s.%.O.T 0 + + o + o o + # @ @ ",
"! ! ^ ^ ^ ^ ^ ^ ^ ` ! ` ^ ^ ^ ` ` ! ` ^ ^ ` ` ` ` ` ! ! ^ ^ ^ ^ [ ! [ ` [ / { ` ^ ` ` ` ` ` ` ` ^ ^ [ ! ! ^ ! ` ^ ^ ^ ^ ! ^ ^ ! ! ^ ` ^ ! ! ! b ! $.{ $.$.$.$.$.b ` $.u.K K K K ! P ! c j v c 4 4 c v b c J J J P L L J P P P P P L P L ^ ] P ! ^ L L ^ ` ^ b b [ P ` ; ! / [ ` | } 0.z.V.@XiX;X.X.X.XH.C.C.C..X.XH.C.C.f.f.f.f.f.f.f.f.f.f.f.r.r.r.r.r.r.r.r.r.r.r.r.r.r.9.9.9.9.9.t.9.t.9.7.7.7.7.7.3.3.3.3.3.3.3.3.3.2.3.3.3.3.2.2.2.~ Q Q 3.f.g.g.g.f.f.f.f.f.f.f.f.r.r.r.r.r.r.r.r.f.r.f.r.r.r.r.r.r.r.r.r.r.r.r.r.r.r.r.r.r.r.r.r.r.r.f.g.f.f.g.f.r.r.r.r.9.9.r.r.r.r.r.9.9.9.r.r.r.9.9.9.9.3.1.1.2.2.2.2.2.2.2.2.2.2.2.2.2.2.2.2.2.2.2.2.3.7.7.7.7.3.7.7.7.7.7.t.t.t.t.t.t.t.r.r.q.9.r.r.r.r.f.f.f.f.f.f.g.f.f.f.f.f.f.f.f.f.f.a.f.V.V.f.f.f.f.f.f.f.N.C.C.H.H..X<X%X,X<X<XH.,XH.F.H.%XbXD.N.F.D.F.F.F.D.D.H.D.D.D..XOX@X,X%X;X>X4XrXuXuXjXMXZXAXFXHXHXHXmXl.GXT.{.2X{ ^ c ` b { g @.v $.b { ! ! ` ` ~ wX2Xn.c.'.u.u.c.W.l.l.i.i.c.y.$.x.$.y.$.i.{ $.{ } u.{ @.s.^ ` [ $.P ^ ^ J ^ J c P c J ` ` L ^ P ^ P J ' L J c c J J L L J c v 6 g P L ^ u.%.%.+.' ' ' ' ' ] L L L L ^ ^ ^ ^ ^ ^ ^ L L L L L P P P ] %.x.*.+.J - O + + + + o o + + @ @ ",
"` ` ` ` ] ` ] ` ` { ` [ { { { { { ` $.{ [ } { { } } [ [ ` [ [ [ $.` { { @.[ $.{ ` { { { { { { { [ [ $.` ^ { ` { ` ` ' ` ` ` ` ` ` ` [ ` ` ` ^ P ^ y.$.p.u.u.u.u.b u.l.m.P P P P ! ! ^ b b ! L g v P b P J ^ ! b ! ` ` P L L L ! ! ` L ^ ` { P ` ` ^ ^ ` ` [ L b ! 6 b b ` [ [ $.y.} 0.z.V.@XaX>X,XOX.XC.D.C.C.H.H.D.C.C.f.e.f.f.f.f.f.f.f.f.f.f.r.r.r.r.r.r.r.r.r.r.r.r.r.r.r.r.t.t.r.r.t.t.9.7.7.7.7.7.7.7.7.3.3.3.3.3.3.3.3.3.3.3.2.2.2.~ Q 1.r.g.g.g.f.f.f.f.f.r.f.q.9.9.9.9.9.9.9.q.r.f.f.r.f.r.r.r.r.r.r.r.r.r.r.r.q.q.q.q.9.9.r.r.r.r.f.f.f.f.r.r.r.t.t.7.7.6.6.2.( ( ( ~ ~ 1.8.7.8.8.3.8.2.1.1.2.2.2.2.2.2.2.2.2.2.2.2.2.( 2.( 2.2.2.2.2.2.3.7.7.7.7.7.7.7.7.9.t.t.t.t.t.t.r.t.t.9.9.r.r.r.r.r.f.f.f.f.f.g.g.f.f.f.f.f.f.f.f.f.r.r.N.C.N.g.f.f.f.f.e.N.C.D.C.D.H.,XF.,XH.H.,XF.,XF.F.,XiXD.F.F.N.F.F.D.D.D.D.H.H.D.D..XOXOXOX,X%X;X>X7XrXpXdXfXMXDXFXDXFXFXFXHXGXl.l.$.! ! $.! u.b i.K x.! i.{ } } ` ~ wXeXW.W.6Xn.c.T.2Xn.u.y.i.Q.i.x.'.p.c.i.}.} l.u.u.m.{ u.Q.` $.$./.^ %.%.` s.! ^ m.c ^ +.m.P ' ] ' ' L u.%.J J J J P ^ ^ P J c g v L ` u.m.x.%.+.[ ' ' ` ` ` ^ L L L ^ ^ ^ ^ L ^ ^ ^ L L L L L ] ' I.x.s.L 9 o X o + # # + o o + + @ @ ",
"{ $.$.{ { { { { { $.{ $.$.$.$.$.$.} y.$.$.$.$.y.p.u.y.$.y.y.y.y.u.{ u.u.u.@.u.$.{ { $.$.$.@.@.@.@.$.u.{ [ @.[ +.[ [ { { ' [ [ ` ` [ { { ` ` ` ! $.m.c.n.c.c.c.c.b m.n.T.! ! ! ! ^ ! ` b ! [ { b P ` ! ^ ! [ [ ! ^ [ [ L ! ! ! ! ` $.^ { ` u.L [ { ` ` { $.$.` { $.` ` $.@.[ } u.T.} 0.z.V.;X>X<X,XOX.XC.H.C.C.C.C.C.C.N.g.f.f.f.f.f.f.f.f.f.r.r.r.r.r.r.r.r.r.r.r.r.r.r.r.r.r.r.t.t.r.r.t.t.9.7.7.7.7.7.7.7.7.7.7.3.3.3.3.3.3.3.3.3.3.2.2.~ Q ~ 7.r.f.f.f.f.f.f.r.r.r.q.9.9.9.9.9.9.9.q.r.r.r.r.r.r.r.r.r.r.r.r.r.9.9.9.9.9.9.9.9.9.9.t.r.r.f.f.f.f.r.r.r.t.6.| m b k f l l l l l l f m Q Q ~ Q Q ~ 1.2.2.2.2.2.2.2.2.2.2.2.2.2.( ( ( ( 2.2.2.2.2.2.3.7.3.3.7.7.7.7.7.t.t.t.9.t.r.r.t.r.r.r.r.r.r.r.f.r.r.f.f.f.f.f.f.f.f.f.f.f.a.a.f.q.q.f.f.g.N.f.f.f.f.e.e.N.D.D.C.H.XX.XH.,XH.H.H.OXk.F.H.iXH.N.N.N.F.F.D.D.D.D.H.H.D.D.D..X.XOXOX,X@X;X>X>XrXtXaXgXMXGXFXGXFXFXFXFXmX'.wXc.P @.! u.b u.b i.P u.[ | i.| ! wXmX2X2XmX'.T.'.mX|.n.x.Q.|.m.W.mXl.T.Q.mXl.W.W.Q.{.c.Q.nX` s.m.nX{ m.I.u.U.^ @.eX^ +.x.{.P +.+.%.s.' U.I.J L L J L ^ ] L ^ P c J ' { /.%.u.+.' ` ` ` ` ` ' ^ ^ L L L L ^ ^ L L ^ L L L L +.u.U././.s.0 + $ @ X X O # # # # o + + @ @ ",
"}.U.c./.W.W.n.}./.}.c.}./.Q.M.{.{.c./.Q./.x.m././.l.U.'.Q.c.Q.I.W.i.T.n.T.c.U.U.u.m.m.Q.m.y.m.U.x.x.n.m.y.c.$.m.` x.u.m.$.y.x.$.i.u.u.m.$.u.x.{ c.Q.Q.W.Q.Q.T.'.b W.'.6X! @.u.{ $.` m.` { ! { j ` y.{ $.@.$.$.! ` y.$.! } { ` $.` x.` $.u.U.` u.u.{ y.%.c.x.` u.U.n.$.x.m.y.c.u.'.n.B.v.3XS.@X7X<XOXH..XD.C.F.F.N.N.g.g.g.f.f.f.f.f.f.r.f.r.r.r.r.r.r.r.r.r.r.r.r.r.r.r.r.r.r.r.r.r.r.r.9.9.9.7.7.7.7.7.7.7.7.7.7.7.3.3.3.3.3.3.3.3.3.3.2.2.~ ~ Q 3.9.f.f.r.r.9.7.7.7.3.3.7.3.3.3.3.7.7.9.9.r.r.r.r.t.t.9.9.9.9.9.9.9.9.9.9.9.9.9.9.9.9.9.r.r.r.r.7.7.7.6.W k l l : : l l 4 4 : l l l f k m m Q Q ~ ( 2.2.2.2.2.2.2.2.2.2.2.2.2.( ( ( ( 2.2.2.2.2.2.3.6.3.3.3.7.7.7.7.9.t.9.9.r.r.r.9.r.r.r.r.r.r.f.f.r.r.f.f.f.f.f.f.f.f.f.f.f.a.f.r.9.9.f.q.f.g.f.f.f.N.f.f.C.H.H..X%X.X,XF.H.F.F.H.D.,XH.F.bXiXF.F.N.D.D.D.D.D.D.D.D.D.D.D.D.D.H..XOXOXOX@X@X>X>XrXyXaXjXSXGXDXFXFXFXDXmXpXqX|.u.[ m.! x.! m.^ m.y.p.m.{ $.BXmXeXwXDXwX'.2XGXwX}.wXeXnX6X2XGX}.W.{.mXn.W.}.{.{.x.I.eX%.x./.eX%.x.I.[ Q.J ` |.^ %.u.I.' +.%.+.s.+.u.u.L L L L L ` %.^ +.^ +.m.x.%.%.%.[ [ [ ' ` ` ` ' ' ` ^ ^ L L L ^ ^ L L L P L L ^ %./.6X|.+.2 o o + # @ @ # @ @ @ + + @ + @ % ",
"eX'.W.wXwXwX}.GXwX2XW.wXmXeX{.GXHX{.wX2X2X{.{.gXeX{.{.wXeXW.eX{.6Xn.{.2X6XQ.6XeXQ.}.}.{.}.m.W.'.Q.U.Q.Q.u.n.m.}.$.m.I.}.x.m.Q.U.I.W.}.2Xi.W.m.{ '.eX6XeX6XeX2XwX! 2XeXmX{ }.{.s.Q.c.|.x.i.P s.: [ Q.m.Q.u.m.n.` x.U.n.` u.m.x.x.u.m.$.M.M.{.@.n.n.n.U.m.U.}.y.U.'.|.l.W.'.n./.I.6Xc.{.sXSX`.@X>X7X,X.X.XC.C.C.F.N.N.g.g.f.f.f.e.f.f.q.q.r.r.r.9.r.r.r.r.r.r.r.r.r.r.r.r.r.r.r.r.r.r.r.r.9.9.9.9.7.7.7.7.7.7.7.7.7.7.3.3.3.3.3.3.3.3.3.3.3.2.1.~ Q ~ 5.r.r.9.9.7.1.1.Q Q M m m k k M 1.7.9.9.t.r.r.r.t.t.9.9.9.9.7.7.7.7.7.7.7.7.9.9.9.9.9.9.t.t.9.t.7.) W l d : : : : l l l d d l f k m m Q Q ~ ~ ~ ( 2.2.2.2.2.2.2.2.2.2.2.2.2.( ( ( ( ( ( 2.2.2.2.3.3.3.3.3.3.7.7.7.9.9.9.9.t.r.r.9.r.r.r.r.r.f.r.r.r.r.f.f.f.f.f.f.f.f.f.f.f.a.f.a.9.q.f.f.f.f.f.f.f.f.f.N.C.D.C.D..X.XH.F.H.F.F.H.D.<XH.F.>X>X4XOXF.F.D.D.D.D.D.D.D.D.D.D.D.D.D.H.H..X.XOXOX@X;X>X>XtXaXjXSXSXDXFXFXFXAXMXmXW.U.{ s.v x.j x.` c.y.p.n.y.m.GXDXmXwXGXmX|.2XmXwX}.2X6XwX6X{.mX{.T.T.qXU.Z.I.T.}.x.m.|.%.u.x./.+.s.x.^ |.c c U.^ +.%.m.] { %.+.u.{ %.%.L L L L ^ { %.{ m.x.U./.s.%.{ %.[ [ [ [ ' ` ` ' ' ' ` ^ ^ ^ L L L L ^ ' %.%.U.|.eXVX|.J $ $ o o o # @ @ @ @ @ @ @ @ @ % - - ",
"{.{.W.{.2XwXn.|.2XeXW.2X2XeX{.2XwX{.{.2X{.eXU.eXeXeX{.eX2XW.eX{.6XQ.}.2X6XQ.}.2XW.Q.}./.|.m.Q.}.'.U.Q.Q.s.m.m.}.x.m.I.}.n.m./.}.n.'.|.6Xc.'.U.y.6XDXGXDXmXmXwXGX` nXGXHXu.|.6Xm./.'.eXl.x.b U.: [ /.T.'.m.n.W.{ n.Q.W.{ m.U.n.m.c.U.c.m.U.2Xc.Z.W.'.}.W.W.eXx.'.|.wXm.|.2X}.|.}.6XQ.'.+X0X!.@X7X7X%X,XOXC.C.C.F.F.F.N.g.g.f.f.e.f.q.9.q.f.r.r.9.r.r.r.r.r.r.r.r.r.r.r.r.r.r.r.r.r.r.r.r.t.9.9.9.7.7.7.7.7.7.7.7.7.7.7.7.7.7.7.7.3.3.3.3.3.3.2.1.1.~ 1.7.7.7.3.2.~ Q m k z k k k k k k k Q 2.7.7.t.t.t.7.7.7.7.7.7.3.3.3.7.7.3.3.3.3.7.7.7.7.9.t.t.2.m d d : g 6 4 4 4 d k k k k k k m Q _ Q ~ _ _ ~ ( ( 2.2.2.2.2.2.( 2.2.2.2.2.( ( ~ ( 2.2.2.2.2.2.2.3.2.3.3.3.3.7.7.7.t.t.t.9.t.r.t.r.r.r.r.f.f.r.r.f.f.f.f.f.f.f.f.f.f.f.f.f.f.f.f.q.q.f.N.f.f.f.f.f.f.N.C.D.H.H.C.H..XC.H.H.F.F.H.D.,XH.F.OXD.H.>X4XD.D.F.F.D.D.D.D.D.D.D.D.D.D.D.D.D.D..X.XOX@X@X;X:XtXdXfXMXSXAXFXFXFXFXFXHXLX6X6X^ m.! m.y.x.i.c.n.y.n.DXDXmXmXGXDX{.|.mXGXi.x.6X2X{.T.wX2Xn.n.{.Q.m.n.m.Q.u.s./.u.u.%.I.+.u.u.J Q.j c I.^ { +.s.^ ' { ' %.] { { ^ ^ ^ ^ ' %.s.x.x./.{.m.%.[ ] ' [ [ [ [ ' ' ` ` ' ' ' ` ] ^ ^ ^ ^ L ^ ' ] x./.|.nX}.; . o + $ o o + @ @ @ @ % % % % - - , , ",
"|.2X/.T.|.wXQ.|.{.2XT.{.{.eX}.}.|.'.T.{.W.wXc./.}.eXQ.}./.n./.Q.2X{.m.W.|.{.U.W.U.m.U.m.{.i.m.Q.'.m.m.T.x.m.x.U.m.x.x.I.U.c.m.I.x.Q./.}.c.n.T.x.2XHXGXHXGXDXGXHX` mXDXHXu.U.Q.n.W.T.U.x.y.P W.6 ^ m.U.m.U.x.Q.$.c.l.T.$.m.m.x.n.x.W.U.c.Q.|.Q.n.{.{.W.{.Q.wXx.{.|.mXc.2X6X'.6X}.eX{.Z._.0X@XtX4X<X<X%XOXC.C.C.C.C.C.C.N.g.f.f.f.q.q.9.q.f.r.9.9.r.r.r.r.r.r.r.r.r.r.r.r.r.r.r.r.r.r.r.r.t.9.9.9.9.9.7.7.7.7.7.7.7.7.7.7.7.7.7.7.3.3.3.3.3.3.3.2.2.1.1.1.1.1.~ Q ~ Q m k f f f f f f l l l f m ~ 7.7.7.7.7.7.7.8.3.2.3.3.5.3.3.3.3.3.3.3.3.3.3.7.~ k l l 4 d d d d l l d k k b k k m W W ~ Q ~ _ ~ ~ ~ ( 2.2.2.2.2.2.( 2.2.( ~ ~ ( ~ ~ ( 2.2.2.2.2.2.2.2.3.3.3.3.7.7.7.7.9.r.r.9.9.r.r.r.r.r.r.f.f.r.r.f.f.r.f.f.f.f.f.f.f.f.f.f.f.f.g.q.a.f.N.f.f.f.f.f.N.C.C.D.,X.XH..XH.F.H.F.F.F.H.H.F.N.F.H.F.OXD.H.uX>XOXD.D.D.D.D.D.D.D.D.D.D.D.D.D.D.D..X.XOXOXOX@X:XtXdXgXSXSXAXAXFXFXHXHXDXVXVX$.u.m.n.U.T.Q.Q.{.(.W.{.W.W.).{.|.W.{.{.2Xn.x.i.n.c.` '.2Xn.T.{.T.m.U.m.U.u.u.U.u.u.u.I.+.u.%.c I.c J u.^ { { %.^ ' { ` { ^ ' ' ] ] ] ] +.s.x.U.x.x.m.u.{ ` ^ ` [ [ [ [ ` ` ' ` ' ' ' ` ` ` ] ^ ] ' %.x.|.eXnXVXx.& $ X $ - + + + + @ @ @ @ % % % - - < 2 2 ",
"'.}.{.Z.{.{.W.Q.W.{.{.Q.'.2X{.W.{.}.n.}.W.eXT.Z./.eXU.Q./.U.n.T.W.2Xx.Q.W.}.c.W.T.x.m.c.}.c.n.U./.m.c.n.c.x.x.m.n.u.c.m.I.i.x.m.c.c.n.n.m.c.x.i.Q.HXDXDXDXDXDXHX{ DXDXHXT.@.n.i.i.x.c.m.y.W Q.g P $.u.y.u.$.n.} $.u.T.` l.l.m.n.W.W.}.n.}.eX|.Q.2XeXW.{.'.mXU.{.|.FXm.|.2X'.{.}.6XwXT.[.0X9X:X>X%X,XH.OXH.C.C.C.C.C.C.C.N.f.f.f.r.q.r.r.f.f.9.9.r.r.r.9.9.q.9.r.r.r.r.r.r.r.q.r.r.r.r.r.t.9.9.9.9.9.9.7.7.7.7.7.7.7.7.7.7.3.3.7.7.7.3.3.3.7.8.3.2.2.2.1.2.~ Q Q Q z f f l l l l l l l l l l l l m W ( t.2.2.( ( 2.2.2.2.2.2.2.2.2.2.3.3.7.2.Q k f l l l l l l l d l l d b k b b m m W Q _ _ _ _ _ ~ 2.2.2.2.2.2.2.( 2.2.2.~ ~ ~ ~ ~ ~ ( 2.( 2.6.6.3.2.2.2.2.8.8.7.7.7.7.9.r.r.r.t.r.r.r.r.r.9.f.f.r.f.g.g.f.f.f.f.f.f.f.f.f.a.a.r.r.C.q.f.f.N.f.f.q.f.f.F.D.F.D.,XH.D.H.H.C.F.F.H.F.F.F.D.N.H.D.N.q.N.N.F.OX>XD.D.D.D.D.D.D.D.D.D.D.D.D.D.D.D.D..X.X.XOXOX@X>X4XrXyXdXjXkXZXFXHXHXHXHXGXGX{.'.{.wXnXnX5XeXeXeXeXeXeXeXeXeXeX6X6X2XeXW.}.6X6X{ I.{.n.W.}.T.m.I.c.m.x.x.U.$.%.u.U.$.%.$.J x.d ^ u.^ ` { %.L ` ` ^ ` ' ` ` %.[ %.%.s.I.U./.m.u.u.+.{ { { { [ ' ' ' ' ' ' ' [ [ ` ^ ^ ^ ' +.u.I.{.VXHXHX}.h o * O O + + + % % % % % % & - - , < 2 2 3 3 ",
"T.Q.{.W.Q.{.W.Q.Q.Q.eXn.}.'.|.T.Q.U.m.n.U.2XQ.n.Q.|.T.U.Q.U.n.n.T.{.c.T.Q.W.c.U.U.c.c.c.Q.m.m.U.U.m.x.m.c.s.x.c.m.s.x.c.m.i.s.x.i.x.c.m.m.c.l.i.n.VXmXVXmXmXmXHX{ Q.eXHX2X$.c.c.i.x.c.m.y.! n.b K @.y.$.y.} i.} } p.n.} u.m.T.Q.W.{.eXm.eXwXmXn.wXwX{.eX|.mX|.{.qXFX}.|.wX*X{.'.2XGXv.#X5XaX;X>XH.OX,X>XH.D.C.D.C.C.C.C.N.g.f.f.f.f.f.f.f.f.9.9.r.r.r.r.r.q.q.q.r.r.r.r.r.9.q.r.r.r.r.r.t.t.t.9.9.9.9.9.7.7.7.7.7.7.7.7.7.3.7.7.7.7.7.7.7.7.7.8.8.3.2.2.2.2.1.~ Q Q m k l l l l l l l l l l l l l l f W ~ ( 6.2.( ( ( 2.2.2.2.2.2.3.2.2._ m f l l l l l l l d d d d d d b b b b m m m m Q _ _ _ _ ~ ~ 2.2.2.( ( ( ( 2.~ 1.2.~ ~ ~ ~ ~ ( 2.~ 2.6.7.2.2.2.2.2.2.2.7.7.7.7.9.9.t.r.r.r.r.r.r.r.r.f.f.f.f.g.V.V.N.g.f.f.f.f.f.f.r.q.q.q.f.g.f.f.N.f.f.q.f.N.F.C.C.C..XH.C.H.F.F.F.H.H.F.F.k.D.cXbXD.k.5.w.N.k.F.F.F.D.D.D.D.D.D.D.D.D.D.D.D.D.D.D.D.D.D.D.^.OXOXOX@X4XrXuXdXjXMXAXFXHXHXHXHXHXGXmXHXKXHXDXVXGXDXLXLXLXLXLXLXLXLXLXGXGXGXnXVXLXGXeX|.|.U.Q.}.n.x.m.u.x.u.u.m.$.%.+.x.[ { [ v u.g ^ u.L ^ [ { K ! ^ ^ ^ ^ ^ ` x.[ %.x.m./.m.x.x.{ u.+.{ { { { [ ' ' ' ' ' ' ' ' ' ` ` [ { +.u.I./.nXHXHX%.+ o & & + + & - - - - - - - , , < < < 2 3 5 5 0 ",
"m.Z.{.'.n.}.Q.Z.U.n.eXU.T.U.|.n.Q.Q.Q.n.n.}.}.m.n.W.W.n.n.Z.n.M.m.Q.n.m.n.T.M.c.U.m.x.m.n.n.c.m.n.m.c.c.c.i.x.x.c.c.x.x.m.x.u.x.p.i.c.c.m.c.x.i.c.eXwXwXwXwXwXT.! Q.s.u.U.` c.c.i.c.c.M.y.^ p.b b { $.} y.{ $.$.{ y.c.p.x.Q.{.{.{.eXVXU.nXwXHXZ.mXmX2XeX2XsXwX}.eXGX2X{.wX2X}.{.{.FXv.+X=XCXOX>X,XOX,XOXH.D.D.D.C.C.C.D.N.g.f.f.f.f.f.f.f.f.q.q.r.r.r.r.r.q.q.q.9.9.9.9.r.r.r.r.r.r.r.r.t.9.t.9.9.9.9.9.9.9.9.9.9.7.7.7.7.7.7.7.7.t.t.t.t.t.9.7.7.7.8.3.3.3.3.3.3.1.Q m f f l l l l d d d d d l l l l l f m ~ ( ~ ~ ~ ~ ~ ~ ~ ~ ~ Q Q m f l l l l l d f j j d d k k k k W W W m m m m m W ~ Q _ _ _ ~ ~ ) ( ( ( ( ( ~ ~ ~ 2.2.2.2.~ ~ ~ ( ~ ( 2.3.2.6.6.2.2.2.2.3.3.7.7.7.9.9.t.r.r.r.r.r.f.g.f.f.f.g.g.V.C.C.C.g.f.f.f.f.f.a.q.9.9.q.g.g.f.N.f.f.f.f.N.F.N.C.D.H.C.C.H.F.N.F.F.F.H.F.k.,X,XiXlXiXN.w.q.q.N.k.N.F.F.D.D.D.D.D.D.D.D.D.D.D.D.D.D.D.D.D.D.^.OXOXOX>X4XtXyXaXfXkXBXZXFXHXHXHXHXHXHXKXKXKXKXKXJXJXJXKXKXKXKXJXJXJXKXKXKXKXKXKXKXKXGX6XU.T./.m.s.m.u.x.$.u.n.$.$.{ x.[ { [ v { d ` u.^ ` { %.L ` ` ^ ^ ^ ^ %.u.@.I.{.U.U.x.%.$.u.[ %.{ { { { [ [ ' ' ' ' ' ' ` ` ' [ +.u.I.}.nXLXLXeXc . $ + & & & % - - - - ; < < 2 2 2 2 2 3 3 5 0 0 h ",
"m.m.W.{.n.W.n.T.n.U.W.{.m.Z.{.n.n.n.Q.x.m.T.{.c.m.n./.c.n.Z.n.x.x.n.T.x.c.n.m.u.n.m.i.m.m.n.c.m.m.m.x.c.x.i.s.s.x.m.x.x.x.x.u.u.u.i.x.c.m.c.x.i.p.{.6XeX6XeXT.} / [ } [ |.` s.n.i.x.c.m.y.` } ! b ` } { $.[ ` y.` $.i.l.x./.2X{.qXeXGX}.6XwXHXQ.wXnX|.eX2XeXmXT.qXnXeXQ.eX2XW.}.{.DXZ.].@XFXOX>X,XH.,XOXH.D.D.H.C.C.C.D.N.g.g.f.f.f.f.f.f.r.q.r.q.r.r.r.r.9.9.9.9.9.9.9.r.r.r.q.q.q.r.r.t.t.t.9.9.9.9.9.t.t.t.9.9.7.7.7.7.7.7.9.t.t.t.t.t.t.t.9.9.7.7.7.7.7.9.t.7.3.~ Q m m m k k k k k k k k k k k k l l l f m m m m m m m m m m k l l : l l l f k k k b b k k k b b b W W W W W m m m m Q Q Q ~ _ ~ ~ ~ ~ ~ ( ( 2.( ~ ~ 1.2.8.6.( ~ ~ ~ ~ ~ 2.2.( 2.6.7.7.8.8.7.7.7.7.7.9.9.9.r.r.r.r.r.r.C.f.f.g.V.g.g.g.N.C.C.g.f.f.f.f.r.q.9.9.r.f.f.f.g.f.f.N.N.F.N.g.D.D.F.F.C.H.C.N.N.e.F.H.F.F.,X>X>XD.>XzXxXq.q.q.e.N.F.F.F.F.D.D.D.D.D.D.D.D.D.D.D.D.D.D.D.D.D.D..XOX@X>X4XtXpXaXdXdXfXBXZXFXHXHXHXKXKXKXKXJXJXJXJXJXKXKXKXKXKXJXJXJXJXJXJXKXJXKXKXLX6XU.U.U.U.c.n.x.m.u.x.I.%.%.u.U.$.%.$.b [ g { u.[ +.u.s.` { $.{ { ^ { x.x.I.}.{.}.$.x.u.$.u.{ [ { { { { [ [ { ' ' ` ` ' ^ ` [ +.x.}.nXLXKXVX' + . & - - - - - - - - - - 2 2 2 2 3 3 3 3 3 3 0 0 c c ",
"T.n.Q.'.T.n.B.n.n.n.T.'.n.m.n.W.n.n.n.n.m.n.W.n.c.n.n.c.n.n.n.x.i.i.c.i.x.m.U.p.c.m.c.c.c.m.c.M.n.m.c.x.x.x.x.i.x.m.x.x.x.x.i.u.i.i.x.c.m.c.x.i.i.}.|.6X|.6X$.{ 6XU./.u.6Xx.T.Q.m.m.c.m.u.{ ` { b / } [ { / / } ! } M.M.y.{.eX2XwX2XmX2X|.wXDX{.eXmXwXeXeX2XHXm.eXeXFXx.eX{.Q.}.W.mX{.n.).aX`.4X4XH.D.,XD.D.D.H..XC.C.g.g.g.g.g.f.f.f.f.f.f.r.q.q.q.q.q.r.q.9.9.9.9.9.r.r.r.r.q.9.9.9.q.t.9.9.9.9.9.9.9.9.9.t.9.9.9.7.7.7.7.7.9.9.9.t.t.t.t.t.t.9.9.7.7.7.9.t.r.t.7.2.~ Q Q Q m W b b b b k k k k k k f f f f f f f f l d l l l l l l l f k k k k f f k W K b k k b W W W W W W W m m m m m Q Q Q _ Q _ _ ~ ~ ( 2.2.2.( ~ ~ ( 2.8.2.~ ~ ~ ~ ~ 2.~ Q 2.6.7.7.7.9.9.9.t.9.9.9.9.9.r.r.r.r.r.r.C.f.f.g.g.V.g.g.g.C.C.N.g.f.f.f.q.q.9.9.q.q.f.f.f.f.f.N.N.C.F.N.D.C.N.N.C.D.F.e.e.e.F.F.H.H.H.H.,XD.H.G.D.k.k.q.q.q.q.k.N.N.N.F.F.F.D.D.D.D.D.D.D.D.D.D.D.D.D.D.D.^.OX@X;X>X3X4XtXyXaXdXjXBXSXGXFXHXKXKXKXKXKXKXKXKXJXKXJXJXKXJXJXKXKXKXJXJXKXKXKXGX6XU./.|.n.m.m.m.m.x.c.U.$.x.m.Q.%.u.^ ^ ` ` @.x.` { s.m.[ $.u.$.{ $.{ }.}.}.}.U.x.%.%.u.%.$.{ { { { { [ %.$.{ [ ' ^ ^ L { +.u.U.|.nXHXKXeXg $ o & & & & & & - - 2 2 2 2 < h 5 5 h h 3 3 0 0 h h c H ",
"2Xn.W.}.'.W.Q.Q.n.n.T.}.Q.U.U./.U.U.T.T.n.W.U.Q.n.U.T.n.n.n.B.m.c.c.m.c.c.n.T.x.m.m.m.m.c.c.c.m.n.n.M.c.m.c.x.x.x.x.x.x.x.x.c.c.c.c.n.n.U.n.m.m.M.T.2X2XeX{.P $.m.{.Q./.|.6XnX6X{.W.T.B.m.$.W y.b ` } | { / ~ } ` 0.Z.W.l.eXwXeXwX|.wXGX}.wXmXnX}.nXwX{.eX2XDXQ.2X2XFXn.2X|././.W.2XeXl.!.3X@X@X>XH.D.H.D.D.D.D.D.C.C.N.g.g.g.g.f.f.f.f.f.f.r.q.q.q.9.r.r.q.9.9.9.r.r.r.r.r.r.q.9.9.r.q.t.9.t.9.9.9.9.9.9.t.t.9.9.9.9.9.9.9.9.9.9.9.t.t.t.t.t.t.9.9.7.7.7.9.r.r.r.t.3.2.Q Q Q Q W W m b W W W W b b b k k k b b k k f f f f l d f f l l b m m m m k k k k b W W W W W W W W W W W m m m m m m m Q Q Q Q _ _ Q ~ ( 2.~ ~ ~ ~ ~ 2.6.2.2.~ ~ ~ ~ ~ ~ ~ 8.8.8.8.9.t.a.a.a.a.r.9.9.9.t.r.r.r.r.r.g.f.f.g.V.C.C.g.g.V.V.N.g.f.f.f.q.q.9.9.a.q.a.f.f.g.f.g.N.C.C.F.C.N.N.N.F.F.F.e.w.w.F.F.,XN.D.H.,XD.F.F.G.G.F.k.k.q.q.q.k.N.N.N.N.F.F.F.F.F.F.F.D.S.D.D.D.D.D.D.D.^.OXOX$X$X@X;X4X4XtXyXaXdXfXBXZXDXHXHXKXKXKXKXKXKXKXKXKXKXKXKXKXKXKXKXKXKXKXKXLXmX}.m.U.}.m.x.s.s.x.u.u.m.{ u.u.m.[ { c @.P L ` $.! ` { $.^ ` [ ` L ` ^ {.|.}.m.u.s.$.@.%.$.{ { { { { [ [ $.{ [ ` ^ ^ ' [ x.U.|.nXLXKXGXI.* * < & & & - - ; ; < < 1 1 1 3 5 w 3 1 U P 6 0 h c c J U P ",
"*XE.Q.Q.{.}.T.Q.U.n.n.Q./.T.U.W.U.U.T.U.n.U.n.W.U.n.n.U.n.m.n.M.c.x.x.m.m.c.n.c.c.c.c.c.c.c.x.c.c.c.c.c.m.m.c.l.l.c.x.i.x.c.m.m.m.m.n.T.T.U.n.n.n.n.'.{.6XnXu.y.n.T.|.nXnXLXKXDXmXeX{.W.Q.i.! m.W } y.} { ` ` { { y.).2XT.|.mXwXeX2XeXHXW.nXwXHXU.nXwX{.2X|.mX|.}.|.GX}.}.2X'.U./.}.mXi.E.`.3XD.OXOXD.F.D.H.H.D.C.C.C.N.N.N.g.g.g.g.f.f.f.f.r.r.r.9.q.r.r.r.q.9.r.r.r.r.t.t.r.r.r.r.r.r.t.9.9.9.9.9.9.9.9.9.9.9.9.9.9.9.t.9.9.9.t.t.t.t.t.t.t.9.9.7.7.8.8.7.r.r.r.t.7.2.Q ~ Q Q W W m W W W W W m m b k b m W W m b b b n n n b m m m m W W m b m W m m k m W ) W m m W W W W m m m m m m m m m m W Q _ Q Q ~ Q Q ~ ~ ~ ~ ~ Q 2.8.2.2.~ ~ ~ ~ ~ ~ ( 7.8.2.8.9.a.a.a.a.a.r.r.9.q.q.q.r.r.r.r.f.f.g.g.V.C.C.V.g.V.N.N.f.f.f.a.q.q.q.q.f.q.q.f.N.C.N.f.N.N.N.N.C.H.f.f.e.e.e.f.F.N.D.F.OXw.F.H.H.D.k.F.F.G.G.F.F.k.N.N.k.k.N.N.N.N.F.F.F.F.F.F.V.V.F.F.F.F.D.F.D.OXOXOX^..XOX@X;X3X4X9XtXyXaXjXkXNXDXFXFXHXHXHXHXHXHXHXHXHXHXHXHXHXHXHXKXKXHXLXVX2Xm.x.x.m.x.u.y.y.u.$.%.x.[ { { u.` ^ g [ v P ^ ` L ^ ` ' L P ! ^ P L [ Q.U.m.s.u.$.$.%.[ { { { { { [ [ { { [ ` ` ' +.s.m.}.eXVXLXHX/.6 * & * - - ; ; ; ; 4 4 3 3 5 5 6 6 g h 5 g L c J 0 J G P L ] ] ",
"Z.{.B.Z.W.W.Z.n.n.M.c.n.W.n.m.n.n.n.n.n.m.y.m.n.n.c.c.n.m.u.u.i.i.y.y.x.i.y.i.i.u.p.u.i.x.x.x.i.u.x.x.x.l.l.x.i.i.x.i.u.u.u.c.m.c.c.n.B.U.n.m.m.n.T.T.|.{.|.6X{ U.|.wXGXHXKXHXHXHXDXmX6X2X/.} (.! } y.} { ` ` { { p.[.sX2XQ.GXmXeXnXeXFX{.wXwXHXQ.wXwX2X|.|.wXeXn.2XwX2XB.2X{.n.T.Q.mXi.Z.Z.0XV..X,XOXN.F.H..XC.F.F.C.C.N.N.g.g.g.f.f.f.f.r.r.r.r.9.9.r.r.r.q.9.9.r.r.r.9.t.t.t.r.r.9.9.9.9.9.9.9.9.9.9.9.9.9.9.t.t.t.r.r.t.t.t.t.t.t.t.t.t.t.t.9.7.7.3.3.7.r.f.r.r.7.2.( _ Q W W W W m b b W W W m m b m W ! ) m m m m m m m m ! W W Q W m m b m W ~ m m m W ~ W m m W W m m m m m m m m k m k m m m Q Q Q Q Q Q Q Q Q Q ~ Q ~ 2.~ ~ Q Q ~ Q ~ ~ 8.t.7.2.8.9.r.a.a.f.f.f.r.r.q.q.r.r.r.r.f.f.f.g.g.C.C.C.N.f.g.N.g.f.f.f.f.q.q.q.q.f.f.q.f.N.C.N.f.N.N.N.F.D.F.f.e.e.w.e.f.e.e.e.N.D.D.k.H.D.D.k.G.k.F.G.G.G.G.G.F.N.N.N.N.N.N.N.N.N.N.N.N.N.N.F.F.V.V.F.F.D.OX^.^.D.D.^.OX$X@X;X:X4XrXiXxXhXzXSXGXAXDXFXFXFXFXFXFXFXFXGXGXGXGXGXGXDXDXHXwX|.}.x.%.$.c.y.$.$.$.$.[ { u.` ` ^ { ^ ! c ^ v L ` ` ^ ^ ` ` ! P L ` ! L x.x.m.u.{ ^ { $.@.` { { { { { [ [ [ [ ` ` ^ +.s.Q.{.6XGXHXLX@.$ ; ; & < ; ; < < < < 6 6 6 0 0 0 0 0 g v h R J c J J U L ^ ^ +.+.",
"Q.{.E.n.Z.'.T.M.n.M.c.m.n.n.c.l.l.Q.y.u.u.u.u.x.l.x.u.y.y.{ $.y.u.y.$.y.i.y.$.u.p.$.$.u.x.x.i.u.y.y.p.p.p.u.i.u.u.u.u.p.y.p.i.x.i.u.p.i.c.c.m.m.u.Q.U.}.}.{.6XeX6XnXGXHXKXKXKXKXHXHXHXDXVX6Xn.T.0.~ i.p.} [ ` { y.$.2XmXGXW.mXGXwXnXmXGXwX|.mXFX|.2XnXwX{.2XeXDXm.2XwXGXi.2X{.T.T.B.eXT.M.E.wXoX&XOXH.k.F.D.F.F.D.F.F.C.N.N.N.N.g.f.f.f.f.r.q.q.q.q.q.q.f.r.9.9.9.9.t.t.t.9.9.9.r.r.t.9.9.9.9.9.9.9.7.7.7.9.9.t.r.r.r.r.r.9.9.t.t.r.r.r.t.t.t.7.7.7.7.7.8.8.9.r.r.r.r.7.2.~ Q Q Q m m m m k k m W m m m m ~ ( ) m m m m Q Q Q ~ ~ ~ ~ ~ ( W m m k k Q ( ~ ~ ~ ~ Q m m W m m m m m m k m m k m k k k m m Q Q Q Q Q Q m m Q Q ~ ~ ~ ~ ~ Q Q Q Q Q ~ 8.t.9.7.7.9.9.r.r.f.f.f.f.f.r.q.r.r.f.f.f.f.f.g.V.N.C.C.g.g.g.N.N..Xf.f.f.9.q.f.f.f.f.e.q.g.N.f.f.N.f.N.C.D.N.N.f.w.w.e.e.w.e.N.F.,Xk.D.>X;XOXk.k.N.F.G.F.F.F.G.D.D.D.N.N.N.k.N.N.N.N.N.N.V.N.F.F.F.F.S.F.D.D.D.D.D.D.D.^.OXoX@X@X@X@X>XrXxXlXkXkXSXSXDXFXFXHXFXDXmXmXSXmXSXBX0XqXwXwX2X'.W.W.c.x.M.m.u.u.x.x.x.$.u.u.$.%.x.%.[ K ! P ^ $.u.^ ^ ` %.` [ [ ` ` ` { U.u.u.u.%.%.+.{ { [ { { { [ [ [ ' ` ` { %.x.Q.|.eXGXKXKX|.v ; ; ; ; ; ; : ; < < 4 6 6 6 6 6 g c J J J L ^ ' J #.h J s.=.^ #.s.x.",
"E.Q.[.Z.B.T.{.T.n.B.m.M.m.n.n.c.l.Z.l.c.u.u.u.u.c.c.l.x.u.$.y.u.i.i.u.p.i.u.y.i.u.$.$.p.u.i.u.y.y.y.y.y.y.p.u.i.u.y.y.y.y.y.u.u.u.u.u.u.x.c.c.m.i.n./.W.}.|.eXeXDXHXKXHXKXKXHXKXHXHXHXKXDXnX2XW.E.| l.p.y.} ` ` { l.2XwXDX|.wXmXnXwXnXnXDX}.mXnXGXQ.wXwX{.2X{.mXn.{.2XGXM.}.{./.U.n.Q.{.p.Z.).].D.OXF.N.D.D.D.D.C.F.C.D.N.N.N.N.g.g.f.f.f.r.q.q.q.q.q.r.f.r.9.9.9.9.9.9.9.9.9.9.9.r.9.9.9.9.9.7.8.7.9.9.9.9.t.r.r.r.r.r.r.9.9.9.t.t.t.t.t.9.7.7.8.8.3.8.3.3.3.7.9.r.r.7.2.Q m Q m m m m m m m m m m m m W ! W W ! ~ ~ ~ ( ~ ~ ~ ( ( ~ ~ ( ~ Q Q Q m Q ) 2.( ~ Q m m m m m m m m m m m m m m m m k k k m Q Q Q Q Q M m m Q ~ ~ Q ~ ( ~ ~ ~ Q ~ ~ 2.7.9.a.r.9.7.7.9.r.r.r.f.f.r.r.q.r.r.f.f.f.f.f.g.g.g.N.C.C.N.N.N.C.f.N.N.N.f.f.f.f.f.f.q.8.e.f.e.f.f.g.N.C.C.N.C.e.e.e.f.N.5.H.N.<X,XF.F.>XbXbXOXD.N.k.F.F.F.F.G.D.D.D.F.G.F.F.N.N.N.N.N.N.N.N.N.F.N.F.V.F.F.S.D.D.D.D.D.D.^.OXOXOXOXOX;X>XiXuXhXjXkXkXSXAXDXFXHXFXSXgXSXsX:X3X=X=X2X2X'.Q.Q.Q.x.x.x.m.%.%.u.u.u.$.u.$.{ { %.[ ^ c ` v ^ ` { ^ ` ^ { ! ^ ^ ^ ^ ! u.s.u.%.%.{ { { { [ [ ' [ [ [ [ ' ` ^ { s.U.}.eXVXKXHXnXP & 4 ; ; < < < 4 4 4 4 5 6 g j j v c J P L ^ +./.U.s.s.}.' L s.6X*.x././.",
"R.).).).B.}.W.{.U.Q.U.n.M.U.U.n.m.m.M.n.l.i.u.u.u.u.x.l.p.$.y.p.u.i.p.y.y.y.$.u.y.{ { $.y.y.y.$.$.$.$.$.$.y.y.p.y.y.y.y.y.y.y.y.y.u.u.y.i.x.c.m.x.x.{.Q.}.|.6XeXnXDXKXKXHXHXKXKXKXKXKXKXHXLXmX2X5Xy.i.l.p.$.{ ` u.c.~.mXGXmX|.GXmXwXwXwXHX{.eXeXFXW.eXeX{.{.W.eX|.m./.wX{.M.}.Q.m.n.l.2Xy.M.m.+XOX%XD.N.D.F.D.D.F.D.D.D.N.N.N.N.N.N.f.f.f.f.a.q.a.r.a.f.f.r.r.q.r.t.9.9.9.9.9.9.9.r.t.9.9.9.9.7.8.7.9.9.9.r.r.r.r.r.r.r.a.9.9.9.9.9.9.9.7.7.3.2.2.3.3.3.2.2.2.2.2.7.9.7.~ Q m m m m m m m m m m m W m m Q m m Q ~ ~ 2.2.6.( ~ 2.2.2.~ ~ ~ 2.2.~ ( Q m Q 2.6.( M m m m m m m m m m m m m m m m m k k k m M ~ ~ ~ Q Q M m m M M M ~ 1.1.~ ~ ~ ~ ~ 1.2.9.a.a.7.8.7.9.9.q.r.f.f.r.q.q.f.f.f.f.f.f.f.g.g.g.N.C.C.C.N.g.f.f.g.C.C.f.f.f.f.f.f.q.8.9.q.q.q.f.N.N.N.N.g.C.e.e.e.F.F.w.H.C.iX,XD.D.bXuXiXbX@XD.N.N.F.N.N.F.G.G.D.D.D.G.F.F.F.N.N.N.N.N.N.N.N.N.N.F.F.F.S.S.D.D.D.D.D.D.^.OXOX.XOXOX;X>X4XtXaXhXjXMXSXSXGXDXFXFXFXZXB.`.-XA.R.R.R.m.s.x.x.$.$.%.x.{ { { +.` ` +.] ^ ^ { ^ L J ^ c ! ! { [ L ! ` L L P P J ^ u.%.$.{ { [ [ [ [ [ [ ' ' [ ' ^ ^ ` [ x.U.|.eXVXHXLX|.6 & - 4 4 4 4 4 4 4 4 5 6 g j v J K L ^ ' ^ %.U.eXnXLXU.s.s.%.L ^ I.U.U.|.|.",
"W.T.).).[.R.W.'.}.T.Q.U.n.B.Q.U.n.c.n.Q.l.u.u.u.{ $.y.p.{ [ } $.$.y.y.$.{ { } $.$.{ { $.$.$.$.$.} { } { { { { $.{ $.y.y.$.y.$.$.$.y.y.y.i.x.c.m.c.p.|.T.Q.}.|.6XnXGXHXKXHXKXKXKXHXKXKXKXKXHXHXnXwXR.l.l.l.y.} | y.R.W.wXmXHX{.GXmXeXeXwXGXwX}.eXGX|.}.eX|.U./.}.wX$.W.'.wXi.Q.n.l.c.n.W.l.i.b.*XiX>XOXe.N.N.F.F.D.D.D.N.N.N.N.N.N.N.f.f.f.f.f.f.f.f.f.f.f.f.r.q.r.9.9.9.r.r.r.9.9.r.t.9.9.9.9.9.9.9.9.9.9.r.r.r.r.9.9.r.r.t.9.9.9.9.7.7.2.2.2.2.2.2.2.2.2.2.2.2.2.8.8.1.~ Q m m m m m m m m k k m m m Q Q Q ~ ~ m ~ 2.( 7.2.2.2.6.2.~ ~ ( 7.7.2.8.~ m m ~ 7.7.~ m m m m m m m m m m m Q ~ Q m k k m m m m M ~ ~ ~ ~ ~ ~ ~ ~ ~ Q ~ ~ 2.~ 1.~ ~ ~ ~ ~ 8.9.9.8.5.8.9.9.9.r.f.f.r.r.r.f.f.f.f.f.f.f.g.g.f.g.N.g.g.f.f.f.q.f.g.N.f.f.f.f.f.f.e.9.q.e.e.9.e.N.N.e.e.f.f.N.e.f.C.C.f.F.H.<X,XD.H.uXhXuXuX>XOXD.F.N.N.N.F.F.G.G.F.G.F.F.G.F.F.F.F.F.N.N.N.N.N.N.N.F.F.S.S.S.D.D.D.D.D.D.D.^.D.^.OX@X@X;X>X7XtXuXjXkXMXSXAXFXFXFXFXgXgX).B.B.B.U.m.s.x.Y.s.%.x.x.%.%.%.%.' { $.] ^ ^ ` L L ! c ^ ^ ^ %.u.` { m.x.u.%.` ! ^ $.$.[ [ [ [ [ [ [ [ [ [ ' [ [ [ %.m.Q.|.wXGXHXHXeX] + - 4 ; 4 4 4 4 4 4 6 6 6 g j c J P ^ ' +.*.}.nXVXKXKXKXeX/.Y.%.+.J Q.}.|.|.|.",
").).).).W.E.E.E.).2X2XT.B.n.n.n.B.B.n.M.W.~.b.@.@.p.} } 0.y.@.p.p.} ` ! } | ` { { ` ` { ` ` ! ` { $.$.} { $.` ` ` ` { p.u.} [ } ` / y.y.{ u.n.i.l.u.x.wXm.Q.{.|.|.nXGXHXHXHXKXKXKXKXKXKXKXKXKXHXHXeX}.W.c.i.0.} l.W.wX2XGXGXwXeXGXVX2X6XeXHXm.eXwXGXZ.eX2XU.U.Q.eXm.n.Q.wXi.c.T.c.M.i.n.n.$.n.*XOX4XD.N.F.e.e.e.N.H.OXD.F.N.N.N.N.N.f.f.f.f.f.r.f.f.f.f.f.a.r.r.r.q.9.q.q.9.r.9.q.r.q.q.9.9.9.9.9.9.9.9.r.r.r.r.r.9.9.r.r.q.9.8.7.7.3.2.1.~ ~ ~ 1.1.2.1.~ ~ 2.2.2.2.1.~ Q Q M m k k k m m m m m m M M M Q 8.8.( ~ 6.~ ~ 8.8.8.8.7.8.6.8.2.8.t.7.8.t.7.~ Q Q 2.2.( m Q m m m M Q Q M Q Q ~ Q ~ m m m m m m M Q ~ ~ ~ ~ ~ 1.1.8.~ ~ 1.2.2.1.~ ~ Q ~ ~ 8.5.8.5.5.8.9.9.9.q.f.V.r.r.f.f.f.f.f.f.f.N.g.g.f.g.g.g.f.a.f.f.f.f.f.g.f.f.f.f.f.f.q.9.q.f.e.q.f.N.g.e.e.N.N.C.e.N.f.e.e.N.<X<X.X,XH.rXiXrXrXiXrX;XOXS.F.N.N.N.N.F.F.G.G.D.G.F.G.G.F.F.F.F.F.N.N.N.N.F.F.F.F.D.D.D.D.D.D.D.D.D.^.D.OXOXOX%X%X;X>X4XaXdXMXSXSXAXDXFXHXBXgX| b b c ! v c c c 2 < 4 < ; ; ; ; * * ; 4 v b ^ ` ^ ! ! ! L ! [ [ $.x.m.U.m.x.%.! ; { { [ ` ` ` ` ' ' ' ' ` ` ` ` @.m./.|.nXLXKXKXU.4 ; ; ; ; 4 4 6 4 4 4 : 6 d v g c P ! ^ @.x./.eXVXHXKXKXKXKXKXnX|.I.' +.|.|.6XeXnX",
").).~.W.E.E.E.E.W.).}.T.T.Z.Z.n.n.n.B.B.{.Z.n.Q.}.E.n.W.|.Q.B.2X|.Q.T.{.{.n.B.{.2XM.{.|.{.c.}.}.n.c.}.sXQ.n.{.2Xc.Q.}.T.B.}.{.{.x.|.|.'.T.2X2X{.{.eX6X2XGXeX6X|.{.6XVXGXLXHXKXKXKXKXKXKXKXKXKXKXHXGXnX{.E.m.i.0.0.{.GXeXDXmXFX}.DXVXeXwXwXFXeX}.eXFXQ.|.eX{.m.}.{.|.{ U.{.'.$.B.n.p.l.i.Q.i.B.).D.>XOXN.N.e.q.f.N.D.D.D.V.f.f.N.N.N.f.a.f.f.q.q.r.f.f.f.f.q.q.r.r.q.9.9.9.9.r.9.9.q.r.q.q.q.q.q.r.r.r.t.r.r.r.r.r.9.9.q.9.9.5.1.1.1.1.1.~ ~ ~ ~ ~ ~ ~ ~ ~ ~ ~ 2.2.2.2.~ Q ~ Q M m m m m k m m m m Q Q Q ~ ~ a.( ~ 7.8.8.8.8.8.8.6.2.2.2.2.8.7.7.7.t.r.t.8.2.Q Q Q 7.Q M m m M W Q Q W W ~ Q 6.~ ~ ~ ~ ~ ~ ~ ~ 1.~ Q ~ ~ ~ M 8.5.1.1.1.5.1.M Q 1.5.Q ~ 1.8.8.1.5.8.q.q.q.f.N.r.f.f.f.f.f.f.g.f.N.N.f.N.g.f.g.f.f.f.f.f.f.f.f.f.f.f.q.f.f.q.q.q.f.9.9.N.N.f.e.e.g.N.F.F.C.e.N.F.N.%X,XC.7X.XiXuXiXhXxXiX>X;XOXS.F.N.N.N.N.N.F.G.G.G.G.G.F.F.F.F.F.F.F.N.N.N.N.N.F.F.D.D.D.D.D.D.D.D.D.^.^..X.X.XOX,X%X%X;X9XyXaXfXkXSXZXFXFXFXgXd * ; b ; ; , , , o + o * $ $ $ * $ $ ; v b J P P P P L ! ^ ` +.@.u.m.I.x.%.$.+.' c ; ` [ ` ` ` ` ` ` ` ` ^ ` [ u./.|.eXVXHXLXnXL ; ; ; ; 4 4 6 6 d d d d d g b b ! ^ [ @.u./.6XVXHXKXKXKXKXKXKXKXKXLX|.|.eX|.|.nXnXLX",
"E.E.E.E.E.E.E.E.T.T.T.T.T.T.T.Z.B.n.n.n.n.m.M.M.l.B.c.l.M.n.M.b.m.c.M.c.c.l.l.c.l.p.l.l.p.i.c.p.u.i.i.y.y.i.p.y.y.y.y.y.y.0.$.$.$.i.{ { y.y.{ i.{ y.u.u.U.W.{ 6XGXVXeXnXVXLXHXKXKXKXKXKXKXKXKXKXKXKXHXwX2X).B.z.l.).BXGXwXGXHXnXeXDXVXeXwXwXFXT.eXeXnXx.|.2XZ.U.T.eXu.$.n.wX{ l.n.y.i.y.M.}.} A.^.rX;XD.q.e.w.N.e.N.C..XC.f.f.N.N.f.f.a.a.a.q.q.r.r.r.f.q.9.q.a.r.r.q.9.9.9.f.r.q.q.r.r.r.r.r.r.r.r.t.9.r.r.r.r.r.9.9.r.r.9.7.7.5.1.1.~ Q ~ ~ ~ ~ ~ ~ ~ Q Q Q ~ 1.2.1.1.~ ~ ~ ~ Q Q M m k k m m m W Q Q Q M a.6.~ 8.~ ( 2.2.8.8.2.2.( 2.6.2.8.d.r.a.t.8.~ ~ Q M Q ~ ~ m Q W M M Q Q Q Q ~ ~ 8.6.1.5.5.5.8.1.1.1.~ ~ ~ ~ 1.~ 8.5.1.5.5.5.1.~ 5.1.5.~ ~ ~ 1.1.1.5.8.9.a.f.f.f.q.f.f.f.f.f.f.N.g.g.g.N.C.f.f.f.f.f.f.f.f.f.f.f.g.f.q.q.f.q.9.q.q.f.g.N.C.C.N.e.e.e.e.e.f.f.e.N.D.C.,X,XH.>XH.iXzXzXzXuXuXtXrX;XOXD.F.N.N.N.k.N.F.G.F.G.G.G.F.F.F.F.F.F.F.F.N.N.N.N.F.F.D.D.D.D.D.D.D.D.^.^..X^..X.X.XOX@X@X:X4X4XyXdXkXSXZXAXFXDX{.g : K & o o + + o + o o $ $ $ * $ 4 v v J J c c c P L ! ' { u.u.u.x.x.$.` { $.{ L v 4 ^ ` ` ` ` ` ` ` ` [ %.x./.6XnXLXHXGXx.; & 4 ; ; 4 4 6 6 g v v v v v b P ! ' ' u.U.6XnXLXKXKXKXKXKXKXKXKXKXKXKXLX|.|.6XVXLXKXHX",
"E.E.E.E.E.E.E.E.T.Q.Q.Q.T.T.T.T.Z.Z.B.n.n.B.B.n.B.B.c.n.l.n.M.M.M.n.n.l.l.c.c.l.i.p.l.i.i.i.x.x.i.p.y.p.p.p.p.i.p.y.y.y.y.} $.y.} } u.{ y.$.u.} u.{ $.$.y.$.! g Q.LXGXDXLXGXGXLXHXHXKXKXKXKXKXKXKXKXKXHXmX2X).Z.l.).GXFXGXGXDXHXeXmXGXmXeXwXmXeXI.eXmX}.n.{.{.u.T.}.2X! n.{.W.! l.c.{ 0.y.Q.| l.V.lXhXS.w.q.w.N.q.e.N.D.C.f.q.f.f.f.f.f.f.f.a.r.r.r.r.q.q.8.q.r.r.r.q.q.q.r.g.f.q.q.r.r.r.r.a.a.f.r.9.9.9.r.r.r.r.9.9.9.9.7.3.1.1.1.~ ~ Q Q ~ ~ ~ ~ ~ ~ ~ Q Q Q ~ ~ Q Q ~ ~ ~ Q ~ Q Q m m m m m m M M Q M Q a.6.2.0.8.8.2.2.2.2.2.~ ~ ( 6.2.2.8.2.7.7.8.~ ~ ~ ~ ~ ~ 6.6.( ( ~ ~ W Q Q Q ~ Q ~ 1.1.5.5.8.8.1.1.1.~ ~ ~ ~ ~ 1.f.8.5.9.9.5.5.1.8.8.5.~ 1.~ ~ ~ ~ 1.5.q.f.f.f.q.q.f.f.f.f.f.f.C.N.g.N.g.f.N.g.f.f.q.q.f.q.f.q.q.f.f.9.q.f.9.q.9.f.N.N.N.H.C.N.e.q.q.N.e.N.e.e.f.C.,X7XH.,X,XH.uXlXlXhXuXaXzXuXrX;XOXG.F.N.N.k.k.N.F.F.F.G.F.F.F.F.F.F.F.F.F.F.F.N.N.N.F.S.D.D.D.D.D.D.D.D.D.^..X.X.X.X.XOXOX;X>X:X4X0XdXkXSXFXFXFXDXR.: d ; o o X X o o o $ $ $ $ $ 6 v c J c c c b b P L ! { %.s.s.s.%.{ %.` { { ` ` ` c : J ` ` ` ` ` ` ` u.I.{.6XVXKXKXGX^ ; 4 & : ; 6 6 6 6 g v b b b b b ! ^ ` s.x.}.nXLXLXHXKXKXKXKXKXKXKXKXKXKXLXnXnXVXHXKXKXHX|.",
"W.W.W.W.W.W.W.W.Q.W.W.E.Q.Q.R.R.R.R.R.Z.R.Z.Z.Z.Z.Z.B.n.n.b.M.m.M.c.M.M.M.l.l.l.l.l.l.l.l.l.l.l.l.u.i.i.u.u.p.p.p.p.y.y.0.y.0.y.y.y.$.$.y.y.y.y.y.y.y.y.y.$.! g 6 y.VXHXLXLXHXLXHXKXKXKXKXKXKXKXKXKXKXKXKXDXeXW.B.l.-XAXHXGXFXHXHXwXHXHXnXmXGXHX|.}.eXGXI.W.6X}.I.U.2X'.[ c.wXl.` p.c.` } l.M.! ).kXjX@Xq.N.w.9.9.q.N.F.N.f.C.N.f.f.f.f.g.f.a.a.q.q.q.9.9.9.q.q.r.q.r.q.r.r.f.a.q.9.q.r.r.r.r.a.f.q.8.8.8.9.9.q.q.9.9.8.7.3.1.1.1.~ ~ Q Q ~ ~ ~ ~ ~ ~ ~ ~ Q Q M Q Q Q Q Q Q Q Q Q ~ m m m m m m M k Q Q k ~ 7.t.8.2.2.8.1.2.2.1.~ ~ ~ ~ 2.2.2.2.1.2.2.2.~ ~ ~ ~ Q ~ ~ ( 2.7.~ ~ ~ ~ ~ Q ~ Q 1.8.8.9.q.9.8.5.5.1.1.5.~ 1.8.5.f.9.8.9.5.1.9.5.1.5.5.m 5.5.1.5.1.M 8.9.f.q.a.9.q.f.f.f.f.f.f.N.N.g.N.f.g.C.g.f.f.9.q.q.q.f.q.q.f.8.9.q.f.9.9.9.q.C.9.f..XC.f.e.q.q.e.f.e.e.f.H..X<XOX,X,XOX4XuXlXzXdXdXhXhXuXiX>X;XOXD.N.k.N.N.F.F.F.F.F.F.F.F.F.F.F.F.G.G.G.F.F.N.N.F.F.D.F.D.D.D.D.D.D.D.D.D.D..X^..X.X.XOX@X;X:X4XyXfXjXSXAXFXFXDX} [ 4 & $ . $ @ o o o $ o ; 0 c J J J J J J P L ^ ` +.%.u.s.u.%.+.{ ' [ [ [ [ ' ` ^ c g g J ^ ` ' $.m.|.nXLXKXLXnXI.6 4 : : : 4 4 6 6 6 d v b b b b ! ! | } x.}.eXVXKXKXKXKXKXKXKXKXKXKXKXKXHXLXVXnXVXLXKXKXnX%.' ",
").).).).).).).).}.W.W.W.W.W.Q.Q.Q.Q.Q.Q.Q.R.Z.Z.Z.Z.Z.B.n.n.n.b.M.c.M.c.M.c.c.l.l.c.c.l.l.l.l.l.l.i.i.i.u.u.p.p.p.p.p.p.p.p.y.y.y.y.y.y.y.y.y.y.y.y.y.y.u.y.! g b b ' eXLXHXLXGXLXLXHXKXKXKXKXKXKXKXKXKXKXJXLXnXqX&XV.-XGXHXFXHXHXDXDXHXHXDXDXHXLXVXeXVXGX}.6XmX2X{.wXVX6Xu.|.VXm.p.{.n.{ M.{.).).jXSXOXN.N.8.w.9.q.q.N.N.f.N.f.f.f.f.f.f.f.q.a.a.a.q.9.9.q.q.q.r.r.r.r.r.r.r.r.9.9.r.r.r.r.a.f.a.9.8.8.7.7.7.9.9.9.9.8.5.1.1.1.~ ~ ~ M M ~ ~ ~ Q ~ ~ ~ ~ Q Q M Q Q Q Q M M M Q Q Q m m m Q ~ ~ Q m ~ ~ M Q 2.a.2.2.2.8.~ 8.2.1.~ ~ ~ ~ 2.2.2.2.2.2.1.~ ~ ~ ~ ~ 2.8.~ ~ ~ 8.2.~ 7.~ Q 1.~ 1.5.5.8.r.f.r.9.8.5.5.8.5.9.8.5.q.q.9.5.5.5.1.8.5.5.5.9.~ M 5.5.5.1.9.1.9.g.f.a.9.q.f.f.f.f.f.g.g.g.N.g.f.g.C.C.f.f.f.q.q.f.f.q.q.f.q.q.q.f.9.5.9.5.9.9.g.D.C.e.e.q.w.q.F.e.e.N.C.%X,X,X.X%XD.>XxXlXzXdXdXhXhXuXiX9X>X;XOXG.k.N.N.N.N.F.N.N.N.N.F.F.F.F.G.G.G.D.G.F.F.F.N.N.F.F.F.F.D.D.D.D.D.D.D.D.^.^.^.^.D.OXOX@X;X:XtXdXfXgXSXDXFXHXHXDXi.^ ; + $ + o $ $ & ; 0 J J J J J J c J ^ ^ [ u.x.s.u.%.+.{ [ ' ' [ [ [ ' [ ' ` ^ ^ J c v g b { m./.{.eX|.%.c ; ; : : 4 4 4 6 d g d j c b ! b ! ` { u.M.|.LXLXKXKXJXJXKXKXKXKXKXKXKXKXLXnXnXVXLXKXJXVXx.%.' ' ",
"].].'.'.'.).).).).).).).).W.W.W.W.W.W.W.Q.Q.R.T.Z.Z.Z.Z.Z.B.n.n.n.n.M.M.M.m.v.M.c.c.c.c.l.l.l.l.l.i.l.i.u.p.p.p.p.p.p.p.p.p.p.p.p.p.p.y.p.y.y.y.y.y.y.y.u.u.^ v c ! ! ^ U.LXGXLXLXLXLXLXKXKXKXKXKXKXKXKXKXJXKXKXmX+Xb.0.| ` P { $.[ b c b j g d 4 & v v J c g v v v c v c v c g L b c v d b m [ n.BXZX&XN.N.w.w.q.q.9.a.f.q.N.f.a.a.a.f.f.q.q.q.q.q.9.8.9.q.q.f.a.f.a.r.r.r.q.q.q.r.r.a.r.r.r.f.a.9.9.9.9.8.8.8.8.8.8.7.3.1.1.1.~ ~ Q M M Q ~ Q Q Q Q Q Q Q Q M m M ~ ~ Q M M Q Q Q m m Q ~ 2.~ ~ m ~ ~ ~ ~ 1.9.8.8.8.8.~ 2.2.1.~ ~ Q Q ~ ~ ~ 2.2.2.2.1.Q Q Q 2.8.9.~ ~ 1.2.7.1.t.7.1.1.1.5.9.9.9.f.f.f.q.9.8.8.8.5.r.q.5.r.8.q.9.9.8.8.5.5.5.1.5.5.M 5.8.8.M 5.9.q.f.q.f.q.q.f.f.f.f.g.g.g.g.g.g.g.N.N.N.g.f.f.q.q.f.f.f.9.f.f.q.f.q.q.8.9.5.q.f.N.N.C.e.e.e.w.q.F.N.q.f.OX,XOXH.OX,XOX4XxXzXhXhXhXhXxXuXiXiXiX>X&XD.N.N.N.F.F.F.F.N.N.N.N.N.N.F.F.G.G.G.G.F.F.F.N.N.N.F.F.F.F.F.F.F.F.S.D.D.D.D.D.D.D.D.`.OX@X;X9XyXaXaXgXSXAXFXHXHXDX6X|.g . . $ $ & 1 g c c J J J J J J ! ' +.%.s.x.@.+.' ' ' ' ' ' [ [ ' ' [ [ ' ` ` ^ ^ ' { u.m.}.6XmXnXJ & ; ; : 4 4 4 4 6 d g j v c P ! ` ` $.x.x.2XnXGXKXJXJXJXJXJXKXKXKXKXKXLXHXLXVXnXLXKXKXLX/.+.%.+.' ' ",
"[.[.[.[.].].].].'.'.'.'.).).).}.}.}.W.W.E.Q.Q.R.T.T.Z.Z.Z.Z.Z.B.n.n.m.M.M.M.M.M.M.M.c.c.c.l.l.l.l.l.l.i.u.p.i.i.i.p.l.l.p.p.p.p.p.p.p.p.p.y.y.y.y.y.y.y.u.u.` v d b ! ! ' x.nXGXGXGXGXLXLXKXKXKXKXKXKXKXJXKXKXKXHXBX1XT.0.` ` b b b c g : : : 4 & & & & & * + * . + + & $ + $ + & ; * * * * * d $.AXSXyXa.N.q.q.q.q.8.q.f.q.f.q.q.a.q.a.a.q.q.a.q.q.9.9.q.q.r.f.f.f.f.r.r.q.9.9.q.r.f.f.r.r.r.r.r.r.r.q.q.9.9.9.8.7.5.1.1.1.1.~ ~ Q Q M M Q ~ Q M M Q Q ~ Q M m m m ~ ~ Q M Q Q Q Q m m M ~ ~ ~ ~ M ~ 2.M ~ 8.8.8.8.8.8.~ 8.2.1.Q ~ ~ ~ ~ Q ~ 1.1.~ 1.~ ~ 1.2.2.2.9.1.2.1.1.9.2.r.f.9.Q 3.7.9.r.9.f.f.r.q.q.9.9.1.8.8.r.q.5.5.f.a.q.a.N.5.8.5.~ M 5.5.1.M 8.M 1.5.9.g.f.f.9.q.f.g.g.g.f.g.N.N.g.f.N.C.g.f.f.9.q.9.f.f.f.f.q.f.N.9.f.9.9.e.5.1.N.f.N.N.F.e.e.q.5.q.f.H.w.F..X%XH.N.,X%XiX7XxXzXzXzXhXhXxXuXiXiXrXbX;XOXD.F.N.F.F.N.N.N.N.N.N.N.N.N.F.F.F.F.F.F.F.F.F.N.N.N.N.N.F.V.F.F.F.F.S.D.D.D.D.D.D.D.D.`.OX$X:X9X0XyXaXgXSXDXFXHXHXDXeX}.g $ $ & 4 v J J c c J J J ! ^ ' u.%.%.+.{ ' ' ' ' ' ' ' ' ' ' ' ' [ [ [ ' { { %.x.|.eXVXLXKX}.& & * & : 4 4 4 4 4 d d j j b K ! ^ u.u.m./.nXDXDXHXKXJXJXJXJXJXKXKXKXKXLXLXVXVXLXKXKXHX6Xx.%.%.%.' { ' ",
"+X+X+X+X[.[.].[.[.[.[.].'.).).).).).).W.E.E.E.Q.Q.T.Z.Z.Z.Z.Z.Z.Z.b.b.m.m.v.v.v.v.v.M.c.l.l.l.l.l.l.l.l.i.i.i.i.i.i.i.i.p.p.p.p.u.p.p.p.p.p.p.p.p.p.p.u.p.y.` g b b b P ! / y.Q.GXGXDXGXGXLXHXKXKXKXKXKXKXKXKXKXKXHXHXmX'.c.} ! ! b j d d 4 ; ; & & * $ $ $ $ $ $ O $ $ $ $ $ $ X X $ $ $ $ * * 0.gXAXkX4XN.9.q.N.a.q.q.f.a.a.9.q.a.q.f.f.a.a.a.q.q.q.q.q.q.q.f.f.f.f.a.q.9.9.q.q.a.f.f.r.q.r.r.r.9.q.q.q.q.9.9.5.1.1.1.1.1.1.Q 1.M M M M M m m M m ~ Q ~ M M m f m Q ~ M z Q Q m Q Q Q Q ~ ~ ~ Q M 8.8.~ 1.1.~ a.8.t.t.1.7.1.~ ~ Q Q Q Q Q Q ~ ~ Q ~ 2.2.3.3.3.3.7.3.3.7.1.r.r.f.r.r.1.4.9.r.r.q.f.f.f.e.f.f.q.9.9.9.q.g.q.5.f.8.9.q.q.q.1.8.m m M ~ 5.M 5.~ ~ 5.8.f.f.f.q.9.g.g.g.g.f.g.N.N.f.f.N.C.q.9.f.q.f.9.f.f.9.f.q.g.N.q.g.q.5.f.9.f.g.C.C.N.N.f.e.f.w.w.F.f.w.H.C.H.F.w.H.xXiXxXxXzXlXlXzXhXdXuXiXrXrXrX>X&XD.F.N.N.N.N.N.N.N.N.N.F.N.N.N.N.F.F.F.F.F.F.F.F.N.N.N.N.N.F.F.V.F.V.S.S.S.S.S.S.S.D.D.^.`.OXOX&X:X9XaXdXpXkXAXFXHXFXDX|.s.; $ v v c c J v c c J P { { +.x.+.[ ` ` ` ` ` ` ' ' ' ' ' ' ` ' ` ` [ +.s.I./.6XGXHXKXVX@.* & ; ; ; 4 4 4 4 6 d g j b K K / y.@.U./.|.VXLXHXKXKXKXKXKXJXKXJXJXJXKXLXVXnXVXHXKXHXnXx.I.%.%.%.+.+.' ' ",
"*X*X*X*X+X+X[.[.[.[.[.].'.).).).).).).W.E.E.E.E.E.E.Q.E.R.R.Z.Z.Z.B.B.b.b.m.v.v.v.v.m.M.M.l.l.l.c.l.l.l.l.l.l.l.l.i.i.i.i.i.p.p.p.p.p.p.p.p.p.p.p.p.p.p.y.y.| d v b b b P ! / [ i.wXGXVXVXVXGXLXHXKXKXKXKXKXKXKXKXKXKXHXmX{.c.| ! b f d d : : : ; & * $ $ . $ . . X X $ . . . . X X $ X . $ $ * d -XFXAX9XV.9.f.f.a.e.f.f.f.a.q.q.f.q.f.f.a.q.q.q.q.f.f.f.q.q.f.f.f.f.a.q.q.q.q.q.f.f.r.q.q.q.q.9.r.8.9.9.9.9.9.~ 1.1.1.1.1.1.Q 1.M M M M M m m M ~ Q 1.~ m M M f m Q m M m Q Q m ~ 1.1.~ ~ ~ 1.~ Q 8.5.~ 1.~ ~ t.8.9.9.8.a.8.1.~ M Q Q Q M Q ~ ~ ~ ~ 2.3.3.3.3.3.7.3.3.9.9.r.g.r.r.r.7.9.9.r.f.r.f.f.f.f.f.f.f.f.9.9.f.f.N.q.f.q.q.q.q.5.5.8.m M M ~ 1.~ ~ 5.~ 8.8.q.f.f.q.q.g.N.N.N.N.g.N.N.f.g.N.N.q.9.q.9.q.q.f.f.9.q.q.f.g.f.C.f.f.f.f.f.N.C.C.N.f.f.N.w.w.e.f.q.f.D.H.H.f.e.H.xXiXxXxXzXlXlXzXzXhXxXuXrXrXrXbX>XOXD.F.N.N.N.N.N.N.F.F.F.F.F.N.N.N.F.F.F.F.F.F.F.F.F.F.F.N.N.N.F.F.F.V.V.S.S.S.F.S.S.D.D.D.^.OXoX&X;X:X0XgXdXkXAXFXHXFXGX{.L L : v c J P v J P L L %.u.[ @.[ ` ` ^ ` ` ` ` ' ' ' ` ' ` ` ` ^ ' %.u.U.6XeXGXKXLXx.; * 4 & ; ; : 4 4 6 d g j K K K W ) @.s./.6XnXGXKXKXKXKXKXKXKXKXKXJXKXKXLXVXVXVXLXKXKXVX}.U.x.u.+.%.+.' ' ' ^ ",
"-X-X-X*X*X*X#X+X[.[.[.].'.).).).).).).).).E.E.E.E.E.E.E.Q.E.Z.Z.Z.Z.Z.Z.Z.b.b.m.b.b.m.m.v.c.l.l.c.l.l.l.l.l.l.l.l.l.l.l.i.i.i.i.p.p.p.p.p.p.p.p.p.p.i.i.p.p.} f g v b b b P ! / { { }.mXsXmXmXGXLXKXKXKXJXJXKXKXKXKXKXKXHXBX#Xc.} ! b k g 4 ; & & * $ $ $ $ o $ X + + + - - - - , < < < 5 6 0 g b 0XFXAXyXN.9.N.q.q.f.N.q.q.f.f.f.f.q.q.a.q.q.q.q.q.a.f.f.q.q.a.f.f.f.f.r.q.q.q.r.f.f.q.q.q.q.q.9.q.5.8.8.8.5.1.1.1.5.8.1.1.1.M 1.M M M M M M Q ~ ~ m 1.~ m Q M Q Q M M Q ~ M Q ~ 2.2.~ ~ ~ 2.8.1.~ 3.1.1.~ ~ M 8.a.9.9.8.a.8.~ Q M M m m m Q 2.2.2.3.7.3.1.1.1.1.1.3.1.7.r.r.f.g.f.9.9.9.9.r.r.f.r.g.C.g.f.f.g.g.f.f.g.g.g.D.f.f.f.f.q.5.8.5.1.~ m 1.M ~ ~ 5.~ 8.5.8.N.g.a.f.N.N.N.N.N.g.N.N.f.N.g.g.9.5.9.5.9.f.f.q.9.9.q.f.g.f.C.g.g.f.e.N.H.C.C.N.e.e.N.w.e.e.N.e.f..XH.F.F.C.D.xXiXxXxXzXlXcXlXzXhXhXxXuXiXrXiX>X&XD.F.N.N.N.N.N.N.N.F.F.F.N.N.N.N.F.F.F.F.F.F.F.F.F.F.F.F.F.N.N.N.N.V.F.V.V.F.F.F.S.S.D.D.D.^.`.oXoX@X:XyXuXdXkXAXFXFXHXmXb x.b v v ] L c P ` ` ^ %.%.^ ^ ` ` ` ` ` ` ' ` ' ' ' ` ' ` ' ' ' %.I.}.6XnXGXHX6XJ & & & ; 4 4 4 4 6 6 j j b b W ! ) ) y.s.}.6XVXLXKXKXJXJXJXJXKXKXKXKXKXLXVXLXVXLXKXKXGX|.x.I.u.x.%.+.+.' ' ^ ^ ^ ",
"1X1X1X1X*X*X*X*X{.[.[.].'.).).).).).).).).E.E.E.E.E.E.E.E.E.Q.E.Z.Z.Z.Z.Z.B.b.b.b.b.b.b.m.m.v.c.c.c.c.c.c.l.l.l.l.l.l.l.i.i.i.i.i.i.i.i.i.i.i.i.i.i.i.i.i.p.| g g g v c b K ! ! [ [ } m.2XwXgXmXGXHXKXKXJXJXKXKXKXKXKXKXKXKXDX2Xn.} ! W c b P ^ ^ L J J J J P J J L P P J J J J v v v v J J P L ! qXDXAXaXN.9.V.9.q.N.N.9.q.f.f.f.f.q.q.q.q.q.q.q.q.q.a.f.q.q.q.f.f.r.r.r.r.a.f.a.a.q.q.q.q.q.q.9.5.8.5.5.5.3.1.1.1.1.1.1.1.~ M 1.M M M M M ~ ~ 1.m M ~ Q m ~ M t.~ Q ~ ~ 1.M Q Q 2.8.8.1.1.2.7.1.~ 5.~ ~ ~ Q M 8.a.8.8.1.7.~ ~ M m m m m m Q ~ 1.~ 1.2.1.1.1.1.1.4.4.1.4.r.9.r..Xg.4.4.9.r.r.r.f.f.g.C.g.f.f.g.g.g.g.g.g.g.C.C.g.f.f.9.5.1.5.q.~ m 5.M M 5.~ ~ 9.5.8.f.g.f.g.C.N.N.N.f.g.N.g.f.C.f.g.8.1.5.1.q.f.f.9.9.9.9.f.g.g.N.f.f.f.q.H.,XC.C.g.q.e.e.w.N.C.e.w.C.H.,XF.e.H.C.xXiXxXxXzXlXlXlXzXzXhXhXxXuXrXiXbX&XOXD.F.N.N.N.N.k.k.k.k.k.N.N.N.N.F.F.F.F.F.F.F.F.F.F.F.G.F.F.F.N.N.N.V.F.V.F.F.F.S.S.S.D.D.D.^.`.`.&X&X&X9XuXdXkXSXHXHXHXeX}.$.v v { ! c ^ +.@.` ' { ^ ^ ` ^ ` ` ` ` ` ` ` ` ' ' ' ` ' ' %.I.|.nXGXKXVX^ & & 4 4 ; ; 4 < 4 3 6 d v c b K W ! 6.s.T.2XVXLXLXKXKXKXKXJXJXKXKXKXKXKXLXVXnXLXLXKXLX|.m.x.s.u.%.+.%.' ' ' ^ ^ ^ ^ ",
"1X1X1X1X1X-X*X*X*X*X[.[.].].).).).).).).).).E.E.E.E.E.E.E.E.E.A.Z.Z.Z.A.A.Z.Z.B.B.B.b.b.b.b.m.v.M.M.M.c.c.c.l.l.l.l.l.l.l.i.i.i.i.i.l.i.i.i.i.i.i.i.l.i.x.i.` d g j v v c b b W ! ! | | 0.[.qXeXeXVXVXLXKXKXKXKXKXKXKXKXKXHXHXHXnXm.[ K c m.i.u.%.+.' %.{ ] ] R P P P P J J P J P c c c g c b ! ! ].DXDXBXS.9.f.5.9.N.F.q.N.F.N.N.f.f.q.q.q.q.q.q.f.q.q.q.q.q.q.f.f.f.r.r.r.f.f.f.f.q.q.q.q.q.q.9.8.8.5.5.5.1.1.1.1.~ 1.1.~ ~ 1.Q n M Q ~ M ~ ~ ~ M M Q Q Q ~ 3.a.1.~ ~ 1.1.Q Q Q ~ 5.3.2.1.2.9.~ 1.3.9.~ M 1.Q 7.a.2.~ 2.~ Q Q M m m m m m Q Q Q Q ~ 1.1.1.1.4.3.4.4.4.4.3.9.r..Xg.g.9.9.r.r.r.f.f.g.H.g.g.g.g.g.g.g.g.g.C.C.C.C.g.f.9.8.1.1.1.~ M 1.M 1.1.~ Q 8.5.9.f.f.g.f.f.N.N.C.f.N.f.f.N.C.f.q.9.5.5.f.q.f.f.N.9.q.q.q.N.f.N.f.w.f.f.H..XD.F.f.e.q.q.e.f.C.N.e.C..XC.H.w.D.OX%XiXzXlXlXlXlXlXlXzXhXzXhXuXrXrX9X;XOXD.F.N.N.N.N.N.N.k.k.k.k.k.F.F.F.F.N.N.N.N.N.N.N.F.F.F.F.F.F.F.N.N.N.N.F.F.F.F.S.S.S.S.D.D.D.D.`._.oX&X:XuXdXyXjXSXDXFXgXeX{.u.m.b J ` ' +.{ ` ^ ^ ^ ^ ^ ] ] ] ] ` ` ` ` ` ` ` ] ] +.x.}.|.nXLXGX/.1 $ ; & g ; : 4 1 4 6 0 g v W W b ! y.d.m.|.nXLXKXKXKXKXKXKXKXKXKXKXKXHXLXLXnXVXHXKXLX6XU.m.x.x.s.u.%.+.' ] ^ ^ ^ ^ L L ",
"5X5X5X5X1X1X*X*X*X*X*X*X[.[.].].].].).).).).).).).E.E.E.E.E.E.A.Z.Z.Z.Z.A.Z.Z.Z.Z.B.b.b.b.b.b.m.b.m.m.M.M.c.c.c.c.c.c.l.l.l.l.l.l.l.l.l.l.i.i.i.i.i.l.i.c.i.` 6 g g g g v c b b b W ! ! | | z.*X'.LX6XnXLXLXKXKXKXKXKXKXKXKXKXHXHXwXu.P b eXn.s.x.%.+.' { ] L ^ P P P P J v c c c c c v v v v b | qXAXAXMX^.w.8.w.q.N.N.8.F.D.N.N.f.f.f.f.q.q.q.q.f.q.9.q.9.q.q.f.f.f.q.q.r.q.a.f.q.q.q.q.q.q.q.9.8.8.5.5.1.~ ~ 1.1.5.1.5.1.1.5.M M Q ~ ~ Q M M M M Q ~ ~ M ~ a.9.1.1.~ 1.1.1.~ ~ 1.3.7.3.1.3.9.3.3.3.3.1.M 1.~ 7.9.1.~ 2.1.Q Q Q m m m m Q Q Q ~ ~ 1.1.1.3.4.4.4.4.4.3.4.4.4.r.g.r.g.r.9.r.r.r.f.f.g.g.g.g.g.g.g.g.g.g.C.H.C.C.C.g.f.q.9.5.5.5.1.~ 5.1.~ 1.1.5.5.q.9.9.q.f.f.q.f.g.C.f.e.e.f.C.C.f.q.q.5.9.9.f.f.f.g.9.9.g.f.f.f.f.f.q.f.N.H..XD.C.N.f.e.q.e.e.H.e.N.H.H.N.C.f.C.,X>XiXlXlXkXlXlXlXlXlXzXhXhXdXuXrX9X>XOXD.F.N.N.N.N.N.N.k.k.k.k.k.N.N.N.N.N.N.N.N.N.N.N.N.N.F.F.F.F.F.F.N.N.N.N.F.F.F.S.S.S.S.S.S.D.D.D.`.`.OX>XtXaXdXgXSXAXFXHXGXmXm.` v { $.' ' ' ` ^ ^ ^ ^ ^ ] ] ] ] ] ] ^ ^ ^ ^ ^ ' +.x./.|.eXVX|.J o * & ; ; 6 ; 4 4 4 3 g j v c b | | y.n./.nXVXKXKXKXKXKXKXKXKXKXKXKXKXLXVXVXVXLXKXLXeXI.U.U.x.s.u.%.+.+.' ] ^ ^ ^ ^ L L L ",
"5X5X5X5X5X1X1X-X*X*X*X*X*X*X{.[.[.].'.).).).).).).).~.E.E.E.E.E.E.E.E.E.T.T.A.A.Z.Z.Z.B.n.n.B.b.n.b.m.M.M.M.M.c.c.c.c.c.l.l.l.l.l.l.l.l.l.l.l.l.l.l.l.l.c.i.` 6 d d d d g v v b b b b W b b | | U././.wX6XnXLXKXKXKXKXHXHXHXHXHXHXHXnXu.[ eXI.u.x.$.%.] L %.] P P P P P $.$.P [ P c v v 6 b b ` E.-XAXAXCX&Xw.5.q.q.N.N.f.q.N.F.N.f.f.f.f.e.q.q.q.f.9.8.8.q.q.q.f.f.f.q.q.r.q.a.f.q.9.q.q.q.q.q.q.w.8.5.1.~ ~ ~ ~ 1.q.5.8.~ 8.1.M ~ ~ ~ ~ M M M M Q ~ 1.1.M 1.f.5.1.1.~ 1.1.1.1.1.1.3.7.7.3.1.3.3.3.3.3.7.M 1.3.9.9.~ 1.2.1.~ Q Q Q m m Q Q Q Q 1.2.2.2.3.4.4.4.4.4.4.9.9.9.7.t.r.9.r.r.4.r.9.9.r.r.r.g.g.g.g.g.g.g.C.C.H.H.H.H.C.C.f.e.q.8.5.5.8.5.5.8.1.1.5.5.8.f.8.8.f.q.e.f.f.f.N.e.9.f.N.N.g.g.f.q.9.9.9.f.e.9.f.q.e.N.f.e.f.e.f.f.N.F.C.H.H.C.F.N.q.e.f.q.e.F.H.N.H.f.e.e.F.<X>XiXzXlXlXkXkXlXlXlXlXzXzXhXuXiXrXbX,XD.S.F.N.N.N.N.N.N.k.k.k.k.k.N.N.k.k.k.k.k.k.k.k.k.k.N.N.F.F.F.F.F.N.N.N.N.N.F.F.S.F.F.F.S.S.D.D.D.D.`.;X>X9XdXgXjXSXAXFXFXmX|.U.! ` +.' ` ` ` ^ ^ ^ ] ^ ^ ] ] ] ] ` ' L ^ ' +.%.I./.|.eXeX%.; + o - < & ; 6 : 4 4 5 6 j c J P } c.m.T.6XVXLXKXKXKXKXKXKXKXKXKXKXKXLXLXVXLXLXKXHXnX}.U.U.m.x.x.%.@.+.{ ' ' ] ^ ^ ^ ^ L L L ",
"5X5X5X5X5X5X1X1X1X2X2X*X*X*X*X*X[.[.].].].].).).).).).).~.W.E.E.E.E.E.E.E.E.T.A.A.A.Z.Z.Z.Z.n.b.n.n.n.m.m.M.M.c.c.c.c.c.c.l.c.c.l.l.l.l.l.l.l.l.l.l.l.l.c.i.` 6 d 6 6 d d g g j n c b b m Z.| i.wXHXLXFXHXHXKXHXHXHXHXHXHXHXHXHXHXHXHXHXHXHXHXGXeXeXmXeX{.eX{.}.M.M.M.M.eXQ.}.}.` b ^ x.M.^ | b '.gXSXSXZX4XN.q.N.f.N.N.f.q.w.w.e.f.f.f.f.f.e.q.9.q.9.8.8.q.f.q.r.f.f.r.r.a.q.a.f.f.q.9.q.q.q.q.q.8.5.5.~ ~ ~ ~ ~ 1.f.5.1.M 5.~ M 1.~ ~ M m M M Q ~ 1.5.1.1.1.8.8.5.1.Q ~ 1.1.1.1.1.3.7.7.3.1.1.1.1.7.9.9.M 1.7.r.7.Q 1.1.1.1.Q Q Q Q Q Q Q Q 1.2.2.2.2.3.3.4.4.4.4.4.4.r.r.9.9.r.r.r.9.4.9.9.9.9.r.r.f.g.g.g.g.g.g.C.H.XXXXXXXXH.C.g.f.q.8.8.8.q.5.q.q.8.5.5.1.q.f.1.q.N.f.f.g.f.f.g.e.f.f.N.f.g.g.f.q.9.8.q.q.9.9.f.f.N.f.q.f.f.f.f.C.N.C.C.H.D.C.C.C.q.e.e.w.q.D.D.C.C.e.w.C.F.uX>XiXzXlXlXkXkXlXlXlXlXlXzXhXuXrXrXrX&XOXD.F.N.N.N.N.N.N.k.k.k.k.k.k.k.k.k.k.k.k.k.k.k.k.k.N.N.N.N.F.F.F.F.N.N.N.N.V.V.F.S.F.F.F.F.S.D.D.D.D.^.^.@XtXaXgXSXSXAXFXDXZ.$.$.^ +.' ^ ^ ` ^ ^ ^ ] ^ ^ ] ] ] ] ` ' ] ' %.*.I./.|.|.x.6 $ + $ o 2 ; & 4 4 4 4 4 6 d c c K ! c.Q.{.wXLXKXKXHXKXKXKXKXKXKXKXKXLXLXVXVXLXKXHXVX/.I.m.U.x.%.+.@.+.+.{ { [ ' ] ^ ^ ^ ^ L L P ",
"5X5X5X5X5X5X5X5X6X2X2X2X2X*X*X*X*X*X{.[.{.[.].].].).).).).).).).~.E.E.E.E.E.E.T.E.A.A.A.Z.Z.Z.n.n.n.n.n.n.n.m.M.M.M.M.c.v.v.v.v.c.c.c.l.c.l.l.c.l.l.l.c.l.i.` : : : : : d d d j d g l b i.mX].DXFXHXFXFXHXHXHXHXHXHXHXHXHXHXHXHXHXHXHXFXFXFXFXFXFXFXHXHXHXHXHXFXHXHXHXHXFXFXFXHXDXDXDXDXFXGXGXqXmXSXZXkXSXdXD.N.N.q.N.N.f.N.N.N.f.f.f.f.f.f.f.q.q.w.w.8.9.q.q.q.q.r.r.f.f.a.q.a.f.r.q.q.q.q.q.9.9.5.5.5.1.~ M M ~ 9.8.1.5.~ 8.M 1.8.~ m m M ~ ~ Q ~ 1.5.1.1.9.9.8.3.1.~ 1.1.1.1.1.1.1.1.3.r.3.1.M 1.1.3.3.1.1.3.9.7.3.3.1.1.1.1.Q Q Q Q Q Q 1.2.3.3.3.3.4.4.4.4.4.4.4.4.4.4.3.4.4.4.4.4.4.4.7.9.9.9.9.r.r.r.f.f.g.g.g.C.C.C.C.C.C.C.f.5.1.1.5.5.9.~ Q 5.9.9.1.5.q.N.9.q.C.g.f.N.f.e.f.f.f.f.N.f.g.g.w.9.9.5.9.q.5.5.f.f.g.f.9.f.e.f.f.e.N.f.C.D.H.N.C.F.e.e.w.w.N.H.N..XF.e.e.e.,XiX7XiXzXlXkXkXlXcXcXlXlXlXzXhXuXiXiXrX&XOXD.F.N.N.N.N.N.N.k.k.k.k.k.k.k.e.e.e.e.k.k.k.k.k.k.k.N.k.N.N.N.F.F.F.N.N.N.N.F.F.F.F.F.S.F.F.S.S.D.D.D.^.OX:XtXaXfXSXSXAXFXBXy.u.c ' ' ^ ^ ^ ^ ^ ` ` ^ ^ ] ] ] ] ' ' +.%.x.U.U.Q.x.G + + % & % & % - ; 4 4 6 4 6 g c b ! / m./.eXDXHXKXKXKXKXKXKXKXKXJXKXHXLXLXVXVXHXKXVX}.U.U.I.x.u.u.%.%.+.{ { { [ ` ^ ^ ^ L L L L L P ",
"qXqXqXqXqXqXqX5X5X6X2X2X1X1X2X*X*X*X*X{.[.{.].].].'.'.).'.'.).).).).~.E.E.E.E.E.E.E.E.A.T.A.Z.Z.Z.Z.Z.Z.Z.B.n.b.b.b.b.m.m.m.m.m.v.v.v.c.v.c.c.c.c.c.c.c.x.s.` ; : : : : 4 : j b : 6 : R.DXHXHXFXFXFXFXFXFXFXFXFXFXFXFXFXFXFXFXFXFXFXFXFXFXFXFXFXFXFXFXDXSXFXFXFXDXFXFXDXFXFXFXFXFXFXFXFXFXFXHXFXFXFXAXkXSXtXOXa.e.q.N.N.q.q.e.N.N.f.f.N.f.f.f.q.w.5.5.5.8.9.9.9.q.q.q.f.f.r.q.f.f.q.q.9.q.e.5.q.8.1.1.1.1.~ | ~ 8.1.~ 1.~ 5.8.M ~ ~ M M M 1.5.1.~ 1.1.1.1.5.q.9.8.1.1.1.1.1.3.3.7.3.1.1.7.f.9.3.1.1.3.1.3.1.1.3.7.7.3.3.3.1.1.4.Q Q Q Q 1.2.3.3.3.3.3.3.3.4.4.4.4.4.4.4.4.4.4.4.4.4.4.4.4.4.4.4.4.4.9.9.9.9.r.r.r.f.g.g.g.g.g.g.g.g.9.1.1.~ ~ 1.5.1.1.1.5.8.1.5.8.f.q.q.g.g.f.N.N.N.f.g.q.N.N.f.f.C.9.8.8.5.9.9.1.q.f.9.f.e.e.q.9.f.e.e.N.f.N.C.F.f.F.D.f.F.5.e.g.f.e..XN.e.e.e.,XrXiXiXzXzXhXzXlXcXCXlXlXlXzXhXxXuXiXrX;XOXD.F.N.N.N.N.N.k.N.k.k.k.k.q.q.q.q.q.q.q.k.k.k.k.k.k.k.k.k.N.N.N.N.N.N.N.N.N.F.F.V.V.V.V.V.V.F.F.F.S.D.^.`.@X9XyXgXkXSXAXFXHXGXn.b b ^ ^ ` ^ ^ ^ ` ` ^ ^ ] ] ] ] ' ' %.+.%.Y.s.G - + + + % & & & % ; ; < 4 6 4 d j J ! } c.2XmXLXKXKXKXKXKXKXKXKXKXKXJXHXLXVXVXLXKXLX|.I.U.x.x.s.%.%.+.{ ' ` ^ ^ ` ^ ^ ^ L L L P P P P P ",
"0XwXqX0X0X0XwXqXqXqXeX5X5X2X2X2X2X*X*X*X*X{.[.[.[.[.].'.{.{.'.'.'.).).).W.E.E.E.E.E.E.T.E.T.T.Z.R.T.T.T.T.Z.n.n.n.n.n.n.n.b.b.b.v.v.v.v.c.c.c.M.m.c.m.c.m.x.^ ; ; ; ; ; : : g : * } wXHXFXFXDXFXFXDXDXDXFXFXFXFXDXDXDXDXDXDXDXFXFXDXDXDXAXAXAXDXFXFXDXSXgXAXDXAXBXAXDXGXAXDXFXFXDXAXAXAXFXAXAXgXFXFXAXkXyXrXrXD.q.w.f.e.q.q.q.N.N.f.f.N.N.f.q.q.q.w.5.5.5.9.8.8.8.8.9.r.f.q.f.f.f.f.q.q.f.N.8.9.5.1.1.1.~ 5.5.~ ~ ~ ~ M M 5.5.~ ~ M M M Q 1.1.1.1.1.5.8.5.q.f.q.7.5.5.5.7.7.7.7.3.4.1.1.4.f.9.3.1.7.9.1.3.4.4.3.4.3.3.3.3.3.3.3.3.4.4.1.3.3.3.3.3.3.3.3.3.4.4.4.4.4.4.4.4.4.4.4.4.4.4.4.4.4.4.4.4.4.4.4.4.4.9.9.r.r.r.f.f.f.r.9.4.5.9.q.1.1.M M 5.1.1.~ 1.5.1.5.8.a.f.q.g.f.g.f.g.N.f.e.e.f.N.f.f.C.f.8.8.5.9.9.5.f.q.9.f.e.f.q.5.e.q.f.g.f.f.C.f.f.f.F.w.5.e.e.e.e.q.N.N.q.N.N.>X7XiXiXhXxXuXhXcXcXlXlXlXlXzXhXhXuXrX>X;X@XD.F.N.N.N.N.N.N.k.q.k.q.k.k.q.q.q.q.q.q.w.q.q.q.e.k.k.k.k.k.N.k.N.N.N.N.N.N.N.N.N.N.N.N.N.N.F.F.S.S.D.D.^.OX;X0XuXfXjXSXDXFXgX$.` ! ^ ^ ^ ^ ^ ` ` ` ^ ^ ] ] ] ' ' ' %.s.%.T 2 + $ X + + % % & & - ; ; < 4 6 d g b ! | v.2XVXKXKXKXKXKXKXKXKXJXKXKXHXLXLXVXVXLXLX|.I.I.I.x.s.u.%.%.+.[ ` ` ^ ! ! ! ^ ^ ! L P P P P P P P ",
"wXwXwXwXwXwXwXwXqXqXeXeX5X5X5X2X1X1X2X*X*X*X*X*X[.{.{.[.{.{.[.[.{.'.'.'.'.}.~.W.E.E.E.E.Q.T.T.T.R.R.R.R.R.T.B.n.n.Z.Z.n.B.b.n.m.v.v.M.M.c.c.M.c.c.m.c.m.I.x.^ & ; ; ; ; * g ` d ! |.HXHXHXHXDXFXDXFXDXDXFXFXFXFXDXDXDXDXAXAXAXAXAXAXAXZXSXSXAXSXSXSXAXAXgXSXAXSXgXSXAXSXjXSXSXSXSXSXcXkXSXSXSXgXkXZXZXkXdXjX9X@Xw.5.q.q.q.q.q.e.e.q.q.N.C.N.9.q.9.9.8.8.8.8.5.1.1.3.8.q.q.q.f.N.V.g.f.q.q.q.q.9.5.1.1.1.~ 5.~ m M m M ~ M 1.1.5.5.~ ~ 1.5.8.9.8.5.5.8.8.9.r.r.f.q.9.7.8.9.9.9.9.1.1.3.9.7.r.9.4.3.4.7.1.7.4.4.3.4.3.9.9.3.3.3.3.3.3.3.3.3.7.3.3.3.3.3.3.4.4.4.4.4.4.4.4.4.4.4.1.4.4.4.4.4.4.4.4.4.4.4.4.4.4.4.4.9.9.9.r.9.9.4.1.5.1.1.9.9.5.1.~ 9.~ Q 5.~ 1.1.5.8.q.f.f.g.f.f.f.f.e.q.q.f.f.f.g.N.f.f.8.8.9.8.q.q.q.8.q.g.q.N.w.1.e.q.f.f.f.e.C.f.f.w.e.e.w.N.e.w.f.N.w.f.q.N.N.%XrXiXrXuXuXxXzXcXcXlXlXlXlXkXhXzXuXrX>X&X@X`.F.N.N.N.N.N.N.k.k.q.q.k.q.e.q.q.q.q.q.w.w.w.q.q.q.q.q.k.k.e.e.k.k.e.k.N.N.N.N.N.N.N.N.N.N.N.N.F.V.S.D.D.`.oX9XyXdXgXcXAXFXHXmX6XU.^ ^ ^ ^ ` ` ` ` ` ` ] ] ^ ' ' +.#.^ v - - + O % & + % & & & - , < < 4 6 g c K ) a.@XDXHXJXJXJXJXJXKXKXKXKXHXLXLXLXLXVXVXeX/.U.U.U.I.s.%.%.%.+.{ ' ` ^ ^ ! ! ! ! L L L P P P P P P P ",
"gXmXmXmXmXmXmXgXsXwXwXwXsXwXwXwXqXqXwXwXwXqX1XqX*X*X2X2X2X2X2X|.2X|.|.{.{.{.{.{.{.{.{.'.).).).}.).).~.'.W.W.W.R.W.T.R.Z.n.Z.Z.Z.Z.n.n.n.n.n.n.n.U.U.I.I.n.x.` $ $ $ * $ $ ; b n.wXHXHXDXDXDXDXDXFXDXFXFXFXFXFXFXFXDXAXAXAXAXCXCXCXcXcXcXcXcXcXcXkXfXkXAXdXdXzX9XrXuXdXdXgXuXaXkXAXkXgXgXgXgXgXkXSXAXAXgXkXdXuX4Xw.~ w.q.q.q.e.N.q.f.q.9.C.N.q.9.9.1.5.9.8.8.5.1.1.1.5.8.9.q.f.N.C.N.f.q.8.5.q.9.1.~ 1.1.~ ~ M M M m M ~ 1.1.1.8.8.8.8.1.1.9.9.q.q.g.f.8.f.f.f.f.f.q.9.9.r.r.9.9.1.1.1.3.7.9.9.3.3.3.3.4.9.3.3.3.4.3.3.7.3.3.7.7.3.7.7.7.7.7.3.4.3.3.2.3.4.4.4.4.4.4.4.4.4.4.4.4.4.Q Q Q Q Q 4.Q Q 4.4.4.4.3.3.3.4.4.4.3.4.1.1.1.1.4.4.1.9.1.8.5.1.Q M ~ ~ 1.1.5.8.q.f.g.f.f.q.q.q.q.q.q.f.f.f.N.N.g.f.9.8.q.8.q.q.9.9.f.g.q.q.q.1.f.q.f.e.f.N.C.f.e.e.f.w.w.D.e.w.e.e.w.f.e.D.OX,X<X7X4XhXhXdXkXlXcXlXlXlXlXlXlXzXdXiXbX&X@XOXS.F.N.N.N.N.N.N.e.q.q.q.q.e.k.e.q.e.q.q.w.w.w.w.w.q.q.e.e.e.e.e.e.q.e.k.N.N.N.N.N.N.N.N.N.N.N.V.V.F.S.D.D.`.&XqXuXgXjXSXDXDXHX'.Q.{ ^ ^ ` ' ' ' ' ] ] ] ] ] ' O.%.J & . ; + & & & @ @ @ % % - - < < 4 5 6 g c / p.D.zXHXHXKXKXKXKXJXKXKXKXKXVXeXVXGXLX6X/.U.Y.x.s.x.%.%.+.+.' ' ` ` ^ ! P P P P P L ` c L J c c J c c ",
"1X1X*X*X*X*X#X#X{.#X{.[.[.[.{.*X*X*X2X2X).qX1XqX1X5XqXeX{.{.|.|.2X2X2X2X2X2X2X2X2X2X2X2X2X2X2X2X{.{.{.{.6X2X2X2X{.2X2X2X5X{.{.|.*X*X2X2X2X2X2X2X2X2X|.|.6X6Xx.j v d j g g ` T.gXDXHXFXDXDXDXDXDXDXDXFXFXFXFXFXFXFXFXAXAXCXCXCXcXcXzXzXzXzXzXzXzXhXuXhXcXuXyXuX9XrXrXyXyXdX9X9XyXuXhXgX0XyXcXFXFXFXFXAXfXjXjXdX4Xq.M M 1.w.q.q.q.q.N.q.q.N.g.q.8.5.1.1.8.8.8.5.1.1.1.1.5.8.9.a.N.V.N.f.q.9.8.q.q.q.5.8.5.~ M m M M m M ~ 1.1.8.8.8.8.1.8.8.8.a.9.9.f.f.q.f.f.f.f.f.f.r.9.r.r.r.9.3.1.1.3.9.9.3.4.1.1.1.1.3.3.3.4.4.3.3.3.3.3.4.4.4.4.4.3.7.3.4.3.4.2.2.~ 4.4.Q 4.Q 4.Q Q Q Q Q Q Q z z z z z z z z Q Q Q Q 1.1.4.4.4.5.9.9.4.1.1.1.1.1.1.5.~ M M M ~ ~ Q 1.1.5.5.9.f.f.f.f.f.e.q.q.e.f.f.q.f.g.N.g.f.9.9.9.q.9.q.q.q.q.f.f.q.q.f.5.f.f.f.q.f.N.F.e.q.q.q.1.f.F.e.w.q.q.w.e.C.F.,X>XiXiXiXhXhXdXzXkXcXcXcXcXcXlXlXzXhXiXrX;X@XOXD.F.N.N.N.N.N.N.k.q.q.q.q.e.k.k.k.k.k.q.q.e.e.w.w.w.w.e.e.e.e.e.q.e.e.e.k.k.N.N.N.N.N.N.N.N.N.V.V.V.F.S.D.`.oX4X9XdXfXMXZXHXHXeXU.$.` ` ! ^ ^ ^ ^ ] ] ] ] ] O.P < + O + - - & + & @ @ @ % % - - < < 3 6 g c W } i.oXzXHXKXKXJXJXKXKXKXHXLXnX6X|.VXLXVXnX|.|.}.}./.{.}././.U.U.U.I.m.m.m.m.x.x.x.x.m.I.s.x.m.x.x.I.I.x.",
"Z.b.v.i.p.0.} | ` ` ~ ` | | ! ! | | | | m | 0.p.p.p.l.l.* ; 4 5 6 6 4 4 4 4 : : ; ; ; ; ; ; & & ; ; ; ; : : & & : j W b b d c d d d d d d v v g j g d g 4 v 6 6 6 J ^ : d T.DXFXDXFXFXDXDXDXDXDXDXDXFXFXFXFXFXFXFXFXAXAXCXCXCXcXzXzXzXzXhXdXdXdXuXrXuXzXiXrXuXuXbXbX>X>XrXbX4XyXuXyXkXAXFXFXFXFXFXAXkXkXCXCXCXrXV.M M M ~ w.q.q.f.N.e.q.q.f.q.5.8.8.8.8.8.8.5.5.1.1.5.5.5.8.q.f.N.N.f.q.q.q.8.9.f.8.8.5.M M M m m m m M 1.5.8.5.8.8.5.8.8.8.r.8.r.f.r.q.q.f.f.q.f.V.g.9.9.r.f.9.9.1.1.1.3.4.4.4.1.1.4.4.4.4.4.4.4.4.4.4.3.3.4.4.4.4.4.4.3.3.4.4.Q _ Q Q Q Q Q Q Q Q Q Q S S S z k f f f z z z z z z M Q Q Q 4.4.9.r.f.f.9.7.1.1.1.1.1.1.7.1.M Q M ~ 1.1.1.3.5.8.q.f.f.q.q.w.w.w.q.g.g.f.q.f.N.N.f.q.9.q.q.9.q.9.9.q.e.f.f.q.9.f.9.f.N.g.q.e.f.N.N.e.e.w.q.C.e.5.w.w.w.w.q.H.D.%X>XiXiXiXhXhXdXhXkXlXcXcXCXCXlXlXzXhXuXrX;X&XOXD.F.N.N.N.N.N.N.f.q.q.q.q.q.e.k.k.k.k.k.k.k.k.k.k.e.e.q.e.q.q.q.q.e.e.e.e.e.e.k.k.k.k.k.N.N.N.N.N.F.V.S.S.D.oX:X9XuXfXjXSXDXHXHX{.@.P ^ L ^ ^ ^ ^ ^ ^ ^ ^ R h - $ $ - - - % % % @ @ @ @ @ % - - < 1 5 0 c P ! } i.`.uXFXHXKXKXKXKXLXLXnXeX6X|./.nXKXVXHXLXLXVXVXnXVXnXnXnXnXnXnXnXnXnXeX6X6X6X6X6X6X6X|.|.6X6X6X6X|./.",
"B.b.z.i.p.p.0.| ` ` ~ / ~ ~ ~ ~ ` | | | } ! i.p.l.l.M.M.$ * ; < < % & % < < ; ; & & & & ; ; ; ; & & & & & & & * : J {.{.U.d d c d d d d d d d 6 d d d g 4 : 4 : ; : VX}.{.mXFXDXDXFXFXFXDXDXDXDXDXAXDXDXFXFXFXFXFXFXAXSXCXCXcXcXzXhXxXxXiXiXiXiXrXbXrXxXrX>XrXxXbX>X&X&X>X>XyXcXAXFXFXAXAXAXAXSXFXcXdXjXuXkXhX&XD.5.5.M ~ 5.q.q.f.N.e.q.e.q.q.w.q.e.q.w.8.9.5.5.5.5.5.5.8.9.q.f.N.N.f.a.q.q.5.8.f.5.5.1.M M m m m m m M 1.8.q.8.8.~ 8.8.8.r.8.8.N.f.q.9.9.f.f.9.9.g.C.9.7.r.f.9.9.3.1.1.4.4.4.4.4.4.4.4.4.4.4.4.4.4.4.4.4.4.4.4.Q Q 4.4.1.1.Q Q Q Q Q Q Q Q Q S k k k k k k k k k k k k k k z z z z z m 4.3.r.r.r.r.r.r.r.9.1.1.1.1.1.1.1.1.M 1.~ ~ 5.9.5.5.8.q.q.f.e.q.q.9.9.9.f.N.g.f.q.f.g.f.f.9.9.q.9.8.e.q.9.e.e.e.g.f.9.q.9.e.C.N.w.q.f.N.D.F.f.e.e.f.e.w.w.1.5.w.e.OXOX,X%X4X7X>XhXhXdXhXkXlXcXCXCXCXcXlXlXhXuXrX>X&XOXD.F.V.N.N.N.N.N.N.k.q.q.q.q.q.k.k.k.k.k.k.k.k.k.k.k.k.k.e.e.e.e.e.e.e.e.e.q.q.q.q.q.k.k.N.N.N.N.N.N.F.V.S.D.`.&X4X0XdXfXBXFXDXHXHX|.` ^ L ! ! L L L L L L 2 o $ & + + + - - % % @ @ @ % % % - - < 3 6 g P ! ^ } p.A.:XmXDXHXHXHXHXVXnX6X}.|.Q.s.}.|.|.|././.I.I.x.s.%.%.+.+.+.' ` ^ ! ! ! L L L L P J b b J b b P L u.",
"E.Z.b.z.l.p.0.} | | | | | | | | ` | } 0.i.b l.l.l.l.c.c.: 4 4 4 5 6 6 5 5 4 6 4 : : : : ; ; ; ; ; ; ; ; ; ; ; ; & : d v c 6 j v j j j j g j j g g g g d 6 6 6 : ; v mXHXFXDXFXDXDXFXDXDXDXDXDXDXAXAXDXDXFXFXFXFXFXAXAXCXCXCXcXhXzXhXuXrXbXbXbX9XuXrXbXrX>X>X>X>X,X&X&XoX&X:XdXAXFXFXAXAXAXAXSXgXAXSXSXCXjXkXlX>XOXF.q.M 5.q.q.f.f.N.q.q.a.9.a.q.q.e.q.8.5.9.5.5.5.5.5.8.8.9.q.f.N.f.f.a.q.q.5.5.5.1.1.1.~ M M m m m M M 8.8.8.8.5.8.8.8.9.r.f.f.f.f.q.9.q.f.r.9.r.r.g.r.7.9.9.7.3.3.4.4.4.4.Q Q 1.Q Q Q Q Q 4.4.4.4.4.4.4.4.4.Q Q Q 4.Q Q Q Q Q Q Q Q S k k k k k k l f k k k k W Q m m Q Q Q 1.1.3.9.9.g.g.g.f.r.9.9.9.r.r.r.9.1.1.3.8.1.~ Q M 1.~ 5.5.8.8.9.q.q.q.q.9.9.9.9.f.f.q.f.g.q.f.g.f.e.9.9.9.9.5.q.9.q.q.9.q.f.f.9.5.5.e.N.C.q.5.f.g.N.C.e.g.q.q.e.w.w.1.w.5.q.OXOX>XrXiXiXiXiXdXdXhXkXlXcXCXCXCXCXcXlXhXuXiXrX&XOXOX^.S.V.N.N.N.N.N.N.q.q.q.q.q.k.k.k.k.k.k.k.k.k.k.k.k.k.k.k.k.k.k.k.k.e.e.e.e.q.q.q.q.k.k.N.N.N.N.N.V.V.S.D.^.oX>X9XuXfXMXDXFXHXHX6Xx./ P P ^ ^ L L c 5 - + + + + + O & - - @ % % @ @ - - % % < 1 h H L ^ ` [ } i.V.~.1X1XmXnXeX6X6X|.{.U.u.+.^ L ^ ^ +.#.x.s.s.u.+.' ^ P P K J J c c c c b b b b b v v c c c c c c b ",
"E.E.Z.b.c.i.p.} } | | | | | | | | } } 0.i.! p.M.b.b.n.n.4 4 6 d g 6 6 6 4 < d d 6 6 6 6 6 5 4 4 4 4 1 1 2 2 1 1 3 6 6 6 d 4 g v j j j j g g j g g g g 6 4 4 : ; : v mXFXDXDXFXDXDXDXDXDXDXDXDXDXDXDXDXDXFXFXFXFXFXAXSXcXkXcXzXuXzXxXiXbXbXbXbXbXuXrXbXbX>X>X>X;X&X&X&X&X4XkXAXAXAXAXAXSXAXSXSXAXSXkXkXSXNXkXlXtX>XS.F.5.1.q.q.q.N.N.q.f.f.q.f.a.e.e.q.8.5.9.5.5.5.5.5.5.5.5.9.f.f.f.a.a.q.q.8.5.5.1.1.1.~ M M M M ~ ~ 1.1.1.1.8.5.8.8.8.9.9.f.f.f.f.f.r.r.r.9.9.9.9.f.f.9.3.1.1.1.4.1.1.Q Q Q Q Q Q Q Q Q Q Q Q Q Q Q Q Q Q Q Q Q Q Q S S S z z k l l l l l l l l k k k k k W Q Q Q Q Q Q 1.3.3.7.r.r.r.g.f.r.r.7.5.3.7.9.r.r.9.9.3.1.1.8.1.1.M 1.1.5.5.9.8.9.q.e.e.q.q.q.9.q.f.f.q.q.f.q.g.N.g.e.q.9.9.8.5.9.9.9.9.q.9.q.e.9.5.q.q.f.C.N.9.5.C.f.C.N.q.w.w.e.q.5.1.w.w.q.OXOX%X>XiXtXiXyXdXdXhXkXlXcXCXCXCXCXCXlXzXxXrXrX;X@XOX`.S.V.N.N.N.N.N.N.k.q.q.q.q.q.q.k.k.k.F.F.F.F.k.k.F.k.k.k.k.k.k.k.k.k.k.k.k.e.q.q.q.q.q.k.N.N.N.N.F.V.F.S.D.OX-X9XyXdXgXDXDXHXHXnXu.K K K W L P 0 < O $ + + + + + + % % - @ % % % - , , < 1 9 w H L ^ ' { { y.c.a.R._.].).'.{.{.{.U.%.' ^ L L J J U J U P P P P L L J J J L ^ [ @.$.$.@.{ [ [ [ %.+.` P L L P P K J ",
"_.).E.Z.v.l.p.y.| | | | | | | | } } y.y.l.y.| b.Z.Z.B.U.4 4 6 6 6 4 c @.^ v g : d d d 6 6 5 5 3 5 3 3 3 3 3 3 3 6 6 5 4 6 4 g g h h g j j j g g g g d 4 : : ; & ; n.DXFXDXDXFXDXDXDXDXDXFXFXFXFXFXFXFXFXFXFXFXFXFXFXSXjXzXzXzXiXzXhXiXbXbXbX9X>XbXrX>X>X;X>X;X;X9X;X&X;XkXFXFXAXkXSXSXSXkXAXAXkXcXhXhXcXAXkXkXdXuXoXOXz.5.5.q.q.f.f.q.f.f.f.f.f.e.e.q.8.5.q.5.5.5.5.5.5.8.9.q.f.f.q.q.q.q.q.9.8.5.1.1.1.~ ~ M M ~ ~ ~ ~ ~ 5.5.1.8.8.8.8.9.q.f.f.f.f.f.r.r.9.9.9.5.4.9.4.3.4.1.1.1.4.4.Q Q Q Q Q Q Q Q Q Q Q Q Q Q Q Q Q Q Q Q Q z z z z f l l l l l l f f l l f k k k k S Q Q Q Q ~ Q 1.3.3.7.9.9.r.f.r.r.r.9.9.5.5.9.9.9.r.r.9.r.9.1.1.5.5.1.~ 1.1.1.8.q.9.q.f.f.f.e.q.q.q.e.f.f.e.f.e.f.N.C.g.f.e.9.9.9.9.9.5.5.5.9.9.9.q.9.9.9.f.f.q.f.g.e.f.e.N.N.w.e.q.q.5.5.~ w.9.e.H.OXOX%X4XiXiXuXxXxXzXlXlXCXCXCXCXCXCXlXkXhXuXiX>X&X&XOXD.S.S.N.N.N.N.N.N.z.q.q.w.q.w.w.k.k.k.F.F.F.F.F.F.k.k.k.k.k.k.k.k.k.k.k.k.k.k.e.q.q.q.q.k.N.N.N.F.V.F.D.D.`.&X:XrXaXgXBXDXFXHXGXmX+.K b ! c & o o + + + + + + + + % % % % % % , , 2 1 5 0 H U L ^ ' %.%.@.y.c.s.B.R.A.R.R.Q.Q.#.^ L ^ L J J J J J U J J J J U L L J J K ^ [ %.s.i.x.s.u.u.u.u.x.u.{ L L L L P K J ",
"[._.!.E.b.l.i.p.} | | | | | | | } 0.y.p.c.c.! Z.Z.T.T.T.4 4 6 6 d 6 ! Q.m.{ L d 6 6 d 6 6 6 6 5 5 5 3 3 3 3 3 3 3 3 6 6 6 < 0 g h h g g g g g g g g 6 4 ; ; * * '.HXFXFXDXDXFXDXDXDXAXAXDXDXDXDXDXAXFXFXFXFXFXFXFXFXSXzXhXzXhXiXzXxXrXbXbXbXbX>X>XbX>X&X&X&X&X&X&X&X9XlXFXFXAXAXcXSXAXAXSXkXaXuXkXdXdXkXAXcXjXdXdXhX;X^.8.M w.q.a.f.q.N.f.N.a.f.e.q.q.8.5.9.5.5.5.5.5.5.5.5.9.q.a.q.q.9.9.q.9.9.5.1.1.1.~ ~ M M ~ ~ ~ ~ 8.8.8.8.8.8.5.8.9.q.f.f.f.f.f.q.9.9.9.5.5.5.9.1.4.4.1.1.1.Q Q Q Q Q Q Q m m z z k z f f f f f f l l l l l l l x l f f f k k k z k k k k z k z z S Q Q Q 3.3.3.3.3.7.7.9.r.f.f.r.9.9.9.9.9.r.f.f.f.f.f.r.9.9.9.5.5.1.1.1.1.1.1.5.q.q.q.f.f.f.f.e.q.q.f.g.e.f.f.q.f.N.C.f.f.f.9.9.9.8.8.1.1.5.9.9.9.9.q.q.f.q.9.w.q.f.C.N.N.q.f.q.q.w.e.8.1.M w.q.f.D.OXD.@X>XrXuXuXxXxXzXlXlXcXCXCXCXCXCXcXlXzXxXiX>X;X;XOXD.D.D.N.N.N.N.N.N.N.k.e.q.q.q.w.e.e.k.F.F.F.F.F.F.F.F.F.F.F.k.k.k.F.F.F.F.k.k.k.k.k.q.q.q.z.N.N.V.V.S.D.D.`.@X;X9XyXaXMXZXFXHXGX6X{ ! c 6 & o $ $ + % + + + + + + % - % % % - , 2 1 3 0 v L ] ] +.%.s.%.@.y.i.s.T.R.Z.R.c.@./ L P U J J J J J J J L L ^ ^ ' ' ' ^ P J J P ! ` ` ` [ { { { $.$.{ ^ J b b b c c c c ",
"*X[.[.).Z.v.i.y.} } } } { { { { y.y.p.i.b.B.` E.Q.).W.U.& 4 6 4 6 4 b U.x.` ` ! ! c 6 6 : 6 6 4 4 4 4 4 3 3 3 4 4 1 4 4 4 ; 6 6 g g g g d d d 6 6 g 4 4 ; : ` 6XFXFXFXFXFXAXSXAXAXSXMXMXSXSXSXSXMXGXAXAXFXFXFXFXFXAXSXzXxXuXuXiXbXbX>X>X>X>X>X>X&X>X>X@X@XoX&X&X&XCXAXAXAXAXAXAXCXAXAXSXSXcXkXhXuXdXkXcXlXlXhXdXlXkXrXD.M 1.8.5.q.a.N.N.q.f.q.f.N.q.8.a.9.9.8.5.5.1.1.1.1.5.8.5.8.q.f.q.8.q.q.9.8.5.1.1.~ 1.~ ~ ~ 5.1.~ ~ ~ 5.8.8.5.8.8.5.5.9.9.9.9.9.9.9.5.5.3.3.4.1.1.1.1.Q M Q Q Q m z z k z z z z f f f l l l l l l l l l f f k k z z z S S z S Q Q S S S S Q Q Q Q 2.3.2.1.3.9.9.7.7.4.9.9.9.9.r.9.9.9.9.9.g.f.f.C.f.f.f.q.9.9.9.9.r.r.1.1.1.1.1.5.q.q.q.f.f.f.f.q.9.9.e.q.q.f.f.q.N.f.C.C.q.f.g.f.f.5.5.9.5.5.8.9.9.9.q.f.q.e.e.e.w.e.N.N.f.q.e.w.w.w.q.8.M 1.e.q.F.D.OX&X;X>XbXbXuXuXxXzXlXlXcXCXcXcXCXCXcXkXzXdXiX>X;X:X:X@XOXD.D.F.N.N.N.N.N.N.N.e.e.e.e.e.e.e.k.k.F.G.H.H.H.F.F.H.F.F.F.F.F.F.F.F.k.k.k.k.k.k.q.q.q.N.N.F.V.F.S.D.`.OX4X4XyXyXkXSXDXFXHXeXQ.j * ; g ^ $ o + + + + + + @ @ % - , @ @ < - 4 0 J L ^ ' +.%.%.%.%.u.u.u.i.U.Q.W.x.{ / ! ^ L P J J J J J J P L ^ ^ ' ' ' O.' ^ L J J P ^ ^ ^ ` { $.{ y.x.i.$.! b c P K J c c c ",
"wX5X*X).E.Z.c.p.} } } } } } } } p.p.i.l.T.E.! T.W.).}.T.& 4 4 4 : : v x.$.! ! L ! ! L c 6 : : 6 4 4 4 4 < < < < 4 4 4 4 4 ; 6 6 6 6 6 6 6 6 6 6 4 : 4 b Q.eXHXHXDXDXDXDXMXgXkXSXFXFXAXAXAXFXFXFXDXGXBXgXMXAXFXFXFXAXcXzXuXiXiXiXiXbX>X>X>X>X&X&X>X@X@X>X@X@X;X;XxXAXAXAXCXSXcXCXSXAXkXgXSXcXkXfXyXdXkXcXCXlXkXhXkXzXuX;Xq.~ 8.9.w.q.a.q.q.f.q.f.g.q.8.a.q.q.9.8.5.5.1.1.~ 1.5.1.8.q.f.q.8.q.q.q.8.8.5.1.1.5.~ 1.~ 5.5.1.5.8.9.a.5.8.1.~ ~ 1.1.1.1.1.1.1.4.4.3.4.1.1.1.1.Q Q M m z z z z k k k k k z z z k k k k k k k k k z S Q Q _ _ ~ ~ ~ ( ( ~ ~ _ _ 2.2.2.2.2.4.3.3.3.1.3.3.3.7.7.7.7.7.9.9.9.7.9.9.9.9.9.e.f.f.g.N.f.f.f.9.r.q.8.1.9.1.9.1.1.1.5.9.q.q.q.q.f.f.f.q.q.q.q.9.9.q.f.g.N.f.N.V.q.f.g.f.f.8.8.q.8.8.8.8.8.8.q.C.f.e.q.9.q.e.e.q.q.9.q.q.w.w.q.5.M q.q.q.F.F.D.&X;X>X>XbXiXuXxXhXlXlXCXCXcXcXCXCXcXlXzXhXiX>X:X>X9X:X@XOX^.D.D.F.N.N.N.N.N.N.N.k.k.e.e.e.q.e.k.k.k.H.J.F.F.J.J.F.F.F.F.F.F.F.k.k.k.k.k.N.N.q.q.k.N.F.V.S.S.D.`.oX;X4XyXyXkXSXZXDXDXDX6X+.! #.g o $ $ + + + + + + + @ % , , % % < 1 h Y ] ' +.%.%.%.%.%.u.%.s.m.U.Q.x.! ! P P J J J J c c c c c c J J U P L L L R L P P L J ^ { $.y.u.i.x.c.x.x.u.u.{ ^ ! ^ ! P K J J ",
"GXmXeX2X[.Q.n.l.} } } } } } } } i.i.c.M.Q.Z.@.E.).{.'.Q.* : 4 4 : 4 v $.{ ! ! P ! ! ` [ ^ c 4 4 : 4 4 4 : < < < < 4 4 4 4 ; 6 6 4 4 6 6 4 4 4 4 ; b eXGXFXHXHXHXSXSXSXSXAXSXSXSXAXSXSXkXgXkXSXAXDXFXFXFXSXSXAXFXFXAXkXuXrXrXbXbXxXbX>X&X&X&X&X&X>X@X@X>X&X&XCXAXAXAXAXcXkXhXgXfXfXMXqX0XuXyX9XqX9XyXdXkXCXCXlXzXkXzXuXrXa.a.9.1.9.9.w.9.9.f.q.f.f.q.9.q.q.q.q.q.8.5.5.1.1.1.5.1.5.q.e.q.8.q.q.q.q.w.8.5.8.9.1.1.1.5.5.~ 1.1.1.1.~ 1.1.~ M M ~ ~ 1.1.1.1.1.1.1.1.1.1.M M M m z z k z k z z z z z z z z z z z S S Q Q Q Q Q Q 2.2.2.3.3.3.3.3.3.3.3.3.3.3.3.3.3.3.3.3.3.3.3.3.3.3.3.7.7.7.7.7.9.9.9.5.9.5.9.9.9.r.f.f.g.g.f.f.f.9.q.q.8.5.1.3.8.8.1.1.1.9.8.q.9.q.q.f.f.q.q.q.q.9.9.q.f.g.N.a.f.f.f.f.f.N.g.5.q.q.8.8.8.8.9.q.f.N.f.f.9.9.f.f.q.5.N.q.5.q.w.5.q.1.5.q.q.%XF.N.D.;X;X>X>XbXiXuXxXzXzXlXcXcXcXcXCXCXCXcXkXhXyX>X>X>X9X9X:X@XOXOX^.D.S.V.V.N.F.N.N.N.N.k.k.e.e.e.q.e.e.F.H.F.F.H.H.F.F.F.F.F.F.F.k.k.k.k.k.N.N.N.k.k.N.F.S.S.D.D.`.OXoX>X9XdXdXkXSXAXFXFXwXU.g * & $ $ $ + + + + & & & % - - 2 - 4 0 J L +.%.%.%.*.*.%.s.x.m.U.I.n.m.{ b J J J J c c H H c v v v v c v c J G J J J J J J U U P ` $.x.n.n.n.n.i.p.y.p.u.[ ` ^ ! ! P P J J ",
"2XDXFXmX2X'.T.M.} } } } } } } } l.l.M.m.T.u.n.'.'.{.{.W.* : 4 4 : 6 b $.{ ! ! ! ! ` ` ` ^ ` ` P 6 : : 4 4 4 4 4 4 4 4 4 4 ; 6 6 4 4 4 4 4 : : : m.GXHXHXFXFXFXSXMXMXMXMXFXSXpX0XaXpX0X0XpXgXSXAXAXAXAXFXFXGXZXFXFXAXdXrXrXbXbXbXxXbX>X&X&X&X&X>X@X>X>X@X@XjXdXFXAXCXAXkXhXgXgXaXyXdX@X9XaXuXyX9X9XyXdXjXAXCXcXlXkXkXdXrXa.S.5.5.8.5.5.5.9.f.q.f.q.9.9.9.9.q.q.q.9.9.5.1.1.5.w.8.8.q.f.9.9.q.q.q.q.9.9.8.r.r.5.5.1.5.5.~ 1.1.~ ~ M 1.1.~ M Q ~ 1.1.1.1.1.1.1.1.1.Q M M m z z z z z z k m m m z z m Q Q Q Q Q Q Q Q ~ 2.2._ 2.2.3.3.2.3.3.3.3.3.3.3.3.3.3.3.3.3.3.3.3.3.7.3.3.3.3.3.7.7.7.4.4.9.9.9.9.9.5.9.9.9.9.e.g.N.g.f.f.f.q.9.9.9.9.r.1.r.1.5.~ 1.8.9.9.9.9.q.f.e.9.q.q.q.q.q.q.f.f.V.q.f.f.f.q.f.V.N.5.f.q.8.8.8.8.q.N.f.f.g.f.q.8.q.f.q.1.f.q.5.f.w.w.q.1.5.q.OXzXOXF.D.&X;X>XbXbXiXuXxXzXzXcXcXCXcXcXCXCXCXcXlXzXuX9X>X9XrX9X>X>X@XOXOXOXD.S.V.V.N.F.F.F.N.N.N.N.N.N.e.e.e.k.k.k.F.F.H.F.F.F.F.F.F.F.k.k.k.k.k.k.N.k.k.k.N.F.S.S.D.D.`.oX`.:X4XdXdXfXMXZXFXFXmXU.K j J 6 $ $ & + + + & & & & - - ; 3 v R +.+.%.s.*.*.*.*.x.m.U././.x.[ P P ! J c K c v v v c v v v v c c c J J J P U U J U J J J ^ ' +.u.y.$.$.} } } $.y.` ! P P P P J b c J ",
": v n.GXGXwX}.n.l.y.{ { ` { } y.l.Q.B.T.|.` |.{.[.[.*XW.* ; : ; 6 4 c $.[ ! ! ! ^ ` ` ` ` { { @.$.b : ; ; ; g : ; ; 4 : 4 ; ; 4 4 : * : g y.n.qXHXFXFXDXFXFXDXjXgXSXkXAXkXaXqX3X&X=X9X0XgXpXpXFXZXSXFXSXFXAXAXAXAXAXdXbXiXbXbXbXiXbX>X&X@X&X>X>X&X&XoX@XyXCXcXCXAXSXSXfXjXkXSXSXfXyX9X:XyX9XyXkX9XyXzXCXCXCXcXlXkXzXdXdX@XD.5.0.5.5.M 8.q.a.a.a.9.9.9.8.8.q.q.q.q.9.8.5.5.8.9.9.9.9.f.9.9.N.f.f.9.9.9.8.9.r.9.5.5.5.1.Q ~ Q M M 8.1.~ ~ 1.M ~ 8.1.1.1.1.1.1.1.1.~ M m z z z z m Q Q Q Q Q Q Q Q Q Q Q Q Q Q _ 2.2.3.2.2.2.2.2.3.3.3.2.2.3.3.3.3.3.3.3.3.3.3.3.3.3.3.3.3.3.3.3.3.3.3.3.7.9.7.9.r.9.9.9.9.9.9.9.9.9.g.C.f.f.f.f.q.q.9.8.8.3.5.g.q.5.~ 1.5.9.8.9.9.9.q.q.q.q.f.9.N.N.f.q.q.f.N.q.q.f.q.f.N.C.q.C.f.5.1.5.1.e.N.g.q.g.f.9.5.q.w.q.f.e.N.5.q.w.~ w.5.F.F.&XCXoXS.OXOX,X,X>XzXuXuXuXxXzXlXCXCXCXCXcXCXCXcXlXzXdXrX4X9XrXrXrX>X>X>X;XOXOXOXD.S.F.V.N.N.F.N.N.N.N.N.N.N.e.q.q.e.k.k.F.F.F.F.F.k.k.k.k.k.k.k.k.k.k.k.k.k.N.V.F.S.D.D.`.OX`.&X:X9XgXgXkXSXFXHXHXmX2X{ ^ ^ $ . $ * . $ + $ ; + ; ; & h %.%.%.s.x.x.x.x.x.x.U./.}.}.{ ^ c b P P P P J c c v v v v v v v v v c c J J J J J J J J J J ^ { %.$.[ ` ` ` ^ ` ` ` ^ P P P L L K J J J ",
"* ; ; ; %.wXmX6Xm.y.{ u.{ { y.p.c.W.'.}.}.u.2X*X*X*X2XW.* ; : ; 4 : b y.} / ! ^ ` ` [ ` [ { { $.` $.{ b 4 * d ; ; ; ; ; ; $ ; ; ; * P n.wXHXHXHXFXFXAXAXAXAXSXfXjXSXdXgXyX0X3X3X&X:XyXaXMXjXpXSXZXkXSXSXAXAXAXFXAXAXdXrXiXbXbXbXbXbX>X;XoX&X;X>XOXOX&XrXAXkXyXhXCXSXkXSXaXyX0XyX0XaXyX-X:XyX-XuX9XyXfXcXCXCXcXlXkXzXdXdX>XD.q.0.9.5.5.q.a.a.a.q.9.8.8.8.8.8.8.9.9.9.8.5.5.8.9.9.8.8.f.q.9.f.f.f.9.9.9.9.9.q.9.5.5.8.1.M M ~ ~ 1.~ ~ ~ ~ 1.Q 1.7.1.1.1.1.1.1.1.1.1.1.1.Q Q Q Q Q Q Q Q _ Q Q Q Q ( ( ( _ _ _ 2.2.3.3.2.2.2.2.2.2.2.2.2.2.2.2.1.1.1.1.2.1.1.1.1.2.4.4.3.3.4.4.4.4.3.3.5.7.7.9.9.9.9.9.9.9.9.9.9.9.1.r.f.f.f.f.f.r.q.9.8.8.8.8.q.8.1.1.1.5.9.q.q.q.q.q.q.q.q.f.9.g.N.q.9.9.f.f.f.9.f.a.q.f.C.q.q.5.5.1.q.5.q.f.g.q.f.e.q.8.5.q.e.f.N.5.5.q.5.5.8.5.D.iXlXzXD.F.OX&X>X>X>XiXuXuXuXuXzXlXcXCXCXCXcXcXcXcXlXzXdXrX4X9XrXtXiXrXrX>X>X>X@XOXOXD.D.S.F.V.V.V.N.V.N.N.N.N.N.k.q.q.q.e.k.k.k.k.k.k.k.k.q.q.k.k.k.q.k.k.k.N.N.V.F.F.F.D.^.^.^.oX=X:XuXuXgXkXDXFXHXHXHXHXHXGX|.+.P ] b $ c & 6 4 0 6 4 P x.s.%.s.x.m.m.I.I.I./.U.%.J P P L ! b b b c c c v v v v v v v v v v v c c J J J J J J J J J P { u.u.u.y.y.$.$.y.y.y.$.` ! ^ ` ! L L L ^ ",
"$ & ; ; & ; ` eXVX{.c.u.y.y.y.i.T.Q.'.'.[ {.2X2X5X2X2XQ.$ & ; ; ; : b u.@.` ^ ` ` { { { { { $.y.$.$.y.y.y.` 4 * ; - - & & & - * : p.DXHXFXHXFXDXAXSXSXMXMXkXjXkXkXkX9X0X0X9X4X3X:X:X=X&XkXMXaXMXAXZXSXAXAXAXFXFXAXFXhXuXbXbXbXbXbXbXbX>X@X@X;X>X@XOXbXCXcXrXuXCXAXgX9XqX-X-X-X-X-X9X9X@X&X9XoX-X:X9XdXkXCXCXcXlXlXzXhXdXtXD.N.q.9.M 5.9.q.q.q.9.9.8.8.8.5.1.1.8.9.9.5.5.5.8.9.9.8.9.f.q.9.q.f.q.q.q.q.9.9.q.9.5.8.8.5.~ M M ~ ~ M M M Q ~ ~ 1.1.3.1.1.1.3.3.1.1.1.1.3.3.1.1.1.1.1.1.2.2.2.2.3.3.2.2.2.3.3.2.2.4.2.2.2.2.2.2.2.( 2.( _ Q ~ ~ Q Q Q Q Q Q Q Q 1.1.1.4.1.1.1.1.1.1.3.3.3.7.9.f.r.9.9.9.9.9.9.9.9.9.9.9.q.e.q.q.q.q.q.9.8.8.1.1.9.f.1.1.5.5.8.9.9.9.9.9.q.9.9.q.q.q.f.q.8.9.e.q.f.8.f.a.a.f.f.q.5.~ 1.q.5.q.9.q.N.q.q.q.q.q.N.w.5.q.N.1.5.q.1.5.5.q.&XhXcXiXD.S.OX&X;X>XbXbXuXuXuXuXhXzXlXcXCXCXCXCXCXcXlXzXdXrX9X9XiXuXuXiXtXrX9X4X>X@XOXOX^.D.D.S.F.V.V.V.V.N.N.N.N.N.k.k.q.q.q.k.k.k.k.k.q.q.w.w.q.q.q.q.q.q.q.N.N.F.D.D.S.D.D.D.oX;X:X9XgXhXkXSXAXAXFXHXDXHXHXHXHXHXFXnXm.[ U.J v 6 L c c ] I.x.%.x.I.U.U././.I.%.L v c J J c c v v v v c c v v v v v v v v v v v v c c c c J J J J c J P { u.u.u.%.$.$.$.$.$.$.$.` ` ` ' ^ L P P J ",
"* & & + & & & & b }.VX6XM.p.i.i.n.{.|.p.Q.2XeXqXqX2X2XQ.$ * ; ; ; ; b u.$.[ ` ` [ { { { { $.y.p.i.p.u.i.y.u.l.{ 4 * $ $ * * 6 {.wXGXHXHXFXAXZXAXSXkXjXjXjXdXdXkXdXdX9XyXtX9X3X:X3X4X9X9XyXkXjXZXAXFXDXFXFXAXAXGXFXFXkXyXbXbX>X>X>XbXbXbX;X&X;X>XbXzXCXCXzX9XhXjXfX:X@X:X&X@X@X@X`.`.`.`.oX&X@X).=X9XdXjXCXCXcXcXkXzXdXdXtXOXN.V.f.5.9.a.9.9.9.9.8.8.9.9.1.1.5.8.8.8.5.5.5.8.9.9.5.q.q.9.8.8.a.9.q.q.q.q.9.q.q.8.9.9.5.1.M m m m m m M M ~ 1.1.5.5.5.7.7.7.5.3.1.1.1.3.3.3.3.3.2.2.2.2.2.3.3.3.3.2.2.3.3.3.3.2.2.2.2._ _ ~ ~ ~ ~ _ Q Q Q Q Q Q Q Q Q Q Q Q Q Q Q Q 4.1.1.4.4.4.1.3.3.3.7.f.g.g.r.9.9.q.r.r.q.r.9.9.9.q.9.9.q.9.9.q.9.5.8.1.3.1.q.1.5.8.5.5.5.5.5.8.9.9.9.8.q.q.9.f.q.8.9.9.f.9.9.q.q.f.C.9.5.M 1.1.w.w.e.q.5.N.9.q.q.q.e.e.q.9.q.q.w.5.w.5.M M N.CXZXCXdXoXS.OXOXOX>XiXiXiXuXuXhXhXhXzXlXCXCXCXCXCXcXlXzXdXrX9X9XiXuXuXuXuXuXtXrX4X>X@XOXOXOX^.D.D.S.V.V.V.V.V.V.N.N.N.N.k.k.q.q.q.q.q.q.w.w.w.w.w.w.w.q.q.q.q.q.N.F.D.S.D.D.D.D.`.oX&X;XyXuXdXjXSXAXDXFXFXHXFXFXHXHXHXHXHXHXHXeX%.] $.b P { U.m.x.I.U././.U.%.J g c J J P b c v c c c c v v v v h h h v v v v v v v v c c c H H H H c c ^ +.%.$.u.u.u.y.y.y.y.y.^ ! ` [ ' ^ L J 6 6 ",
"$ $ $ $ $ $ $ $ * $ d U.mX2XW.U.}.6XQ.$.eXwXwXwXeX2XeXT.$ * * * * * b m.u.` ! ` } $.y.y.p.i.p.p.i.l.l.p.l.n.{.W.U.+.4 $ * ; eXHXHXFXFXDXZXZXZXZXMXkXhXdXhXdXhXkXhXaXrXtXrX4X4X:X:X9X9X:X0XaX3XSXDXZXZXDXFXFXFXAXFXFXcXrXbXxXiX&X>X>X>X>X&X>X>X;XkXAXAXkXdXaX9X:X&X-X0X9X@X@X+X+X@X-X_.oXoXD.D.`.@X9XdXdXCXCXSXcXlXzXhXdX4X>X`.z.N.5.5.q.9.q.q.9.9.q.9.5.5.1.5.5.8.8.5.1.1.8.8.5.8.q.9.8.5.5.8.5.9.g.V.a.8.5.q.8.9.8.5.1.M m m M M M M M 1.1.5.5.8.9.9.9.8.7.5.3.1.3.3.3.3.3.3.3.3.1.3.3.4.1.1.1.1.1.1.1.1.4.4.Q Q Q Q Q Q Q Q Q Q Q Q Q Q Q Q Q Q M M M Q Q M M M Q Q 1.1.M M 1.Q 3.r.g.9.9.f.g.f.q.r.f.f.r.q.r.q.r.q.9.9.q.q.9.q.9.5.1.5.3.1.1.1.9.a.q.5.1.1.1.8.q.q.8.8.8.9.q.f.9.q.9.8.f.5.9.1.f.f.f.a.5.8.1.9.5.q.q.e.w.N.C.5.1.f.C.q.e.w.q.w.f.5.M M m w.>XCXCXCXCXOXV.D.@X;X>XrXuXiXuXdXzXzXzXkXlXCXCXCXCXCXCXlXzXhXiXbX9XiXiXdXdXdXaXuXiXrX4X:X&X$XOXOX^.D.D.S.S.V.V.V.V.V.N.z.z.z.q.q.q.q.q.w.w.w.w.q.w.w.w.w.w.w.w.q.z.F.F.D.D.D.D.D.D.^.OX@X&X9XuXjXfXSXSXDXFXFXFXZXDXDXFXFXHXHXHXHXHXFX|.U.c P $.I.m.U.U.}./.$.! c c c c c c c c c c c c c c c v v v v v h h h h h h h h h v c J J J J J J J ' +.%.u.u.u.u.u.u.u.u.u.%.+.+.+.^ c 6 4 4 4 ",
"; ; ; ; ; ; ; ; ; : ; * d n.mXGXmX6X$.wXmXmXsXwXwXqXwXT.: 4 4 6 6 : v ! ! c g j b P W W W ! ! ! ! ! ! ! ! } T.Z.! b v ; n W.HXHXFXDXDXDXSXSXSXSXNXkXhXdXdXhXkXkXhXyXtXtXtX0X4X3X:X4X4X:X3X0XkXSXZXMXMXAXFXFXFXFXFXFXCX9X9XuXiX>X&X&X&X&X@XbXuXzXAXAXCXdXuXaXaXaXqXfXFXDXZXSXSXSXkXdXjXaX0X=X_.`.&X9XdXdXkXCXCXCXcXkXhXdXtX9X>X@XN.5.5.5.5.a.a.9.q.q.9.w.5.5.8.q.q.9.5.1.1.8.8.5.5.9.9.8.5.1.1.5.r.f.f.9.8.5.q.8.8.5.5.1.~ M M M ~ Q Q ~ 1.1.5.8.8.8.8.9.9.9.8.8.7.7.7.3.3.3.3.1.1.3.1.1.1.1.1.1.1.1.4.Q 1.Q Q Q Q Q Q Q m m Q W Q Q ) _ ~ _ Q m m Q m m m M M m M M Q Q Q Q 1.7.7.9.r.f.g.r.f.V.f.q.f.f.f.f.q.f.f.f.f.f.q.9.f.9.q.9.5.1.5.1.1.1.1.9.q.9.5.5.1.5.5.9.q.q.9.5.8.f.f.8.q.q.5.a.8.9.1.9.9.q.a.5.8.1.9.1.q.f.f.f.N.f.q.5.f.N.f.N.w.q.5.q.w.~ M 5.D.9XlXCXCXNX`.F.D.@X;X>XrXuXiXuXhXkXlXlXcXcXCXCXCXCXCXCXlXzXhXrXbX9XiXiXdXdXdXdXdXuXyXrX4X:X;X@XoXOX`.D.D.A.S.V.V.V.V.V.z.z.z.q.q.q.q.q.q.q.q.w.w.w.w.w.w.w.w.w.w.z.S.S.S.D.D.D.D.D.`.OX@X:X9XdXkXNXSXSXDXFXFXDXDXDXDXDXFXFXFXFXHXHXHXFXGXeXm.x.eX/.}./.m.P c c v c J J P P P P P J J c c c c c J c J J J J J J J J J J P L L L L L L L L ^ ^ ^ ^ ^ ` ` ` ` ` ` ` ` [ ! c 6 4 : ; ; 4 4 ",
"h h h h g g g g 6 d g v b b P x.wXT.GXmXDXGXBXmXsXwXsX}.b b P P ! ! ! ! ! P P P ! ! / ! ! ! ! ! ! ! ! ! b ! | E.eXx.M M.GXHXDXDXZXDXSXSXSXBXSXMXkXkXhXdXdXkXkXjXdXyXuXtXrXrX9X4X4X:X:X4X9X0XSXCXdXyXyXgXAXFXFXFXFXFXSX9XuXrXbXbX>X>X>X>X;XuXcXAXAXCXkXjXfXfXfXfXjXyXfXSXaXaXaXaXaX0XaX0X3XdXaX3X=X0XaXuXjXCXCXCXcXlXhXuXiXrX4X>XV.~ 5.8.1.9.a.q.a.9.q.a.9.8.9.q.q.8.5.1.1.1.1.8.9.8.8.q.q.5.5.8.q.q.9.9.9.5.9.8.5.5.1.1.~ M M ~ ~ ~ ~ ~ 1.1.5.8.8.8.8.8.8.9.9.9.7.1.r.9.7.7.3.1.1.1.1.2.1.1.1.Q Q Q Q Q Q Q Q M Q Q Q Q W _ ( W m _ ~ ~ ~ ) Q m Q ( ~ ~ Q ~ ~ Q ~ ~ 1.3.1.3.9.9.7.7.9.9.g.f.q.a.r.q.f.f.f.g.q.f.f.f.f.f.f.f.9.f.f.q.9.5.5.1.1.1.1.8.q.9.8.5.8.8.8.q.q.9.8.8.9.q.q.5.q.q.5.9.8.5.1.5.5.q.a.8.8.1.1.5.C.9.N.C.N.q.f.w.q.q.f.f.5.5.5.w.q.M M w.4XdXlXCXAXkXD.S.D.,X;X>XrXuXiXaXzXlXlXlXcXcXCXCXCXCXCXCXlXzXhXiXrXrXiXuXdXdXdXdXdXdXaXyXrX4X4X;X@XoX`.^.!.D.D.S.V.V.V.V.N.N.z.a.q.q.q.q.q.q.q.q.w.w.w.w.w.w.w.w.w.q.F.D.D.D.D.D.D.D.`.OXoX;X9XuXdXkXSXZXAXDXFXFXFXFXDXDXDXDXDXDXFXFXHXHXHXHXGXGXGX|.x.! b v v c c J J J J P P P P P P P P P P J J J J J J J J c c c c J J J J J U J J J J c c c v v c c c c c c c c v 6 ; & ; < 4 4 6 6 ",
"J J J J J J J J K P ! b b ! P ! g i.mXDXGXDXDXFXmXmXmX{.^ ` ` { $.} { $.! | y.u.@.y.y.y.} } } } } 0.y.} } $.{.qX[.mX*XFXFXFXDXmXSXSXBXBXMXMXkXkXkXkXhXdXhXkXkXdXaXaXaXyXtXrX0X9X4X3X3X9XfXyXfXZXkXdXgXkXMXAXFXFXFXFXSX9XiXrXbXbXbXbXrXrXuXCXAXCXkXkXCXkXAXSXkXdX9X&X3X3X-X-X-X-X*X-XoX@X=X=X3X3X3X0XaXyXdXkXcXCXCXlXdXiXuXrX9X4X:XN.8.5.~ 8.a.q.f.9.q.N.f.9.8.9.9.8.5.1.1.1.1.5.5.5.1.a.f.f.q.5.5.5.8.9.q.8.9.5.5.5.1.~ M M M ~ 1.1.1.1.1.1.5.8.q.9.9.9.9.9.8.9.9.7.r.7.5.7.3.1.1.3.3.1.1.Q Q Q Q Q Q Q Q Q m m m Q Q m W ) ~ m m W m m m W W m W ( ( ~ ~ 2.2.2.2.8.7.9.3.9.9.3.1.~ 1.7.r.9.9.8.8.9.f.f.f.N.f.f.f.f.f.f.f.f.q.f.f.f.9.8.5.5.1.1.1.8.q.9.9.9.9.q.q.r.9.1.1.q.r.9.8.1.9.q.5.8.8.5.5.5.5.f.a.8.8.1.5.M C.q.N..XN.w.N.w.q.w.e.q.1.M w.w.w.m 5.V.uXdXzXAXAXzXS.S.OX;X;X>XrXuXuXxXzXlXcXlXcXCXCXCXCXCXCXCXcXzXhXuXiXrXiXuXdXdXdXdXdXhXdXuXtXrX4X:X;X@XoXOX`.!.D.D.S.V.V.V.V.N.N.z.a.q.q.q.q.q.q.q.w.w.w.w.w.w.w.w.w.q.S.D.D.D.D.D.D.D.^.`.oX&X;X9XuXdXkXSXZXAXFXFXFXFXDXDXDXGXGXDXDXFXHXGXFXFXHXHXDXeX$.c b b c c c c c c c c c c c c c c c c c c v v v v h h v v v v v v c J J J J J J J J J J U L P P K P P L L L P P 4 ; : 6 6 6 6 0 g ",
"J J P P P P P P P ! ^ ! ! { ` b W ` ` } {.wXHXFXFXmXBX|.$.y.p.i.i.i.y.0.} y.i.i.c.v.v.c.c.l.l.l.l.l.l.p.b.[.mXFXHXFXFXFXDXAXGXSXSXjXjXjXkXkXkXkXkXjXdXdXjXkXhXaXaXdXdXuXyXrXrXrX9X9X9X0XfX0X4XCXCXkXhXgXFXAXAXSXFXFXAXyX9XbXbXbXbXbXuXcXCXAXCXhX9XyXdXNXyXqX9X3X@X`.`.+X]._.`.`.`.`.`.`.`.`.`.`.+X9XyX0XdXjXkXcXCXcXdXiXuXrX>X&X9X&Xw.N.w.8.w.w.9.N.N.N.N.q.8.5.5.8.5.1.1.1.1.5.5.5.1.9.a.f.a.8.5.1.5.9.8.5.5.5.1.1.~ M M M M M ~ 1.1.1.1.1.5.8.r.q.q.r.q.9.9.8.9.r.r.8.5.8.5.1.1.3.3.3.1.~ 1.~ Q Q M Q M M k Q ~ Q m m ) W W m b W k k k k m m m ( ~ m M ~ 2.2.2.8.a.2.1.7.9.t.1.1.1.9.9.9.9.9.5.9.q.r.f.f.f.f.f.q.f.f.f.f.r.q.g.f.9.5.1.1.1.5.5.1.1.5.8.9.1.1.8.1.8.8.f.a.a.8.5.5.8.9.8.9.1.1.5.~ 1.N.1.1.5.8.q.8.5.D.N.C.q.9.e.w.q.5.e.q.M M w.w.5.5.D.OXyXdXAXAXCXuXS.S.D.OX;XiXuXiXlXhXhXlXlXlXCXCXCXCXCXCXCXCXcXkXhXuXrXrXtXuXdXdXdXhXhXdXdXuXtXrX9X4X;X&X@X+X`.^.!.D.S.V.V.V.V.V.N.N.z.a.a.q.q.q.q.q.w.w.w.w.w.w.w.8.8.w.N.S.D.D.D.D.D.D.D.`.oX@X:XtXuXdXkXSXZXAXFXFXAXAXDXAXDXDXDXDXDXDXDXDXFXFXHXHXHXGX{.u.b P c P ^ ! L P L ^ ^ ' ' ' ' ' ' +.%.u.s.x.{ ' s.U.Y.Y.Y.x.x.x.x.Y.x.s.%.%.%.%.%.+.+.%.%.%.%.u.u.u.%.%.+.' %.4 3 6 0 0 g 0 0 0 ",
"^ ^ ^ ^ +.+.+.+.[ { ` $.$.u.y.^ x.i.l.` $.M.qXDXHXHXFX2Xp.i.c.m.n.n.i.p.i.v.B.B.Z.Z.T.R.R.R.Q.Q.Q.Q.T.n.m.Q.).sXFXFXAXAXAXSXSXSXkXjXjXkXkXkXkXkXjXhXdXjXkXjXdXdXdXdXdXdXaXyXrXrXtXtX0X0XyX4X&XtXkXCXkXhXSXSXAXFXFXFXAXuXyXbX>X>XuXzXcXcXAXcXyX;X:XdXdXyX=X&X&X&X`.).!.).`.`.`.).!.!.!.!.!.!.!.!.`.3X0X9XdXjXkXcXcXkXjXdXuXrX9X;XuX;XS.w.8.8.q.a.q.N.N.N.a.9.8.5.5.8.8.5.1.~ 1.5.8.5.8.5.5.9.5.q.8.5.5.5.5.1.1.~ M M M M M ~ ~ M Q ~ ~ ~ 1.1.5.9.r.9.9.r.q.9.9.9.q.f.r.9.5.5.5.5.1.3.3.3.3.1.8.8.~ 1.Q ~ 1.1.~ 2.2.~ Q W W W m b b b k f k k m m W ~ ~ m k m ~ 6.6.8.0.6.1.2.8.8.1.1.1.1.9.9.9.9.9.9.9.q.r.q.f.q.q.g.8.9.q.f.q.9.q.f.r.9.8.1.~ M 1.1.~ ~ 1.8.1.1.1.~ 5.8.q.q.9.8.5.5.8.9.9.9.1.1.1.M 5.8.1.1.1.1.5.5.5..Xf.f.w.8.1.5.1.1.q.w.~ M w.w.5.V.OX>XuXAXCXCXcXrXN.S.`.@X>XiXxXxXlXzXzXzXlXlXCXCXCXCXCXCXCXCXcXkXhXxXrXrXtXaXdXaXdXhXhXhXdXuXtXrX9X4X:X;X&X+XOX`.^.!.D.V.V.V.V.V.V.N.z.z.a.a.a.q.q.q.q.q.w.w.w.w.w.8.8.w.q.V.S.D.D.D.D.D.`.OX@X;X>XtXaXjXkXCXZXAXAXAXGXGXAXAXAXDXDXGXGXGXZXDXFXFXFXHXHXHXHXmX|.` ' ` ^ ` { ' ' ` ' ' +.+.+.+.#.+.+.+.#.%.' %./.' ^ ^ ^ ^ L L L L P P L L P L L ^ +.%.%.%.U J g 6 0 0 0 g h 6 6 6 0 0 0 0 0 0 ",
"c c c c c c c c c ! c b b c v 6 b b ` ^ b b b ! T.2XmX{.M.b.Z.Z.T.b.i.0.v.B.E.E.).).).~.~.E.E.E.E.E.E.Z.n.[.eXsXFXAXAXAXSXSXSXkXkXkXkXkXkXkXjXjXjXdXdXjXNXkXhXhXdXdXdXdXaXaXtXrXtXtX0X0X9XtX:X4XuXkXSXkXgXkXAXFXAXAXAXdXyX>X>XbXzXcXcXcXcXuX4X;XdXyX:X&X@XoXoXoX+X#X+X].`.).!.!.!.!.!.!.E.A.A.A.!.=X0X0XdXjXkXcXkXzXdXdXtXuXuX:X9X:XoX0.5.~ 5.5.q.a.f.N.9.9.8.5.5.8.8.5.1.~ 1.5.8.1.1.5.1.1.5.a.8.8.5.1.1.1.~ Q M M M ~ M M M M M M M M 1.5.8.9.r.9.9.r.r.9.9.9.9.r.9.9.5.8.8.5.5.5.5.5.1.2.9.8.1.5.~ 1.8.8.8.8.2.~ ~ W m b b b b k f f f b m m m W W m n f m | ( ( 0.~ ~ ~ 8.8.5.~ ~ 1.9.q.9.9.9.9.8.9.9.8.9.8.5.9.r.9.8.q.q.8.g.f.q.5.5.1.Q M ~ 1.~ M ~ 2.~ 5.~ M 5.9.9.8.5.5.1.5.8.9.5.5.Q ~ M r.5.~ 1.1.~ M ~ 5.5.C.w.q.5.5.w.e.w.5.q.5.5.M 5.w.q.@X>X>XCXAXCXAXlX-Xq.S.D.OX>XiXxXuXhXlXlXzXkXlXCXCXCXCXCXCXCXAXCXkXzXdXyXrXtXdXdXaXhXhXhXhXdXaXyXtXtX9X4X:X=X@XoXOX`.^.D.S.V.V.V.V.N.N.N.a.a.a.a.a.a.q.q.q.w.w.w.w.w.w.8.8.w.N.S.S.D.D.D.D.^.OXOX&X>XtXaXjXMXCXZXAXAXAXGXGXAXAXAXDXDXZXGXGXZXDXFXFXFXFXHXHXKXHXFXwX^ b g c g g v v v v c c v v c h h 0 0 6 4 g g 5 0 0 0 0 J J J J J L L ^ ] ' +.+.%.%.J % % % , < 2 1 3 0 3 g 6 6 0 0 6 6 0 0 ",
"6 6 6 6 g g g g 4 L d : d 6 : ; 4 d c y.d 4 v b d b T.W.Z.R.Q.W.'.E.v.p.E.).#X#X#X#X#X#X#X#X#X{.{.{.[.).Q.Q.GXFXFXAXSXSXcXSXSXMXkXkXkXkXkXjXjXdXdXdXdXjXkXkXkXdXdXdXdXdXaXaXpXtXtXtX0X0X9XjXdXaX9XyXkXSXfXkXSXGXSXAXAXhX4X&XbXzXcXzXdXcXyX9XrXjX9X:X;X&X@XoX_.`.].#X+X).).).).!.!.!.E.A.S.B.B.Z.R.*X0X0XaXjXkXkXzXdXdXdXtXaXdX4X@X:X;XV.q.q.5.M 8.8.w.a.9.8.8.8.8.9.5.1.~ ~ ~ 1.1.1.~ 1.1.~ 9.5.1.5.8.5.5.1.1.~ ~ ~ 1.1.~ M M ~ Q ~ ~ ~ 1.5.8.9.r.9.9.r.r.9.9.9.9.8.7.5.5.8.9.9.8.5.5.5.1.8.8.1.~ 1.Q ~ ~ 8.1.~ ~ ~ W m n n b b b k k k f b m m b m m m n f n ~ ~ ( 8.~ M ~ 6.8.1.~ ~ ~ 9.q.9.9.9.9.8.8.5.8.q.5.5.5.8.9.8.8.q.9.9.a.a.q.Q Q ~ ~ M ~ M m M 1.~ 5.M M 5.9.5.5.1.1.1.5.5.8.~ ~ m m 5.8.9.1.1.1.M M M q.w.q.8.q.5.1.q.w.w.1.q.5.5.M w.q.D.OXdXuXkXAXcXAXkXoXN.D.D.D.@X>XiXrXuXlXlXhXzXlXCXCXCXCXCXCXCXAXCXkXzXdXyXrXiXuXaXaXhXhXhXhXhXdXaXuXyXtX9X3X:X&X@XOX`.`.!.D.S.V.V.V.V.N.N.z.a.a.a.a.a.q.q.q.w.w.w.w.w.w.8.8.5.q.V.S.D.D.D.D.D.D.`.oX>XrXaXzXMXCXCXAXFXFXAXAXAXAXAXAXAXDXFXDXDXDXFXFXFXFXFXHXHXHXHXHXm.m.^ L c P ^ +.^ L J J v v c H J H v h 0 h g J U U U U J J J P P L R R L U J J 3 < ; < < 1 5 0 6 5 6 0 0 6 0 4 0 0 6 6 0 0 ",
"6 0 6 g g g d 6 4 ' : L K b 6 4 g v u.eX/.M.mX{.wX{.R.T.~.~.'.'.'.'.].[.*X2X2X2X2X2X2X2X2X2X2X2X2X|.6XVXDXHXHXFXSXCXCXcXcXkXkXkXkXkXkXkXkXkXkXzXhXhXhXkXjXhXjXdXdXdXdXdXdXaXaXpXyXtXtXtX0XtXpXtXuX9XdXSXkXfXSXAXFXAXFXSX:X4XiXiXcXcXzXbX>XyXdX4X&X@XoXoX@X@XoX].]._.`.).).).).).!.A.A.A.V.V.V.V.V.+X0X0XuXdXjXkXzXzXdXdXyXuXuX9X;X9XrXOXN.~ M M ~ 5.8.9.8.q.q.9.9.9.5.5.~ ~ ~ ~ ~ 5.~ ~ 1.~ q.~ 1.5.5.5.5.5.1.~ ~ ~ 1.~ ~ M m ~ Q ~ 1.1.1.8.8.8.r.9.9.r.q.9.9.8.5.5.5.5.5.8.9.9.9.8.5.5.5.8.8.1.~ M M ~ M 1.1.Q ~ ~ m n f f b b n f n n k b b b b b m b n n m W ~ 6.8.~ ~ ~ 5.8.1.1.1.1.8.8.8.8.8.8.8.8.5.8.9.8.5.1.5.8.5.8.9.9.5.9.q.8.5.Q Q ~ M m ~ m m m m 5.m M 8.8.1.5.9.5.~ 5.5.5.5.M M 1.1.1.1.1.1.~ ~ M 1.5.5.5.N.f.M 5.5.w.1.w.5.M w.~ q.f.D.rXuXNXCXCXcXAXhXD.N.V.D.;X;XiXrXbXuXxXlXhXzXlXcXCXCXAXAXCXCXCXcXkXzXdXuXrXiXuXaXdXdXdXdXhXdXdXdXaXaXyX0X4X:X;X@X+XOX_.!.R.A.S.S.V.V.V.V.z.z.a.a.a.a.q.q.q.w.w.w.w.w.w.w.w.5.5.q.S.D.D.D.S.S.D.^.OX:XrXaXzXkXNXSXAXFXFXAXAXAXAXAXAXFXFXFXFXFXFXDXFXFXFXFXFXGXFXHXHXHXU.%.J c L ^ ^ R L L L P P U U J J J G G J G G U P P P P U P Y R R R R P H 0 3 5 1 3 5 0 0 w w h h c c h h g v h h h v v c ",
"0 6 g 6 d g g c 6 ^ c [ P u.{.! ` wXGXGXnXGXGXHXVXFXHXGXnXnXnXmXmXmXmXVXGXGXGXGXGXGXGXGXGXGXGXGXVXLXLXGXFXHXFXDXSXCXCXcXcXkXkXkXkXkXkXkXkXkXkXkXhXhXkXkXjXdXdXdXdXdXdXdXdXaXaXaXpXyXtXtXtX9XyXyXyX9X9XkXyXpXkXAXAXAXAXAXdX:X4XdXuXuXuX9X9XyX9X&XoXoXoXoX].oX]._.].].].`.!.E.A.A.A.A.Z.B.V.v.v.v.V.+XqX0XyXdXjXjXkXzXdXdXuXuXyX9X4X9X9X&XD.q.~ M M ~ 5.5.8.0.0.8.8.8.8.5.1.1.~ ~ ~ ~ 1.5.1.1.8.5.1.5.5.5.5.5.5.1.1.5.1.~ ~ ~ ~ ~ M Q 1.1.1.1.5.8.9.9.9.9.9.8.8.5.5.5.5.5.8.9.9.9.9.8.5.5.8.8.5.1.~ M M ~ Q 8.8.6.~ W m f f k b k d d f f d k n n b b m n n m m M ~ ( 6.( ~ ~ ~ 8.1.1.1.1.5.5.5.5.5.5.9.8.9.8.1.5.1.3.5.1.1.8.8.5.5.9.q.8.5.Q Q ~ ~ M ~ m m m m ~ ~ M ~ 8.~ 5.5.5.~ 5.1.5.M ~ 1.~ 8.5.~ M ~ ~ 1.5.1.5.5.w.N.w.w.5.5.5.5.F.5.~ w.5.e.H.;XhXuXCXCXCXCXAX9XV.V.V.D.&X>XiXiXrXuXuXlXzXkXcXCXCXCXCXAXCXCXCXCXkXzXdXuXrXiXuXuXdXdXdXdXhXdXdXhXhXaXyXtX9X3X;X&X@XoX_.^.!.A.A.S.V.V.V.V.z.z.z.a.a.a.a.q.q.w.w.w.w.w.w.8.8.5.w.w.q.S.D.S.S.S.D.^.OX;X9XyXhXkXMXSXZXAXFXSXFXFXAXAXFXFXFXFXFXDXZXZXDXDXFXFXFXGXGXGXHXFXFXmXm.& & ; ; ; < < < < < < < < < , , , < < , < < < < < , < 2 1 3 3 3 3 9 9 0 0 0 0 0 0 0 e w w w h h h h h c c v v v v c ",
"c d c g : g g K d ! d u.2XGXHXmXFXHXHXHXFXHXHXKXKXKXKXKXKXKXKXKXKXKXKXKXKXKXKXKXKXKXKXKXKXKXKXKXKXHXKXKXHXHXFXSXSXCXCXcXlXlXlXlXkXkXkXkXkXkXkXkXhXhXkXkXjXhXdXdXdXdXdXdXfXaXdXdXaXyXyXyXtX4X0XyX9X:X:XdXCXSXkXSXGXAXAXFXAX4X>XuXuXbX&X&XrX:X@X@XoX`._._._._.].].].].].].).E.A.A.A.Z.b.V.z.z.z.v.V.+XqX0XyXdXjXkXkXzXdXdXaXuXyXyX9X9X9X>X`.S.8.5.M M M ~ 8.5.5.8.9.9.a.8.5.5.1.~ ~ ~ 8.8.M a.q.~ 1.5.5.5.5.5.8.5.5.5.~ M ~ ~ 5.~ m M ~ 1.1.2.5.8.8.9.9.8.8.5.5.5.5.5.5.8.9.9.9.8.8.8.8.8.8.5.1.1.Q M M ~ ~ 8.8.~ W m n k k n f f d d f f f f n n b m m k n m m W ~ ~ ~ 8.| ~ 1.5.5.1.1.1.1.1.1.1.1.5.1.5.9.8.5.5.5.1.1.1.1.1.5.5.5.9.q.9.5.Q Q ~ 5.~ M M m m f M 5.Q ~ ~ M 5.1.5.5.5.~ 5.~ ~ ~ 8.8.5.~ M 5.~ 1.9.1.M 5.q.q.5.N.w.5.~ 1.N.5.5.5.5.%X@XxX>XaXCXCXCXCXCX@Xq.V.S.D.&X9XuXuXxXdXrXkXkXcXCXCXCXCXCXAXCXAXCXcXkXzXdXuXiXiXuXuXdXdXdXhXhXhXhXhXhXaXyXrX9X4X:X;X&X@X+X_.!.R.A.S.S.V.V.V.z.N.z.a.a.a.a.q.q.q.q.w.w.q.w.w.8.5.5.5.w.N.V.S.S.S.D.D.OX&X>XtXdXkXMXSXZXAXFXSXFXFXFXFXAXAXAXAXSXMXMXMXMXSXGXDXDXFXHXFXGXGXHXFXeXd * ; ; % % - ; , , , , < < < , , < < , , , , - - % - - @ @ @ % , , @ @ @ # @ @ # # @ @ + + # @ % % % - % % @ + + o ",
"d ; g : 6 W K @.i.eXmXHXHXFXHXFXDXFXFXFXFXGXGXHXLXLXKXKXKXKXKXKXKXKXKXKXKXKXKXKXKXKXKXKXKXKXKXKXKXHXHXKXHXHXFXBXCXcXcXcXlXlXlXlXkXkXkXkXkXjXjXjXjXkXkXjXhXdXdXdXdXdXdXdXfXdXdXdXaXpXyXyXtX9X9XtX9X:X;X9XuXfXjXSXSXAXAXFXAXyX4XrX;X@X&XbX4XOX`.oX`._._._._._.oXoX+X].].+X[.).E.A.B.B.b.z.z.l.l.l.V.+XqX0XyXdXhXzXzXhXdXuXaXuXyX0XyX9X9X;XS.^.q.8.M m M ~ 8.5.5.8.0.q.8.5.5.5.5.~ ~ ~ 8.5.5.N.5.~ 1.5.5.5.5.5.5.5.5.5.~ M M ~ 5.m m M ~ ~ 1.2.5.5.8.9.9.8.5.5.5.5.8.9.9.9.9.9.9.8.8.8.8.8.5.1.1.1.~ M M ~ ~ 8.~ m m m f f k k f f f f k k b b m m b b b k m m M Q ~ Q ~ 8.1.5.8.5.1.5.5.1.1.1.1.1.1.1.1.1.5.9.8.1.1.5.5.1.~ ~ 1.8.5.9.q.9.5.Q ~ ~ 8.5.m m m m f m ~ ~ 1.~ M ~ 5.~ 8.5.~ 5.~ ~ ~ q.1.1.1.1.q.1.~ 8.~ M 5.f.q.5.N.w.1.M M 5.q.1.w.>X>X4XlXiXdXCXCXCXAXCXD.w.V.D.OX&X9XuXxXxXzXrXzXkXcXcXCXCXCXCXAXCXCXCXcXkXzXdXuXiXiXuXuXdXhXhXhXdXdXdXdXdXaXyXrX9X4X4X:X&X@X+X_.^.!.A.S.S.V.V.V.V.N.z.a.a.a.a.a.q.q.q.w.w.q.w.w.w.w.5.5.5.w.z.V.S.S.D.D.OX@X>XrXdXjXMXSXZXAXDXDXAXAXSXGXGXMXjXSXSXSXMXkXkXpXgXgXmXmXGXDXHXFXGXDXFXnXc * & ; ; ; , < < < 2 1 1 1 1 1 1 1 2 2 2 2 < < < < 2 < < < 2 2 2 < 2 2 < < < < < 2 2 < , < < , , , < < , , , < < ",
"T.T.T.Q.W.wXDXFXHXHXFXFXFXDXSXGXGXGXGXmXDXDXDXGXHXKXKXKXKXKXKXKXKXKXKXKXKXKXKXKXKXKXKXKXKXKXKXKXKXHXHXHXHXDXZXCXCXCXCXlXlXlXlXkXkXkXkXkXjXhXhXhXjXlXlXjXdXdXdXdXdXdXdXdXdXfXdXdXdXaXyXyXtX0X4X9X9X:X:X>X9XyXaXgXkXSXAXAXFXCX9X&X&X@X>XyX@XoX`.`.`.`._.].oX].`.!.).[.].!.+X).A.A.B.b.z.z.z.c.i.i.l.].5X0X0XaXdXhXdXdXuXuXaXuXyX9X9X9X9X9X&XD.V.~ M M n M ~ ~ 5.5.8.8.8.5.5.5.~ 5.5.5.8.5.q.a.~ ~ 6.8.8.8.1.~ ~ 5.6.5.~ ~ M ~ 5.M M M ~ ~ ~ ~ 1.5.5.8.8.8.5.5.1.1.5.8.8.8.8.8.8.8.8.8.8.5.1.1.1.8.Q M ~ ~ 1.1.~ M Q m m n n m k k k b m m m m m m m m m m m M M Q ~ ~ 1.8.~ 1.8.8.~ 9.9.~ 1.1.~ Q ~ ~ 1.~ 1.8.8.5.1.1.5.1.M ~ ~ 9.8.5.5.8.1.~ ~ M M M M m f m m 1.M ~ 8.~ 5.Q ~ ~ 6.M ~ 1.5.~ ~ 5.5.8.5.~ ~ 5.~ M ~ 5.9.a.9.5.5.N.5.M M 5.5.M OX7X<XxXxXtXhXCXCXCXCXCXV.N.V.D.@X>X9XuXdXdXkXhXhXzXlXlXlXlXcXCXCXCXCXcXcXkXzXhXuXyXiXuXdXdXdXdXdXdXhXdXdXhXaXuXtX9X9X9X3X;X&X@X+X_.^.!.D.S.S.V.V.V.V.z.a.a.a.a.a.q.q.q.q.q.w.0.w.8.8.5.5.5.5.q.V.S.D.D.^.`.$X4XtXaXhXkXCXSXAXAXFXSXSXcXSXSXjXgXSXAXGXSXjXgXgXgXpXgXgXmXSXGXFXHXHXHXHXqXL ; ; & , < < 2 2 2 2 2 2 2 2 2 2 2 2 2 2 2 < < < < , , , , , , < < < < < < 2 2 2 2 < < < < < < < < < < < < < , ",
"'.W.W.'.mXFXHXDXFXDXDXZXSXBXmXjXMXMXMXMXBXSXZXDXDXHXHXHXHXKXHXHXHXKXKXKXKXKXKXKXKXKXKXKXKXKXKXKXKXHXHXFXFXSXCXCXlXlXlXlXlXlXlXkXkXkXkXhXhXhXhXhXjXlXlXjXdXdXdXdXdXdXdXdXdXdXdXdXdXaXpXyXtXtX9X4X9X9X4X4X9X9XyXaXgXSXAXAXFXAXuX&XOX;X4X;XoXOX`.`.`.`.).).!.!.D.!.`.`.[.-X*X_.A.Z.b.z.z.l.c.l.i.i.i.].1X0X0XuXdXdXdXdXdXuXdXuXyXyX9X9X9X9X4X@X^.0.8.0.M M M ~ ~ 5.5.5.8.5.5.5.5.5.5.5.8.8.a.1.5.8.8.8.8.5.~ ~ ~ ~ ~ ~ ~ ~ M ~ ~ M Q ~ ~ 5.8.8.1.1.5.5.5.8.5.5.1.5.5.5.5.8.8.8.8.8.8.8.5.1.~ ~ ~ ~ ~ 1.1.1.1.1.8.8.~ ~ ~ M m m m M M Q Q Q Q Q Q Q Q Q Q Q Q Q Q Q ~ ~ ~ 8.1.~ r.8.1.9.9.1.1.1.~ Q M ~ ~ ~ 1.5.5.5.1.M ~ M M ~ ~ 8.8.1.1.5.8.8.~ ~ m M M m f f f ~ ~ ~ 1.1.8.~ ~ M ~ 8.~ ~ ~ ~ ~ ~ 5.5.5.M ~ 1.~ M ~ 1.w.q.5.1.1.8.5.M M 1.M M ,XxXiXxXhXzXlXCXCXCXCXdXN.N.V.^.@X4X9XuXdXdXzXdXzXzXkXlXlXlXcXcXcXCXCXCXcXcXzXzXuXuXiXuXdXdXdXdXhXhXhXhXhXhXdXaXyXtX0X9X4X3X=X&X+X_.`.^.!.A.S.V.V.V.V.N.a.a.a.a.a.q.0.q.q.0.w.w.8.5.8.5.5.5.5.0.N.V.D.D.D.^.OX>XrXuXdXkXSXCXAXFXAXSXcXSXSXSXSXSXSXSXSXMXSXjXSXSXGXSXMXgXgXgXmXGXFXHXFXFXmX|.c ; % < 2 2 2 2 2 2 2 2 2 2 2 2 2 2 2 2 < < < < , 2 , , , , , , < < < < 2 2 2 2 < < < < < < < < < , , , < < ",
"E.R.6XFXFXFXFXDXBXBXjXjXjXjXfXfXkXkXkXkXMXMXMXSXGXDXDXDXFXFXFXHXHXHXHXHXHXHXHXHXGXGXDXDXDXDXDXDXHXHXHXFXSXSXSXCXCXlXlXlXlXlXlXlXkXjXhXhXhXdXhXhXjXlXkXjXdXdXdXdXdXdXdXdXdXdXdXdXdXdXaXyXyXyX0X9X>X4X>X>X9X9X0XyXdXMXAXAXAXFXdXoXD.&X;X`.`.`.D.D.D.D.D.D.!.`.`.`.-X+X].+X[.].E.Z.b.z.z.i.i.i.i.p.p.).-XqX9XyXuXdXhXzXdXdXdXaXyXyXyX9X4X;XtX:X@XN.q.N.5.M M M ~ ~ 5.~ 5.~ ~ 5.5.~ ~ 5.5.9.9.8.~ 8.8.8.~ ~ ~ ~ ~ ~ ~ ~ M M M M ~ M M M ~ ~ 1.1.~ ~ 5.~ ~ 5.1.~ 1.5.5.5.5.5.5.8.8.8.5.5.5.1.~ ~ 1.1.~ 8.8.2.8.8.5.8.2.~ ~ ~ Q Q Q Q Q Q ~ ~ ~ ~ ~ ~ ~ ~ ~ ~ ~ ~ ~ Q M Q ~ 1.5.1.a.5.8.9.9.8.1.1.~ M M ~ ~ ~ 1.1.1.5.5.~ M M M 1.1.8.8.~ ~ 5.8.8.~ ~ M Q M m f f f 1.~ ~ ~ 5.1.~ ~ M 5.M ~ ~ ~ ~ ~ ~ ~ 5.~ M M ~ M m ~ ~ 5.8.q.9.5.5.5.N N 1.5.q.>XiXiXxXlXlXCXCXCXCXNX;Xq.N.S.OX;XrXrXuXdXdXdXdXzXkXlXcXcXCXCXCXCXCXCXCXCXcXlXzXdXuXuXuXdXdXdXdXhXhXhXhXhXhXhXdXuXyXtX0X9X4X;X*X@XoX_._.^.!.A.S.V.V.V.V.z.a.a.a.a.a.0.0.0.0.0.0.8.8.8.5.5.5.5.8.a.V.V.S.D.D.OX>X4XtXdXkXSXAXAXAXSXjXjXSXSXSXSXAXAXSXgXjXMXSXZXAXAXAXAXSXBXjXSXGXFXFXHXHXFXDXU.h & # 2 2 2 2 2 2 2 2 2 2 2 2 2 2 2 2 , < < < 2 2 2 2 2 2 , , 2 2 2 2 2 2 2 2 2 2 2 2 < < < < < < < < < < ",
"sXGXFXHXFXDXGXMXgXgXdXdXfXfXfXfXjXjXkXkXkXkXBXBXBXBXBXGXDXDXDXDXDXDXDXDXDXDXFXFXHXDXmXsXwXwXwXeXVXFXFXFXSXSXCXCXCXlXlXlXlXlXlXlXkXhXhXhXhXdXdXhXjXlXkXhXdXdXdXdXdXdXdXdXdXdXdXdXdXdXaXaXyXyXtX9X>X9X4X>X:X9X9X0XpXkXSXSXAXAXjX-X`.oXoXD.`.D.D.D.D.D.D.S.S.A.!.!.`.+X+X`.!.].`.E.V.z.z.i.i.p.p.p.p.~.*X5X4XtXuXuXkXkXjXdXdXaXuXyXuXyX4X&X0X;X&XV.w.N.w.M M M M ~ ~ ~ ~ ~ ~ 5.6.~ ~ ~ 8.8.1.~ M 5.8.5.~ ~ ~ ~ ~ 5.~ M M M M M M m m m M M M M ~ Q ~ M M ~ ~ ~ 1.5.5.8.8.5.5.5.5.5.5.5.1.1.1.1.5.1.1.9.9.5.1.1.2.5.2.~ ~ ~ ~ ~ ~ ~ Q ~ Q ~ Q ~ ~ ~ ~ ~ ~ ~ ~ ~ ~ Q M M Q ~ 5.9.9.9.9.9.9.9.1.1.~ ~ M ~ ~ ~ 1.~ ~ 5.5.5.M M m M m M 5.~ ~ 1.1.1.~ M ~ ~ M m f f f 8.5.~ m 5.M ~ 8.~ M 8.( ~ M Q ~ ~ ~ 1.~ M M ~ M m ~ 1.5.5.5.5.5.m 1.N N M q.D.xXlXiXlXCXkXCXCXCXCXlXOXw.N.S.OX;XrXrXuXxXdXuXuXzXcXlXlXCXCXAXAXAXAXAXAXCXcXlXzXdXuXuXuXdXdXdXdXhXdXdXdXdXdXhXdXaXyXyXtX9X4X3X=X&X+X+X_.`.^.R.S.V.V.V.V.V.z.a.a.a.a.0.0.q.0.0.0.8.8.8.5.5.5.5.5.q.N.V.V.D.D.OX;X4XtXdXkXSXAXAXAXSXgXgXjXSXAXDXAXAXAXSXSXSXAXDXAXSXSXSXGXAXSXBXBXBXSXDXFXFXHXLX^ 4 , 2 2 2 2 2 2 2 2 2 2 2 2 2 2 2 2 < < < < , 2 2 , 2 2 2 2 2 2 2 2 2 2 2 2 2 2 2 2 < < < < < < < < < < ",
"HXFXDXSXmXjXjXfXfXfXfXfXfXfXkXkXfXjXkXkXMXMXkXkXMXBXMXSXSXSXSXSXSXZXAXDXDXDXDXDXHXHXHXHXDXmX1X1XDXDXDXSXSXSXCXCXcXkXlXlXlXkXkXkXzXhXhXhXdXdXdXdXjXkXjXdXdXdXdXdXdXdXdXdXdXdXdXdXdXdXdXaXaXyXtX9X9X3X9X9XqXqX0X0XwXpXcXFXFXAXAXgX&XD.`.`.D.D.S.S.S.S.S.S.A.A.A.!.!.[.*X@X+X+X).).Z.z.l.i.p.p.y.p.d.B.#X4X3X9XuXdXkXkXjXdXuXuXyXyXuXyX9X9X:XoX;XOXD.V.z.5.M M M ~ 5.~ 5.~ ~ 5.8.~ ~ 5.~ M ~ M M ~ ~ ~ ~ ~ ~ ~ ( 8.M m m M M M m m m m m m m M ~ Q M M M ~ ~ ~ 1.5.5.9.9.8.5.5.5.1.1.1.1.1.~ 1.5.5.5.9.8.8.1.1.1.1.1.~ ~ ~ ~ ~ ~ Q ~ Q Q ~ ~ ~ ~ ~ ~ Q Q ~ ~ 8.1.~ 8.~ ~ ~ 9.8.5.1.8.q.9.8.1.~ ~ ~ 1.~ M M 5.m Q M M 5.M m 1.M ~ Q 5.8.1.1.1.1.~ M ~ 1.n n n n n m m M ~ M m ~ 5.8.M M ~ ~ m m M ~ M ~ ~ M M M m M ~ ~ ~ 1.M 5.1.N M M M 5.N.%XxXhXuXzXzXCXAXCXCXcXzXD.z.N.D.&X4X9X9XyXdXdXdXdXjXkXcXcXCXAXAXAXAXAXAXAXCXCXlXkXhXuXuXuXdXdXdXdXdXdXdXdXdXdXdXdXdXuXyXtX9X9X4X;X&X@X+XoXOX`.!.R.S.V.V.V.z.z.a.a.a.a.q.q.q.q.0.0.8.8.8.8.5.5.| 5.a.N.V.S.S.D.`.;X4XrXdXjXkXSXAXAXSXyXaXfXSXSXAXAXAXAXFXFXAXAXAXAXAXSXSXZXZXZXZXSXSXSXZXDXFXHXHXeX/ % 0 e , 2 2 2 2 2 2 2 2 2 2 2 2 2 , , r r 2 2 2 2 2 2 2 2 2 2 2 2 2 2 2 2 2 1 1 1 2 2 2 2 2 2 2 2 2 2 ",
"AXZXSXBXjXjXjXfXjXfXfXfXfXfXkXkXjXjXkXMXjXjXkXjXkXMXMXMXSXSXSXSXSXSXZXZXAXDXDXDXDXDXDXFXHXFXDXFXFXDXZXSXSXSXSXCXcXkXkXlXlXkXkXkXzXzXzXhXdXdXdXdXjXkXzXdXdXdXdXdXdXdXdXdXdXdXhXdXdXdXdXaXaXyXyX0X9X9X9X9XaXdXaXaX0XqXpXZXAXAXAXFX&XD.D.D.D.D.S.S.S.S.S.S.S.A.A.A.!._.+X@X#X-X_.).A.b.l.p.0.0.0.0.p.Z.*X5X3X4XpXdXhXkXhXdXuXuXuXuXuXyX9X9X9X&X:X:X`.z.V.V.8.~ 5.8.~ ~ 8.5.~ 0.0.~ 5.~ M ~ M ~ 8.8.~ ~ ~ ~ ~ M 8.~ m n n m M m m m m m f n M ~ Q ~ M M M ~ ~ ~ ~ ~ 1.1.5.8.5.5.1.1.1.1.1.~ Q 1.1.5.7.9.5.1.1.2.8.1.~ ~ ~ ~ ~ ~ Q 2.~ M M ~ ~ ~ ~ ~ ~ Q Q ~ ~ 5.1.( 1.8.1.~ 5.8.5.1.5.q.q.8.5.1.1.1.5.~ M M 1.M M M M 5.q.m M Q 5.~ ~ ~ ~ ~ ~ 1.~ ~ M M M n n M n ~ M m ~ 8.m M ~ ~ ( M Q ~ M f m ~ M ~ ~ M n m ~ M M ~ ~ ~ 1.M M M M M 8.5.D.rXhXiXxXrXlXkXAXAXCXcXrXq.N.N.D.&X9X9X9XyXdXdXdXdXjXkXkXcXCXAXAXAXAXAXCXCXCXCXkXzXdXuXuXuXdXdXdXdXdXdXdXdXdXdXdXdXdXaXyXtXrX0X4X3X=X@X&X+XoX_.^.!.A.S.V.V.z.z.a.a.a.a.q.q.q.q.0.0.8.8.8.8.5.5.| 5.z.V.V.S.S.D.`.;X9XrXjXMXSXAXFXFXfXSXkXSXAXAXAXAXAXAXFXFXFXFXAXAXAXAXAXSXSXSXZXZXBXSXSXDXFXHXHXGX/ 3 Z , 2 1 2 2 2 2 2 2 2 2 2 2 2 2 2 2 H &.2 2 2 2 2 2 2 2 2 2 2 2 2 2 2 2 1 1 1 1 2 2 2 2 2 2 2 2 2 2 ",
"kXkXjXgXjXkXkXjXjXfXfXfXjXjXkXkXjXjXjXjXmXmXkXjXjXjXkXkXSXSXMXMXMXMXSXSXZXZXAXDXDXDXDXFXFXFXFXFXFXAXZXSXSXSXSXSXcXkXkXkXkXkXkXjXzXzXzXdXdXdXdXdXjXkXdXdXaXdXdXdXdXdXdXhXhXdXdXhXdXdXdXdXaXaXyX0X0X9X9X9X9X9X9X9X0X9X0XgXCXAXAXFX9XD.S.S.S.S.S.S.S.S.S.S.S.A.A.A.!.!._.@X#X*X*X).E.b.i.y.0.0.} 6.y.B.#X5X;X4XtXaXdXhXdXdXuXuXuXuXuXyX9X9XrX4X;XrXoX`.&XOXa.8.8.0.8.~ 5.~ 0.5.~ 5.~ M M M M 5.a.8.M M M M ~ m 5.M m f f m m m m n m n f M ~ Q ~ M M M M ~ M Q ~ ~ ~ 1.5.5.5.1.1.1.1.1.1.~ Q 1.9.8.9.a.8.2.1.8.8.~ ~ ~ ~ ~ ~ ~ ~ 8.2.M M ~ 2.~ ~ ~ ~ Q Q ~ 1.~ ~ 5.5.9.8.1.~ 8.9.1.1.q.q.8.5.5.1.1.5.1.M M ~ 1.M M M ~ f.1.M 5.5.M Q M M Q ~ ~ ~ ~ ~ ~ m f f M m ~ f m ~ ~ M M ~ ~ q.Q m M M f f ~ M ( ~ Q ~ m m m m ~ 5.M M M m M M 1.q.q.%XiXrXzXzXrXlXlXAXAXCXcXOXw.N.D.^.;XrXyXrXyXdXdXdXdXkXkXkXcXCXAXAXAXAXAXCXCXCXCXlXkXdXdXdXuXuXuXdXdXdXdXdXdXdXdXdXdXdXdXuXyXtX0X0X4X;X&X&X+X+XOX_.^.!.A.V.V.z.z.a.a.a.a.q.0.q.q.0.0.8.8.8.8.5.5.5.5.z.V.V.S.S.D.OX;X9XrXjXNXSXAXAXDXFXuXgXSXSXAXZXAXAXAXDXFXFXAXAXAXFXFXDXAXZXSXZXZXSXSXSXDXFXHXDXKXU.H Z , 2 1 2 2 2 2 2 2 2 2 2 2 2 2 , , , , , 2 2 2 2 2 2 2 2 2 2 2 2 2 2 2 1 1 1 1 2 2 2 2 2 2 2 2 2 2 ",
"jXkXkXkXkXjXjXjXfXfXfXfXjXjXkXkXjXjXjXjXmXmXkXkXjXjXkXkXMXMXMXMXMXMXMXBXSXZXZXAXDXFXFXDXSXBXSXFXDXAXAXZXSXSXSXSXSXcXkXkXkXkXkXkXjXzXzXdXdXdXdXdXjXjXdXdXuXuXaXdXdXdXdXhXdXdXdXdXdXdXdXdXdXaXaXtX0X9X9X9X9X9X9X3X9X9XqXyXCXAXAXSXkX&XD.S.S.S.S.S.S.S.S.S.S.A.A.A.!.E.).@X+X#XqX[.E.B.l.0.} } } } } c.].*X=X3XtXuXdXhXdXuXuXdXuXuXyXtX9X9XrXyX;XyXoXoX;XOXN.a.a.a.8.~ 8.5.8.( ~ M M ~ M m ~ 8.8.M M M M m M ~ ~ M m n n m m m n n n f f a.~ Q m M M M M M M M ~ 1.1.5.5.1.1.1.1.1.1.1.1.~ ~ 9.r.9.t.a.8.1.1.8.2.~ Q ~ 1.1.~ Q 1.8.2.~ Q ~ ~ Q M ~ ~ Q Q ~ 8.~ ~ 8.8.a.q.1.M 9.q.1.1.9.q.8.5.5.5.1.5.1.~ M M 5.M M M Q 9.8.5.5.5.m Q ~ Q Q Q ~ ~ ~ Q M ~ m f n n m n m 1.8.~ ~ 1.~ a.~ m m f n m m M ~ ~ Q m ~ m M m ~ ~ M m M M m M 5.w.V.;XiXrXhXlXhXlXAXAXAXCXcXS.N.N.D.`.;XyXyXrXuXdXdXdXhXjXkXkXcXCXAXAXAXCXCXCXCXCXcXkXhXdXdXdXdXdXuXuXuXuXuXuXdXdXdXdXdXdXdXaXyXtXrX0X4X3X=X=X&X$XoXOX^.^.!.V.V.z.z.a.a.a.a.a.0.0.0.0.0.8.8.8.8.5.5.5.5.z.V.V.S.S.D.`.&X4X9XdXfXkXSXAXAXfXdXgXkXSXSXAXAXAXAXAXAXDXAXDXFXDXAXAXAXDXAXAXZXZXSXSXZXDXFXFXKXGX! Z 8 < < 2 2 1 2 2 2 2 2 2 2 2 2 r t , e 2 2 2 2 2 2 2 2 2 2 2 2 2 2 2 2 1 2 2 2 2 2 2 2 2 2 2 2 2 2 ",
"fXfXfXfXfXjXjXfXfXfXfXfXjXjXjXkXkXkXkXjXmXBXjXjXjXjXkXkXMXMXkXMXBXBXMXBXMXSXZXZXDXDXDXDXfXaXaXjXBXSXZXZXAXAXAXAXAXSXSXSXSXkXfXfXhXhXdXuXuXyXuXdXzXdXdXdXuXuXuXaXaXdXdXdXdXdXdXdXdXdXdXdXdXdXaXyX0X0X0X9X9X:X9XaXgX0XqX0XfXCXDXDXAXyXS.S.S.S.S.N.N.N.V.B.S.S.A.A.!.A.!.]._.#X+X+X+X).v.p.} } | | ) p.'.#X=X3X9XyXdXdXdXdXdXdXdXuXyXyX9X9XrX9X9X>X@X&X:XOXD.0.8.8.8.q.8.8.~ ~ ~ M M m m m ~ ( ~ ~ ~ ! M m m ~ ~ ~ ~ m m m m m f m n f m ~ ~ M m m M M M M M M 1.1.1.5.5.1.1.1.~ ~ 1.1.~ Q 1.r.r.9.t.a.8.1.1.2.1.~ ~ 1.1.~ ~ Q 1.1.~ ~ Q Q Q Q m ~ ~ Q Q 2.8.~ ~ 8.1.5.8.1.M 1.9.8.9.8.a.1.5.1.q.8.~ 1.~ 1.1.~ 1.m ~ ~ 1.1.5.1.1.M M M M ~ ~ M a.~ M m m 6.n n f m Q m 5.8.~ ~ ~ ~ d.Q f n m m m M ( ~ ~ Q M M M ~ ~ ~ ~ m m m M M n 0.8.:X>X>XrXlXzXlXlXCXAXzXzXyXS.0.N.`.OX>XyXyXuXdXhXhXjXjXkXkXcXCXCXAXAXCXCXCXCXCXCXCXlXkXhXdXdXdXuXuXuXuXuXuXuXdXdXdXdXdXdXdXaXyXtX0X0X4X4X;X=X=X&X+XoXOX^.^.!.B.V.z.z.a.a.a.a.0.0.0.0.0.8.8.8.8.5.5.| 8.z.V.V.S.D.D.`.@X:X9XdXjXkXCXFXAXqX9XyXdXSXAXSXSXSXSXSXZXAXDXFXDXAXAXAXDXFXDXAXAXAXAXAXAXDXFXDXHXHX|.X.A Z 2 B Z 1 8 1 2 Y.# 1 t U 2 e B e > r 1 2 2 2 t 2 B B , 2 B r r 2 2 2 , 2 , 2 B 2 t 2 2 2 2 1 t ",
"fXfXgXgXfXfXfXfXfXfXfXfXjXjXkXkXkXkXjXjXmXBXkXjXkXkXkXkXMXMXkXkXMXMXjXfXjXMXSXZXAXDXDXAXSXfXpX0XkXMXSXSXCXAXAXFXAXAXAXAXAXAXAXAXcXhXyX9X9X9XuXhXdXdXdXuXuXuXuXuXaXaXdXdXaXaXaXaXaXdXdXdXdXdXaXyX0X0X0X0X9X9X9X0XyXaXgXdXdXdXSXAXFXjXoXV.V.V.V.V.V.V.V.V.S.S.S.S.A.A.A.).!.!.].-X+X).b.y.} } | ` ~ y.).#X1X1X4XtXdXhXdXdXdXdXdXuXuXyXrX9X9X9X9X>X:X:X&XOX_.z.8.8.a.0.8.~ M M Q M m m M M ~ ~ ! ~ ~ M M M ~ ( ~ M M m m m m m n n n f m M M M m m M M M M M ~ ~ 1.1.8.8.1.1.1.~ ~ 1.~ ~ ~ 5.r.9.9.t.a.1.~ 1.5.1.~ 1.8.2.Q M Q ~ M Q Q Q Q Q ~ M ~ ~ Q ~ 2.1.~ ~ 2.1.1.5.5.Q ~ 1.8.9.5.5.1.5.9.5.9.1.~ ~ ~ 1.5.M m M M M 1.1.1.~ M M M M Q 1.~ 5.q.8.M n M ~ f f n m Q 5.~ ~ ~ ~ ~ ( m f n m m m M ~ ~ ~ Q m m ~ ~ m M m n ~ M M M m N.q.>XtX4XiXlXzXlXlXCXAXzXzX4Xz.w.N.D.OX:X9X9XdXdXhXhXjXkXkXkXkXcXCXAXAXAXCXCXCXCXCXCXkXkXhXdXdXdXuXuXuXuXuXuXuXdXdXdXdXdXdXdXaXuXyXtX0X0X4X3X1X=X=X&X$XoX_.^.~.R.V.v.z.a.a.a.a.0.0.0.0.0.8.8.8.8.5.5.5.0.z.V.V.S.D.D.`.@X:X9XdXjXkXCXFXSX9X:XuXdXkXSXfXfXfXfXkXMXSXSXCXZXAXDXFXFXFXFXDXAXAXAXAXAXAXDXFXHXHXnXs.T Z G T U 1 Z e t  Xt 1 7 E 2 B B B B G Z r t 2 # , H R r G E R B R e , , , , 2 R B B Z Z Z Z H r ",
"fXgXgXgXfXfXfXfXfXfXfXfXkXkXkXkXkXkXkXkXmXmXjXjXkXMXSXSXSXMXkXjXBXkXgXgXgXmXmXSXZXAXAXAXAXSXgXpXdXdXjXjXhXfXkXSXAXAXAXAXAXAXAXAXAXSXgXyX9X9X9XdXyXuXyXyXuXyXuXyXuXuXuXuXaXaXaXaXaXaXdXdXdXdXaXyX0X0X0X0XqX0XqX3X3XaXfXdXjXdXkXAXFXAX9XN.N.N.z.z.N.z.z.z.V.S.S.S.A.A.A.A.E.!.].-X1X[.R.l.| [ ` / / } E.#X=X;X3X9XdXhXdXdXdXdXdXdXdXaXyXtXrX9X9X>XtX9XoX_.S.z.q.N.z.0.8.M m m ~ ~ ~ M m m ~ M M M m m m m ~ ( ! M m m M m n f m m m n m m m m M m M M M M M Q ~ ~ 1.5.5.1.1.1.~ ~ ~ Q ~ 1.8.9.8.9.9.9.1.5.8.5.1.~ 1.9.5.M m ~ M M M Q M M Q ~ ~ ~ Q Q ~ 1.1.~ ~ 1.1.1.5.8.1.~ ~ 1.5.9.1.~ 5.a.~ 8.8.1.~ M M 5.~ ~ m M M 1.1.5.5.5.~ M M M M m M 8.1.~ ~ f 0.m f m m M ~ M ~ ~ ~ ~ ~ m n n m m m m ~ ~ ~ ~ m m ~ M n n n m m m M ~ N.9.S.9XhXiXrXkXzXkXcXCXAXkXkXD.q.q.V.`.&XbX4XrXdXhXhXkXkXkXkXkXkXkXCXCXAXAXAXAXAXAXCXCXkXkXhXdXdXdXuXuXuXuXuXuXuXdXdXdXdXdXdXdXaXuXyXtXtXrX4X4X3X;X=X&X@X$X+X_.~.!.Z.V.z.z.a.a.a.a.d.d.0.0.8.8.8.8.8.8.8.a.z.V.V.S.D.D.OX&X>XtXdXjXkXCXSXuXqX4XgXfXjXkXjXfXjXdXfXjXMXNXNXSXZXAXAXAXAXAXAXAXAXAXAXAXAXDXFXFXFXFXVX/.T A U 2 8 2 1 t 1 > t , t r t t t , 2 2 2 2 2 r 2 > t t 2 e e Z r > 2 2 , , > # t 2 2 2 2 1 1 > ",
"gXgXgXgXfXfXfXfXfXfXfXfXkXkXkXkXkXkXkXkXBXBXjXjXkXkXSXSXSXMXkXjXjXfXgXgXgXmXMXMXAXAXAXAXAXDXAXCXyXaXgXdXhXfXkXSXSXAXAXAXAXAXAXAXFXAXAXAXgX0X9XuX9X9XrX9XyXyXyXyXyXyXuXuXuXuXaXaXaXaXdXdXdXdXdXaX0X0X0X0X0XyX0X=X:X3X0XuXyX0X9XyXAXAXCXD.z.z.z.z.z.z.z.z.V.V.B.V.B.Z.A.A.).+X+X+X*X_.B.i.| [ ^ ^ / | R.#X*X=X;X4XdXhXdXdXdXdXdXdXdXdXuXuXtX9X9X>XyX9XoX`.S.V.z.N.a.0.0.~ M M ~ ~ M M M M M m M m n m m m m ~ ! ~ m m M m m n m n f n n n n m m m M M M M M ~ Q Q ~ 2.1.1.1.~ ~ ~ ~ M ~ 8.9.8.9.8.8.7.8.9.7.5.~ M ~ 7.5.M M ~ M M M M M m Q ~ ~ Q m Q ~ 1.1.Q ~ ~ ~ 1.1.5.5.~ 1.5.~ 9.1.1.5.r.1.5.8.1.~ M n M 8.8.m m M ~ M 1.1.~ 5.M m M ~ M ~ 8.~ M 5.M M 5.f M W m M M ~ ~ ~ ~ ~ m n m m m m m ~ ~ ~ M M n | M m n m M n M 5.w.D.N.D.>XlXiXiXlXzXkXcXCXAXkXuXq.z.N.D.&X>XrXrXdXdXhXzXkXkXkXkXkXkXkXCXCXAXAXAXAXAXAXCXCXlXkXhXdXdXuXuXuXuXuXuXuXuXdXdXdXdXdXaXaXaXaXuXyXrX0X0X4X4X3X;X&X&X$X+XOX^.!.R.B.V.z.a.a.a.a.d.d.0.0.8.8.8.8.8.8.0.a.z.V.V.S.D.D.oX;X9XuXdXjXkXCXuX:XuXuXfXkXjXkXkXSXCXkXkXkXMXCXZXZXCXNXZXZXAXAXAXAXAXAXAXAXAXDXFXDXDXDXnXd.U T h 8 8 1 e 8 e e 2 > B 1 r B e > t t , < , > t , 2 w R w Z Y e < , , < < t < > # @ @ @ > , t ",
"sXaXgXfXfXfXfXfXfXfXfXjXkXkXkXkXkXkXkXjXjXjXjXjXkXkXMXSXSXMXkXkXjXkXkXkXBXMXBXBXSXSXSXSXZXAXDXDXCXCXfXqX0XdXkXSXSXSXSXSXSXSXAXAXAXFXFXFXAXfXyXpXqX9XqXqX9X9XyXyXyXyXyXyXpXpXaXaXaXaXaXdXdXdXdXaXyX0X0X0X0XtX3X;X3X:X4XyXaXtX&X9XfXZXAX@XV.z.z.z.z.V.z.z.z.z.V.V.V.S.A.A.`.5X#X[._.!.Z.c.} [ ^ ^ ^ ` c.[.*X=X;X3XdXzXdXdXdXdXdXdXdXdXdXaXyXrX9X4X9X9X@XD.`.A.S.z.a.z.0.0.~ m m m ! ~ ! M M m M n n n m m b M ~ ! M M M M m n m f f n n n n n n M ~ M M M M M M Q ~ ~ ~ ~ 1.~ ~ ~ ~ Q 1.9.a.8.9.5.8.8.8.8.8.1.~ M Q 7.8.~ Q Q M M M M M m Q ~ Q m m M ~ 2.1.Q Q Q 1.1.5.8.5.M ~ 5.1.1.1.8.5.9.9.1.M ~ M Q m m Q a.m m M 5.~ ~ ~ 8.5.M m m m M ~ 8.5.M ~ ~ W 6.M m ~ m m m W W W M m m m m m n m M ! | M M ~ m | M M n n M m 5.5.k.D.OXD.uXiXiXhXzXCXCXcXCXcXkX>Xz.0.V.`.oX:XrXuX9XuXhXzXkXlXlXlXlXlXCXCXCXCXCXCXCXCXCXCXCXlXkXhXdXdXdXuXuXuXuXuXuXuXdXdXdXdXdXaXaXaXaXaXuXtXtX9X9X4X3X3X=X&X@X+X+X`.!.R.S.V.z.a.a.a.a.0.0.0.0.8.8.0.0.8.8.z.z.z.V.S.A.D.oX@X:XtXaXjXCXkXdX&XoX9X9XyXyXyXyXSXjXSXAXAXAXSXfXZXZXSXjXSXAXAXAXAXAXAXAXAXAXAXAXFXAXAXFXLXK Y U U &.T UX=. .L.=. .G R &.e H Z 2 < < , , , , - X L 1 - 2 H v 0 - - - I.U.U.0 - 5 v H ; % > 3 ",
"sXaXaXdXgXgXfXfXfXfXfXjXkXkXkXkXkXkXkXjXjXjXjXjXkXkXMXSXSXMXkXkXkXBXMXMXMXMXBXBXMXMXMXSXSXZXAXDXAXAXSXdXaXaXdXkXMXSXMXSXSXSXSXSXSXSXAXAXFXFXSXyX9XqXqXqX9X9X9X9XrXtXtXyXyXyXyXyXaXaXaXaXaXaXaXaXyXyXyX0XtX9X:X:X=X&X=X9XyXtXpX:XaXkXZX9XS.z.z.z.z.V.z.z.z.z.V.V.V.S.A.A.).*X+X+X-X*X).R.y.` ^ ^ ! ` l.).@X-X=X:XuXdXdXdXdXdXdXdXdXdXdXaXuXtX9X9X9X9X=X`.OXS.!.z.8.z.V.0.m n n m m M ! ~ ~ ! ~ M f b m n m M ! M M M M M m n m n f n m m m f m ! ~ W ~ ~ M m M ~ 1.~ ~ ~ 1.1.~ ~ ~ 1.~ 9.r.8.5.5.8.8.8.5.2.1.~ M Q 5.1.1.Q M M m M M M M Q ~ m m m Q Q ~ 1.Q ~ ~ ~ 1.1.5.9.1.M ~ 5.M M 9.9.r.5.M M ~ M ~ M M m ~ M m M 5.5.~ M ~ ~ M f m m m M ~ 8.M M ~ m ! W m M m m m ~ M m m M m n m n n m ! ~ | ~ m M ~ 8.m M m m M 5.w.w.D.D.OXOXzXiXhXuXcXCXCXcXCXSXkXD.0.q.V.`.&X>XrXrXrXyXdXkXkXlXlXlXlXCXCXCXCXCXCXCXCXCXCXCXCXlXkXhXdXdXdXuXuXuXuXuXuXuXdXdXdXdXaXaXaXaXaXaXuXyXtX9X9X4X4X3X;X&X$X+XoXOX^.!.A.V.v.a.a.a.a.0.0.0.0.8.8.0.8.0.a.z.z.z.z.A.D.!.oX&X4XtXaXfXkXdXyXoX&XdXNXdXdXdXdXdXuXdXSXSXkXMXZXAXAXAXCXSXAXAXAXAXAXAXAXAXAXAXAXFXAXAXFXHXs.4 8 # r t 8 B B t , 2 > t r 2 2 r 1 2 2 < < ; < 4 ] |.|.%.v v 6 P J J {.HXHXLXVXVXU.] ' I.%.L + ",
"pXaXaXaXaXdXfXfXfXfXfXjXjXkXkXkXkXkXkXkXjXjXjXjXjXkXSXSXSXMXkXkXmXBXBXBXBXBXBXBXBXMXBXMXMXSXZXAXAXZXZXAXkXyX0XaXkXkXjXjXjXjXgXgXfXkXSXSXFXDXCXSXdX9X&X9X9X9X9X9X9X9X9XrXtXtXtXtXyXaXaXaXaXyXyXyXyXyXyXyXtX3X;X3X=X&X=X9XrXyXfX0X9XaXZXMXD.z.a.z.z.z.z.z.z.z.z.V.V.S.A.A.!.).+X+X*X+X~.T.y.[ ! ^ L ^ i.).[.*X=X-X9XuXdXdXdXdXdXdXdXdXdXdXaXyXrX9X>X4X4X+XoXD.!.V.0.z.S.0.m n n n m m m m ~ M ~ m f b m m m M ! M M W M M n n n m n n m m m m ~ ! M ~ ~ ~ M M ~ 5.1.~ Q ~ 1.1.~ ~ ~ 8.~ 8.9.5.~ 8.7.8.2.8.9.3.Q M M ~ ~ 1.~ M M m M M M Q Q Q M M M Q Q Q ~ 1.1.1.M Q ~ 1.5.8.M Q 8.M M 5.8.9.1.m M ~ M ~ ~ ~ m M ~ M M ~ 5.~ M M ~ M m n m M m m M 8.M M M m m m m m m m W b n M ! m n n f f n M ~ ~ ~ m ~ ~ ~ n M m M M 5.5.w.S.D.D.D.;XuXzXxXCXCXCXCXCXcX9Xz.8.q.S.oX;XbXbX9XuXuXuXkXlXlXCXCXCXCXCXCXCXAXAXAXAXCXCXCXCXlXkXhXdXdXdXdXdXdXdXuXuXdXdXdXdXdXdXdXaXaXaXaXaXaXtXtX0X9X4X4X;X&X@X+X+XoX`.!.D.S.V.z.a.a.a.0.a.0.0.8.8.0.~ 0.V.V.V.V.S.D.D.!.oX&X4XyXdXdXdXyX;X_.=XkXZXAXAXAXAXfXuXuXkXSXkXfXSXZXAXAXSXSXAXAXAXAXAXAXAXAXAXAXAXFXGXAXFXFXLX6X8 # t 1 w 7 r B 2 1 , , , r , < 2 2 < < ; 4 ] |.eXDXHXLX}.|.LXGXmXVXDXHXHXHXKXLXHXLXGXGXKXnX%.",
"pXpXaXaXaXdXfXfXfXfXfXfXfXjXkXkXkXkXkXkXjXjXgXgXfXkXSXSXSXMXkXkXjXjXjXjXfXfXfXjXjXkXkXkXMXMXSXZXSXMXSXDXMXyX3X0XfXjXjXfXgXgXaXaXfXkXCXCXZXFXFXAXCXrX=X:X:X:X:X3X4X4X4X9X9X0X0X0XtXyXaXaXyXyX0X0X0X0XyXyX9X:X:X0X4X:X4XyX9XaXtXkX0X9XkXSX@XN.z.z.z.z.z.z.z.z.z.z.z.V.A.A.E.A.[.+X=X#X).R.p.{ ! ! P ! p.E.`.#X-X=X9XyXdXdXdXdXdXdXdXdXdXdXaXyXtX9X4X>X3X&XoX@XV.A.A.z.S.a.~ m n n m m m m ! M ! m n m m m m M ~ ! m ! M M n n f M m m n n f ~ ~ M M ~ ~ M M ~ ~ ~ ~ ~ M ~ ~ ~ Q Q ~ 1.1.8.5.~ ~ 1.1.1.1.8.8.1.~ ~ ~ Q M 1.1.M M m M Q M Q Q Q m Q ~ ~ M M Q 1.2.1.M M M ~ ~ 9.M 1.1.M M M ~ 5.1.M M ~ M ~ ~ 1.Q ~ ~ M M ~ M M M ~ 5.m 8.m m M M M M ~ ~ m ~ m n 8.M M m n b f n ( ~ m n f l l n ~ ~ ~ ~ m ( ~ m m ~ m M M 8.5.D.G.OX&XbXxXzXxXcXCXCXCXcXCXdX`.z.0.a.S.oX;XrX>X4XuXzXdXhXkXlXCXCXCXCXCXCXCXCXCXAXAXCXCXCXCXkXkXhXdXdXdXdXdXdXdXdXdXuXuXdXdXdXdXdXaXaXaXaXaXpXyXtX9X9X4X4X:X=X&X@X+XOX_.!.R.Z.V.z.a.a.0.0.0.0.0.8.8.0.V.A.A.D.!.!.!.D.!.`.&X;X9XuXhXdXdX9X@XoX&XdXjXcXcXcXcXhXdXkXSXdXSXAXSXSXSXSXSXSXSXAXAXAXAXAXAXAXAXAXAXDXZXZXFXHXDX#.2 t t < 2 2 r e > 2 , , # 2 1 2 , - ; ; ; L {.GXHXHXHXFXHXHXHXDXHXHXHXHXHXDXHXHXHXHXHXHXHXHXLX",
"0XyXyXpXaXaXgXdXgXgXfXdXfXfXkXMXkXkXkXkXkXfXdXaXgXkXSXSXSXBXMXkXjXjXjXfXfXfXfXfXfXjXjXjXkXMXSXSXMXkXMXNXkXyX9X0XgXjXjXdXaXaXaXdXdXfXjXkXlXCXAXAXAXZXdX&X&X&X&X&X&X&X;X:X3X4XqXqX0X0XpXpXaXyX0XqX0X0X0X0X0XqX3X3X0X9X3X;X;X9XaXkXCXkXdXSX9XV.0.q.z.z.z.z.z.z.z.z.z.V.Z.A.R.!.].+X_._.W.n.i.{ ^ ! P ! | E._.+X*X-X:X9XuXdXdXdXdXdXdXdXdXdXdXuXyXrX9X>X4X;XoXD.&X!.S.V.V.S.i.~ n m n m m m m m m m b m m m m ! ~ ! ! ~ ! b M ~ ! m m n n n n M M m m ~ ~ ~ ~ ~ ~ ~ ~ ~ ~ ~ ~ ~ M M ~ ~ 1.1.1.~ ~ ~ ~ ~ ~ 1.1.~ 1.1.Q m ~ 8.1.M m m M Q ~ Q Q Q m ~ ~ Q m m M 1.8.8.Q M Q 1.1.1.1.1.5.1.~ 5.Q Q ~ ~ Q 8.~ m m ~ ~ m M M m M ~ ~ ~ ~ 8.~ d.M m M ~ ~ ~ ~ ~ M ~ ~ n ^.M m n f n f M 8.m m m l f d n m m M M m m M n m ~ M M 5.5.z.oXOXOX;XrXdXlXlXlXcXCXAXAXlX9XS.q.a.z.^.&X:XuXiXuXzXzXzXhXkXkXcXCXCXCXCXCXCXCXCXCXCXCXCXCXlXkXzXhXdXdXdXdXdXdXdXdXuXuXuXdXdXdXdXdXaXaXaXaXaXpXtX0X9X9X4X4X4X;X&X@X+XOXOX^.!.S.V.z.a.a.0.0.0.0.0.0.0.V.!.+X`.^.!.!.`.`.`.oX=X:XtXdXdXkXyX=X`.:X0XdXuXuXuXuXdXdXdXdXdXaXdXkXCXSXSXSXSXSXSXSXAXAXAXAXAXAXAXAXAXAXAXAXAXDXDXQ.h t % < , 1 r r t 2 > e t > 2 @ - & 0 ] [ m.mXHXHXHXHXFXFXHXFXFXDXFXFXFXFXGXGXGXGXGXGXDXDXHXHX",
"yXpXtXyXpXaXaXaXaXgXfXdXdXfXkXMXkXkXkXkXkXfXdXsXgXkXSXSXSXBXMXkXfXfXfXfXfXgXgXgXfXfXjXfXdXdXfXfXjXfXfXdXdX0X9X9XdXjXjXaXpXpXaXaXaXaXaXaXdXjXlXCXAXAXAXjX:XOX`.oX@X@X@X@X&X=X3X5XqXqX0X0XpXpX0XqX0X0X0X0X0XqX3X3X0X3X&XoX@X3XtXfXAXZXZXSXyXS.z.q.z.z.z.z.z.z.z.z.z.V.B.Z.A.R.).[._.'.W.B.i.@./ ! P P ` Z.).[.*X-X-XqXuXdXdXdXdXdXdXdXdXdXdXaXyXtX9X9X4X:X+X^.&X`.!.R.A.^.i.~ | ~ m m m n n m n n m m b m m W ! M | W b b M M m n f f n m m m m m m ~ ~ M ~ ~ ~ ~ ~ ~ ~ ~ ~ ~ Q M Q ~ ~ 1.~ ~ ~ Q ~ 1.~ ~ ~ ~ 1.1.M m 8.8.1.M m m M Q 2.M M ~ ~ 2.~ Q m m m 1.Q 8.Q M Q 1.Q M M M 1.~ ~ 1.Q Q ~ ~ Q 8.~ M Q Q M M M M m m 1.M M ~ 8.M 8.~ m M ~ 5.( ~ ~ M ~ a.M ~ ~ m m n d l ~ ( M m f n f f n m M m m M n m m M ~ M ~ 8.q.oX&XOX@X>XrXuXlXlXlXcXCXCXCXdX`.z.q.z.D.^.&X9XiXiXuXdXhXzXjXkXlXcXCXCXCXCXCXCXCXCXCXCXCXCXCXkXkXzXhXdXdXdXdXdXdXdXdXuXuXuXdXdXdXdXdXdXaXaXaXaXyXtX9X9X9X4X4X4X:X&X&XoXOX_.`.!.A.V.V.z.a.0.0.0.8.8.a.!.+X@X*X+XoX_.^.D.@X`.oX3X9XpXdXpX9X@X@X9XaXyXuXuXuXuXdXdXdXdXdXdXgXfXkXCXSXSXSXSXSXSXSXSXAXAXAXAXAXAXAXAXAXAXAXAXDXFX6X/ h % + - , 2 B t t r Y 7 2 @ 3 0 6XGXDXHXHXHXFXFXDXDXFXFXFXFXFXDXDXGXGXGXDXGXGXGXmXmXmXSXFXFX",
"aXpX0X0X0XtXpXpXaXdXdXdXdXfXkXkXkXkXkXkXkXjXfXfXfXkXSXSXZXBXMXkXfXjXfXfXfXgXdXaXgXgXgXsXyXyXyXaXaXaXpXpXyX9XqX0XaXjXjXdXaXaXyXyXyXyXyXyXuXaXdXzXNXAXFXAXjX;XoXOXoXOX_.OX+X@X*X=X-X3X3X5XqX0XqX3XyX0X0X0X0XqX5X3X3X:X&X@XaXfXpX0X0XdXSXAXkXoXz.q.z.z.z.z.z.l.z.z.z.b.V.S.Z.Z.~.]._._.W.B.i.@./ ! P P ! M.).[.#X&X-X9XyXaXdXdXdXdXdXdXdXdXdXdXuXyXrX9X4X3X@XoX@X+X^.`.A.oXz.| 0.~ M m n f n n n n n n n n m M m m m m m ! W b f f f f n n n n m n m ~ M M M ~ ~ ~ ~ ~ ~ ~ ~ Q ~ ~ ~ ~ ~ ~ ~ ~ ~ M ~ ~ ~ Q ~ ~ 8.~ M Q ~ 8.1.M m m m ~ 2.k M ~ ~ 1.~ M m m m 1.m 1.Q M Q 1.M M M m M M ~ 1.M Q ~ ~ ~ 8.8.Q Q Q M M m M M m 1.M M 1.5.m ~ 5.n m ~ 5.8.~ ~ M ~ M ~ a.~ m M ( m ~ ~ ~ M m f n n f m M ~ m m ~ M m m n ~ | 8.q.S.D.>X;X&XbXiXuXlXlXlXcXCXlXkX:XS.0.q.V.D.;X9X;XrXiXxXuXzXhXkXkXkXlXcXCXCXCXCXCXCXCXCXCXCXCXlXkXkXzXhXdXdXdXdXdXdXdXdXuXdXdXhXhXhXdXdXdXdXdXdXaXpXtX9X0X9X9X4X4X:X&X&XOXOXoX_.!.R.S.V.z.a.a.0.0.0.0.S.&X:X*X@X@X@X@XoX_.@XOX@X0X0XyXyX4X3X!.!.:XyXyXuXdXdXdXdXdXdXdXdXjXkXkXSXSXSXSXSXSXSXSXSXSXAXAXAXAXAXAXAXAXAXAXAXAXFXFXeX^ ; U 0 2 > G 7 t > Z r 2 w P }.LXHXDXHXHXFXFXDXDXDXDXFXFXFXDXDXDXBXBXBXBXBXBXBXBXgXgXgXjXAXAX",
"gXpX0XqX0X0XtXpXpXaXdXdXdXfXkXkXkXkXkXkXkXjXjXfXjXkXSXSXZXBXMXkXfXjXfXfXfXgXdXaXaXaXsXaXyXyXaXaXaXpXyXyXyX0X9X0XaXjXjXdXaXaXaXaXpXaXaXaXuXuXuXaXjXCXAXAXAXSX4X`.`.`.`.`._.oX+X@X#X*X-X=X:X3X5X3X0X0X0X0X0XqX5X3X:X3X9X0X3XpX0XqX=X0XyXyXAX9Xz.q.z.z.z.z.z.l.z.z.z.z.b.B.B.Z.!._.)._.W.B.i.y.` ! P P ! l.E._.+X#X-X3X0XaXdXdXdXdXdXdXdXdXdXdXuXyXtX9X4X3X&X@X&X&XR.`.V._.z.p.| m m m n d n n n n n n n n m m m n m m m b W n d f f f f f f n n m m M m M M M ~ ~ ~ ~ ~ ~ ~ M ~ 1.8.1.~ M ~ ~ M M Q m M m Q 1.8.~ m M M 8.~ ~ M m m 2.~ m m Q ~ ~ Q Q M m m ~ m ~ Q M Q 8.1.M M M M M M 1.Q Q ~ ~ 8.1.a.M m ~ Q m m m M m ~ ~ M ~ ~ n M 8.f f m ~ 8.( ~ M ~ ( m 8.a.~ m ~ n m ~ m m n m l n n m M ~ n n ~ m n ! M ~ | 0.z.q.OXbX>X>XrXrXxXlXlXlXcXCXhXyX`.D.q.q.V.oX&X:X9XrXuXuXuXzXhXkXkXkXkXkXCXCXCXCXCXCXCXCXCXCXcXkXzXzXzXdXdXdXdXdXdXdXdXdXdXdXdXhXhXjXdXdXdXdXdXdXdXpXtXtXtX9X9X4X4X:X&X&XOX_.oX_.^.!.A.V.z.a.a.0.0.a.V.`.&X3X@XOX+X&X&X&X@X@X=X3XyXtXtX9X;XoXD.!.=XyXaXyXdXdXuXdXdXdXjXjXkXSXSXSXSXSXSXSXSXSXSXSXSXAXSXAXAXAXAXAXAXAXAXAXAXAXHXGX%.c & - + H 7 @ < 2 h 7 H |.LXKXHXHXHXHXGXDXDXZXZXHXFXFXFXDXAXSXBXBXZXZXZXfXmXmXmXsXaXdXdXSXSX",
"fXaX0X9X0X0X0XtXyXuXdXdXdXdXfXkXkXkXkXkXkXjXjXjXjXkXNXSXZXNXMXBXjXfXfXgXgXgXaXaXtXtXpXpXpXpXaXaXaXpXpXyXtX0X9X0XdXkXjXdXaXuXuXuXaXaXaXaXpXyXyXyXdXkXSXAXAXDXZXpX=X!.D.!.`.`._._.+X+X+X#X*X-X1X1XqXqXqXqX0XqX5X3X3X3X=X=X:X-XqXpXyXdXMXkXAXfXS.a.z.z.z.z.z.z.z.z.z.z.b.V.B.Z.E.).).).W.B.c.y.[ / K b ! 0.E.).].+X&X-X9XyXuXdXdXuXdXdXdXdXdXdXyX9X0X9X5X3X=X&X&X&XOX!.A.S.a.z.v.8.M n f n d f n n f f n b m ! b n n n n n b f l l m b f m m m m m M ~ ~ M m M ~ ~ ~ 1.~ ~ ~ ~ ~ 8.8.~ ~ M 5.M m M M m m M ~ ( ( M m m m 1.~ ~ M m m ~ ~ M m m Q Q M M M m m Q m Q ~ m Q d.6.M m m m M M ~ Q Q ~ ~ 1.Q 8.1.M ~ Q m f m M ~ ~ ~ M M 5.( m M M m M m 8.8.8.n ~ 8.~ ~ ~ m m f f f n | m n n f m m ! ~ m n M | f M m M 8.a.V.!.V.@X;XiXrXbXuXiXlXkXlXcXcXkXyXS.z.q.z.S.oX&X;X4XyXuXuXdXkXkXkXkXcXjXjXCXCXCXCXCXCXCXCXCXCXcXkXzXzXzXhXdXdXdXdXdXdXdXdXdXdXdXhXhXhXhXdXdXdXdXdXdXuX9XyXtX9X9X4X>X:X=X&XoXOXoXoX`.!.A.V.z.a.a.0.0.0.D.OX+X@X+XoXoX&X=X;X&X3X3X0XdX9X:X&X@XV.D.&XtXdXdXiXhXdXuXuXdXjXjXkXNXSXSXSXSXCXCXSXSXSXCXAXCXCXCXCXCXAXAXAXAXAXAXAXAXSXFXFX6Xv - $ 4 +.v + 5 ; x.nXHXHXHXHXHXHXFXDXDXSXSXSXAXFXFXFXAXZXSXMXkXMXkXBXkXjXjXjXfXgXdXdXaXdXjX",
"kXdXyX0X0X0X0X0XtX0XtXyXdXdXdXfXkXkXkXkXjXfXfXfXjXkXNXSXZXNXMXBXjXfXfXgXdXaXaXpX0XtXpXpXpXpXaXaXaXpXpXyXtX0X9X0XdXkXjXdXdXdXuXuXaXaXaXaXyXyXyXyXaXdXkXSXAXDXDXZX0X_.^.`.!.!.!.).`._.[.+X+X*X*X-X1X5XqX0XqXqX5X5X3X=X=X=X-X-X3XpXyXdXkXZXSXfXD.0.z.z.l.l.l.z.z.z.z.z.z.V.B.B.Z.E.).).W.B.m.p.$.` P K W | Z.).[.+X&X-X3X0XyXuXdXuXdXdXdXdXdXdXyX0X0X9X3X3X3X=X*X&X@XOX!.A.a.z.B.0.| m n m d d d d d d f f n m f d f f n n n f l f m f m m m m m m M M M M M M M M Q ~ ~ ~ ~ ~ ~ 0.8.M M ~ ~ m M M M ~ m ~ ( ~ Q m m m m ~ ~ ~ M m M ~ ~ M m m Q ~ M m m m m M m Q ~ m Q 9.~ Q m m m m 1.~ M M Q Q Q Q ~ ~ ~ ~ M m m M ~ ~ ~ ~ M m ~ a.~ M M m M m 5.0.V.m ~ 8.a.~ M M ~ m n f n ( m n n f f n M ! f m ~ ~ n m m M 0.z.D.^.D.:X;XiXhXuXxXbXlXkXkXcXzXdXoXV.z.q.z.D.oX&X:X9XiXuXxXzXkXkXlXlXCXjXjXCXAXCXCXCXCXCXCXCXCXcXkXzXzXzXhXdXdXdXdXdXdXdXdXdXdXdXdXhXhXhXdXdXdXdXdXdXuXtXyXtXrX9X4X>X:X;X=X@XoXoXoX`.!.A.V.V.a.a.a.0.V.OX@XOX&X&X@X@X@X=X;X;XtX0X9X0X4X:XoXD.D.oX:X4XdXdXyXdXdXuXdXdXjXjXkXCXCXCXSXCXCXCXSXSXSXCXAXCXCXCXCXCXAXAXAXAXAXAXAXAXAXFXHXFXwX}.x.x.%.' 6 d u.DXHXHXHXFXFXFXFXFXDXAXSXMXSXAXDXFXDXZXBXMXjXjXkXBXBXkXjXjXjXjXfXdXaXpXuXdX",
"kXfXaX0X0X0X0X0X0X0X0X0XyXdXdXdXfXfXkXkXjXfXfXfXjXkXNXSXZXNXMXBXjXfXgXaXaXaXpXtX0XtXpXpXaXaXsXaXaXpXpXyX0X0X0X0XaXkXjXdXdXdXdXuXpXpXpXyXyXyXyXyXyXaXdXkXBXZXDXDXZXpX_.S.A.E.!.!.!.!.)._.[.+X+X*X-X1X5XqX5X5X5X5X3X=X=X=X&X@X-X0X:X3X0XdXAXAX9Xz.a.q.a.a.a.a.l.z.z.z.z.b.B.B.Z.E.).~.W.B.m.i.p.[ ! K b ! l.).+X].@X*X-X9XyXuXdXuXdXdXdXdXdXuXuXuX0X9X4X3X3X3X*X&X&X&XOX!.0.V.!.d.0.~ m n f f f d d d f f n m f f f f n n n f f m b n m n m m m m m m m M ~ Q M M M ~ ~ ~ M ~ ~ 8.~ M m ~ ~ M M M M ~ m ~ 6.Q m m m m M ~ ~ Q M m M Q Q m m m Q Q M m m m m m M Q Q M M ~ ~ Q m k f m 8.1.m m m M M M Q ~ ~ M ~ f m M M ~ ~ ~ Q n M 0.~ ~ M m M m 0.5.a.q.M ~ 8.~ ~ ( f ( m f n | m n n f f m ~ M m ~ ~ n M m m ~ a.V.!.^.OXrX:XiXiXuXlXzXkXlXlXkXdX;XS.z.z.z.N.OX&X;X4XyXuXuXdXzXkXkXcXlXkXkXlXCXCXCXCXCXCXCXCXCXCXcXkXzXdXhXzXdXdXhXdXdXdXdXhXhXhXhXhXhXhXhXhXdXdXdXdXdXaXyXtXyXtX9X9X4X3X:X;X@X+XoXoX`.!.A.V.V.z.a.a.a.!.+XoX`._._.oX@X&X=X3X4X0X0X9X4X:X@X^.D.oX:X:X:XaXuXdXuXyXdXkXkXjXjXNXCXCXCXSXSXSXSXSXSXCXCXAXCXCXSXCXCXAXAXAXAXAXAXAXAXAXFXFXHXHXHXHXHXHXDXGXnXHXHXFXFXFXFXFXFXFXDXDXZXSXMXjXMXBXZXAXSXMXkXfXfXjXBXBXkXjXjXjXhXdXdXaXyXyXdX",
"MXkXdXyX0X0X0X0X0X0X0X0X0XyXdXdXdXfXfXfXfXfXfXfXjXkXNXSXSXBXMXBXjXfXgXaXaXpXtX0X0XtXpXaXaXaXsXaXaXpXpXyXtX0X0X0XaXkXjXdXdXdXdXdXaXaXaXyXyXyXyXyXyXyXaXdXfXMXAXDXZXZXtX`.S.S.S.A.S.A.E.).).`.].[.#X-X1X5X5X5X5X3X3X=X=X3X@X+X&X9X0X9X0XaXMXAXaXz.0.q.a.0.l.l.l.z.l.z.z.b.V.S.Z.A.~.~.Q.Z.c.c.p.} ^ W W ! p.E.+X].@X*X=X3X9XyXuXuXdXdXdXdXuXuXuXyX0X9X4X3X3X3X=X*X&X&X@XOX0.S._.a.8.v.z.| m m n f f f n n m ! b n f f f f n f n W f W b n m m m m m n n m ~ ~ M m m M ~ M m M M ~ Q ~ M M ~ ~ m M M M Q ~ ~ m m m m m M Q Q M M m m M Q M M m M Q m m m m m m M Q ~ M M Q Q M m m f m 8.8.f m m m ~ m 1.~ ~ M ~ f m m m m ~ ~ M m m ~ 0.M M m M m ~ 5.~ V.( m 0.0.M 8.m f M f m | m n n f n ! ~ ~ M m m ! 8.m ~ 8.V.D.^.`.OXrX>XiXhXxXlXhXlXlXlXlXuXS.N.z.z.z.S.@X&X:X9XiXuXdXzXzXkXkXlXlXkXCXCXCXCXCXCXCXCXCXcXcXcXcXkXzXhXhXzXdXhXhXdXdXdXdXhXhXhXhXhXdXhXhXdXdXdXdXdXaXaXuX9XyXyX9X9X9X4X3X:X&X+XoXoX`.!.A.V.V.z.z.a.z.^.OX_._.OX+X@X&X3X3X3X4X4X5X9X9X;X^.D.OX&X:X4X4XuXdXkXiXyXjXlXkXkXkXCXSXSXCXSXSXSXSXCXCXSXCXAXCXCXSXCXCXSXSXCXCXCXAXSXSXAXAXFXFXFXHXHXHXHXHXHXHXHXHXFXFXFXFXFXFXDXDXZXZXZXBXfXBXgXMXSXNXMXkXfXfXjXBXkXkXjXjXhXdXaXaXpXyXtXpX",
"CXkXdXyX0X0X0X0X9X9X9X0X0XtXpXdXdXdXdXfXdXfXfXfXkXMXSXSXNXMXkXjXjXfXdXaXaXpXyX0X0XtXaXsXaXaXaXaXpXpXpXpXpXtX0X0XaXjXkXfXdXdXdXdXdXdXaXaXyXyXyXpXyXyXyXaXsXfXMXAXFXFXAXgX].A.b.V.Z.V.Z.!.!.~._.].[.#X*X1X1X1X1X5X1X-X-X1X*X+X+X:X3X3XqXgXfXSXAXV.z.a.a.z.z.a.a.a.z.l.z.b.V.B.Z.Z.E.W.Q.n.c.c.i.y.` ! b b } Z.[.[.+X*X-X3X9X0XuXuXuXuXuXuXuXdXaX9X0X9X9X5X5X4X3X*X=X=X=X=XA.A.+Xz.S.`.).B.8.~ b f f d f n ! m b W f d l f f b W ! W M f m M Q f f m m m m m m m m M ~ ~ M m m M M M ~ Q M Q ~ m M M m M ~ ~ m f m m M M ~ Q Q m M M M Q Q M m m Q M m m M M m m Q ~ M m m M M Q m m m ~ 8.8.m k m M 8.~ m M M 8.m m m m f Q 1.M f f ~ 0.~ ~ M ~ m ~ 5.~ 8.z.~ 8.8.~ M ~ l m f n ( m ~ n n ~ M m f n n m m 0.8.8.a.S.OX@XOX:X>XrXuXhXhXhXhXcXzXzXjX@XN.z.N.z.z.D.@X;X>XrXuXuXdXkXhXkXkXCXlXcXCXCXCXCXCXCXCXCXCXcXcXcXcXkXzXhXzXzXzXhXhXhXdXdXdXdXdXhXhXhXhXdXdXdXhXdXdXdXdXaXuXtXyXyXrX9X9X4X4X3X=X@XoXoX_.!.D.S.V.z.z.z.z.D.`.`.OXOX+X@X&X:X3X3X3X;X4XrX;XOX!.@X&X&X9XuXtXuXdXjXuXaXkXNXkXkXMXCXCXCXCXCXCXSXSXSXSXCXZXZXCXCXCXCXCXCXCXCXCXCXSXSXSXSXSXAXFXFXFXFXHXHXHXFXDXDXDXDXFXDXBXgXMXDXAXZXSXSXfXdXjXfXjXNXBXMXMXMXBXBXBXBXBXjXfXdXaXpXyXyXyXtXtX",
"CXkXdXyX0X9X9X9X0X0X0X0X0X0XtXyXaXdXdXdXdXdXdXfXkXNXSXSXMXkXjXfXfXgXaXsXpXpXtX0X0XtXaXsXaXaXaXaXpXpXpXpXpXyX0X0XaXjXkXjXfXdXdXdXdXdXdXaXyXyXyXyXaXaXaXaXaXsXgXkXBXAXDXAXsX_.!.B.V.b.V.A.E.!.~._.].[.#X#X1X1X1X5X1X*X*X-X-X@X+X#XoX+X&X3XjXjXMX!.l.a.a.l.z.a.a.l.z.l.z.v.V.B.Z.Z.R.E.R.n.v.l.i.y.[ ! b b ` b.].].[.#X*X3X9X9XyXuXuXuXuXuXuXdXuX9X9X9XqX9X4X4X3X&X=X=X=X=X_.^._.z.A.`.).A.0.| M n d d f f m n b m f d d f b b b b b n f n ( ( m m m m m m m m m M ~ 8.M M m m M M M ~ M M Q Q m m m m m ~ ~ m f m m m m Q W ~ m M Q M Q m m m M M M M m Q ~ m k M Q Q m m m M Q M m m Q ~ 9.M k m M 8.~ m m m M 0.~ f m m f 8.m m n f a.~ ~ m M M m ~ ~ ~ 0.8.5.~ m m 8.m m n m 8.m 8.n m M m n f f n m m a.0.0.a.^.OXoX>X&X>XuXzXhXhXzXhXzXuXyX4XD.V.N.q.N.V.`.&X>X9XiXuXuXdXkXjXkXkXCXCXCXCXCXCXCXCXCXCXCXcXcXcXcXcXkXzXzXhXzXzXzXhXhXhXdXdXdXdXhXhXhXhXdXdXdXdXdXdXdXdXdXaXyXyXyXtX9X9X4X4X3X:X&X@XoXOX`.!.A.V.V.z.z.V.D.`.`.`.OXOX+X@X&X=X&X=X3X4X4X@X^.oX;X&X9XrXrX9XdXdXdXdXjXNXkXjXkXMXSXCXCXCXCXCXSXSXSXSXCXCXCXCXSXSXCXCXCXCXCXCXcXcXcXcXSXCXAXFXFXZXZXFXHXFXDXDXDXZXZXSXSXjXgXjXAXAXAXZXMXaXpXgXfXjXMXNXBXBXBXMXMXkXjXfXfXdXdXaXyXyXyXtXtXtX",
"CXkXdXyX0X9X9X9X0X0X0X0X0X0X0XtXyXyXaXdXdXdXdXjXMXSXSXNXBXjXfXfXfXgXaXpXpXpXtX0X0XtXaXsXaXaXaXaXpXpXpXpXpXpXtX0XaXjXkXkXjXfXdXdXfXgXdXaXaXaXaXaXaXaXpXyX0X0XpXsXsXBXAXFXFXBX[.E.Z.b.z.V.S.R.!.~._.].].[.#X1X1X1X1X*X*X1X-X*X+X+X*X#X=XqXpXdXSXsXz.q.0.a.a.a.l.l.z.z.z.z.b.B.Z.Z.R.E.Z.n.v.l.i.y.| ! b b ! l.)._.[.+X*X-X:X9X9XyXyXuXuXuXdXyXyXyX0X9X9X9X9X4X3X&X&X&X&X*X`._.+X_.).`.).).a.l.~ m f f d f n n m m f d d f n n n n n f n m 0.( m m n n n n M M M M ~ ~ m m m m M M ~ Q m M M m M m m n m Q Q m k k n m n m Q ~ m Q W Q m m m m m m M M m ~ ( M k m ~ ( m m m M Q Q m k m Q ~ ~ ~ m M ~ M m Q m f 6.0.m m M m ~ ~ m f f ~ 8.~ m M M n M ~ M ~ 8.~ m m m 0.M m n m ~ m 8.n m m n n n n m n m a.a.a.V.D.&X;X:X:XiXhXkXhXhXzXzXzXuXrXD.S.z.z.z.N.D.`.-X4XrXuXuXdXdXuXkXlXlXCXCXCXAXAXCXCXCXCXCXCXcXcXcXcXcXcXkXzXzXzXzXzXzXhXhXdXdXhXhXhXhXhXhXdXdXdXdXhXhXhXhXdXdXaXuXyXyXtX9X9X9X4X3X=X@XoXoX_.^.D.S.V.z.z.V.D.`.`.`.`._.OX+X@X&X;X&X4X4X;X`.`.&X;X;XrX9X9XrXdXdXdXjXNXCXjXjXkXNXCXCXCXZXZXCXCXSXSXSXCXCXCXCXCXCXCXCXcXcXcXcXcXcXcXcXcXCXAXFXDXSXSXDXFXFXDXZXDXZXBXjXjXkXkXdXSXAXAXZXZXkXfXMXfXkXBXNXBXBXMXMXkXkXdXdXdXdXaXpXyXtXtXtXtXtX",
"SXkXdXuX0X9X9X9X0X0X0X0X9X9X9X0X0XtXyXaXdXdXdXkXMXSXSXMXkXjXfXfXgXaXaXpXpXpXtX0X0X0XpXpXaXaXaXaXpXpXpXpXpXpXtX0XaXfXMXkXjXfXdXdXdXdXdXdXaXaXaXaXaXaXpXyX0X0X0X0XdXMXAXDXDXAXSXqXZ.v.l.z.b.Z.R.!.~.)._.].[.#X-X1X1X-X*X1X-X*X#X+X-X+X@X3XfXSXBXkXD.q.0.0.a.a.a.a.z.z.l.z.m.b.B.Z.R.R.Z.b.v.l.i.y.| ! W b b i.~.).].[.*X-X3X9XqX9XyXyXuXuXdX9X0XuX9X9X9X4X9X5X3X&X&X&X&X*X=X&X_._._._._._.i.Z.| ! n f d f d n b b f d d f d f n m m f M W d.~ f m n n f n M M M M ~ ~ M M M m m M ~ M m m m m M m n f M M ~ m n f k n f n Q ~ m Q W Q m m m m m m m Q m ~ ( ~ m m M ~ m m m m M ~ Q k m m M Q M m m ~ m m f n f m 0.~ ~ ~ M ~ ~ m f f m 0.5.m M M m M 8.M n ~ ~ m M ~ 0.M m n f f m ~ m n f n n n n n n m V.V.V.V.OX$X>XtXrXhXhXzXzXzXzXzXcXdX4XN.z.V.N.z.D.D.OX4X9XiXuXdXuXdXrXkXlXCXCXCXCXAXAXAXCXCXAXCXCXcXcXcXcXcXcXkXzXhXdXhXhXhXzXhXdXdXhXhXhXhXhXhXdXdXdXdXhXhXhXhXdXdXdXaXuXyXtXrX9X9X4X3X:X&XoXoX_.^.!.A.V.z.z.V.D.`.`.`.^.`.OXOX@X;X3X3X0X;X+X`.+X&X@X0X4X>X9XdXhXuXaXjXCXNXjXkXMXNXCXCXCXCXZXCXCXSXCXCXNXkXkXkXkXCXCXCXcXcXcXcXcXcXcXcXcXCXAXFXFXAXAXDXFXDXZXSXDXZXjXaXdXSXMXdXjXAXAXAXSXdXdXfXjXBXBXNXNXBXMXMXkXfXaXaXaXaXaXyXtXtXtXtXtXtX",
"CXMXdXuXtX9X9X4X9X9X9X9X0X0X0X0X0X0XtXpXaXaXgXkXSXZXSXBXBXjXfXfXdXaXpXpXpXpXtX0X0X0XtXpXaXaXaXyXtXtXpXaXaXpXyX0XtXaXkXkXjXfXdXdXdXdXdXdXaXaXaXaXaXaXaXyXyXyXtXyXsXaXjXSXDXFXFXDX0XS.z.z.v.b.Z.R.E.E.).).].[.#X1X1X1X*X-X*X*X#X#X@X@X@X@X#X0XjXMX3Xz.0.i.l.l.l.l.z.z.l.l.v.b.b.Z.Z.Z.Z.Z.m.c.i.y.} ` ! b b } W.).].[.*X-X1X3X9XqX0XyXyXyX9X9XyXuX9X9X9X9X9X3X3X3X3X:X=X&X&X&X#X#X).].].).p.0.| | ~ n d f d f l f l d d f b m W ! n f W ~ | n n n m f n M M m m ~ ~ M M M M M m m M m m n m M Q m n f ~ M ~ m m n n n f n M ~ m M M m m m m m m m m M Q Q ~ 8.m m m W k m m m m ~ ~ k m n m ~ M m m m M f m m m m Q ~ M ~ ~ ~ ~ M f m f M 8.M n ~ m M ~ 8.M M ~ M m ~ ~ ~ f f f f m ~ m f f n n m f f m 8.z.S.^.!.OXoX;XrXiXuXhXkXCXkXkXCXdXrX`.V.V.V.z.V.`.@X>X9XrXuXuXdXdXdXhXkXlXCXCXAXAXAXAXCXCXCXAXAXCXCXcXcXcXcXkXkXzXhXhXhXhXhXhXhXhXhXhXhXhXhXhXhXhXdXdXdXhXhXhXhXhXdXdXdXaXyXyXtX9X9X4X4X:X&X+XOX`.^.!.D.V.V.N.V.D.`.OX`.^.`._.oX@X;X:X:X&XOX`.OX&X@X&XtXtX9XaXdXfXaXdXkXCXkXkXAXCXCXCXCXSXCXZXZXCXCXCXCXCXkXjXjXzXkXcXlXcXlXlXlXcXcXcXcXcXcXAXAXDXAXAXZXZXBXBXfXdXdXdXdXdXjXkXjXMXZXAXAXNXfXfXjXMXMXMXNXSXMXkXkXkXdXaXyXyXyXyXtXtXtXtXtX0X0X",
"CXNXjXaX0X9X3X3X4X9X9X9X0XqX0X0XqX0X0XpXpXpXgXBXSXSXSXNXBXjXfXfXdXaXpXpXpXtX0XqX0X0XtXyXpXpXpXpXtXyXpXaXaXpXyX0X0X0XkXkXjXfXdXdXdXdXdXdXaXaXaXaXaXaXaXpXyXyXyXyXpXpXpXaXgXBXZXAXAXpXS.v.v.v.b.Z.R.R.E.~.).].].[.*X*X*X#X+X+X+X+X@X@XoX_.+X3XgXSXqXa.0.a.l.l.l.l.i.i.z.l.z.b.b.B.Z.Z.Z.Z.n.c.l.i.} | ! W b | T.W.'.].#X*X-X3X3X9XqX9X9XyXyX9XdXyX:X9X0X0X9X3X3X3X3X:X=X=X&X&X-X-X`.].[._.E.z.B.i.0.~ | m n f l d d f b m M n ~ m n b n ~ m n n f m f n M ~ n n ~ ~ M m m m Q m m m m m n m M M m n f ~ M m m m m m k f m M Q m m m M m m m m m m m m M m ~ 8.m m M m m m m f m ~ ~ m m f m Q Q m m m M m m m m m m ~ M Q ~ 6.6.f m m f n q.m m ~ m m M 0.M m m M n ~ 8.| f n n m ~ | n m m f n M f m 8.0.z.S.`.+X$X;X:X9XiXiXhXkXkXkXcXCXdX@XD.S.V.N.N.S.OX&X4X9XiXuXdXdXhXjXkXkXlXCXCXCXAXAXCXCXCXAXSXCXCXcXcXcXcXcXkXkXzXhXhXhXjXjXkXjXjXhXhXhXhXdXhXhXdXdXdXdXhXhXhXhXhXdXdXdXaXuXyXtX9X9X9X4X:X=X@XOX`.^.!.D.V.V.V.V.D.^.oX`.`.`.OX@X&X;X:X:XOX`.OX@X&X;X4XtXtXyXdXfXdXaXjXNXNXkXcXCXCXCXCXCXSXSXCXSXCXCXCXCXSXSXCXjXzXzXlXlXzXzXzXkXkXzXlXlXkXlXCXAXDXAXAXZXSXMXkXjXkXkXkXkXaXdXjXjXkXZXAXZXCXSXSXMXBXBXMXNXNXMXkXfXdXdXaXyXtX0X9X9X9X9X9X9X4X4X",
"ZXCXkXaX0X3X:X:X3X3X4X4X9X9XqXqXqX0X0X0XtXpXgXMXSXSXSXNXBXjXfXgXaXsXpXtXtX0XqXqX0X0X0X0X0XtXpXpXpXaXaXaXaXpXpX0X0XqXfXkXkXfXdXdXdXdXdXdXdXaXdXdXdXdXaXaXaXpXyXyXyXyXtX0XyXaXfXMXDXZXsX!.b.v.v.b.B.Z.R.E.W.~.).].[.*X#X[.[.#X+X#X*X=X=X-X-X3X0XjXSX`.i.z.l.l.l.a.i.l.z.l.l.v.b.b.b.b.b.Z.B.m.l.i.y.| ! W b ! m.W.'.'.[.*X-X1X9X9X9XqX9X9XyXyXdX9X9X9X9X9X9X:X:X3X9X:X;X=X=X:X:X-X#X].[.+XE.Z.B.z.!.p.0.0.! m d d W m n f ! n ~ b m m n W f n n m m n m ~ ~ m m M W M m m m M f f n m M m m m m n n n M m m m m m n k f n m M m n m M m m n m m m n n m ~ ~ m M m m f m m m f k M Q m n f f m Q M M m m m m m n m m M ~ M 8.~ Q f m m n f 0.M n ~ ~ f m a.M n n M M M ~ 0.n m n ~ 0.f n M n n M f n 8.0.a.V.D.OX;X@X:X4X>XiXuXhXlXdXhXkXdX&XD.S.S.V.z.V.`.oX;X9XyXuXdXdXjXkXkXkXkXlXCXCXAXAXAXCXCXCXCXCXCXCXCXcXcXcXcXcXcXcXkXkXkXkXkXkXkXkXhXhXdXhXdXhXhXhXdXhXhXhXhXhXhXdXdXdXdXdXuXyXyXtX0X9X4X:X;X&XoX`.^.!.D.S.V.V.V.D.^.oX`.`.OXoX@X&X;X:X&X`.OX+X@X&X4X0X4X9XaXkXjXaXdXkXkXkXNXSXSXSXSXSXSXCXCXSXCXCXMXkXcXSXSXcXkXzXhXzXkXkXzXzXzXzXzXzXzXkXkXCXAXDXAXZXZXSXMXkXjXaXaXaXaXdXdXjXkXkXZXAXZXZXZXZXSXNXSXNXMXkXkXdXdXdXuXyX0X9X9X9X9X9X9X9X4X4X:X",
"CXCXkXdX4X:X;X;X:X3X3X3X5X4X9X9X9XqX0X0X0X0XaXMXZXSXSXNXBXfXdXdXaXaXpXtX0XqX4XqX0X0X0X0X0X0XtXyXpXsXaXaXaXpXpX0X0X9XdXfXfXdXdXdXdXdXdXdXaXaXdXdXdXdXdXaXaXpXyX0XyX0X0X0XyXaXsXfXgXFXFXgX).b.v.v.b.b.Z.Z.E.W.~.).).#X#X[.+X*X-X-X-X5X0XsXaX5X3X0XfX0Xa.0.a.a.a.a.i.l.l.z.z.l.v.b.b.b.b.b.b.m.c.l.y.| ^ W b W i.(.W.'.[.[.*X-X3X9X9X9XqX9X9X9XyX&XuX0X:X;X:X:X3X:X9X:X;X&X:X:X:X:X-X].[.-X).+Xb.E.].].p.a.0.~ f f b n f f ! W m b W n m m n n n | m n m ~ m M M m m M m n m m f f f m Q m m m m n n n m n n m n n k f f n m m m b m W M n m m M n f k m W ~ M m n n f m m m f k m m m m n f k W Q m m f f m n f m m m M M ~ ~ ~ f m M M f ~ 8.f M ~ f m a.M f f M M 8.0.~ m ~ m | ~ f f n m f m l 8.a.z.V.!.^.+X9X@X4XrX:XiXuXzXNXyXyX9X>XD.V.V.S.N.N.S.oX@X>X9XuXdXjXkXkXkXkXkXlXCXCXCXCXCXCXCXcXkXcXCXCXCXCXcXcXcXcXcXcXcXlXlXlXkXkXlXlXlXkXhXdXdXhXhXdXhXhXhXhXhXhXhXhXhXhXdXdXdXuXyXyXtXtX9X4X3X;X&X@X`.^.!.D.S.V.V.V.D.^.OX`.OX+X@X&X&X;X:XOXOX+X&X:X&X4XtX4X0XdXkXkXdXkXNXkXjXCXCXCXSXSXSXSXCXAXAXCXMXkXjXkXkXkXzXzXzXzXhXzXzXzXzXzXzXzXhXhXdXkXkXAXAXAXZXZXSXMXkXjXfXfXfXfXfXaXdXkXkXCXZXZXZXSXNXNXNXSXSXNXkXkXdXdXuXyX0X9X9X9X9X9X9X9X9X4X4X4X",
"CXCXkXjX4X3X=X;X:X3X3X3X5X5X3X3X5X5X4XqX4X0XgXBXNXNXSXNXBXfXdXaXaXpXtX0XqXqX9X0X0X0X0XqXqX0X0X0XpXpXaXaXaXpXpXtX0XqXpXfXfXdXfXgXdXdXdXdXaXdXdXfXgXdXgXgXdXaXaXyXyX0X0X9X0XtXdXgXZXBXFXDXwX).v.i.v.b.B.Z.R.E.E.~.).[.+X#X#X*X1X1X0XpXsXgXBXBX5XjXBX@Xi.0.a.a.a.a.i.i.l.z.z.z.z.v.b.v.b.b.b.m.v.v.p.} / ! b b } T.W.'.[.*X*X-X3X9X9XqXqXqX9X9X:X:XdXyX:X;X9XyX:X=X9X3X;X=X:X:X:X:X@X+X+X@X*X+X_.)._.A.V.b.V.| m b f f f n m W d m m M n d f f m | M M ~ M n n m M M M m n m m f f n m ~ M m m n n b k m f f m n k f k k m b m m b m W m n b m W m f n f m M m m m f f m m m k f k m m m m f f m W M M f n b f f f M n m ~ Q ( Q l M ~ m m m ( ( m 8.m f A.n M f m m 0.~ M m ~ n ( m n n m m n m ~ 8.z.S.A.OX^.&X4X>XiXiXiXkXkXzXhXuX4X@XD.D.S.N.N.D.D.`.oXoX4XdXyXdXkXlXkXzXkXlXCXCXCXCXCXCXCXCXCXCXCXcXcXCXCXcXcXcXcXcXcXcXlXlXlXkXkXlXlXkXkXkXhXhXhXhXhXhXhXhXhXhXjXhXdXdXdXdXdXaXuXyXyXtXtX9X9X4X:X=X@X_.^.D.S.S.S.V.V.S.D.`.^.`.+X@X@X@X@XoXoXoX@X=X;X;XtXtX4XdXjXkXjXjXNXCXkXkXCXCXCXSXCXCXSXCXAXAXCXkXkXkXkXkXzXzXzXzXzXzXzXzXzXzXhXhXxXxXuXdXlXAXAXZXZXZXCXSXkXkXfXfXdXdXfXfXkXSXSXCXCXZXZXSXSXSXNXSXSXSXSXMXjXdXuXyX9X9X9X9X9X9X9X9X9X9X4X4X4X",
"CXCXMXjXyX9X=X;X:X:X3X3X3X3X3X3X3X3X3X4X4XyXjXNXNXNXNXBXBXfXaXaXpXtX0XqXqXqX0X0XqXqXqXqX0X0X0X0XpXpXpXpXpXpXpXpXtX0X0XaXgXaXfXaXaXaXaXaXaXdXdXfXfXfXgXgXgXdXaXpXyXtX0X4X5X9X0XaX0XgXAXDXDX1XZ.v.l.l.v.b.B.T.A.E.~.).].+X#X*X-X1X=X=X5X5X=XfXpX0XsX0Xa.0.p.p.0.0.i.i.l.l.z.z.l.v.v.v.b.b.b.m.v.v.i.$.` ! m b ) c.(.'.[.*X*X-X:X9X:X9X9XqX9X9X:X9XyX9X:X9X9X0X&X9X9X9X:X;X;X;X-X=X-X-X#X#X#X#X*X*XZ.v.B.).Z.v.0.! n m m b W b m W m ! f f f n M ~ M W M m n m m ~ ( M n m m m f k m M Q W m m n n k k n f k M n f f k n m m m b b m m m n n n M m m m n n m m m n f f f m m f f n m m m m f f m ~ ~ W f n m f f f M b n ( n ~ M m m m m m m m ~ a.8.M n a.f m f f M 0.M M m M ~ ~ m m m m n m ~ 0.z.V.A.A.+X`.@X9X>XtXuXuXlXlXzXhXuX&XD.S.S.S.N.V.S.`.@X;X;XyXuXrXdXjXlXkXkXkXlXCXCXAXAXAXAXAXCXCXCXCXcXlXcXCXCXcXcXcXcXcXlXlXlXcXkXkXlXkXhXkXkXhXhXdXdXhXhXhXhXhXhXhXdXdXdXaXuXaXaXaXyXyXyXtXtX9X3X:X&X@XOX`.!.D.S.S.S.V.S.D.`.^.D.OXoXOX+X+XoXoX@X&X;X:X4XtXtXtXkXkXjXjXkXNXNXMXCXCXCXCXCXCXCXSXSXAXZXCXkXkXkXkXkXzXzXzXhXzXzXzXzXzXxXuXuXuXuXuXdXCXDXAXZXZXZXZXZXCXSXMXfXdXdXfXjXkXSXSXCXSXCXSXZXSXSXSXSXSXSXNXkXkXdXyX0X9X9X9X9X0XtX0X9X9X9X4X4X4X",
"CXSXCXMXfXyX=X=X;X:X3X:X3X:X:X:X:X:X3X3XqXaXMXSXNXNXNXBXBXfXaXpXtX0XqX4X4XqX0X0XqXqX0X0X0X0X0X0XyXpXpXpXpXpXpXaXpX0X0XaXdXaXfXaXpXpXpXpXaXaXdXjXjXjXfXfXfXgXaXaXyXtX0X3X3X3X9X0X3XqXqXsXZXGXqXZ.Z.v.v.v.b.B.Z.Z.E.).).].[.+X*X-X_.+X#X*XsXpXqX0XsXgXV.0.p.0.0.0.i.i.i.l.z.z.l.z.v.v.m.m.b.v.v.v.c.p.} / ! b W y.T.W.'.[.*X&X-X:X:X-X;XqXyX9X9XyX9X:X9X9XyX;XuXyX9X9X:X;X;X;X-X-X=X=X-X=X-X+X).E._.*X+XR.b.v.d.! m f f n k f ! b M m f f l b W ~ m ! m m m m n n d.M f n m m n m M m m W W m m n k b f k m W n f f k b m m m n n b m M m b n m m m m n n m M m k f k f m m f f m M M m n f f m ~ ~ ~ n m m f l f m W f ( f W ~ M m m m f m f m a.8.~ f ~ f f f f ~ 0.m ~ n ~ ~ m m m m m M 8.0.a.V.A.!.@X+X&X&X9X:XyXdXdXlXkXhXdXrX`.S.S.S.S.N.V.S.oX&X9X9XdXuXyXhXdXzXlXcXlXkXkXCXCXCXCXCXCXCXSXCXCXcXkXkXcXCXCXCXcXcXcXcXlXlXlXlXlXlXlXlXkXzXuXuXdXhXhXhXdXdXdXdXdXdXdXdXaXuXaXdXdXaXyXyXyXtX9X4X:X&X@XOX`.`.^.D.S.S.S.D.D.^.`._.@X&X@X+X+X+X+X@X;X;X4XtXtXpXfXjXjXjXMXNXCXkXSXCXZXSXSXCXAXAXAXCXSXNXCXkXkXkXkXkXzXzXdXxXxXxXhXzXhXiXrXrXrXiXiXjXCXAXCXZXZXZXZXMXkXfXdXdXfXdXfXjXkXSXSXCXCXSXSXNXZXSXZXZXZXNXkXkXfXuXyX0XyX0X9XtXtXtXtX0X9X9X4X4X4X",
"SXCXCXNXkXdX:X=X=X:X:X:X;X=X=X=X=X=X;X:X0XdXMXSXNXNXBXMXBXfXaXpX0X0X4X4X0X0XqXqXqXqX0X0X0X0X0X0XtXyXyXpXaXaXpXpXaXpX0XtXaXaXfXaXyXyXyXyXaXdXfXjXjXjXfXfXfXgXdXaXyXtX0X3X3X3XqXqX4XqX3XgXDXZXmXqX*XE.b.v.b.b.b.B.R.E.).)._.+X+X+X[.+X@X*X*X*X5X0XMX0XS.0.0.0.0.0.p.i.i.z.l.z.l.l.v.v.m.m.b.m.v.v.c.p.} ` ! m W ` T.E.).[.*X*X-X:X:X&X&XqXyX9XyX9X:X:X9XyX:X9XdXyX9X9X:X;X:X:X:X:X-X-X1X3X*X#X@X+X[.+X_.E.Z.Z.c.0.| ~ b d b W ~ m ~ f m f d m ! ! M M m m m m n m ~ m f f n n n m M f f M M m m n f b f k m ! k f f k b m m m k k m M m m m n b k f n f n b m m n f k f f f f f M ~ M m k f f m W ~ W f n n f f f f | f ~ f M ( m m f m f n f m ~ 8.m f n m m m m ~ 8.M ~ m m ~ m m n n m a.z.V.V.oX`.^.@XOX4X4X:X4XuXzXhXkXhXdXuX&XD.S.D.S.S.N.V.oX&X&X9XyXuXyXdXhXdXhXlXCXCXkXkXlXlXlXcXcXcXkXkXCXCXCXcXcXcXcXcXCXcXcXcXcXcXcXcXlXkXkXkXkXkXkXdXuXdXhXhXdXdXdXdXdXdXdXdXdXdXdXdXdXdXaXaXyXyXtX9X4X:X=X@XOX_.OX`.^.D.D.D.D.^.^.`.`.oX@X+XoX+XoX@X@X&X:X9XyXtXpXjXjXjXMXNXCXNXkXCXZXCXSXSXCXAXAXAXSXkXkXCXcXkXkXjXkXzXhXxXxXuXuXuXuXuXuXrXrXrXrXrXkXCXZXNXZXZXZXZXSXSXMXjXdXdXdXdXjXkXNXSXNXZXCXCXZXZXSXZXZXZXMXjXdXaXyX9XyXyXyXyXyXyXtXtX0X9X9X4X4X4X",
"NXNXSXNXMXfX9X=X=X;X;X;X;X=X=X=X&X&X&X=X0XgXMXNXZXNXBXMXkXfXaXpX0X0X9XqXqXqXqX9X9X9XqX0X0X0X0X0XtXyXyXpXaXaXpXpXpXaXtX0XyXsXgXsXpXpXaXaXaXgXfXfXjXjXjXjXfXfXdXaXaXyX0X9X3X3X5XqX5X*X-XsXsXSXDXZXmX1X!.v.B.V.V.V.B.A.!.~._.+X#X[.@X+X+X*X+X*XfX0X0XpX`.0.0.0.0.0.0.a.i.z.z.l.l.z.v.v.v.v.m.n.v.v.c.i.y.| ! P b b p.W.'.].+X-X-X&X:X&X&X4X9X9XyX9X:X9XyX9X:XuXdX9XqX9X9X3X3X:X3X3X3X3X9X9X-X*X+X[.].].].].E.A.v.0.i.| W m b ! ~ | n d d n n m | ! ~ M m ~ M n n M ~ m f f n n n b m f f m m m n f f n k b m m f f f k n b b m n b m m m m m k k f k k k n m m b f f k f f f f f k W f m n f f m m ~ M f n f m f l f 8.m W f m ~ ~ n n n f n f m m ~ 6.f f m m m m 8.8.M ~ n ~ ~ n m ~ M 5.z.A.V.^.@X`.OXoX9X9X9X;XyXyXdXrXdXdXuX>XS.S.D.D.S.S.S.S.oX&X:X9XyXdXjXdXhXdXhXkXlXcXzXlXcXlXlXcXcXlXzXzXkXlXlXlXlXlXlXcXcXcXcXcXcXcXcXlXlXlXlXkXkXkXkXhXdXdXdXhXdXdXdXdXdXhXhXdXdXdXdXdXdXdXdXdXaXyXtX9X4X:X;X&X@XoXOXoXOX^.D.D.D.^.`.`.`.OXoXoX+X+X@X&X=X&X4XjXyXtXpXdXjXjXkXMXCXkXkXSXCXCXCXCXAXAXAXCXCXCXcXCXCXlXzXhXhXhXdXxXuXrXrXuXrXrXrXrXrXrXrXyXlXCXCXZXCXNXfXaXZXSXMXkXdXdXdXfXfXkXNXSXkXCXZXCXSXSXSXCXZXSXkXdXaXyX0XtXyXaXaXaXaXpXtXtX0X9X9X4X4X4X",
"MXMXMXMXkXfXtX:X&X=X;X;X=X=X=X=X&X&X&X=XtXgXMXNXZXNXMXBXjXfXsXpXyXtXqXqXqXqXqX9X9X9XqX0X0X0X0X0X0X0XpXpXaXaXpXaXaXpX0XtXyXaXsXpXpXpXaXsXaXdXfXfXfXjXjXjXfXfXgXdXaXaXyX0X9X5X5X3X3X5X5X3XgXBXSXBXZXgX5X+X_.E.Z.Z.R.!.!.~._.].].].#X3X0XqX#X#X0X5X0XqX_.q.0.0.0.0.0.p.a.a.z.z.l.z.v.v.v.v.n.n.v.v.c.i.y.} / W b b { n.).).[.#X-X&X;X:X4X9X9X9X9X9X9XyXyX9X9XuXyX9XqX9X9XqX9X3X9X9X9X9XqXqX1X-X*X+X].].].].!.Z.b.p.i.8.) W b m W m d d f b n m ~ W M ! ! m m f n ~ m m k f n n n b n f f m m m n f k b m m m b d f f f k k b m n m m m m m m f f k b k k m m m b f f k f f f f f f b W m k k f b m W m f f f f m n f ( m W m n m ! n n f f n f m m ~ 6.f f m m f m 0.8.m m ~ ~ m n m 5.8.z.V.D.!.^.&X@X&X=XtXtXyX9XyXrXzXdXyXdXbXD.V.D.D.D.S.S.D.`.&X:X9XyXyXdXkXdXhXjXjXkXkXzXhXlXCXcXlXcXCXcXkXzXzXzXzXkXlXlXcXcXcXcXcXcXcXcXcXcXlXlXlXlXkXkXkXhXdXhXhXhXdXdXdXdXdXdXdXdXdXdXdXdXdXdXdXdXaXyXrX4X4X:X:X:X;X@XOXoXOX^.D.D.D.^.`.OX`.OXoXoX+X@X&X;X:X:X0XdXrXyXaXdXjXjXkXNXCXkXkXSXCXCXCXCXAXCXAXCXCXCXCXCXCXlXzXdXdXdXxXxXuXrXrXrXrXrXrXrXbXbXrXhXCXCXkXkXkXfXjXNXSXMXkXfXfXdXdXdXjXMXNXMXNXZXZXCXCXCXZXZXZXNXfXaXyX0X0XyXaXaXaXaXaXaXtXtX0X9X9X4X4X4X",
"kXkXkXkXkXkXdX9X;X=X=X=X=X=X=X=X&X&X&X=XtXgXMXNXSXNXMXkXfXdXaXtXyXtX0XqX4X0XqX9X9X9XqX0X0X0X0X0X0XtXyXyXpXpXaXaXpXtXtXpXyXpXpXyXyXpXpXaXaXaXaXdXfXjXjXjXfXfXgXfXdXdXaXyX0XqX3X-X=X5X5X#X1XqXgXSXBXSXmXsX1X#X+X#X+X+X+X+X#X[.[.#X#X5XqXqX*X+X@X*X:XsX0Xa.0.0.0.0.0.p.a.i.z.z.l.z.v.v.v.v.v.v.m.v.m.i.p.0.` ! b c P l.W.).].#X&X-X-X:X9XqX9X9X9X9XyXyX9X9XyXyX9X9XqXqX9X9XqXqX0X0X0X0X0XwXqX1X-X#X[.].].].).Z.b.i.~ | | ~ ) ~ ~ b d f f f n M m m M ! ! m m f n ~ m m n f n n n n n f n m m m n f k n b m m b d f f f f f n m n m m n b W m f f f k k b m m m m f f n f f f f l l n W n n n b n m m m f f f l n n n M m M m n n m n n f n f f m m ~ | f f f m l m 8.| m n ~ ~ n m | a.z.S.!.`._.!.@X&X=X4XtXyXdXaXrX9XdXuXrX9XoXV.D.D.D.D.S.D.`.&X:X9XyXyXyXjXcXzXjXkXkXlXCXkXcXCXCXcXlXlXlXlXlXkXkXkXkXkXlXlXcXcXcXcXcXcXCXcXcXcXCXlXlXlXkXkXkXhXhXhXhXdXhXhXdXdXhXhXhXhXhXhXjXhXhXdXdXdXyXrX9X:X4X4X4X4X>X>X@X$XOX^.D.D.D.^.`.OX`.oXoXoX@X&X;X:X3X9XyXtXtXuXdXhXjXjXkXMXkXNXCXZXCXCXCXCXAXAXCXCXCXCXCXcXcXlXzXdXdXuXuXuXuXrXbXrXrXiXrXiXrXbXuXcXCXCXAXAXkXkXMXSXMXkXjXjXjXjXjXjXkXMXSXSXSXZXZXNXSXZXZXZXCXMXfXaXyX0XyXaXdXaXaXaXaXaXyXtX0X9X4X4X4X9X",
"kXkXkXkXkXkXkXaX9X:X=X=X=X=X&X&X&X&X&X=XtXfXMXSXSXBXMXjXfXaXpX0X0XtX0XqX4X0XqX9X9X9XqXqXqX0X0X0X0X0X0XyXtXpXaXaXyXpXaXpX0X0X0XtXtXpXpXaXaXpXaXsXgXfXjXjXfXfXfXfXfXdXdXaXaX0X3X3X3X3X*X@X#X1XqXsXgXBXDXmXgXwX5X*XqX5X1X1X1X#X#X*X#X+X+X*X1X+X`.[.[.=X:Xq.0.0.0.0.0.0.p.p.i.i.z.z.l.l.v.v.v.v.v.m.c.c.i.y.| ! K b b } n.E.).+X#X-X-X:X9XqX9X9X9X9X9X9X&X9XyX9X:X3XqXqXqXqX0X0X0X0X0XyX0XwXqXqX:X-X].].].].).Z.v.i.b.v.d.! ~ ! m d n b f : n W n n ! m m m M n n M M m n k b n n n n n b m m m n f f f n b m b l l f f f f k b n m m k b ~ m f f f f m m m b b m f f n n k f f l l m m f b k m n m m m f d f f : l n m b m m m m n n n f m n f m m ~ | f f f n n f ~ ~ m m m ~ n 5.8.z.z.D.oX!.oX`.+X@X@X3X3X9XaXuXuX9XiX4X4X`.S.S.D.D.D.D.S.`.&X:X9XyXyXuXuXkXCXjXkXlXlXCXlXzXlXlXlXlXlXlXlXlXlXlXkXlXlXlXcXcXlXlXcXcXcXcXCXCXCXCXCXlXlXlXkXkXkXhXhXhXhXhXhXdXhXdXhXhXdXhXjXjXjXhXdXdXdXdXrX9X4X:X4X4X4X4X4X>X;X&X$XOX^.^.^.^.OXOXOXoX+X@X@X&X:X4X9XpXdX0XyXdXdXjXjXjXkXNXNXNXSXAXAXCXCXCXAXAXCXCXCXCXkXkXlXkXzXdXdXxXiXrXiXrXbXrXrXiXrXrXrXrXdXcXCXCXkXjXkXZXZXdXkXkXkXkXkXjXMXkXMXSXSXSXZXAXZXNXSXZXSXCXSXkXdX0XyXyXaXdXdXaXaXaXaXaXyXtX9X9X4X4X4X9X",
"kXfXkXkXkXkXkXfXyX3X=X&X&X&X&X&X+X+X@X1XpXfXBXZXSXBXkXjXfXaXpX0X0X0X0XqX0X4X9X9XqXqXqXqX9X9X9XqX0X9X9X0X0XyXaXpXpXaXgXaX0XqX9XqX0XpXpXpXaXaXaXaXaXgXfXjXfXgXfXfXfXfXdXaXdX0X3X3X5X=X#X].1X1X1X1XsXsXgXmXBXSXgX1XqXqXqXqXqX5X*X#X+X_.~.~.)._.[.+X+X[.@Xz.0.0.0.0.0.p.p.a.p.i.l.z.z.l.l.c.c.c.v.v.m.x.u.y.[ / W b j K p.W.~.].+X#X-X-X:XqX9XqX9X9X9X9X9X9XyX:X;X:XqXqX9X9XuXuXyXyXpXyX0X0X0XqX#X).+X[.`.).Z.A.v.B.V.v.v.v.y.W m b f n f : m m n m W b m ~ M ! M n m m f b m n m f f n m m m b k k f f f b m b d d f f k k n b b b W n n ~ W k f f f m n b b b W n f k b m m f d f m k f b f b m W b f d d f d f l f k b m b b f f n n n m f m m b 8.M f f m n f f ! n M m M ~ 8.0.z.V.S.A.`.oX&X=X9XtX0X;X4XtXdXjXkXuX9X4XD.S.S.`.D.D.D.D.`.@X&X:XdXuXuXyXuXkXCXkXlXlXlXlXlXkXlXlXlXkXlXcXcXlXlXkXkXlXlXcXcXlXlXlXcXcXcXcXCXCXCXCXCXCXlXlXlXkXkXjXhXhXhXhXhXhXhXhXjXjXdXdXjXkXhXdXaXuXyXrX9X4X4X4X4X9X9X4X4X4X:X;X&X$XOX^.^.^.OXOXOX+X@X@X@X&X:X9X9XjXfXyXaXdXjXkXjXkXCXCXCXCXSXCXAXZXAXZXZXCXCXZXCXCXkXkXkXkXhXdXxXxXrXrXrXrXrXrXrXrXrXrXrXrXkXkXhXhXjXjXkXSXSXkXjXkXkXkXkXjXSXNXSXCXZXZXAXAXZXSXSXZXSXNXkXfXyX0XyXaXdXdXdXaXaXaXpXyXtX9X9X9X9X4X9X9X",
"kXfXjXkXkXkXkXjXaX9X;X&X@X&X@X&XoX_.+X=XpXfXBXBXNXMXkXjXfXdXaX0X0X0X0XqXqX4X9X9XqXqXqX9X9X9X9X9XqX9X9X0X0XtXpXpXaXgXdXgXaXyX9X3XqXyXpXpXaXaXaXaXaXaXgXfXfXgXfXfXfXfXdXdXaXyX9XqX5X=X*X*X-X1X1X1XqXwXsXgXBXZXZXBXmXgXwXqX1X*X#X].]._.~.!.~.`._.[.[.+X+X0.8.0.0.0.0.p.p.p.p.i.i.i.i.z.l.l.c.c.m.v.m.c.u.y.} / W b v b | m.W.).[.*X#X&X=X:X9X9X9X9X9X9X9X9X9X:X:X9XqXqX9X9XuXuXpXpXdXaX0X9X3X+XS.a.b.B.Z.A.E.E.b.A.B.Z.B.i.d.! ! W b b d l m b b m m b m ~ M ! M n m n f m m n n f f n m m m b k b n f f b m b d f f f f k n n n b m n n ! ! n f k k d f m b n m m f f b m M k f f m m f k f n m m m f d f f d f l f k n n n f f f n n n n f b m m ( m l f m f f m ! n m M ~ | 0.V.S.`.S._._._.oX@X4XyXtX4X9XyXuXdXhXrX;XoXD.D.D.D.D.D.D.D.oX&X;X9XdXdXuXuXdXkXCXcXlXlXlXlXlXlXlXlXlXkXkXcXCXlXlXkXzXkXlXcXcXlXlXkXlXlXlXcXCXCXCXCXCXCXlXlXlXkXkXjXdXdXdXdXhXhXhXhXjXjXdXdXjXjXdXaXuXtXrX9X4X4X4X9X4X9XrXrXtXrX4X4X;X$XOX^.^.OXOXoX+X@X@X&X&X;X4X4X4XyXaXtXdXjXkXkXkXMXCXCXCXCXSXSXZXZXAXZXZXZXCXZXCXlXkXhXhXdXxXxXxXxXuXiX9XrXrXrXiXrXrXrXbXxXCXlXkXkXMXkXkXkXkXjXkXkXkXkXkXkXSXSXCXZXAXZXAXAXZXCXZXZXSXMXjXaX0XtXaXdXfXdXaXaXaXaXyXtX9X9X9X4X9X9X9X0X",
"kXfXkXkXkXkXkXkXfX0X:X&X@X@X@X@X`.`._.=X0XsXBXBXNXMXBXjXfXdXpX0X0X0X0XqXqX9X9X9XqXqXqXqX9X9XqX9XqXqXqXqXqX0XtXyXpXaXaXdXdXaX4X3X5X0XpXpXaXaXaXaXaXaXaXdXdXdXdXfXfXfXdXaXaXaX0X3X3X3X-X=X1X1X1X1X5XqXqXwXwX0XsXgXsX0X5X1X#X[.].].).~.E.R.E.~.)._._.#X-Xa.0.0.0.0.p.p.a.a.p.a.i.i.i.z.l.l.c.c.c.m.m.m.i.y.@.[ ! K b d K p.Q.~.].+X*X#X#X=X:X3X3X3X:X9X9X9X9X9X9X9XqXqXqX9XuXaXaXpXaX0X3X-X!.B.A.#X+X).b.0.8.z.b.R.R.b.v.n.d.) } ) ! b n n m b m m n n M ~ M ! M n n n f b n n f f f b m m m n n b b f f k ~ f d d d d f f f k f n b b n ! ! n n f d d f b b k n ! f f b m M m k k n W f f b n n n m d d f f f d l k f f f f f f f n n n n f n m ~ ~ f f f m f m Q ~ m m ( 0.| V.S.!.@XD.@X&X@X@X@X:XrXyXtXyXiXuXuXyX;X`.D.D.D.D.D.D.D.D.`.&X:X9X9XdXdXuXdXjXzXkXCXcXcXcXlXkXlXlXcXcXkXzXlXcXcXlXkXkXkXlXcXcXlXkXkXlXlXcXcXCXCXCXCXCXCXcXcXlXlXlXjXdXdXdXdXdXhXhXzXkXjXdXdXdXdXaXyXtXrX9X4X4X4X4X9X9X9X9XrXrXrX4X4X;X@XOX`.`.OX+X@X@X@X&X:X=X9X9X:X3X0XyXdXdXjXkXMXCXCXMXMXCXCXSXSXCXCXAXCXCXCXCXCXCXlXzXdXaXuXiXuXxXxXuXrXrXrXrXuXrXrXrXrXrXlXlXzXCXlXdXdXdXaXaXdXjXkXkXkXkXMXMXSXZXAXAXAXAXAXZXZXZXZXSXMXdXyX0XyXaXfXfXdXaXaXaXaXtX9X4X4X4X4X9X9XtXtX",
"kXfXjXkXkXjXjXkXfXaX3X=X@X@XoX+X`.^._.*XqXsXfXBXNXMXjXfXdXdXsX0X0X0X0X0XqX9X9X9XqXqXqXqXqX9XqXqX9X0X0XqXqX0X0XtX0X0XyXaXaXpX0X5X5X0XpXpXaXaXpXpXpXpXaXaXdXdXdXfXfXfXdXaXaXaXyX:X3X3X-X1X-X1X-X*X-X1X5XqXqX1X1X5X*X*X*X*X#X#X]._.~.!.A.A.R.E.!.).`.=XqXV.0.0.0.d.0.0.p.p.p.a.i.i.i.i.l.l.c.c.c.c.m.m.i.y.@.| ! K b d j ! m.W.'.[.[.*X*X-X-X:X:X:X:X9X9X9X9X9X9X9XqXqXqX9XuXaXaXaX0X3XoX).&X5X3X+X+X+X-X-X1Xb.| i.l.b.B.b.i.| 0.6.| m m W b m m m n n M ~ M ! M n n n f b f n l f f n m m m n k b m n f f ) d d d l d d d f f f f b b n W ! n b f d f f m n f f ) f k m m m m b b f ! f f m k f f m f d f d k l l b f f d d d f f n n n n f f m ) M f f f m m M M ~ m m 0.8.S.V.D.oXoXoXoX&X=X;X=X;XtXaXyXuXuXiXyX4X`.S.S.S.D.D.S.D.D.D.&X-X9X9X9XdXdXdXjXjXdXzXSXcXcXcXlXkXlXcXCXcXkXzXkXlXlXkXkXkXkXlXlXcXlXkXlXcXCXCXCXCXCXCXCXCXCXcXcXlXlXlXkXkXkXjXjXhXhXhXzXkXjXdXdXdXaXuXtXrX9X>X:X>X4X4X9XrXrXrXrX4X4X:X;X&X@XOX_.OXoX@X@X@X@X&X:X:X0X9X;X9XtXdXMXfXkXkXSXCXCXkXkXCXCXSXCXSXSXSXSXSXSXSXSXCXlXzXdXuXiXrXiXuXuXuXrXrXrXrXrXrXrXrXrXuXCXdXyXrXuXdXdXdX0X0XaXjXjXkXkXjXSXkXCXAXAXAXAXAXAXZXZXZXZXNXMXaX0X0XaXdXfXfXdXaXaXaXyX9X9X4X4X9X9X9X9XyXyX",
"kXkXkXkXjXfXjXkXfXdX0X:X@X+X+X+X`.!.`.@X5XpXgXfXBXBXjXfXaXdXaX0XqXqXqXqX9XqXqXqXqX5XqXqXqXqXqXqX9XqXqXqX0XqX0X0XqXqX0XpXaXyX0X0X9XqXyXaXaXaXyX0X0XyXyXpXaXdXdXfXfXkXfXdXdXdXpXpX3X3X=X-X*X[.-X*X+X)._.1X5X*X#X#X#X+X].].].].]._.!.R.A.A.A.E.!.!.].qXgXb.0.0.0.0.p.p.p.p.p.i.i.i.i.i.l.l.c.v.m.c.c.v.s.p.u.} / ! c d d P } n.W.'.{.#X*X*X-X1X:X:X:X9X9X0X9X9X9X9X0XqX3X-XpXpXaXyX0X_.`.:X@XA.+XA.Z.z.b.A.qX*X).! ! b.n.l.R.b.l.p.y.| ! m m b m m f n m ~ M m m n n f f n f k f f f f m k m b f b b f f f ! d d l l d d d d f f f n b n W W m f f d f f b n f d ~ f n m m m n n b f m f f m f f f d n d f l k d l m m d d l d n f n m n f f f m ~ ~ f f f m n n M ~ ~ | z.D.D.D.D.`.`.=X&X@X;X9X9XyXuXdXjXuX4X;X:XoXD.S.N.S.D.`.`.!.`.&X:X:X;XuXyXuXyXzXdXhXdXhXhXlXcXcXkXkXkXlXcXlXzXzXlXlXlXkXkXkXlXlXlXlXlXlXCXCXCXCXCXCXCXCXCXCXCXCXCXCXcXcXcXkXkXkXjXjXjXzXjXkXjXdXdXaXuXtXrX4X>X>X>X>X4X4XrX9XrXrXrX9X>X&X&X@X@XoXoX+X@X@X@X@X@X&X:X3X9X9X:XdXyXaXdXjXkXMXMXSXMXMXMXAXAXCXSXCXCXCXSXCXCXCXCXNXkXdXdXuXuXyXuXuXuXuXyXiXrXiXiXiXiXiXiXuXuXuXdXuX9X9XaXdXfXfXdXfXjXkXkXjXSXAXSXAXAXAXAXAXZXZXCXAXCXkXaXyXtXyXaXdXdXfXfXyXyXtX9X4X9X9XtXtXtX9X9XaXaX",
"kXkXkXjXfXfXfXfXfXfXaX4X&X+X+X+X!.A.!._.5XpXgXfXBXBXjXfXdXdXsX0XqXqXqXqX9XqXqXqX3X3X5X5XqXqXqXqX9XqXqXqX0X0X0X0XqX9X0X0XpXyX0X0X0XqX0XpXaXaXyX0X0X0XyXyXaXaXdXdXfXkXkXjXfXgXpXpX5X3X=X*X#X[.*X#X].~.).+X#X_.~.)._.).~.~.~.~.~.~.E.A.A.A.A.A.R.R._.*XqXz.0.0.0.0.0.0.p.p.p.i.i.i.i.i.l.l.c.v.v.c.c.v.s.p.u.@.[ ! c v g b W y.T.'.{.{.*X*X=X-X:X:X3X9X9X9X9X9X9X9X0XqXqX9XpXpXpX0X+XS.`.S.B.Z.A.B.!.Z.B.Z.1X1X*X).0.~ | R.Z.Z.b.i.p.0.0.| m m n n f f n m m m m m n f f n n f f f l f m f b f f f f d d f b f d d d d d d d f f f n n n m W m f f d d f f k f n W f m b b m k k b n k f f b f f f d n d d l k f d b b d d d f n f n m n f n f n M M f : m M m m ~ 5.8.8.D.!.^.^.`.;X@X=X@X=X3X9X9X>X9XrXiXyX&X`.`.D.S.S.D.D.D.`._.`.&X:X9X9X9XuXyXdXyXkXzXzXzXzXzXlXcXcXlXzXzXzXzXzXzXkXlXlXlXzXkXkXkXkXkXlXlXCXCXCXCXCXCXCXCXCXCXSXCXCXCXCXcXcXcXkXjXzXdXzXjXzXjXjXdXdXuXyXtXrX9X4X>X:X>XrX4X4X4X4XrXrXrX4X>X;X&X@X@X@X@X@X@X@X@X&X&X=X;X3X4X9X9XdXyXyXdXkXMXMXMXMXSXSXSXAXAXZXCXCXCXSXCXCXSXSXSXkXdXdXdXuXuXuXuXuXuXuXyXiXrXiXiXiXiXiXiXiXiXiXiXyXtXyXyXaXdXjXkXfXfXkXkXkXNXSXZXAXAXAXAXZXZXZXCXAXSXdXyXtXyXdXdXdXaXaXaXyX0X9X4X4X9X0XyXyXyXtXyXaXaX",
"kXkXkXjXjXfXfXfXfXfXgXyX3X@X_._.).!.`.@X5XpXgXfXmXmXBXMXkXaX0X0X0X0XqXqX9XqXqX5X3X3X5XqX9XqX9X9XqXqX0X0X0X0X0XqX5XqXqX0XpXaXaXsX0XqXqXpXaXpXyX0X0X0XyXyXyXuXaXdXfXjXkXkXfXgXaX0XqX5X1X-X*X[.*X+X_.).~.).~.R.R.!.~.!.!.!.E.R.R.R.A.A.A.Z.Z.Z.Z.Z._.).*Xz.0.0.0.0.0.0.p.p.p.p.i.i.i.i.l.l.c.m.m.c.c.n.c.i.i.p.{ / K c j j c ! s.Q.'.{.{.*X-X=X=X=X:X3X9X9X0X0X0X0X0X0X0XyXaXaXyX:X_.A._.V.Z.A.*X!.l.v.Z._.[.).Z.).*Xi.~ l.b.E.Z.z.i.p.0.} ! b n n f f n n n n n n n f f n n f f f d d b f f n f d d d d f b b d d d f d d d d f f n n b b W b d f d d d d k d W b n W n n b n n b b f f d f d f l l f d d l f b f f n l d d n n n n m n f n f f n n l l M M M m 8.8.V.V.A.!.`.oXoX@X@X3X:X9XyXyX9X>X>X>X>X:XoXS.S.S.S.D.`.D.D.`.`.@X:X9X9X&XyXdXCXdXuXcXzXzXzXzXzXlXcXCXlXzXzXzXzXzXkXlXkXkXlXzXkXlXlXlXkXlXCXCXCXCXCXCXCXCXCXAXSXSXSXSXCXCXCXCXcXkXjXdXdXdXhXzXzXdXdXuXiXtXrX9X4X>X:X>X4XrX4X4X4X4X9XrX9X>X:X;X&X&X@X&X&X&X&X=X=X&X&X;X;X3X9XtXaXdXyXyXgXjXkXkXMXSXZXZXZXZXZXAXAXCXSXSXCXSXcXcXcXjXaXuXdXdXuXdXdXuXuXuXuXuXiXiXiXiXiXiXrXiXrXrXrXyXyXyXyXyXaXdXfXfXfXkXMXkXjXkXSXAXAXAXAXZXZXCXCXAXkXaXyXyXdXdXdXdXyXtX0X0X9X9X4X4X9X0XtXyXyXaXaXdXdX",
"kXkXkXjXjXfXfXfXfXdXaXaX0X&X`.!.!.S.!._.5XpXgXmXfXmXMXBXBXdX0X0X0X0X0XqX9XqXqX5X3X3X3X5XqXqX9X9XqXqX0X0X0XyX0XqXqX0X0XpXaXaXaXaXpXqXqX0XaXaXpXyX0X0X0XyXyXyXuXdXfXfXfXfXfXgXaXpX0XqX5X1X*X+X#X[._.~.!.E.R.Z.Z.E.E.E.R.R.R.Z.Z.Z.Z.Z.Z.Z.Z.Z.Z.Z.[.~.+Xz.0.0.0.0.0.0.p.p.d.p.i.i.i.i.l.l.l.c.m.m.c.v.c.s.i.y.} / P b c j v b / s.Q.'.].[.*X*X*X-X=X:X3X9X9X0X0X9XqX0XpXaXsXpX0X+X!.S.V.B.A.).z.| } | 0.l.v.E.Z.Z.).[.p.! v.E.E.m.l.p.0.~ ~ M n n n f n n f n n m n f f b f f f f l d n d d f d d d d d d f b d d d k d d d d f f b k n b b b d d d d d l k d ! b n ! n f b n n b b f d l f d f l l d d d l k m n f f d d d m n b n m n f n f l n f l n m m ~ M 0.V.A.V._.`._.oX@X:X&X:X&XyXyXyXyXrX9X>X;X@XD.S.S.S.D.`.`.D.D.`.`.:X9X9XyX9XdXdXCXzXdXcXcXcXcXcXcXlXcXcXzXhXkXlXcXlXlXkXzXkXkXzXkXlXkXkXlXCXCXCXCXCXCXCXCXCXCXCXSXCXSXSXCXCXCXCXcXkXhXdXuXuXdXdXdXaXuXiXtXrXrX9X>X>X>X>X>X>X4X4XrX9X9X9X4X>X>X:X;X&XoX&X&X&X&X=X=X:X;X:X;X4X0XyXdXdXyXyXgXfXjXkXSXSXZXAXZXZXZXAXAXAXCXSXCXCXSXcXkXdXyXyXdXdXdXdXdXuXuXuXuXuXiXiXrXiXiXiXiXiXrXrX9X9XyXuXyX0XyXaXdXdXfXkXMXkXdXfXSXAXAXAXAXZXZXSXSXMXfXaXaXaXdXdXdXaXyX9X3X9X4X4X3X4X9XtXyXyXaXdXfXfXdX",
"kXkXkXkXjXfXfXfXfXdXaXsX0X:X_.A.A.V.V.!.@XqXsXgXfXfXBXMXMXfXsXaXpX0X0XqXqXqXqX3X3X3XqXqXqXqX9X9XqXqXqXqX0X0X0XqX0X0X0XpXaXaXgXaXpX0XqXqX0XpXaXaXyX0XyXyXyXyXaXdXdXdXdXfXfXgXaXpXwX0XqX5X-X*X+X[._.~.!.R.R.E.E.E.E.R.R.R.Z.Z.B.B.B.Z.B.B.B.B.B.B.E.R.{.z.0.0.0.0.0.0.0.0.d.p.i.i.i.i.l.l.i.c.m.m.v.v.c.s.s.u.} ` ! b c v j c K ` c./.'.'.{.*X+X#X=X:X3X9X9X9X9X9XqXqX0XyXdXaX0X-X!.S.z.V.Z.0.~ 0.R.Z.).~.E.m.E.W.).).[.| p.Z.R.m.b.z.i.p.| | ~ m n n f d n n n n n f n m f f f f d l f d d f d f b k d d d b d f k b d d d d d b b k k b b k d d d d d l k b ! n f W b f b n f m b f d d f d d d l l d d d b m m f d d f f W f b n n d d f m d m f l m m M ~ 0.V.`.A.A.!.oX@X&X=X3X3X3X3X9X9X9X9XiX9X>X&XD.S.V.V.D.`.`.`.!.A.&X3XuXuXuXyXdXuXdXkXcXkXcXcXcXcXcXcXlXcXlXzXzXzXcXcXlXkXkXkXkXkXkXlXlXkXkXlXCXCXCXCXCXCXCXCXZXCXCXCXCXSXSXcXcXcXcXkXjXdXuXrXrXuXdXuXyXyXtXtX9XtX9X>X>X>X>X>X>X>X4XrXrX4XrX4X>X:X:X;X@XoX=X=X@X&X&X=X3X;X3XtX0XtXyXaXaXyXaXgXfXjXMXSXSXZXAXAXAXAXAXAXAXCXSXSXSXSXcXkXdX0X0XdXdXdXdXdXuXuXuXuXuXiXiXiXiXiXiXiXtXrX9X9X9XtXyXyXyXyXaXaXdXfXkXMXMXfXjXSXAXAXAXAXZXCXSXNXfXaXaXaXaXdXaXaXyX0X9X3X3X3X4X9X9XtXyXpXdXdXjXjXfXfX",
"kXkXkXkXjXfXdXdXdXdXaXaX0XqX@X).A.V.V.R.[.3X0XsXfXfXfXBXBXfXgXsXaXyX0XqXqXqXqX3X3X3XqXqX5XqX9X9XqXqXqXqX0X0XqXqX0X0X0X0XpXpXpXpXpXyX0XqX3XqXyXpXyX0X0X0XyXyXyXaXdXdXdXdXfXgXaXaXpXpXqXqX5X-X#X[.]._.~.E.R.E.E.E.E.R.R.R.Z.Z.B.B.B.B.B.B.B.B.B.B.R.R.].p.0.0.0.0.0.0.0.0.p.d.p.p.i.i.l.l.i.c.m.m.v.v.c.c.s.u.$.[ ! K c v j j b K [ c.Q.W.[.{.*X*X=X:X3X9X9X9X9X0X0X0X0XyXaXpXqX&X`.a.z.A.V.M | A.#X].1X#XE.E.b.R.W.qX*Xl.! p.Z.Z.b.v.l.p.0.0.| M n n n n n n n n n f n m f f f d d f d f f d d n b d d d k b b n n b d d d d d b b k k k k d d f f d d d k ! b b d b b f f f b n b f d l f d d d l d d d d b b b f l d d f n m b f d f n n f f m l f M M a.8.S.`.A.!.`.oXoX@X&X=X3X3X3X3X9X9X9X9X4X;X@XD.S.V.V.S.`.`.`.`.D.D.&X9XuXuXuXuXzXdXdXjXcXcXzXzXzXzXkXzXkXkXcXkXzXzXlXlXkXkXkXkXkXkXkXzXkXcXcXlXcXCXCXCXCXCXCXCXCXCXSXCXcXSXSXcXkXkXkXjXdXuXyX9XrXuXdXiXtXtXtXrXrXrX4X>X>X>X>X>X>X>X4X4X4X4X4X>X>X:X;X&X@XoX=X&XoX+X&X&X;X;X3X4X4X0XtXaXaXaXgXfXfXfXSXSXSXSXAXAXAXAXAXAXAXAXSXSXCXCXkXkXdXuXuXdXhXdXdXdXuXuXuXuXuXuXiXrX9X9X9X9X4X4X9XrX9X9XyXuXaXaXaXaXdXdXjXMXSXSXSXZXAXAXAXAXZXCXSXkXgXaXyXaXaXaXyX0X0X9X3X3X3X4X9X9XtXyXpXaXfXfXjXjXfXfX",
"kXkXkXkXkXfXdXdXdXdXdXaXpX0X3X_.E.V.V.Z._.*X5XqXgXfXfXkXkXfXgXgXdXyX0XqXqXqXqX3X3X3X3X3X3X3XqXqX9X9XqX0X0X0X0X0X0X0X0X0X0XpXpX0X0XpXaX0X3X3XqXaXaX0X0X0X0X0XyXaXdXdXdXdXfXgXaXaXpXpXqXqX5X3X*X+X].].).!.E.E.E.E.R.R.A.B.Z.Z.B.B.B.B.b.B.B.B.B.B.B.Q.~.p.0.0.0.0.0.0.0.0.p.p.p.p.p.i.i.i.i.c.m.m.v.v.v.c.i.s.u.} ^ ! b b v j j c K } m.Q.~.{.*X#X-X:X3X5X4X9X9X0XyXyXyXyXpX0X3X+XV.A.z.A.i.m B.[.5X1X5X#X).'.m.l.E.eXsX*X0.p.Z.v.Z.B.b.l.d.d.| ! m n n n m n f f f f f n f d d d d n f b f d d b b d k k k k ! b ! d l k d d d b k k k k k d d k k d d d n ! b b d f k n d f m f f f f d d d d f f d d d d b n f d l d d f f m f d f ~ d l n m n f n ~ | D.a._._.S.`.@X&XoX@X&X=X:X3X3X3X:X:X:X:X&XoXD.S.V.V.S.D.`.`.`.`._.@X=XyXuXuXuXuXkXhXzXzXkXcXcXzXzXzXzXzXzXkXcXcXlXkXkXzXzXzXkXkXkXkXkXzXkXcXcXlXcXCXCXCXCXAXAXAXCXCXCXSXcXCXCXkXjXjXhXdXdXuXyXyXiXuXuXyXtXtXtXtX9X>X>X;X>X;X>X>X>X>X4X4X4X>X>X>X>X>X;X@X@XoX;X=X_.oX+X@X&X;X3X;X;X3X0XyXaXaXfXfXfXfXSXSXSXSXAXAXAXAXAXAXAXAXSXSXcXkXjXzXdXdXdXdXhXhXdXdXuXuXuXyXiXiXrX9X>X:X:X:X:X>X9X9X9X9XyXuXaXaXaXaXdXdXjXkXSXZXZXZXAXAXAXAXZXCXNXMXaXyXyXaXaXyX0X9X3X3X3X4X9X9X9X0XtXaXaXfXjXjXjXjXfXfX",
"BXkXkXkXkXfXfXdXdXdXgXaXpX0X5X@X!.V.V.S.).+X*X5XpXfXfXfXfXfXgXgXgXaX0XqXqXqX9X3X3X3X3X3X3X3XqXqX9X9XqX0X0X0X0X0X0X0X0X0X0X0XwX0X0XaXaXyX0X9XqXaXaX0X9X9X9X9X9XtXaXdXdXdXfXgXaXsXsXpXqX0XqX5X=X#X+X]._.~.!.E.E.E.R.R.B.B.B.B.B.B.B.b.b.B.B.B.B.B.B.E.E.p.0.0.0.0.0.0.0.0.p.p.p.p.p.p.i.i.i.c.m.m.c.v.v.c.s.s.u.@.` ! K b c v c j b / u.n.R.[.#X*X*X=X:X3X5X5X9X9XyXuXaXaXyX0X3X].A.a.V.!.i.~ +XqXwX1X1X[.{.).R.0.b.1X[.].m.i.Z.Z.B.B.B.v.a.i.0.~ M m m m ~ m n d f f f m f d d d f d b b d d d f d d k f k n m b b l l l d d d b k k j j d d d k k k d d f b W b f f d d d f W l d f f f d d d f k d d d d f f d l d : d n n f l d m d d d m f m m M 8.z.V.a.@X!.!.@X&XoXoX@X&X=X:X3X3X3X:X:X:X:XOXD.S.V.V.S.D.D.D.D.`._.&X4X4XkXuXuXyXuXkXzXdXkXkXcXcXcXcXcXzXhXdXzXcXCXcXkXzXzXzXzXkXkXkXkXkXlXlXlXlXcXCXCXCXCXCXAXAXAXCXCXSXSXCXCXSXkXzXzXdXdXdXdXdXuXuXuXuXrXtXtXtXtX4X;X;X;X;X;X>X>X>X4X>X4X>X>X>X:X>X:X&X@X@XoX&X&X`._.+X@X@X;X3X;X&X;X0XaXaXdXfXfXdXjXSXSXSXSXAXAXAXAXAXAXAXAXCXSXkXjXdXdXaXaXuXuXdXdXdXdXuXuXuXyX9X>X:X:X:X:X:X:X>X:X;X;X4X9XyXuXyXaXaXdXdXdXjXkXSXAXAXAXAXAXAXAXZXCXNXNXyXyXyXaXyX0X3X3X:X3X4X9X0X0X0X0XyXaXfXjXjXjXjXjXjXjX",
"MXkXkXkXjXfXfXgXgXgXgXaXpX0XqX=X`.A.V.V.!.`.+X3XqXsXgXfXfXfXfXfXgXsX0XqXqXqXqX5X5X3X5X5X5X5XqXqXqXqXqXqXqXqXqXqXqX0X0X0X0XpXsXsXpXaXdXaXaX0X0XpXpX0XqX9X9X9X9X0XpXaXgXgXgXgXaXsXaXpX0XqXqXqX1X*X+X].'.~.W.E.E.E.R.R.T.B.Z.Z.B.B.B.b.b.B.B.b.b.b.B.E.~.p.0.0.0.0.y.y.y.y.y.p.p.p.p.p.l.i.l.c.c.c.c.m.m.c.i.u.u.y.{ ! P b b c c c b K ! y.R.).].+X#X*X=X3X3X5X4X9X0XyXaXaXtX9X;XoX!.z.a.S.z.0.#XsXgX1X#X1X[.[.Z.8.~ E.).).E.b.!.E.b.Z.b.z.B.l.p.8.~ m M | ~ m f d d n n f d f f f d d f d d d d d d d d d l d f f d d d d b k d l d f d d d d d k k f d d f b ! b b d W d d d b l d n b d f d d b f d l d b b b b b d d n M n d : d n d : m | M p.a.| V.`.V.V.^.D._.&X;X&XaX3X=X;X:X:X:X:X=X@XoX`.D.S.S.S.S.D.D.D.S.`.oX@X9XyX9XyXyXuXyXdXkXjXuXkXkXcXkXcXcXcXcXhXdXhXkXcXlXzXzXzXzXzXkXkXkXkXlXlXcXkXcXCXCXCXCXCXCXCXAXAXCXCXCXCXcXCXCXjXhXhXhXdXdXdXuXuXuXuXiXiXtXtXrX9X>X;X;X;X&X;X;X;X:X4X4X4X4X:X:X;X;X:X&X+X+X+X&X@XOXOX+X@X@X=X3X3X=X&X0X3XaXaXfXfXdXMXCXMXCXSXAXAXAXAXAXAXAXCXCXcXjXzXdXdXaXaXyXuXdXdXdXdXdXuXyX9X>X;X&X;X:X:X>X9X:X;X;X;X;X4X9XrXyXyXuXdXdXfXjXkXSXAXAXAXAXAXAXAXZXCXkXaXtXyXyX9X;X;X:X>X>X4X9XtXtXyXtXyXpXdXjXjXjXjXkXkXkXkX",
"MXkXkXkXjXfXfXfXgXgXgXaXpXpXqX3X*X_.A.V.E.!._.=X5X0XgXgXfXfXfXfXgXsX0XqXqXqXqX5X5X3X5X5X5X5XqX5XqXqXqXqXqXqXqXqX0X0X0X0X0XpXsXsXaXaXaXdXaX0X0X0XpXpX0XqXqXqXqXqX0XaXdXgXgXgXaXaXsXpX0X0XqXqX5X*X#X].].).~.E.E.E.R.R.T.B.B.B.B.B.B.b.b.B.B.b.b.b.B.E.).p.0.0.0.0.y.y.y.y.y.p.p.p.p.p.l.i.l.c.c.c.c.m.m.c.i.i.u.y.} / ! b c b c c c b b ! i.Z.).].+X#X*X=X:X3X5X4X9X0XyXaXtX9X;XoXS.S.S.!.B.A.1XwXsX1X*X1X[.].A.0.n l.Z.[.E.z.E.E.b.v.b.R.B.p.0.i.0.| ~ ~ ~ m n d n n n f d d f d d f d l d d d d f n d d d d f f d d d d k d d l d d d d d d d k b k d d d b W b n d b l d d n d d n n d f d d f d d d d f d d d d : l f n l d d m n d m M p.p.b.Z.V.!.!.D.`._.`.oX&X;X=X:X;X:X3X:X=X=X=XoX`.!.D.S.S.S.S.D.D.D.`.!._.&X;XrX9XuXyXyXuXcXdXzXdXuXhXzXzXzXzXkXcXcXzXdXhXhXzXzXhXzXzXzXzXkXkXkXkXlXlXcXcXCXCXCXCXCXCXCXAXAXAXCXCXCXcXkXkXjXzXhXhXhXdXdXuXuXuXuXuXiXuXaXyX4X>X;X;X;X;X&X;X;X;X;X4X4X>X:X;X;X;X;X:X&X+X@X&X*X@X+XOX+X@X&X&X=X:X:X=X4X3XaXaXfXfXfXSXSXSXSXCXAXAXAXAXAXAXAXCXCXkXjXzXdXdXdXaXaXaXdXdXdXaXuXyX9X>X>X;X;X9XrX9X:X;X;X;X;X;XtXrXrXrXyXyXuXdXdXfXjXkXSXSXZXAXAXAXAXZXCXkXdXtXrXrX9X:X;X;X:X9XrXtXyXyXpXaXpXaXaXdXjXkXkXjXMXNXMXMX",
"MXkXkXkXkXjXfXfXgXgXgXaXsXpX0XqX5X*X`.S.S.A.`.*X=XqXsXgXfXfXfXfXgXsX0XqXqXqXqX5X5X5X3X3X3X3X5X5X5X5X5X5XqXqX0X0X0X0X0X0XwXpXsXsXaXsXsXdXaXpX0XqX0X0X0XqX9XqX9X9X0XyXsXaXgXgXgXaXsXpX0X0XqXqX5X*X#X[.].'.~.W.E.E.E.R.R.T.Z.B.B.B.B.b.b.B.B.b.b.b.B.!.).p.0.0.0.0.0.0.y.y.y.y.p.p.p.p.i.i.i.c.c.c.m.m.m.c.c.i.u.u.@.[ ! P c c c c c b b K 0.i.Z.).[.#X*X=X=X3X3X5X5X9X0XyXtX9X;XoXz.z.z.Z.E.-XwX0XwX5X-X*X+X_.E.i.m 0.b.!.E.i.B.E.Z.b.Z.E.Z.n.b.z.z.0.8.0.0.| M n m n f f d d d d d f d : d d d d f n f f d d f f f k k k d d d l d d d d d d d k b k d d d c b k f f k l d f d d d f f d k f d d d l d f d l l d l : d d n l f n m f d M 8.z.V.S.!._._.!.!.oXoX@XoX&X:X=X&X=X3X:X=X&XoX_.^.D.D.D.D.S.S.D.D.`.`._.oX&X;X:XiXrXdXdXdXrXkXdXhXkXkXdXhXzXzXdXdXkXcXzXdXhXhXhXzXzXzXzXzXzXkXlXkXkXkXcXcXcXCXCXCXCXCXCXAXAXAXAXCXCXCXcXkXkXjXzXhXhXdXdXdXdXdXdXuXdXuXuXuXtX>X;X&X&X;X;X;X;X&X@X@X:X>X>X;X;X;X;X%X:X&X+X+X@X@X@XOXOX+X+X@X@X&X=X=X3X3XqXpXaXdXfXkXSXCXSXCXCXZXZXAXAXAXAXCXcXCXkXjXzXdXdXdXdXdXaXaXuXuXuXyX9X4X>X:X;X>XyX4X4X4X:X;X;X;X;X:X9XyXuXuXyXaXdXdXfXjXkXSXSXZXAXAXAXAXSXlXjXyX>X9X4X:X=X;X;X9XyXyXyXuXuXaXaXaXaXdXjXkXkXkXkXMXNXNXNX",
"MXkXkXkXkXjXfXfXgXgXgXaXsXpX0X0X0X3X+X!.Z.S.!.@X*X3X0XsXfXfXfXfXgXsXpX0XqXqXqX5X5X5X3X3X3X3X5X5X5X5X5X5X5XqXqX0X0X0X0X0X0XpXsXsXsXaXsXsXaXsX0XqX3X3X3X9X9XqX9X9X0X0XpXsXgXgXfXgXgXsXpX0XqXqX1X-X#X#X].'.~.~.E.E.R.R.R.T.B.B.B.B.B.b.b.V.b.b.b.b.Z.E.).p.0.0.0.0.0.0.0.0.y.y.y.y.p.p.i.i.i.c.c.c.m.m.m.c.c.c.s.u.$.{ ^ ! c c c c v c b b | 0.i.Z._.+X@X*X=X=X:X3X5X5X9X0X0X9X;XoX!.V.z.A.-X0XsX3XqXqX-X*X[._.E.l.M ~ Z.).E.0.b.E.R.E.R.b.R.v.z.B.z.p.l.V.l.p.| ~ ! n d f d d d d f d l l d d d k d d d d d d f f n b b b l l l d d d d d d d d b b k d d d c b d d f d l d b d d d d d l f f f d d d d f b l l b d d d d ! n m f m m m ~ V.z.V.A.E.`.).@XOX&XoX;XoX=X3X3X@X:X:X=X&X@X_.!.D.D.D.D.D.D.S.S.`.oXoXoX@X&X:X9XyXdXyXhXdXdXkXdXdXhXkXlXcXkXcXdXdXzXcXkXhXdXzXzXzXzXzXzXzXzXkXlXkXkXkXcXcXcXCXCXCXCXCXCXAXAXAXAXCXCXCXCXCXcXkXjXzXhXhXdXdXdXdXdXdXdXdXuXrX9X4X:X;X&X&X;X;X;X@XOXOX;X;X>X;X@X@X@X&X;X&X+XOXOXOX_._.OX+X+X+X+X&X&X=X5X3X0XaXaXdXfXkXSXAXZXZXCXCXCXZXAXAXAXSXcXcXkXjXzXdXdXdXhXdXaXyXyXyXyX9X9X>X>X>X:X4XuXuX9X;X&X;X;X;X:X:X9X4X9XyXyXaXdXgXgXjXMXSXSXZXAXAXAXZXNXkXaX9X>X>X;X&X&X;X:XyXaXuXuXuXuXaXaXaXaXdXjXkXkXNXNXNXSXSXSX",
"MXMXkXkXBXjXjXfXfXgXgXaXsX0X0X0XqX3X@X+X!.A.E._.@X=X5XpXaXgXgXsXgXsXsXpX0XqXqX5X5X3X3X3X5X5X5X5X5X5X5X5X5XqXqX0X0X0X0XwXpXwXpXsXgXgXsXsXsXgXpXqX3X-X:XqX0X0X0XqXqX0XyXaXdXgXfXjXfXgXsXpX0XqX5X1X*X#X].'.~.~.~.W.R.R.R.T.B.n.n.n.B.b.b.n.b.b.b.b.Z.E.E.p.0.0.0.0.0.0.0.0.y.y.y.y.p.p.i.i.i.l.c.v.m.M.M.m.m.c.c.i.$.{ ` ! J c c c b b b c ! 0.l.B.E._.[.@X*X=X:X3X3X5X9X9XtXpX;X&X`.V.Z.-X3XwXqXqXqX1X-X*X*X].E.l.| M | l.b.p.l.B.A.E.E.).).!.Z.z.b.B.B.l.l.z.p.| ~ m f d n n d d l l l d d d d f l l l l d d f f b k d d l : l d d d d d d d d b b d d d d b d d d f f d d d d d d l n f d b f d l f d d d l d b f d b n n m m | 0.8.0.a.!.A.Z.S.^.:X@X&X@X&X;X=X@X=X3X9X=X;X=X&X@XoX`.D.D.D.D.D.D.D.D.D.`.oX&X&X:X&X9X9XdXdXrXdXdXdXkXhXxXhXzXcXCXcXkXdXuXdXcXkXzXzXzXkXzXkXkXzXkXkXkXlXlXkXlXCXCXcXCXCXCXCXCXAXAXAXAXCXSXCXCXkXcXkXkXjXzXhXdXdXdXdXdXdXdXuXiXiXrX4X>X>X&X@X@X@X;X@X@X@X$X;X;X;X@X@X@X@X&X;X&X+X+XOX_._._.oXoXoX+X+X@X&X;X5X5X0XdXaXdXjXkXMXCXSXCXCXCXCXAXAXAXAXSXCXcXkXjXjXdXdXdXjXdXaXyXiXyXtX9X:X:X:X:X>X9X4X:X&X&X:X:X;X:X4X9X9XtXyXyXuXdXdXgXfXkXSXSXZXAXAXAXAXSXMXjX:X>X>X;X;X&X&X:XtXuXaXuXuXuXaXdXdXdXdXdXjXkXkXMXNXSXSXSXSX",
"MXMXkXkXMXkXjXjXjXfXgXaXsXpX0X0XqX3X*X@X`.E.A.!.+X*X3XqXpXaXgXgXgXsXsXpX0X0XqX5X5X3X3X3X5X5X5X5X5X5X5X5X5X5XqX0X0X0X0X0X0XwXpXsXsXsXsXsXsXsXaXpX0X3X:XqX0X0XyXqXqX0X0XpXdXfXfXjXfXgXsXpXwXqXqX1X1X#X].).~.~.~.W.R.R.T.B.n.n.n.n.n.b.b.b.b.b.b.b.B.R.Z.p.0.0.0.0.0.0.0.0.0.0.y.y.p.p.i.i.i.l.c.v.m.M.M.n.m.m.c.x.y.{ [ ! P b c c c b b b ! $.i.m.Z.E.).+X*X=X=X:X3X5X4X9XtX4X0X&X+X!.@XqXqX0X0XqXqX1X*X1X[.*X].l.8.~ | p.p.i.B.R.Z.E.!.).E.).!.z.E.E.z.b.b.z.p.a.| ~ m n f d d d d d d d d d j d l l l l d d d d f d d d d d d d d d d d d d d k j d d d k b d : d f d d d d d d d l d d d k f d d n d l f d d n d n f n ~ 0.8.V.V.z.z.!.!.!.!.!.`.@X@X&X&X&X=X&X&X=X:X3X:X=X&X@XoX_.!.D.D.D.D.D.D.D.D.`.`.@X&X&X9X;XyXyXuXuXrXuXuXdXdXdXhXzXzXkXkXzXzXhXuXuXdXzXkXkXzXhXkXlXkXlXcXcXcXcXlXkXlXCXCXcXcXCXCXCXAXAXAXAXCXCXCXkXkXkXkXkXkXjXhXhXdXdXdXdXdXdXaXuXiXiXrX4X>X&XOXOXOX@X@X@X@XOX$X:X>X$X@X@X&X;X=X=X&X$X+X+XoXOXoX].oXoX+X+X@X&X1X3X5XqXaXpXdXkXkXdXfXSXCXSXZXCXAXAXAXCXCXSXcXkXjXjXdXdXdXhXdXaXyXiXyX9X4X:X;X;X:X>X>X:X&X@X&X:XyX9X>X9X9XtXyXuXdXdXdXdXfXjXkXSXZXZXAXAXAXAXZXMXdX>X@X@X;X&X;X>XtXuXuXuXuXuXaXdXdXfXjXjXjXjXkXkXNXNXSXSXSXSX",
"MXMXMXMXMXBXBXkXjXjXfXgXsXsXsX0X5X;X=X*X@X!.S.A.`.@X=X5XqXpXsXgXgXsXsXsX0X0XqXqXqX5X3X3X5X5X5X5X5X5X5X5X5XqXqX0X0X0X0XqX0X0X0XwX0XpXsXsXsXgXaXaXyXqX3X9XqXpXpX5X3XqXqX0XgXfXjXfXfXfXgXgXpXqXqX5X1X*X+X'.).'.'.W.R.T.T.B.B.B.n.n.n.n.b.b.b.b.b.v.b.R.m.y.} } 0.0.0.0.0.0.0.0.y.y.p.p.i.i.i.l.c.v.n.n.n.n.m.m.m.c.u.@.{ ` ! K c c c c c c W } i.v.m.B.E._.+X-X=X-X3X3X4X9X0X9XpX3X-XoXqXwXwXqXqX3X1X*X-XqX+X-X[.b.p.~ | } | v.R.Z.Z.E.!.).).E.Z.A.A.z.A.E.v.b.b.p.p.| ~ M n f f d d d d d d d f d d l l d d d d d l d d d d d d d d d d d g f g f d d d f n f : : d d d d d d d d d d l l f d f f d b d : l l d n b n n 0.z.z.B.A.z._.A.A.!.`._.].+X_.@X&X&X&X&X&X&X&X&X=X=X&XoXOX_.`.!.D.D.D.D.D.D.D.`.oXoXoX&X9X0X:X9X9XdXdXlXkXdXuXhXhXhXhXzXzXzXkXcXcXzXuXdXhXhXzXkXcXcXkXcXcXCXcXcXcXCXkXcXAXAXCXCXCXCXAXAXAXAXCXCXCXcXkXkXkXkXjXjXdXhXdXdXdXhXdXdXdXdXyXiX9X>X>X:X>X@X@X@X@X&X;X;X@X@X$X;X>X;X%X;X&X&X&X&X$X+X+XoXOXoX].oXoX_.+X&X&X=X=X3X5XtX0XaXkXjXdXdXCXCXSXAXAXAXAXAXCXCXSXcXkXkXjXdXdXdXhXdXaXyXiXtX9X:X:X;X;X:X:X:X;X&X&X;X;XyX9X>X9XtXyXaXdXdXdXdXdXjXkXMXSXZXAXAXAXFXAXZXjXrX@XOXOX&X;X>XtXuXuXuXuXuXaXdXdXfXjXjXjXkXkXMXNXNXSXSXSXSXSX",
"MXMXMXMXMXBXBXkXjXjXjXgXgXgXsX0X5X=X=X=X=X).A.S.!.[.*X3X5XqXpXsXgXsXsXsXpX0XqXqXqX5X3X3X5X5X5X5X5X3X3X3X5X5XqXqXqX0X0XqXqXqXqXqX0XwXsXpXsXgXdXaXsXyXqX9XqXpXyX3X3X3XqX0XaXfXfXfXfXfXgXgXwXqXqX5X1X#X#X'.'.].'.~.R.T.R.T.n.n.n.n.b.b.b.b.b.b.b.c.v.Z.i.0.} } 0.0.0.0.0.0.0.0.y.y.p.p.i.i.i.l.c.v.n.n.n.n.m.m.m.c.s.y.{ ` ! K c c c c b c W } p.m.l.m.Z.!.].*X-X=X-X3X3X3X4XpXqXqX&X_.wXqX0X0XqX-X1X*X-XqXqX+X_.E.z.~ ~ ` 0.Z.A.b.Z.E.E.).Z.).).Z.B.E.Z.B.Z.b.l.b.z.i.8.| m m b n f f f d d d d d d l l d d l l d : : l d k d d d d d j d d d d f d d d f f d : l d d l l d d d d l d : : n : f f b b l : d d m | m M p.B.V.A.b.).V._.B.!.!._.+X&X@X!.&X&X;X&X&X@X&X&X&X@X@XoX_.`.`.!.D.D.D.D.D.D.D.^.oX&X&X@X;X9X0X;X9X9XrXuXCXhXzXyXlXzXkXdXkXzXkXCXSXCXCXcXcXkXkXjXzXzXzXjXkXcXcXkXkXcXCXcXCXAXAXAXCXCXCXAXAXAXAXCXCXcXcXkXkXkXjXzXdXdXdXdXdXdXhXdXdXdXdXuXyXyXrX>X>X;X@X@X;X;X;X;X;X;X@XoX@X>X;X&X%X@X&X&X&X+X+XoXoXoXoX].].oX`.+X@X&X&X=X3X5XqXqXyXMXkXgXdXSXCXCXAXAXAXAXAXCXCXSXcXkXkXjXjXdXdXdXdXuXyXyX9X>X:X:X;X:X;X;X;X&X&X&X&X;X:X;X:X9XyXaXdXdXdXdXfXfXkXjXMXAXAXAXAXAXDXDXSXdX@XoX`.&X;X>XtXuXaXuXuXuXaXdXdXdXjXjXkXkXMXMXNXNXNXSXSXSXSXSX",
"MXMXkXMXMXMXBXkXkXjXjXfXsXaXsXpXqX3X1X3X&X*X_.A.A.`.@X=X5XqX0XsXsXsXsXsXpX0XqX0XqX5X5X3X5X5X3X3X3X3X3X3X5X5X5XqXqXqXqXqX0X0X0X0X0XsXsXpXsXgXgXsXgXsX0XqX3X0X0X3X3X3X3X9XpXgXfXgXfXfXfXfX0XqX5X1X1X*X#X].].'.'.~.(.R.R.T.n.n.n.n.b.b.b.b.b.b.b.v.m.B.p.0.} } 0.0.0.0.0.0.0.y.y.y.p.p.p.p.i.i.c.v.n.n.n.m.m.m.m.m.i.u.$.{ ^ P J b c c c c W } u.m.m.v.Z.E.).+X#X-X-X3X3X3X3X0X0XqX-XqX0XqX1XaX0X+X1X*X+X*X[.+X[.).b.| m | i.b.Z.R.Z.R.E.E.!.~.).!.E.E.A.Z.Z.B.B.B.V.z.i.0.~ 0.m b n n n f d d d d d d l d 6 4 6 : 4 : 4 4 l d d d d d j d d d d f d l d f f d : d 6 d d : d d d d l d l d d f b m b b n ~ m | | i.! p.V.b.A.!.S.!.!._.).S._.oX&X&X&X&X&X&X;X;X;X;X&X&X@XoXoX_._.`.^.^.D.D.D.D.!.`.oX@X&X-X&X&X4XdXrXjX9XdXdXuXkXkXzXyXzXzXkXdXkXzXkXCXcXCXCXcXcXcXcXkXkXzXjXjXkXCXcXjXkXCXSXSXCXAXAXAXAXAXAXAXAXAXAXSXSXSXkXkXjXjXzXdXdXdXdXdXdXdXdXdXdXdXdXuXyXyXrX4X:X;X&X&X&X;X;X&X;X>X&X@X&X3X3X@X&X@X&X=X&X+X].].]._._._._.~.^.+X&X@X&X=X3X5XpX0XyXkXkXdXjXMXCXCXZXAXAXZXZXZXCXCXCXkXkXjXjXdXdXdXdXuXyXtX9X4X:X:X;X;X;X&X&X&X&X&X&X&X;X:X>X9XuXdXdXdXdXdXjXjXSXfXkXAXAXAXAXAXAXAXSX&X_.`.@X4XtXtXyXaXaXaXaXdXfXfXfXjXkXkXkXkXkXMXMXMXNXSXSXSXSXSX",
"MXMXMXMXMXMXBXkXBXjXjXgXsXpXpXpX0X4X3X3X=X=X+X!.A.!.].*X3X5XqXpXsXsXsXsXsXsX0X0XqX5X5X3X3X5X3X3X3X3X3X3X5X5X5X5XqXqXqXqX0X0X0X0X0XsXsX0XpXgXgXsXsXsX0X5X3X3X0XqX3X3X3XqX0XaXfXfXjXfXfXfXqXqX5X1X1X1X*X#X].'.'.'.~.(.T.B.n.n.n.n.b.b.b.b.b.b.m.m.m.b.p.0.} $.0.0.0.0.0.0.0.y.y.y.p.p.p.p.i.i.c.v.n.n.n.m.m.m.m.m.c.s.y.} ^ ! K c c c b b P [ s.c.m.m.n.R.E._.+X#X-X-X3X3X3X3XqX0X3XqXqX5X-X0X3XoX5X*X+X*X+X*X+X).B.0.~ | i.v.B.A.Z.A.R.).).~.E.E.Z.Z.E.!.Z.E.A.b.b.z.p.0.p.} m | ! ~ ! m b d l f d d d l d d d 6 d 4 4 d d d d d d d d f j d d n d d d d d d d d d d d : d d d d n d f f d d b ! ~ ! } 0.0.l.p.8.z.V.Z.!.!.`.A.!.`._.`.!.oX@X@X&X&X&X&X&X&X&X&X&X@X@XoXoX_._.`.`.`.^.^.D.D.!.`._.oX&X-X:X;X:X9XdXyXdX9XdXuXkXdXkXkXdXuXdXzXcXzXhXzXCXcXcXcXcXcXcXcXkXkXkXkXkXcXCXcXzXjXcXCXCXAXAXAXAXAXAXAXAXAXAXSXSXSXcXkXkXjXhXdXdXzXzXdXdXdXdXdXdXdXdXuXyXyXrXrXrX4X>X;X&X&X&X&X@X;X;X&X@X:X0X4X@X&X=X=X=X&XoX_.~._.^.^.~.^.^.!.oX&X@X;X;X;X;XaXaXdXkXkXjXkXNXCXCXZXZXZXZXCXCXSXCXMXkXjXjXdXdXdXdXaXuXyXtX9X4X:X:X;X;X;X&X&X@X&X&X&X&X;X:X4X9XaXdXdXdXdXjXjXkXSXMXSXAXAXAXAXAXDXAX0X!.`.@X4XtXyXyXyXpXaXdXdXdXfXfXfXjXkXkXkXkXkXMXMXMXNXSXSXSXSXSX",
"MXMXMXMXMXMXMXkXBXjXjXgXaXpXpXpXpX0X3X3X;X=X@X_.A.A.).@X=X5XqXqXpXsXsXsXsXsXsX0XqXqX5X3X3X5X3X3X3X3X3X3X3X3X5X5XqXqXqXqXqXqX0XqXqX0X0XqX0XsXsXpXpXsXpX5X-X-XpXqX3X3X3X3X0XpXgXfXjXjXmXmXsXqXqX1X1X1X2X#X].].'.'.~.(.T.T.B.B.n.n.n.n.b.v.b.b.m.m.m.m.y.$.} $.0.0.0.0.0.0.0.y.y.y.p.p.p.p.i.l.c.v.n.n.n.n.m.m.m.m.x.i.u.$.[ ^ P J c b b b K ) u.c.m.m.M.Z.R.~.[.*X-X-X1X3X3X3X5X0XqXwXqX1X1X0X-X+X3X&X+X*X&X-X*X].Z.p.} 8.p.l.b.B.Z.Z.E.).E.E.E.E.E.E.Z.Z.E.Z.Z.E.E.A.V.l.0.8.i.0.0.0.} } | m f d d d d d d d d d d d d d d d g g d d j d d 6 d j j d g d d : d d d f f d d d d d d : f f b b ! } l.} 0.| z.a.V.A.A.Z.S.!.!._.!.`._.`._.oX@X@XoXoXoX&X&X&X&X&X@X@XoXoXoXOX_._.`.`.`.^.^.^.^.`._.oX&X=X:X:X9X9XyXyXuXdXyXyXuXzXdXcXkXdXdXdXzXcXzXzXkXCXkXkXkXzXzXzXhXhXhXhXkXcXCXCXAXCXAXAXAXAXAXAXAXAXAXAXAXAXAXAXSXcXkXkXzXhXhXhXzXdXdXuXuXuXuXuXuXuXuXuXuXyXyXrX9X9X9X4X>X;X&X@X@X&X;X;X&X@X:X0XpX&X=X=X=X*X#XoX^.^.^.!.R.!.^._.!.oX@X@X;X;X;X3X5X0XaXaXdXjXMXCXCXCXZXZXCXCXSXCXCXCXkXjXjXdXdXdXdXdXaXuXyXtX9X4X:X:X;X;X;X&X&X@X&X&X&X&X;X:X4X9XdXdXdXhXjXkXkXNXSXSXSXZXZXAXAXAXFXZX&X!.@X4X0X0XyXpXpXaXaXdXfXfXjXjXjXjXkXkXMXMXNXMXNXMXMXSXSXSXSXSX",
"MXMXMXMXMXMXMXkXBXjXjXfXgXgXaXsXsX0X5X4X3X=X*X&X!.A.!.].*X1X5XqX0XpXsXsXsXsXsXpXqXqX5X3X3X3X3X3X3X3X3X3X3X3X3X3X5X5XqXqXqXqXqXqXqXqXqXqXqXpXpX0XpXaXpXqX3X*X0XqX5X3X3X3X3X0XgXfXjXjXmXfXsXqXqX1X1X1X1X*X].'.'.~.R.R.R.R.T.T.B.B.n.n.b.b.b.b.m.v.m.c.0.} } $.0.0.0.0.0.0.0.0.y.y.y.y.p.p.i.l.c.v.n.n.n.n.m.m.m.m.m.s.u.$.{ ^ ! K b b b b b / y.s.m.n.n.n.Z.E.`.+X-X-X1X1X3X3X3X5X0XwXqX1X3XqX#X+X3X*X+X*X-X-X-X+XA.l.0.8.0.i.v.B.B.R.E.E.E.E.E.E.A.A.E.E.A.E.E.A.A.B.z.a.z.R.d.z.l.l.p.p.0.y.~ d d d d d d d d d d d d d d d g d d j j d d 6 d g j d d d 6 d d d d v f d d d d d d l b | y.| } l.b.b.z.A.V.z.A.A.b.S.A.A.`.oX^._._.)._.=X=X&XoX`.&X&X&X@XoXoXoXoXoXoXoXOX_.`.`.`.!.D.!.!.`._.oX@X=X;X9X9X9XuXuXyXzXuXuXrXdXuXkXzXkXzXhXzXkXhXkXzXkXcXzXzXzXzXkXcXcXcXcXcXSXCXAXAXAXAXAXAXAXAXAXAXAXAXAXAXAXAXAXCXcXkXkXhXdXdXuXuXdXuXuXuXuXuXuXuXuXuXuXuXuXrXrX9X9X9X9X9X4X;X;X@X@X;X;X&X@X&X=X:XpX;X3X;X1X&X+XoX_.^.~.!.R.R.^._.!._.@X+X@X=X:X9X0XaXfXdXuXjXCXCXSXCXZXZXCXSXCXCXCXkXjXdXdXdXdXdXaXaXaXuXyXtX9X4X:X:X;X&X;X&X&X@X&X&X&X&X;X:X4X9XdXdXdXjXjXkXkXNXSXCXCXZXZXZXAXAXAXSX&X&X4X0X0XyXaXaXaXaXdXfXjXjXjXjXjXjXkXkXMXMXNXMXMXMXMXSXSXSXSXSX",
"MXMXMXkXMXkXkXkXBXjXjXfXgXgXsXaXsX0XqX0X3X;X*X*X*X_.!.).[.*X-X5XqX0XpXsXsXsXpXwXqXqX5X1X1X3X3X1X3X3X3X3X3X3X3X3X3X3X1X5X5XqXqXqXqXqXqXqX0X0XpXpXpXpXyX0X3X&X5XqX3X3X:X:X:X0XgXfXfXfXfXfXpXqXqX5X1X1X*X#X].).~.W.R.T.T.R.T.B.B.B.B.n.b.b.b.b.v.m.v.l.0.} } 0.0.0.} } 0.0.0.0.y.y.y.y.p.p.i.i.c.m.n.n.T.U.n.n.m.m.m.i.u.u.@.[ ! P K b b b b / u.I.m.n.n.n.Z.Z.E.).[.*X-X1X5X5X5X5XqXqX5X*X9X0X3X+X3X-X#X-X-X-X*X+X).i.0.} 0.i.z.b.B.A.E.E.E.E.E.E.E.E.E.A.A.A.A.A.A.S.b.z.Z.S.b.V.V.i.v.z.0.0.~ b m d : : d d d d d 4 l d d d d l d g d d 6 6 d d d d d 6 4 4 6 4 : d d d l : : d b 0.p.i.z.z.p.V.E.V.a.A.E.!.!.!.!.`.^.`._.@X@X_.`.`._.oX;X&XoX&X&X&X&X@XoX&X&XoXoXoXoXoXoX`.`.^.`.!.@XoX@X&XoX&X:X;X9X4X9XyXdXyXjXuXdXyXzXuXkXzXzXzXzXzXhXdXzXzXzXkXzXzXzXkXcXSXCXAXAXAXAXAXAXAXAXAXAXAXAXAXAXAXAXAXAXAXAXAXAXSXcXkXhXhXdXdXdXdXdXdXdXdXdXdXdXdXdXuXuXuXuXrX9XrX9X9X9X>X>X:X;X&X@X;X;X&X&X3X:X:XpXtX5X5X1X=X+XoXoX_.^.E.R.A.!.~.~.].#X$XOX+X;X3XpXaXkXdXdXjXMXNXCXAXAXZXCXCXCXSXNXkXjXdXdXdXdXdXaXaXuXyXyXtXrX4X:X;X;X&X&X&X&X@X@X;X:X;X;X:X4X9XaXdXdXjXjXkXkXCXSXSXSXZXZXAXAXAXAXSX&X3X0XyXyXaXaXaXaXaXjXjXjXjXjXjXjXkXkXkXMXSXSXNXNXMXMXMXSXSXSXSX",
"MXMXMXkXMXkXkXkXBXjXjXfXgXgXaXsXsX0X0X0XqX3X=X*X-X@X`.!.`.+X*X-X3XqX0XpXsXsXpX0X0XqXqX5X1X1X3X1X1X1X1X1X3X3X1X1X1X1X1X1X5X5XqXqXqXqXqXqX0X0X0X0XpXpX0X0X5X*X*X9X3X3X:X-X:X0XsXfXfXfXfXgXsXqXqXqX5X1X*X#X[.'.'.W.(.R.T.R.T.B.B.B.B.n.b.b.b.b.v.m.v.i.0.| } } 0.0.} } 0.0.0.0.y.y.y.y.p.p.i.l.c.m.n.n.T.T.U.n.m.m.m.x.u.u.$.{ / ! K b b b K L #.x.m.n.n.Z.Z.b.Z.E.).+X-X1X1X5X5X5XqXqX0X1XqX0X3X+X3X-X-X=X1X-X*X+XE.B.0.0.0.p.z.v.b.Z.R.E.E.E.E.E.!.Z.Z.!.A.A.A.A.z.V.A.!.A.z.B.b.v.R.b.v.v.p.p.l.| ! b * : : : : d : l d d d 4 4 6 6 4 4 4 : 6 4 4 : : : : : : : : d d : : l n | p.z.Z.l.A.z.S.S.!.z.A.D.!.).`.`.`.`.`._.OX@X@XOX`._.oX@X&X&X&X&X;X&X&X@X@X;X;X@XoXoX@XoXoXOX`.`._._.=X=X;X&X:X;X:X9X9X9X9XuXdXdXdXuXuXdXdXdXzXdXdXdXdXuXuXdXhXzXzXkXcXcXSXAXAXAXAXAXAXAXAXAXAXAXAXAXAXAXAXAXAXAXAXAXAXAXAXAXCXcXkXkXhXdXdXdXdXdXdXdXdXdXdXdXdXdXdXuXuXyXyXrXrX9X9XrX9X&X;X>X;X;X;X>X>X;X3X9X4XtXpXpXtX4X1X=X#XoXoXoX^.!.R.A.R.!.~._.+X+X@X*X3X9XyXtXfXdXjXkXkXkXNXZXAXCXCXCXCXCXCXNXkXjXdXdXdXdXaXuXuXyXyXtXrX4X;X;X;X&X&X@X@X@X@X;X:X;X:X4X9XrXuXdXdXjXjXkXkXCXSXSXSXZXZXAXAXAXSXdX=X9XtXyXaXaXaXaXaXdXjXkXjXjXkXkXkXkXkXMXNXSXSXSXNXNXMXMXSXSXSXSX",
"MXMXMXkXMXBXBXBXBXjXjXfXgXfXaXsXpXpXpX0X0X3X3X*X@X@X[.!.!.].*X=X3X5XqX0XpXpXpXwX0X0X0XqX3X1X1X1X:X1X1X1X3X1X1X1X1X1X1X1X5X5XqXqXqXqXqXqXqX0X0X0XwXwX0X0XqX=X+X3XqX3X3X-X3X3X0XfXfXfXfXgXsXpXwXqX5X5X1X2X#X].].'.W.R.T.T.T.T.B.B.B.B.b.b.b.b.m.n.b.i.@.} } } } } } } 0.0.0.0.y.y.y.y.p.p.i.i.c.m.n.n.Q.T.T.m.m.m.m.c.s.u.u.@.[ ! K b K K K K / s.m.n.n.Z.Z.b.b.Z.!.].*X1X1X1X3X5X5X0XpX0XqX0X3X+X3X-X-X-X1X-X*X+XE.E.p.8.0.i.l.v.b.B.Z.E.E.E.E.E.Z.!.!.Z.A.A.A.A.A.A.A.A.!.~.b.b.R.Z.v.E.v.i.i.v.i.| | M d : * * : : 4 d d 4 : : 4 4 4 4 < & 4 ; ; ; ; ; : : : : : * ; d m 0.v.i.b.V.A.z.D.b.S.S.A.S.`.`.`.`.`.`.`.`._.oX@X=X=X@X_.oX@X&X&X@X&X;X;X;X&X@X&X:X:X&X&X&X&X&X@XoXOX_.oXoX:X:X4X:X9X3X9X9X4X9XyXdXdXdXdXdXuXdXhXzXdXdXdXdXdXdXhXzXzXcXcXCXAXAXAXAXAXAXAXAXAXAXAXAXAXAXAXCXAXAXAXAXAXAXAXAXAXAXAXAXSXkXkXkXhXdXdXdXdXdXdXdXdXdXdXdXdXdXdXuXuXyXiXiXrX9X9XrX4X&X&X;X>X>X>X>X>X>X4X4X4XyXdXpXpXpX1X=X#XoXoXoX_.!.R.A.R.!.^._.+X#X=X;X=X=XtX4XaXdXkXCXkXjXkXCXAXZXCXCXCXCXCXSXMXkXdXdXdXdXaXaXyXyXyXtX9X>X;X;X&X&X@X@X@X@X@X:X:X:X>X9XtXyXuXdXdXjXjXkXMXCXSXSXSXZXZXAXAXAXSX9X:X0XyXpXaXaXdXdXdXfXjXkXkXkXkXkXkXMXMXNXSXSXCXSXSXNXMXSXSXSXSXSX",
"MXMXMXkXMXBXBXBXBXjXjXfXfXfXsXpXpXsXpX0X0X4X3X=X*X@X+X_.!.).+X*X=X3X3XqX0XwXwXwXpXpXqXqX3X1X1X1X3X3X1X1X3X1X1X1X1X1X1X1X5X5XqXqX5XqXqXqXqXqX0X0X0X0X0X0XqX:X@X=X3X3X3X:X3X-XqXfXfXfXmXfXgXsXsX0XqX5X1X1X#X[.].'.W.W.R.R.T.T.B.B.B.B.b.b.b.b.m.n.m.p.} @.} } } } 0.} 0.0.0.0.y.y.y.y.p.p.i.i.c.m.n.n.Q.T.T.U.m.m.m.c.x.u.u.$.{ / K b b K K K / @.m.n.n.Z.Z.Z.n.n.E.).[.-X1X1X1X3X5X0XgXwXqX0X3X@X3X-X-X-X-X-X-X*X!.A.b.| p.i.l.v.b.b.B.A.E.A.E.E.E.A.A.E.A.E.A.Z.E.E.A.A.V.B.!.!.~.R.~.Z.b.Z.Z.c.l.b.0.p.~ n : * : ; ; d : : ; ; ; < < ; < % 4 ; ; ; ; & & & & * : d b | 0.i.l.i.b.A.V.V.D.D.S.`.S.`.D.`.`.`.`.`.OXOXoXoX@X:X:X@XoX@X&X&X&X&X=X:X:X;X&X@X;X>X>X;X&X&X&X&X@XoXoXOXoXoX=X&X9XtX3X0X9XyX9X9X9XdXdXuXdXkXdXhXuXzXdXzXzXzXkXcXcXcXCXCXCXAXAXAXAXCXSXcXcXCXSXcXcXSXAXAXCXCXAXAXAXAXAXAXAXAXAXAXAXCXcXkXhXhXdXdXdXdXdXdXdXdXdXdXdXdXdXdXdXuXuXyXiXuXyX9X:X;X:X:X;X;X>X:X:X>X>X>X4X:X;XtXjXaXpXpX3X=X#XoXoXoX_.!.R.A.R.!.^._.oX+X!.oX&X5X0X3XyXaXMXCXkXjXkXCXZXZXCXCXCXZXZXCXCXkXjXdXdXdXaXaXyXyXyXtX9X4X&X&X&X@X@X@X@X@X&X:X4X>X4X9XtXyXuXdXdXjXjXkXMXCXSXSXSXZXZXAXAXAXkX3X3X0XpXaXdXdXdXdXfXjXkXkXkXkXkXkXMXNXMXNXNXSXCXSXSXSXSXSXSXSXSXSX",
"MXMXMXMXBXBXkXkXBXjXjXjXBXfXaXpXpXsXpXpX0XqX5X3X-X@X+X[.).!.`.[.&X=X;X5XqXqX0X0X0X0X0XqX5X5X5X5X1X1X1X1X1X1X1X1X1X1X5X5X5X5XqXqXqX5XqXqX0X0XqXqXqX0X0X0XqX5X-X-X=X5X5X3X=X*X3XgXfXfXfXfXgXsXsXwXqX1X5X1X#X[.].).~.W.R.R.R.Z.Z.n.n.n.n.m.m.m.m.B.n.p.0.0.0.0.0.0.0.} 0.0.0.0.0.0.0.0.p.p.i.l.c.v.n.n.T.T.T.U.n.n.m.m.c.s.u.u.@.[ P J b b b b ! u.m.U.U.Z.Z.Z.Z.Z.Z.E.[.-X=X1X1X1X5X0XgXqX5XqX5X*X3X1X=X-X1X-X-X-X@XE.0.| 0.i.l.z.b.b.B.Z.A.A.A.A.E.!.Z.z.E.E.A.Z.A.E.A.Z.Z.!._.!.R.E.A.B.S.R.Z.B.Z.i.p.v.i.} ! f * * : : * & & & & & % % < & & & * & & & & * * 4 ! | y.p.b.l.v.Z.A.`.`.`.S.S.D.`.S.S.D.oXoXD.`.&XoXoX@X@XoX>X4X&XoX&X&X&X&X&X>X:X:X;X;X;X:X>X:X:X;X;X&X&X@XoXoXoXoXoX&X&X9XyXtXtXrXrX9XrXrXdXdXuXxXhXhXzXhXlXlXcXcXCXCXCXAXAXAXAXAXCXCXCXAXCXSXSXcXCXCXkXkXSXAXCXCXCXAXAXAXAXAXAXAXAXAXAXCXCXkXjXjXzXdXdXhXhXdXdXdXdXdXdXdXdXdXdXuXuXuXiXiXiXrX9X:X>X;X:X:X;X;X:X>X:X>X>X4X:X4XpXjXaXpXaX3X=X@X+X+XOX`.!.A.S.A.!.!.`.oXOX!.+X@X9X0XqXtXaXkXMXkXMXSXSXZXZXZXZXZXAXAXZXSXkXjXdXdXdXdXaXyXyXtXtX9X>X&X&X&X&X&X&X&X@X&X:X9X0X9XtXyXaXaXdXfXfXjXkXMXSXZXZXZXAXAXAXDXAXdX9XqXyXaXdXdXdXdXdXfXkXkXkXkXkXkXkXNXMXMXNXSXSXSXSXSXSXSXSXSXSXSXSX",
"MXMXMXMXBXBXkXkXBXjXjXfXkXfXaXaXsXsXpXpX0X0X5X3X=X=X#X+X_.!.!.`.+X*X;X5XqXqXqXqX0X0X0XqXqX5X5X5X5X5X1X1X1X1X1X=X1X1X5X3X5X5X5X3X5X5XqXqX0X0XqXqXqXqX0X0XqX5X1X-X=X3X5X3X=X*X=XpXfXfXfXgXgXsXsXwXqX1X5X1X#X].].~.~.W.E.R.Q.Z.Z.n.n.n.n.m.m.m.m.B.b.y.0.0.0.0.} } } } 0.0.0.0.0.0.0.0.p.p.i.l.c.v.n.n.T.T.T.T.n.m.m.m.c.i.s.u.@.[ ! K c b b b W { m.U.U.T.Z.T.T.Z.B.Z.E.[.*X=X1X1X5XqXgX5X5XqX5X&X3X3X-X3X3X1X-X-X+XE.0.| p.i.l.z.b.B.B.Z.Z.Z.Z.A.A.Z.Z.E.E.Z.Z.A.A.B.S.)._._.).E.R.B.A.`.!.V.b.Z.l.b.Z.Z.l.c.y.0.! : : * * & & & & % % & & & & & & & & & : : k ` y.i.c.v.b.v.V.A.A.`.`.`.`.`.oXoXD.D.`.oXoXD.oX@X@X@X@X@XoX:X4X;X&X&X&X;X;X;X4X>X:X:X4X9X9X>X:X;X&X&X&X@X@XoXoXoX@X&X&X&X:XrXyXyXrXrXrXrXiXuXhXdXxXdXlXCXCXCXCXCXCXCXCXCXAXAXAXAXAXkXcXAXAXCXCXSXCXSXSXcXkXCXAXCXAXCXAXAXAXAXAXAXAXAXAXAXCXcXkXkXjXjXzXdXdXzXdXdXhXdXuXiXuXdXdXuXuXuXuXyXiXyXrX9X4X>X>X>X:X;X;X:X>X:X>X4X4X4XrXpXaXpXpXaX5X1X&X+X+XOX!.!.S.S.A.!.!.`.OX_.^.+X@X3X0X0XyXaXfXkXkXjXMXSXZXZXZXSXZXAXAXZXSXcXjXdXdXdXdXaXyXtXrX9X4X:X;X;X;X;X:X9X9X;X=X:X9XtXtXtXyXaXdXjXkXkXkXMXSXZXZXAXAXAXAXAXAXSXyXqX0XaXdXdXdXdXfXfXjXkXkXkXkXkXkXkXNXNXNXSXSXSXSXSXSXSXSXSXSXSXSXSX",
"MXMXMXMXkXkXkXkXBXjXjXfXjXfXdXaXsXaXsXpX0X0X5X3X3X3X-X#X+X).E.).+X@X=X3XqXqXqXqXqXqX0X0XqXqXqXqX5X5X5X1X1X1X=X1X1X1X1X1X1X1X3X3X3X5XqXqXqXqX0XqXqXqXqX0XqXqX3X*X*X3X5X5X=X*X=XqXmXfXgXgXsXsXsXwXqX1X5X1X{.[.].).~.W.E.R.Q.T.Z.B.n.n.n.n.n.m.m.n.b.p.0.0.} } } } } } 0.0.0.0.y.0.0.y.p.p.i.l.c.v.n.n.T.T.T.T.U.n.m.m.c.x.s.u.@.[ ^ K c v b b K [ m.U.U.T.R.R.Q.E.B.B.Z.E.[.*X=X1X5XqXgX5X3X5X3X+X3X3X-X3XqX5X-X*X_.A.p.0.p.i.l.z.b.b.Z.Z.Z.Z.Z.Z.Z.B.Z.A.A.A.E.B.A.!.R.b.E.Z.V.B.Z.~._.!.~.~.Z.i.m.Q.~.Z.v.b.l.l.0.| ` ; * & & & & & & & & & & & * * & & k [ p.y.p.l.b.B.B.V.B.!.A.).`.`.`.].@X-X`.D.`.oX&X_.@XoXoX@X@X@X&X;X:X:X:X;X:X9X:X:X9X9X9X9XrXyXrX4X;X&X&X@X@X@X@X@X@X&X&X&X&X&X;X9XyXyXyXiXiXiXyXdXhXzXzXlXCXAXAXCXCXCXCXCXCXCXCXCXCXAXCXcXcXAXAXCXCXCXSXcXcXSXSXCXSXCXAXCXCXCXCXCXAXAXAXAXAXAXCXCXkXkXkXjXjXdXzXkXjXuXkXdXuXiXuXuXdXdXuXuXiXyXyXyX9X9X>X>X>X:X:X;X;X:X>X>X9XrXtXyXyXtXyXtXyXaX0X5X=X&X+XOX!.!.Z.Z.A.E.!.^.OX_._.@X+X=X0X0XtXaXdXfXfXgXfXMXSXZXZXSXZXAXAXCXSXCXkXjXdXdXdXdXyXtX9X4X:X;X;X;X;X:X9XiXiX4X:X;X4XtXyXpXaXdXfXkXkXMXMXSXSXAXAXAXAXAXAXAXAXaX9X0XyXaXdXdXfXfXfXfXkXkXkXkXMXMXkXMXNXSXSXSXSXSXCXCXCXSXSXSXZXZXZXZX",
"MXBXBXBXkXBXBXkXkXjXjXfXfXfXgXaXaXaXsXsXpX0X5X3X3X5X1X-X@X_.!.!.`.+X*X3XqXqXqXqXqX0X0X0XwXqXqXqX5X5X1X1X1X1X-X-X1X1X=X=X-X-X1X1X1X3X5XqXqXqX0X0X0X0XqXqX0XqX1X-X*X-X3X5X=X*X-X5XfXfXgXsXsXsXsXwXqX1X5X1X#X[.].).~.W.E.E.R.T.Z.B.B.n.n.n.n.b.b.n.m.p.0.0.} } } } } } 0.0.0.0.y.0.0.y.p.p.i.l.c.v.n.n.T.T.T.T.T.n.m.m.m.c.s.u.y.{ ^ K c v b c K / m.I.U.T.R.Q.E.Q.Z.b.B.Z.!.[.*X1X5XqXgXqX=X5X=X*X-X3X3X5XqX5X-X*X`.A.p.0.p.i.l.v.B.B.B.Z.Z.Z.Z.Z.Z.E.Z.z.E.Z.b.Z.A.Z.A.!.A.B.Z.).].~.!.!.S.S.Z.E.).).E.R.Z.v.Z.l.z.z.b.| : * * & & & & & & & * * & : d b y.i.i.i.i.l.n.R.Z.B.S.!.A.!.`.`.`.`.oX+X`.D.`.@X&X&X&XoXoXoX@X@X&X&X:X:X>X9X9X9X4X>X9XyXiXyXrXyXrX9X;X@X@X@X@X&X@X@X&X&X&X&X&X&X;X>XyXuXyXiXiXyXdXdXdXzXzXzXzXzXlXlXcXCXCXCXCXCXCXCXSXSXSXSXSXCXCXCXCXAXCXcXcXAXAXcXkXSXCXSXCXCXCXCXAXAXAXAXAXAXCXCXkXkXkXjXzXdXhXkXjXyXdXdXuXuXuXdXdXuXuXuXiXyXuXiXrX9X>X:X>X>X:X;X;X>X>X>XrXtXyXaXuXrXtXtXpXaXpX4X3X=X@XoX).!.Z.S.A.R.!.^.OXOXoX#X+X=X0X0X0XaXfXfXgXaXfXkXSXCXZXZXZXAXCXCXSXcXkXkXdXdXdXaXyXrX9X>X:X&X&X&X&X&X9XtXtX9X4X;X4XtXpXaXdXdXjXkXMXNXSXSXZXAXAXAXAXAXAXAXMX0X0XyXaXdXdXdXfXfXfXfXkXkXMXkXMXMXMXMXSXSXSXSXSXSXCXCXCXCXZXSXZXZXZXZX",
"MXkXkXkXkXBXBXBXkXjXjXfXfXfXgXaXsXsXaXsXpX0XqX5X5X5X3X-X*X+X_.`.`.].*X1X5X5XqXqXqXqX0X0XwXqXqXqX5X5X1X1X1X1X1X-X-X-X-X=X1X1X1X1X1X5X5X5XqXqXqXqXqXqXqXqX0X5X-X=X*X@X*X3X:X*X*X3XfXmXfXgXgXsXsXsXqX1X1X1X#X[.].'.~.~.E.R.R.Z.Z.Z.B.B.n.n.n.n.b.n.m.p.0.0.y.0.0.0.} } 0.0.0.0.0.0.0.0.p.p.i.l.c.v.n.n.T.T.T.T.T.U.n.n.m.c.x.i.u.@.^ W b j v c K ! u.n.T.T.R.Q.E.W.R.B.n.n.B.~.#X1X5X5XsX0X=X5XpX&X:X9X3X9XqXqX1X-X_.A.p.0.p.i.l.z.Z.Z.B.B.Z.Z.Z.Z.Z.b.B.Z.A.Z.Z.A.A.A.Z.V.A.!.!.A.E.S.V.z.B.A.).).!.A.Z.Z.E.E.E.A.A.S.B.b.0.b * * * * * * : : d m ~ } y.d.p.p.i.i.l.z.b.V.v.a.S.!.D.D.D.D.D.D.`.OX`.`.`.&X@X;X:X&X@X@X@X@X:X;XbXbX>X9XrXrX9X9XrXiXiXrXrXrXrX4X&XoXoXoX@X;XoX@X&X&X&X;X;X;XyXuXyXyXyXyXyXuXuXdXhXzXzXzXzXzXkXkXCXCXCXCXCXCXCXCXSXCXCXCXAXAXCXCXCXAXCXSXcXCXCXCXcXSXSXSXSXSXCXCXAXAXAXAXAXCXCXcXkXkXkXdXdXzXhXhXhXuXyXuXuXuXuXuXuXuXuXdXyXyXuXyXrX4X:X>X>X>X>X;X:X>X4X4XrXtXpXaXpXpXpXpXpXpXyX4X3X3X*X+X~.E.Z.S.A.!.^._.oX+X+X@X@X;X0X0X0XyXkXfXfXSXMXMXSXCXZXCXCXZXCXCXCXSXCXkXjXdXdXuXiX9X4X>X:X&X&X@X&X@X&X:X9X0X0XtXtXyXaXdXdXdXjXMXMXSXSXSXZXAXAXAXAXAXDXZXgX0XyXaXaXgXfXfXjXjXjXjXkXkXMXMXMXMXNXNXSXSXSXSXZXZXCXSXZXZXZXZXZXZXZXAX",
"BXkXkXkXkXBXBXBXkXjXjXfXgXgXaXaXsXsXsXsXsXpXqXqXqX5X5X1X-X*X@X_.`.).[.*X1X3X5XqXqXqX0X0XwXqXqXqX5X5X1X1X1X1X1X-X-X*X-X-X1X1X1X1X1X1X5X5X5XqXqXqXqXqXqXqXqX1X1X-X*X+X@X=X=X#X@X=XfXmXfXgXgXsXsXsXsX5X*X*X#X[.].'.~.~.E.R.R.Z.Z.Z.B.B.n.n.n.n.b.n.m.p.0.0.y.y.y.y.0.0.0.0.0.0.0.0.0.0.p.p.i.l.c.v.n.n.T.T.T.T.T.U.m.n.m.c.x.i.u.$.` ! K b v b b P @.m.T.T.Q.Q.E.~.W.R.n.n.n.R.).#X=X5XsXpX=X5XpX&X3X9X3X9XqXqX3X1X+X!.l.a.i.i.l.b.Z.Z.B.Z.A.R.R.Z.B.A.A.B.B.B.Z.E.Z.b.B.!.A.E.E.A.Z.A.E.E.E.E.E.E.A.A.!.!.).!.E.A.S.S.S.B.p.i.W f : l k ! | | 0.a.a.a.z.z.z.v.V.V.A.Z.B.V.A.z.V.Z.S.A.A.A.D.D.D.`.`.`.`.oX&X:X>X;X&X&X&X&X:X;XrX9X4X>X9XrXrXyXuXyXrX9X9X9X9X:X&XoXOX>X&X;X@X&X&X;X;X:X:X>X9XyXyXyXrXyXiXuXuXdXhXzXkXkXkXkXlXCXCXCXCXCXCXCXCXCXCXCXCXCXAXAXCXCXCXCXCXSXCXSXSXSXCXcXCXAXkXSXCXCXCXCXAXAXCXSXCXlXkXkXjXzXdXdXdXdXdXuXuXuXuXuXuXuXuXuXuXdXrXyXuXiXrX4X>X;X;X;X>X>X4X4X4X4XrXyXaXfXdXdXaXaXaXaXsXtX3X&X*XoX!.A.Z.S.A.!.^.`.oX+X+X&X@X;XyX0X0XyXgXgXjXSXSXSXSXSXCXCXCXZXCXCXCXSXkXjXdXdXaXuXtX9X4X>X:X&X&X&X&X&X&X&X3XrXtXyXaXaXdXfXdXdXjXMXSXSXSXSXZXAXAXAXAXAXDXSXaX0XaXdXdXdXfXfXjXjXjXjXkXkXMXMXMXMXNXNXSXSXSXSXZXZXSXSXZXZXZXAXAXZXAXAX",
"MXBXkXkXMXMXBXBXBXjXjXfXgXgXdXaXsXgXgXsXsXpXpX0XqX5X5XqX*X*X*X+X_.~.).[.#X=X1X5XqXqXqX0XwXqXqXqX5X5X1X1X1X1X1X-X-X*X-X-X-X-X1X1X1X1X5X5X5XqXqXqXqXqXqX0X5X5X5X=X@X].+X-X=X+X+X-XgXmXfXgXsXgXgXgXsX5X*X*X#X{.].'.~.~.E.Q.R.T.Z.Z.Z.B.n.n.n.n.b.B.m.p.0.0.y.0.0.0.0.0.0.0.0.0.0.0.0.0.p.p.i.l.c.n.n.T.T.T.T.T.T.U.n.m.n.m.c.x.s.u.{ / W b v v c J { x.T.T.Q.R.W.W.W.E.R.n.n.B.R._.+X1XsX0X3X4XpX=X3XqX3X9XqX5X5X1X`.A.0.0.i.z.z.b.B.B.Z.A.R.R.Z.Z.A.Z.Z.A.Z.b.Z.A.v.A.E.Z.Z.Z.B.Z.!.E.A.A.Z.A.A.A.A.E.).`.A.A.A.A.A.S.S.S.A.b.| p.d.0.a.V.i.d.a.B.V.V.S.Z.b.V.S.A.R.R.R.D.^.V.!.!.A.A.D.D.D.D.D.`.`.`.`.oX@X;X:X&X&X&X&X&X:X;XrX9X9X>X:X4X9XuXdXrX>X>X:X:X:X&X&XoXoX;X;X;X&X&X:X:X4X9X9X4X9XiXyXiXyXyXuXdXuXhXzXzXlXlXcXcXCXCXCXCXCXCXCXCXCXCXCXAXAXCXAXAXCXCXCXCXCXCXSXcXCXAXCXCXCXcXAXSXSXCXCXAXAXCXSXcXcXkXkXjXjXjXzXdXdXdXdXuXuXuXuXuXuXuXdXuXuXdXrXyXyXrX9X>X>X;X;X;X>X>X9X9X4X9XtXpXpXpXpXpXpXaXaXpXtX5X5X3X@X_.!.A.S.S.A.E.!.!.`._.oX&X&X3X0X0X0XyXdXfXfXMXSXSXSXSXZXZXZXZXCXCXCXSXkXzXdXuXaXuXyX9X4X>X:X&X&X&X&X&X&X&X:X9XtXyXaXaXdXdXfXjXkXMXSXSXSXSXAXAXAXAXAXAXAXfX0X0XdXgXgXgXfXjXkXkXkXkXkXkXMXMXSXNXNXNXSXSXSXSXZXZXZXZXAXAXAXAXAXAXAXAX",
"MXBXkXMXMXMXkXBXBXjXjXfXfXfXdXaXsXgXgXsXaXsXpX0XqXqXqXqX-X*X-X*X_._.).`.].#X1X5X5XqXqXqXqXqXqXqX5X5X1X1X1X1X1X-X-X-X-X-X*X*X*X-X1X1X1X5X5X5XqXqXqXqXqXqXqX5X3X-X+X_.[.*X*X[.].-XgXmXfXgXsXgXgXsXqX1X-X1X#X[.].'.~.~.E.Q.R.T.Z.Z.Z.B.n.m.m.m.b.B.v.p.0.y.y.y.y.y.y.y.0.0.0.0.0.y.0.0.p.p.i.l.c.n.n.T.T.T.T.T.T.U.n.m.n.m.c.x.i.u.@.[ ! b b v b b ` i.T.T.Q.(.W.W.W.W.E.R.B.n.Z.E.).1XsX0X3X4X0X=X3X5X5X5X5X5X5X1X].A.a.0.i.z.z.b.b.B.R.R.R.R.Z.Z.Z.E.E.A.z.B.Z.Z.E.Z.B.Z.Z.b.b.Z.z.V.S.E.E.A.Z.B.A.E.E.A.A.A.A.E.D.A.S.S.a.a.p.i.z.z.V.R.b.z.v.Z.V.S.D.!.z.V.S.A.S.D.^.oX`.D.+X&XoX`.`.`.D.S.D.`.`.`.`.`.OXoX@XoXoX@XoX@X:X;XrXrX9X:X;X:X>XyXuX9X;X;X;X;X;X&X&X&X&XD.;X;X&X;X:X>X9X4X9X9X>X9XiXiXuXyXdXdXhXhXzXkXlXcXcXcXCXCXCXCXAXAXAXAXCXCXCXAXAXCXSXAXCXSXSXCXCXSXCXSXcXCXCXCXCXSXCXCXCXCXCXCXCXCXkXkXkXkXjXzXhXkXjXdXdXdXdXuXuXuXuXuXiXuXdXuXuXdXrXuXrX9X:X:X;X;X;X:X>X4X9XtXtXrXyXyXpXaXaXaXaXaXaXaXsXtX3X=X+X^.!.A.S.S.S.A.!.!.^.`.OX@X&X3X0X0X0XyXfXjXfXfXMXSXSXSXZXZXZXZXCXCXCXSXCXkXjXdXaXyXtX9X>X:X;X&X&X&X&X&X&X=X:X4X0XyXaXdXdXaXdXkXkXkXMXSXSXSXAXAXAXAXAXAXSXdX0XyXgXfXfXfXfXfXkXkXkXkXkXkXMXMXSXNXNXNXSXSXSXSXZXZXZXZXZXAXAXAXAXAXAXAX",
"MXMXMXMXMXMXMXBXBXkXfXfXgXgXdXaXgXgXgXgXsXsXpX0XqXqXqXqX1X1X1X1X*X]._.)._.[.*X5X5X5XqXqXqXqXqX5X5X3X3X5X5X1X1X-X-X*X*X*X*X*X-X1X1X1X1X1X5X5X5XqXqXqXqXqXqX5X3X1X*X[.[.*X#X].].-XsXfXgXgXgXgXgXwX5X1X-X1X#X].].).~.~.W.Q.Q.R.R.T.Z.B.n.m.M.b.b.n.M.p.0.0.y.y.y.y.y.0.0.0.0.0.0.y.0.y.p.p.i.i.m.n.n.T.T.T.T.T.T.U.n.m.m.m.c.c.x.s.y.[ ! K b b b b ! s.U.T.Q.Q.W.W.W.W.W.R.B.n.b.V.B.5XsXpX3X5X0X3X3XqX3X3X5X5X3X3X+XA.a.a.i.v.B.Z.E.Z.E.E.b.R.E.R.Z.E.E.A.Z.Z.Z.).A.z.z.Z.v.Z.A.A.B.Z.A.A.D.A.A.S.A.A.A.E.A.E.!.A.V.V.l.0.z.V.!.b.A.V.!.S.A.V.A.S.A.`.!._._.S._.S.D.`.`.A.oX@XoX!.@X&X`.oX&X`.`.oXoX`.D.D.D.`.`.`.OXOXOX@X;X;X>X>X4X;X&X;X>XrXrX>X;X&X&X;X;X;X;X&X;X>X;X>X:X;X>X4XrX>XrXyXdX9XuXhXdXuXdXhXkXkXjXkXcXCXCXCXCXSXCXAXAXAXAXAXAXAXCXAXAXCXSXCXCXCXSXAXCXcXAXSXSXCXSXSXcXSXSXCXCXCXAXAXCXcXkXkXkXkXzXzXzXkXkXdXdXdXdXdXuXyXiXiX9XuXdXuXyXyXiXyXrX4X;X&X>X>X&X>X4XrX0XpXaX0XpXpXaXaXaXaXsXaXaXaXsXpX5X&X+X^.!.A.S.S.S.A.R.R.!.^._.+X*X3X4XqX0XaXdXjXkXMXNXSXCXZXZXZXZXZXZXZXAXCXCXkXjXdXaXyXrX4X:X;X&X&X@X&X&X&X&X;X3X5XtXyXaXdXdXaXdXkXkXkXkXSXSXZXAXAXAXAXAXAXgXaXyXyXdXfXfXfXjXkXkXkXkXkXMXMXMXNXSXSXSXSXSXSXZXZXZXZXZXZXAXAXAXAXAXAXDXDX",
"BXMXMXBXBXMXMXBXBXkXfXfXgXgXdXaXgXgXgXgXsXsXpX0X0X0XqX5X5X1X1X1X=X#X].).~._.+X-X5X5X5XqXqXqXqX5X5X3X3X3X5X1X1X-X*X*X*X*X*X*X-X-X-X-X1X1X1X1X5X5X5X5XqXqXqX5X3X1X-X+X[.+X#X].].#XsXmXgXgXBXgXwX5X5X5X1X*X#X].].~.~.~.W.Q.Q.R.R.Z.Z.B.b.v.M.m.b.b.l.y.0.0.y.y.y.y.y.0.0.0.0.0.y.y.0.y.y.p.p.i.m.n.T.T.T.T.T.T.T.U.n.n.m.n.c.c.x.s.u.@.^ K K c b b W u.I.T.Q.Q.W.W.W.W.W.Q.R.B.b.b.b.#XsX0X5XqX0X3X3XqX3X3X5X5X3X3X+XA.a.i.l.b.B.A.E.~.R.E.W.).).~.E.Z.Z.E.A.Z.E.v.Z.E.E.Z.Z.b.V.E.A.A.S.V.A.A.!.`.!.].].!.!.!.A.S.z.0.a.z.S.).A.A.S.!.S.D.S.`.S.D._.D.@X`.oX`.`.D._.!.+X!._.+X_.D.oX&X`.`.&XoXOX@X&X&X&XoX>XoX`.`.oX@X&X&X&X&X;X>X:X&X@X&X;X>X>X>X:X&X&X>X:X:X:X;X;XbX:X>X>X>X9XrXrX9XiXdXdXiXdXkXjXdXdXzXkXkXjXkXCXAXCXCXSXCXCXCXCXAXCXCXCXCXAXAXAXSXSXCXCXcXcXCXSXcXSXSXSXSXSXSXcXCXCXCXCXCXAXCXcXcXkXkXkXzXzXzXzXzXzXdXdXdXdXdXuXyXyXrXrXiXdXuXiXrXrX9X4X>X;X&X>X4X;X4X9XrXtXaXaX9XpXpXgXaXaXaXsXaXaXsXyXpX4X&X+X^.!.A.S.B.S.A.D.R.!.^.`.+X*X3X3X9XtXaXaXfXkXMXSXSXZXZXZXZXZXZXZXZXCXCXcXkXzXdXuXyX9X4X3X:X=X&X&X=X;X=X&X;X4XtXtXyXaXdXjXfXfXkXMXMXMXSXSXZXAXAXAXAXAXSXaXyXaXyXaXaXfXfXjXkXkXkXkXkXMXMXNXNXSXSXSXSXSXZXZXZXAXAXZXAXAXAXAXAXDXAXDXDX",
"NXNXBXBXBXBXMXMXMXkXfXfXfXfXgXgXgXgXgXgXsXsXpX0X0X0X0XqX1X1X1X1X*X*X+X).!.~._.+X-X5X3X5X5XqXqXqX5X5X5X5X5X5X1X1X-X-X-X-X*X*X*X*X-X-X-X-X-X1X1X5X5X5X5XqXqX5X3X1X-X+X_.].[.]._.+XpXfXgXgXBXsXqX5XqXqX5X1X#X].].~.~.W.W.W.W.Q.R.Z.Z.B.n.m.M.m.b.m.l.y.y.0.0.0.0.0.y.y.0.0.0.0.0.y.0.0.y.p.p.i.m.n.T.T.T.T.T.T.T.T.T.U.n.n.m.c.c.x.s.y.` W K b b b J { c.T.Q.Q.W.W.W.W.Q.W.R.Z.B.b.v.~.sXsX5X0X0X5X3X9X3X3X5X5X5X5X#XE.l.z.l.b.Z.R.E.~.R.E.).]._.E.A.E.E.Z.A.Z.l.Z.E.A.A.E.z.Z.E.Z.A.A.S.V.A.!.`.`.).A.A.).!.A.Z.z.a.B.A.V.A.).S.!.D.`.A.!.`.oXD.`.`.@X`.oXoXoX`.`.@X`.`.`.oX@XoX!.&X&XOXoX@X>XOXoX;X&X&X&X&X>X9X;X;X&X;X>X;X;X>X>X>X;X&X;X;X;X;X:X>X:X:X>X>X>X>X>X9XrX>XbX9XrXiXuXuXyXyXdXyXdXdXjXzXhXuXzXkXkXkXcXCXAXAXAXAXCXSXcXCXSXSXSXCXCXAXAXAXSXSXCXCXCXCXSXSXCXSXSXSXSXSXSXCXSXSXCXCXCXCXCXcXcXkXkXkXzXzXzXzXhXzXzXdXdXdXdXuXyXiXiXyXyXuXuXyXrX9X:X;X;X;X:X>XtX>X4X4XrXtXaXaX9XpXaXaXaXaXaXsXaXaXsXpXpX5X&X+X`.!.A.S.B.S.A.D.R.!.^.`.+X&X3X3X9XyXaXaXfXkXMXNXSXZXZXZXZXZXZXZXZXAXCXcXjXdXdXaXyXrX9X4X3X:X;X;X;X:X;X;X3X0XtXyXyXpXdXjXMXMXkXSXZXZXZXZXAXAXAXDXDXAXfX0XyXdXaXaXaXaXfXjXjXkXkXMXMXNXSXSXSXSXSXSXSXZXZXAXAXAXAXAXAXAXDXDXDXDXAXDXDX",
"NXNXMXMXMXMXMXMXMXjXfXfXfXfXgXgXgXgXgXgXsXsXpX0X0X0X0X0X1X5X1X-X*X*X#X].!.!.~._.[.-X3X3X5X5XqXqXqX5X5X5X5X1X-X1X1X-X-X-X*X*X*X*X*X*X*X*X-X=X1X1X1X1X3X5X5X3X1X-X-X*X_.).).`._.#XpXgXgXgXgXwXqXqX0XqX5X5X#X[.].~.~.W.E.W.W.Q.R.Z.Z.B.n.m.M.m.b.M.i.p.y.0.0.y.0.0.y.y.0.0.0.0.0.0.0.0.y.y.i.i.m.n.T.Q.Q.T.T.T.T.T.T.U.n.n.m.m.c.c.s.u.{ ! P K b b c ^ s.T.Q.Q.W.W.W.W.W.Q.Q.R.T.B.v.E.gXsXqXqX0X5X5X9X3X3X5X5X5X5X*X!.z.z.l.b.Z.E.E.E.E.~.~.].~.R.R.R.A.A.v.b.Z.Z.z.Z.Z.z.b.b.Z.E.b.B.S.S.].`.).!.`.].].`.E.Z.z.z.!.A.A.).].S.A.A._.!.].`.oX`.@X_._.`.oX`.oX&X`.`.@X@XS.@X@X&XoX`.;X:XoX@XoX9XOXoX&X&X&X&X;X;X9XyXiX>X>X:X>X>XiXiXrX>X>X>X>X;X;X>X4X9X9X>X>X>X9X9XiXuX>X4XrXiXdXuXyXuXrXdXyXkXdXdXhXzXdXkXkXkXkXcXCXCXSXCXAXCXCXcXCXSXSXSXCXCXCXAXAXSXSXCXCXCXCXSXCXCXkXSXSXSXSXSXCXSXSXCXCXCXcXcXcXkXkXzXkXzXzXzXhXdXdXzXhXdXdXdXdXuXiXiXuXyXrXdXyXrX>X;X&X&X>X>X>XtX4X4X4XtXrXpXaX0XpXaXaXaXaXaXsXpXsXyXpXpX5X=X+X`.!.A.S.B.S.Z.D.R.!.^.`.oX@X3X3X4XyXaXdXfXkXMXNXSXCXZXZXZXZXZXZXCXCXCXcXjXdXdXaXyXrX9X9X4X3X:X:X:X3X:X3X4XtXtXyXyXaXdXjXNXNXMXSXAXAXZXZXAXAXAXFXDXSXpX0XaXgXdXdXdXaXdXfXjXjXkXMXMXNXSXSXSXSXSXSXSXZXZXAXAXAXDXAXAXDXDXDXDXAXAXAXAX",
"SXSXNXMXBXMXBXMXMXjXfXjXjXfXfXgXgXgXgXgXgXsXsXpXpX0X0XqX5X5X3X3X1X*X*X#X[.~.!.!.).+X-X1X5X5XqXqXqX5X5X5X5X-X-X1X1X1X-X-X*X*X2X*X*X*X*X*X1X1X1X1X1X1X1X5X3X3X1X-X-X*X[.).!.!._.-XwXgXgXgXsXwXqXqXsXwX5X#X*X[.].~.W.E.E.W.W.R.T.Z.Z.B.n.m.v.b.b.M.i.p.y.0.0.0.0.0.y.y.y.0.y.y.y.y.0.0.y.y.i.l.v.n.T.R.Q.T.T.T.Q.T.T.T.n.m.m.m.c.c.c.u.@./ P K b c j ! u.U.Q.W.W.W.W.W././.W.W.R.T.v.~.gXsXqX4XqX4X5X9XqXqX5X5X5X5X#X!.z.l.l.b.Z.E.E.~.E.).].].~.E.E.E.!.A.Z.B.Z.Z.Z.Z.Z.Z.Z.A.A.A.b.S.A.).).).).).].A.D.!.z.z.V.!.).).).!.!._._.D.`.`._._.oX`.:X@X&X_.&X_.-XoX_.oX&X=X_.oXoX3XoXoX&X:XoX:X@X:X@X;X@X@X:X;X4X@X@X>X;X:X:X:X>X>X9XrXrX>X9X9X>X;X>X>X4XrXrX9X9X4XyXrXuXdXdX9XkXuXdXyXyXuXkXuXuXiXhXdXdXhXkXlXkXkXCXcXCXCXSXCXAXCXCXCXSXCXCXAXCXCXCXCXAXSXSXCXCXSXSXAXAXSXcXSXCXCXCXCXSXCXCXCXCXcXcXlXkXkXkXkXkXkXzXzXhXdXuXxXdXdXdXuXCXdXiXyXuXyXyXuXtX;X;XoX;X:X9X:X>XrX>X4X9XyX0XyXaXtXaXaXaXaXgXaXsXtXaXyXyXtX5X=X@X`.!.Z.S.S.S.A.R.!.!.^.`.OX@X;X5X9X0XaXdXfXkXkXMXMXSXCXCXCXZXAXCXCXCXCXCXjXdXdXaXyXtX9X9X9X4X:X3X4X4X4X0X0XtXtXpXpXpXfXjXNXSXCXZXAXAXAXAXAXAXAXFXAXfX0XyXgXfXfXjXfXgXgXfXkXkXkXMXNXNXNXSXSXZXSXSXSXZXZXAXAXAXAXAXAXDXDXDXDXAXAXAXAX",
"SXSXNXBXkXBXMXMXMXkXkXjXjXjXfXfXgXgXgXgXgXsXsXsXpX0XqXqX5X5X5X5X1X1X*X#X*X[.!.R.~.[.#X-X3X5X5XqXqX5X5X5X1X-X-X1X1X1X-X-X2X*X2X*X*X*X*X*X1X1X1X1X1X1X1X1X3X1X-X=X-X-X+X].!.!._.*XwXgXgXgXsXsXwXqXwXwX5X*X2X#X].).~.E.R.W.E.R.T.Z.Z.Z.n.n.b.b.b.l.p.p.y.0.0.0.0.0.y.y.y.y.y.y.y.y.0.0.y.y.i.l.v.n.T.R.Q.T.T.Q.Q.Q.T.T.U.n.n.n.m.m.c.s.@./ P K b c j ! u.U.Q.W.W.W.W.W./.}.W.W.R.R.v.!.gXsX0X4XqX5X5X9XqXqX0XqX3X=X+X!.z.i.l.b.Z.E.E.).E.~.).'.).).~.E.b.E.Z.Z.Z.Z.Z.Z.Z.Z.Z.A.A.A.S.A.).).).).).).!.D.A.V.z.V.A.!.).`.`.).`.oXoX`._._.oXoXoXoX&X&XoXoX&X@X;X`.@X_.=XoX&X_.&X&XoX&XoX4XOX4X&X;X&X;X&XoX:X:X>X@X@X>X&X:X>X>X>X>X:X:X>X>X>X>X>X>X>X9X9XrXrXrX9X9XiXiXuXdXdXuXuXuXdXuXyXuXhXdXjXrXcXdXuXdXkXkXkXkXCXlXCXCXSXSXSXCXCXAXAXAXAXAXCXCXCXCXCXSXSXCXCXCXCXCXAXSXSXSXCXCXCXCXCXCXCXCXCXcXcXkXkXzXkXzXkXzXzXdXhXdXuXuXdXzXdXuXdXjXdX9XyXyXiXiX:X;XOXoX&X9X;X:X>XtX;X4XtXaXrXyXaXaXaXaXaXaXgXfXsXsXjXaXyX0X3X=X@X`.!.Z.S.S.S.A.R.!.!.^.^._.@X=X3X0XyXtXyXdXdXdXjXMXSXSXNXSXCXCXCXCXCXCXCXzXdXdXuXyXtX9X9X9X4X3X:X:X;X3X4X0XtXtXpXaXaXfXkXNXSXZXZXAXAXAXAXAXAXAXFXSXaX0XaXgXgXfXjXjXfXgXfXkXkXMXSXSXSXSXCXCXSXCXZXZXZXZXAXAXAXAXAXAXDXDXDXDXAXAXAXAX",
"SXZXNXBXjXMXMXMXMXMXBXkXkXBXkXfXfXsXgXgXgXgXsXsXsXpXqXqXqXqX5X5X1X1X2X2X1X#X_.E.E._.+X-X=X3X5X4XqXqX5X3X5X5X5X1X1X1X1X1X1X1X2X2X2X*X*X*X*X*X-X-X-X-X=X-X1X1X=X-X-X-X*X[.).E.!._.0XgXgXgXgXgXsXpXqX0XqX1X1X#X].'.~.R.R.W.W.R.T.Z.Z.B.B.n.b.b.b.M.p.p.y.0.0.y.0.0.y.y.y.y.y.y.y.y.0.0.y.y.i.l.v.n.Z.T.Q.T.Q.Q.Q.Q.T.T.U.n.m.n.m.m.x.u.y.[ P K b c j K { U.Q.Q.W.~.W.'.'.'.~.W.R.R.V.R.sXfX0XqX5X5XqXqX9XqX0XqX5X=X#X).z.z.l.b.Z.R.E.).E.~.).'.).).E.Z.!.B.Z.Z.Z.Z.Z.Z.Z.Z.A.A.A.A.A.).).!.).).).).D.V.| z.A.!.!.).).`.`.`._.@X@X_.oXoXoXoXoX@X&X-X`.oX@X-X-X_.oXoX&XoX&X_.=XoXoX&XoX:X&X&X;X&X;X&X;XoX;X>X;X;X;X;X;X>X9X4X9X>X>X:X:X:X;X>X>X>X9X9XrXrXrXrXrXiXiXyXuXdXdXuXiXdXuXdXdXdXdXkXkXuXlXhXhXdXzXzXkXkXCXkXkXcXcXcXCXCXAXAXCXCXAXAXAXAXCXCXCXSXCXCXCXCXCXCXCXAXSXcXCXCXCXCXCXCXCXCXCXcXlXkXzXzXzXzXdXdXdXhXhXxXuXuXuXjXkXuXiXdXdXyX9XrXrXrX@X@X`.@X:X:X9X&X>XtX;X9XtXaXtXyXaXfXgXgXsXgXsXfXfXsXMXfXsX4X3X=X@X_.!.S.S.B.S.A.R.!.!.^.^.`.+X&X5X3X3XaXfXkXMXkXkXSXCXMXkXNXCXCXCXCXCXCXCXdXuXdXaXuXtXrX9X9X9X4X3X;X;X3X4X0XpXpXdXfXfXkXMXNXSXZXAXAXAXAXAXAXAXAXDXkX0X0XfXdXgXdXgXfXjXjXjXkXkXSXSXSXSXSXCXZXZXZXZXZXAXAXAXAXAXAXAXAXDXDXDXDXAXAXAXAX",
"SXZXNXBXjXMXMXMXMXMXMXjXjXMXBXfXfXgXgXgXgXgXsXsXsXpXqXqXqXqX5X5X1X1X1X1X1X*X[.~.E.~.].#X-X=X3X5XqXqXqX3X5X5X5X1X1X1X1X1X1X1X2X*X*X#X*X*X*X*X*X*X*X*X-X=X1X1X=X-X-X-X-X+X`.E.E.).0XgXfXgXmXgXgXpXqXqXqX5X2X#X[.].~.E.R.W.E.T.Z.Z.Z.Z.Z.n.b.b.b.M.p.p.y.0.0.0.0.0.y.y.y.y.y.y.y.y.0.0.y.y.i.l.v.n.T.T.Q.T.Q.W.W.Q.T.T.T.n.n.n.m.m.x.u.u.{ P K K b j b [ U.Q.Q.W.~.W.).'.'.~.W.E.R.B.R.sXmX0X0XqX5XqXqX9X9XqXqXqX5X-X].b.z.z.b.Z.R.E.).E.).'.].~.E.E.R.Z.A.Z.Z.Z.Z.Z.Z.Z.Z.Z.A.A.A.).).).E.).).).).z.a.D.A._._.`.`.`.`.`.`._.&X&X_.+X@XoXoX@X`.:X@XD.@XoX:X&X-XD.&X&X&XoX@X&X@X:XoX&X&X;XoX;X@X;X&X;XOX&X:X;X;X;X;X;X4X4X4XrXrXrXrX>X>X&X>X9X>X9XrXrX9XrXrXyXuXyXuXyXuXdXuXiXhXuXzXhXdXuXCXjXkXdXkXlXkXzXzXkXkXCXcXkXcXkXkXkXCXAXSXSXAXAXAXAXCXCXCXCXSXCXCXCXCXCXCXCXAXCXcXcXCXCXCXCXCXCXCXCXcXlXkXzXzXzXzXdXdXdXdXhXxXuXuXdXzXkXuXyX9XrXdX9X9X9X9XoX`.&XoX:X9X:X:X>X4X>X4XpXjXyXtXfXfXfXgXsXgXgXaXsXsXfXsXpX4X3X@X@X_.!.A.S.S.S.A.R.!.!.^.^.`.+X&X=X4X9XyXyXdXfXdXfXNXCXkXkXkXCXCXCXCXCXCXcXzXdXdXuXyXrX9X9X9X9X4X4X4X4X4X4X0XpXaXfXfXjXjXMXNXSXZXAXAXAXAXAXAXAXAXZXgX0XyXdXgXgXgXgXfXkXkXkXkXkXSXSXSXCXCXZXZXZXZXZXZXAXAXAXAXAXAXAXAXDXDXDXDXAXAXAXAX",
"ZXZXBXkXjXMXNXMXBXMXMXkXkXMXBXjXfXfXgXgXfXfXgXsXsXsXqXqXqXqX5X5X5X3X1X*X*X*X#X_.~.!.`.+X#X*X1X3X5XqXqX5X5X5X5X1X1X1X1X1X1X1X*X#X#X#X*X*X*X#X*X*X*X*X-X1X1X1X1X*X*X-X*X*X_.!.E.!.-XgXfXgXmXmXgXsXwXqXqX5X*X#X[.].~.E.R.W.E.B.B.Z.Z.R.Z.b.b.m.n.v.i.p.y.0.0.y.y.y.y.y.y.y.y.0.0.0.0.0.y.y.i.l.v.b.Z.R.R.R.Q.Q.Q.T.T.R.T.n.m.m.m.m.c.s.u.@./ L J K v b [ x.T.Q.W.).).).}.'.~.W.R.R.Z.E.sXfX0X0XqX5XqXqXqX9XqXqX0XqX-X].A.z.z.b.Z.A.E.).E.)._.).R.~.!.E.E.E.A.A.A.A.A.Z.Z.A.A.!.).).)._.`.).A.).A.0.8.V.)._.].].oX+X@XoXD.oXoX;X&XoX&X&X&XoXoX&X;XoX&X&XoX;XoX&XD.oX&X;XoX&X&X&X>X@X;X:X;X@X&X@X;X&X&XoX@X;X&X&X&X&X;X4X:X:X9XyXyX9X>X>X;X>X4X>X4XrXrXrXrXrXiXiXxXxXuXiXhXxXuXzXhXzXzXuXuXkXzXlXuXhXkXCXhXkXkXkXCXCXCXCXkXkXkXCXAXCXcXCXAXAXCXCXSXcXSXCXSXCXAXAXAXAXCXCXCXcXCXCXCXCXCXCXCXCXCXlXkXkXkXzXhXdXdXdXdXdXdXdXdXdXdXdXuXuXuXuXuXuXuX9X:XoX@X`.;X9X;X:X;X;X:X3X9X9XaXjXaXpXdXjXjXdXfXjXjXfXsXaXsXpXpX4X3X@X@XOX!.A.S.B.S.A.D.!.!.!.!._.+X&X&X4X0XyXtXdXdXdXdXkXSXjXjXkXNXCXCXCXCXCXCXkXdXdXuXtX9X9X9X9X9X9X9X0XtXtX0XtXaXdXdXfXjXjXMXNXSXZXZXAXAXAXAXAXAXAXSXaXyXfXfXgXfXgXfXkXkXkXkXkXMXSXSXSXZXZXAXAXAXAXAXAXAXAXAXAXDXDXAXAXDXAXAXAXAXAXAXAX",
"ZXSXMXBXkXBXNXMXBXMXMXkXkXMXMXjXfXfXgXgXfXfXfXsXsXsX0XqX0XqXqXqX5X1X1X=X*X*X#X+X_.!.!._.+X#X*X1X1X5XqX5X5X5X5X1X1X1X1X1X1X1X*X#X#X#X#X*X#X#X*X*X*X*X-X=X1X1X1X*X*X*X*X*X`.!.E.!.-XgXmXgXmXmXgXsXsXqXqXqX*X#X[.].~.W.R.E.R.B.B.T.Z.R.Z.n.b.m.Z.v.i.p.y.0.0.y.y.y.y.y.y.y.y.0.0.0.0.0.y.y.i.l.v.b.Z.R.R.R.Q.W.W.T.T.Q.T.n.m.m.m.m.m.i.u.y.[ ! K K c K ` u.T.Q.W.).).).}.'.~.W.E.R.R.E.sXgX0X0X0X5XqXqXqXqXqXqX0XqX*X].A.z.z.b.Z.A.E.).E.).].E.).).).).!.E.E.!.!.!.E.A.A.E.A.!.).].].).).)._.).z.| V.!.`.D.`._.+X#X=X_.@X@X-X_.&X&X&X=X`.&XoX;XoX&X;X`.4X&X&XoXoX@X&X;X&X&X&X;X&X&X;X4X@X&X&X&X&X&X&X&XoX;X&X&X&X;X;X;X4X;X&X>X9X9X>X:X9X4X>X:X4XrXrXrXrXrXiXrXdXxXuXiXhXhXhXdXlXzXdXxXzXzXzXkXhXhXzXCXjXcXkXkXCXSXCXCXkXCXCXCXAXAXSXcXCXAXCXCXCXcXCXCXSXCXAXAXAXCXCXCXCXCXCXCXCXCXCXCXCXCXlXkXkXkXkXzXhXdXdXdXdXdXdXdXdXdXdXdXuXyXyXyXyXyXyX9X;X_.oX&X9X9X:X:X4X:X4X4XrXtXaXjXfXaXdXjXjXjXjXMXMXjXdXaXsXpXpX5X3X&X@XOX!.A.S.B.S.A.D.!.!.!.^.`.+X&X&X5X9X0XyXdXdXdXfXfXMXjXkXMXNXCXCXCXCXCXCXCXdXaXyXyX9X9X9X9X9X9X9X0XtXyXyXaXdXdXfXfXjXkXMXNXSXSXZXZXAXAXAXAXAXAXSX0X0XMXfXgXfXfXkXkXjXkXMXMXMXSXZXZXZXZXAXAXAXAXAXAXAXAXAXAXDXDXAXAXDXAXAXAXAXAXAXAX",
"ZXBXMXMXMXSXMXBXBXMXMXBXMXMXMXkXBXfXfXgXgXfXgXgXgXgXqX0XqX0XqXqX5X5X3X=X*X*X*X+X].~.R.~._.+X#X*X-X1X5X5X5X5X5X1X1X1X1X1X1X1X-X*X#X#X#X@X#X#X*X*X*X*X-X=X1X1X=X*X*X*X*X+X`.).E.A.-XgXmXgXmXmXgXsXsXqXqXqX2X#X[.].).E.R.R.E.E.E.R.R.Z.B.Z.n.b.Z.c.i.p.p.0.y.p.p.p.y.y.y.0.y.0.y.y.y.y.y.p.i.l.m.n.B.T.Q.Q.Q.W.W.R.T.Q.R.n.m.m.m.m.m.i.u.y.+.! K c b K / y.T.Q.W.).'.'.'.'.'.~.E.R.R.E.sXgX0X0X0X4XqXqXqXqXqXqX0XqX*X[.A.z.l.b.Z.A.E.~.~._.].).]._.).).).).).).).).).E.E.).A.!.)._.!.).`.`.V.0.0.Z.`.@X].A.`.oX#X*X=X_.&X-X-X_.&X&X;X&XoX;X&X&XoX&X&X;X&X&X&XoX:X&X;X;X:X;X&X;X&X&X&X>X&X&X&X&X&X&X&X&XoX&X&X&X&X;X:X;X4X&X&X:X>X>X>X:X9X9X9X4X9XyXuXyXyXrXrXuXuXdXdXuXzXzXhXdXlXkXhXxXlXkXkXzXlXkXkXCXcXCXCXcXCXCXcXCXCXCXcXkXcXcXcXcXcXCXCXAXAXcXcXCXCXCXCXCXAXCXCXCXCXCXCXCXCXCXCXCXCXkXkXkXkXkXzXzXhXdXdXdXdXdXdXdXdXdXdXdXuXyX9X9X9X9X&X&X`.D.oX9X9X9X;X4X9X0X0X0XtXpXaXaXjXdXdXjXjXjXMXjXjXMXfXaXsXpXsXtX5X=X@XoX!.A.S.S.S.Z.D.!.!.!.^.`.+X&X=X3X3X3XyXdXdXdXfXfXMXkXkXMXkXkXMXCXCXkXkXkXjXjXdXuXyXtX9X9X9X9X9X0XtXyXaXdXfXjXjXjXkXMXNXNXSXSXSXZXZXAXAXAXAXAXyX0XaXaXgXgXfXfXkXjXjXMXSXSXSXZXZXZXZXZXAXAXDXDXAXAXAXAXAXAXDXDXAXAXAXAXAXAXAXAXZXZX",
"NXMXMXMXNXSXBXBXBXBXNXMXMXBXMXkXBXBXfXfXfXfXfXgXgXgXpXwXqXqX0XqXqX5X5X1X1X*X*X#X+X`.!.!.~._.+X&X-X=X1X5X5X1X1X1X3X1X1X1X1X1X-X*X*X*X+X+X@X*X*X*X*X*X*X*X=X=X-X*X*X+X+X+X).).E.A.-XgXBXgXmXmXgXsXsXqXqXqX2X*X#X[.).E.R.R.R.W.W.E.R.Z.n.Z.n.b.Z.l.p.p.p.0.y.p.p.p.y.y.y.0.y.0.y.y.y.y.y.p.i.l.v.n.B.T.Q.Q.Q.W.W.Q.T.R.Q.n.n.m.m.m.x.i.u.y.@./ P c b K / y.T.Q.W.).'.).'.'.'.~.W.R.R.E.0XgX0X0X0XqX9X9X9XqXqXqX0XqX*X[.A.z.z.b.B.A.E.).~.).[.#X).[.)._._.[.[._.).).).E.E.).E.!.)._.].-X_.z.0.Z.[.`._.@XoX`.].+X&X*X@X&X@XqXoX:X@XoX&XoX9XoX&XoX&X&XoX9X&X&X&X;X:X;X;X;X>X;X&X&X:X&X@X;X4X;X&X&X:X;X@XoX@X&X&X&X&X;X:X:X;X;X:X9X>X:X>X4X:X9XrX9XrXuXuXuXuXuXrXhXuXhXhXxXzXzXhXzXhXlXlXuXkXcXlXhXcXlXcXkXCXSXCXcXCXcXcXCXCXCXCXcXCXcXcXcXcXcXcXAXCXkXcXAXAXCXCXAXAXCXCXAXCXCXCXCXCXCXCXCXkXkXkXkXkXjXhXhXhXdXdXdXdXdXdXdXdXdXdXdXuXtX9X9X9X9XD.D.N.V.&X9X&XyX;X9XyXuXyXtXpXaXjXdXdXaXdXdXfXjXjXaXaXjXfXaXaXsXfXyXqX=X@XoX!.A.S.S.S.Z.D.!.!.!.^.`.+X&X&X3X:X:XyXdXdXdXdXfXkXkXkXMXjXjXkXSXCXkXMXkXdXdXdXaXyXtXtX9X9X9X9XtXyXpXdXdXjXjXkXkXNXNXNXNXMXMXSXSXZXAXAXAXAXAXpXqXyXgXfXfXfXfXjXjXkXSXSXSXSXZXZXZXZXZXAXAXDXAXAXAXAXAXAXAXDXDXAXAXAXAXAXAXAXAXZXZX",
"NXMXMXBXNXZXMXBXMXNXSXSXNXBXMXBXBXfXfXfXfXgXmXgXgXsXsXpX0X0XqXqXqXqX5X5X3X1X*X*X+X_.~.!.~.`.].@X*X1X1X1X5X1X1X1X1X1X1X1X1X1X1X*X*X*X#X+X@X*X*X*X*X*X*X*X-X-X*X*X*X+X+X[.).!.A.A.-XgXBXgXmXmXgXgXsXwXqXqX2X2X#X#X~.W.R.R.E.W.W.R.R.Z.Z.Z.Z.Z.Z.l.p.0.p.y.p.p.p.p.p.p.p.y.y.y.y.y.y.y.p.p.i.l.m.n.Z.T.Q.Q.W.W.W.Q.Q.T.Q.n.n.n.m.m.c.i.u.y.$.[ W b c c K { n.Q.W.'.'.'.'.'.'.'.~.W.R.E.qXsX0X0X0X0X9X9X9XqXqXqXwX0X-X+X!.b.z.b.Z.A.E.).).).[.[.[.+X_.].!.*X+X[.[.#X`.+X+X_.!.`._._.+X).0.0.A.+X*X+X_.-X-X&X@X&X3XoXoX@X=XD.`.9XoX&XoX:X;XoX&X`.;X&X;X:X&X;XoX9X@X&X;X:X:X;X;X&X:X@X@X&XrX;X&X&X4X&XoXoX&X&X&X&X@X;X:X>X&X:X9XrX:X:X:X9X9XrXyXdXrXuXuXhXuXdXhXzXuXxXhXhXhXzXzXzXhXlXcXdXkXcXCXhXcXCXCXkXAXCXCXkXCXcXCXCXCXCXCXcXAXcXCXSXCXcXcXcXcXkXcXAXAXcXCXCXCXCXCXAXCXAXCXCXCXCXCXlXkXkXkXlXlXdXhXhXhXdXdXdXdXdXdXdXdXdXaXuXtXrX3X5X9X@X^.z.z.D.:X3X9X0X0XyXdXaXyXtXpXaXjXjXdXpXaXaXdXjXfXdXpXaXaXaXaXpXfXpX5X=X@XoX!.E.S.S.S.Z.D.!.!.!.^.`.oX@X&X=X:X:XpXaXgXgXdXdXkXkXkXkXjXdXjXCXCXkXkXkXdXdXdXdXpXyXtXtX9X0XtXyXpXaXdXfXfXjXkXNXSXSXSXNXSXSXSXZXZXAXDXAXAXaXyXaXaXgXjXjXjXjXjXjXSXSXSXSXSXSXZXZXZXZXAXAXAXAXAXAXDXDXDXDXDXDXAXAXDXAXAXAXAXAXZXZX",
"BXMXMXNXNXNXMXBXBXBXSXZXSXBXMXkXBXjXfXfXfXfXmXgXgXsXgXsXpX0XqXqXqXqX5X5X5X3X*X*X+X]._.~.!.~._.+X#X*X1X1X1X1X1X1X1X1X1X1X1X-X-X-X-X*X*X+X+X#X*X*X*X*X*X*X*X*X*X*X*X+X[.[.`.!.A.A.-XgXBXgXmXfXgXgXsX0XqXqX1X2X*X#X~.~.W.E.E.R.R.R.R.R.Z.Z.Z.Z.R.l.0.0.p.p.p.p.y.y.p.p.p.y.y.y.y.y.y.y.p.p.i.l.m.n.Z.T.Q.Q.W.W.W.Q.Q.T.Q.U.U.n.n.m.m.x.s.u.y.[ ! K K c b ! c.n.Q.W.'.'.'.'.'.'.~.W.E.E.qXsX0X0X0X0XqX9X9X9X0XqXwX0XqX#X!.A.b.B.Z.Z.E.~.)._.[.+X].].+X).+X*X[.*X*X].+X`.`.+X+X!.).[.V.a.0.V.`.&X=X*X#XoX@X:X@X:X@X&X-XoXoXoX@X&X&XoX`.9X&X:X&XoX&X&X:XoX;X:XrX;X^.&X4XrX&X;X;X:X;X&X&X;X>X&X&X&X:X&X&X&X@X@X&X:X&X;X:X4X&X4XtXyX:X:X9X9XrXrXiXdXiXuXuXzXuXdXhXlXuXxXdXzXhXzXzXlXzXlXcXlXzXcXcXzXkXCXCXkXAXCXCXzXkXCXCXCXCXCXCXcXAXCXCXSXCXCXcXkXcXkXcXAXAXcXCXCXCXCXCXAXCXCXCXCXCXCXlXkXkXkXkXlXkXdXhXhXhXdXdXdXdXdXuXaXaXuXyXtX9X4X3X3X&X^.S.q.V.9X:X3X9X0X0XyXdXdX9X0XyXpXdXkXjXaXpXaXdXjXjXfXaXaXaXaXaXaXpXtX3X=X@XOX).E.S.S.S.Z.R.!.!.^.^.`._.@X@X&X:X3XpXaXaXdXdXdXjXjXkXkXjXjXjXkXMXMXkXjXdXdXdXdXpXyXyXyXtXtXpXdXdXdXjXjXjXjXMXSXSXSXNXSXSXCXZXAXAXAXDXDXSX0XyXaXaXgXjXjXjXjXkXkXSXSXSXSXSXSXZXZXZXZXAXAXAXAXAXAXDXDXDXDXDXDXAXAXAXAXAXZXZXZXZXZX",
"MXMXBXNXNXNXMXkXkXMXMXSXSXBXMXkXBXBXBXBXfXjXgXfXgXgXsXsXsXpX0XqXqXqX5X3X3X5X1X*X+X+X+X~.!.R.!._.[.#X*X*X1X1X1X1X1X1X1X1X1X1X=X=X-X*X*X#X+X#X*X*X*X*X*X*X*X*X*X*X*X+X[.].`.!.A.A.-XgXmXgXmXmXgXgXsXwXwXqX1X1X*X#X].).~.W.R.E.E.R.R.R.R.Z.Z.Z.R.l.0.0.p.p.p.p.p.p.p.p.p.y.y.y.y.y.y.y.p.p.l.c.b.n.T.Q.Q.W.W.W.W.W.Q.R.Q.T.U.U.I.m.m.c.i.u.u.[ ! K P K c c { m.Q.Q.'.'.'.'.'.'.'.~.E.!.5XsX0X0X0XqX5X0X0X9XqXqXwXqXqX+XA.b.B.B.Z.Z.E.E.).).].[.[.[.*X).-X*X*X].].*X+X`.`.+X_.#X].z.8.0.z.oX&X#X-X3X#XoX@X3X&X=XoX-X&X:X&XoX;X@X;X`.oX9X:X;XoX&XoX;X&XoX:X>XyX&X`.;X>X9X&X&X;X9X&X@X&X>X@X&X&X@X&X&X;X:XoX&X;X4X;X;X:XtX;X9XyXiX4X9XiXyXrXiXuXuXdXuXuXzXuXdXhXlXuXxXdXzXhXzXlXcXlXcXCXCXzXcXcXcXkXcXCXcXCXcXcXCXcXcXcXCXcXCXCXcXAXcXcXSXSXcXcXkXcXcXcXCXCXSXCXCXCXCXCXcXCXCXCXCXCXCXlXkXkXkXlXkXhXjXzXzXdXdXdXdXuXuXuXyXyXyXyXyX0X9XoXoXD.z.8.z.;X-X:X3X9X0X0XyXdXaXtXtXpXpXaXjXkXdXdXdXjXjXjXjXfXpXpXpXpXpXtX4X3X=X=X`.].R.S.S.S.S.R.!.!.!.^.`.`.oX@X&X:X3XyXaXsXsXdXfXjXjXkXkXjXdXjXjXkXkXkXjXdXdXdXdXpXpXaXaXyXtXfXjXjXjXjXjXkXkXNXSXSXSXSXSXSXZXAXAXAXAXFXDXgX9XyXaXaXgXjXjXjXjXkXkXSXSXSXSXZXZXZXZXZXAXAXAXAXDXDXDXDXDXAXAXAXAXAXAXZXZXZXZXZXZXZXZX",
"MXMXNXNXNXNXMXkXjXkXMXMXNXBXMXjXBXBXBXBXfXjXgXfXfXgXsXgXsXpX0X0X0XqX5X3X5X5X=X*X#X+X+X].!.A.R.!.].].#X*X*X1X1X1X1X1X1X1X1X1X1X1X-X*X*X*X#X+X*X*X*X#X#X#X*X*X*X*X+X+X[._.).A.A.A.=XsXmXgXmXmXgXgXsXwXqXqX1X1X#X[.].'.~.W.W.W.E.R.R.R.R.Z.Z.Z.Z.l.0.y.p.p.p.p.p.p.p.p.p.y.y.y.y.y.y.y.p.p.l.c.b.n.T.Q.Q.W.W.W.W.W.Q.Q.T.T.U.U.n.n.m.m.x.u.u.{ ! W b b c v ! c.T.R.W.'.'.'.'.'.).~.E.E.3XsX0X0X0X0X3X0X0X3X0XqXwX0X-X+XA.0.B.B.Z.Z.E.E.~.).).].+X1X#X+X*X1X+X+X+X+X`.+X+X`.-X[.b.8.0.A.`.&X:X&X:X0X].*X-X&X3X].&X=X9X=X`.:X:X;X&X^.9X&X9X&XoX=XoX=X`.4X>X4X&X;X:X;X:X;X&X&X;XrX@X&X@X>XOX&X&X@X@X&X;X:X@X:X:XrX;X>X;XuX;X9X9XrXrXuXdXiXyXyXhXuXzXuXuXhXuXdXhXzXxXxXdXzXhXzXlXCXcXcXcXAXzXcXcXCXkXcXCXCXcXCXcXcXzXcXCXCXkXCXCXcXCXCXcXcXcXcXcXcXcXcXcXcXcXSXCXCXCXCXcXkXCXkXCXCXCXlXkXkXjXkXCXkXhXjXzXzXdXdXdXdXuXdXyXtXtXtX=X&X@X+XS.V.0.~ ~ &X&X&X:X3X9X0X0XtXdXdXaXaXfXkXyXdXjXjXdXdXkXkXMXjXjXaXpXtXtX0X4X3X;X=X=X^.[.R.S.S.S.S.A.!.!.~.^.`.`._.+X@X=X3X0XaXaXaXaXdXfXjXkXkXjXdXdXMXNXjXjXkXkXaXdXaXpXaXaXdXaXyXjXkXkXkXMXMXMXMXNXSXSXSXSXCXSXZXAXAXAXAXAXAXyX0XyXaXaXgXjXjXjXjXkXkXMXSXSXSXZXZXZXZXZXAXAXAXAXDXAXDXDXDXAXAXAXAXZXZXZXZXZXZXZXZXZXZX",
"kXBXBXNXNXNXMXjXjXBXMXBXNXBXMXkXBXBXBXBXfXfXfXfXfXgXsXgXsXsXpXpXsXqX3X5XqX5X=X*X*X@X+X[.).E.R.E._._.].*X1X1X1X1X1X1X1X1X1X1X-X-X-X*X*X*X*X#X#X*X#X#X#X#X#X#X#X#X+X[.]._.).A.A.V.=XsXfXgXmXmXgXsXsXwXqXqXwX1X[.[.].).).~.~.W.E.R.E.R.R.Z.Z.Z.Z.l.0.p.p.p.p.p.p.p.p.p.p.y.y.y.y.y.p.p.p.p.l.c.m.Z.T.Q.Q.Q.W.W.W.W.W.Q.T.T.T.T.n.n.m.m.c.u.p.} / ! b b c v b p.T.W.W.'.'.'.'.'.'.).E.!.1XsX0X0X0X0X5X0X0X9XpXqX0XwXqX#XA.| 0.i.B.E.Z.A.E.)._._.[.].+X*X1X*X@X*X*X@X=X+X*X-X!.S.a.0.A.-X_.].9X4X4X`.+XqX3X3X+X_.=X&X:X=X`.&X9X4X@XoX;X&X&X@X&X:X&X;X`.9X:X9XOXOX>X;X:X;X;X&X;X:X&X&X&X;XOX&X&X&XoX>X;X;X@X>X;XuX&XrX>XuX:X4X9X9XrXyXdXrXuXuXkXuXhXdXdXdXuXhXzXzXhXhXhXhXhXzXlXCXCXlXcXCXlXCXCXAXkXcXCXcXkXCXCXCXkXCXCXcXzXcXCXcXcXcXcXkXSXcXcXkXSXcXkXcXSXSXSXCXCXCXCXkXCXcXCXCXkXjXzXkXdXkXCXjXdXdXzXdXuXyXyXyX9XqX0XaXtX@X@XoX!.A.a.a.~ n N.:X9X9X9X9X9X9XaXyXaXdXdXdXjXjXfXfXjXdXaXfXjXjXjXkXjXaXpXtX0X4X5X3X1X=X*X_._.!.A.S.S.A.A.!.!.!.).`.`._.oX@X&X@X0XaXaXpXaXdXdXfXkXkXkXfXkXSXCXdXdXCXCXdXaXaXaXaXaXfXfXaXfXkXkXkXZXSXSXMXMXSXMXSXSXZXZXAXAXAXAXAXSXfXaXyXaXaXgXfXjXjXjXkXkXBXMXSXZXZXZXZXZXZXAXZXDXDXDXDXDXDXAXAXAXAXAXAXZXZXZXZXZXSXSXSXSXSX",
"fXjXMXBXNXMXkXjXkXMXBXNXNXBXMXkXBXBXBXfXfXfXfXfXfXgXgXsXsXsXsXpXgXqX5XqXqX5X=X*X*X*X+X+X[._.!.E.!.~._.#X2X1X1X1X1X1X1X1X5X1X-X*X*X*X*X*X*X#X#X#X#X#X#X#X#X#X#X#X+X[.].).!.A.A.B.-XaXmXmXmXmXgXgXpXwXqXqXqX1X[.[._.).).).).~.E.R.E.R.R.Z.Z.Z.Z.l.p.p.p.p.p.p.p.p.p.p.y.y.p.y.y.y.p.y.p.p.l.c.m.Z.R.Q.Q.Q.W.W.W.W.W.W.Z.T.T.T.n.n.m.m.c.u.p.@.[ / K b c c b y.T.W.W.'.'.'.'.]._._.E.!.1XsX0X0X0XqXqXqXqX0X0XqX0XpX0X-X).0.| 0.i.b.Z.A.!.)._.].].[.#X=X1X-X-X-X*X*X`.*X1X@XV.a.z.A.oX5X!.-X3X9X&X&X&X-X9X*XoX=X@X3X@X_.;X:X:X4X_.@X&X:X&XoX:X:X>X`.@X>X:X>XOX:X;X;X;X:X9X&X&XoX&X&X;XOX&X&X&X:XoX:X:X9X@X;X:XuX;XrXyXuX:X9XrXrXyXyXiXiX9XuXkXdXhXdXdXdXdXzXkXzXzXzXzXzXzXzXlXlXcXlXcXCXlXcXCXAXkXcXCXcXzXCXAXAXcXcXcXcXzXkXcXAXcXcXcXcXCXcXkXzXkXkXkXkXSXcXkXcXCXCXCXCXCXCXcXkXjXdXzXcXzXjXkXhXdXdXdXdXuXyXyX9X9X3X:X*X+X`.^.R.V.z.5.~ n 8.`.9X9X9X9X9X9X9XaXyXaXdXyXjXkXdXCXMXjXdXfXjXaXaXaXfXfXpXpXtX0X4X4X4X3X1X&XoX`.!.A.S.S.A.A.!.!.!.!.).`._.@X@X@X@X9XaXaXyXyXaXaXdXfXkXkXjXkXSXNXdXdXkXMXdXaXdXdXaXdXkXkXdXdXkXkXkXSXSXSXMXMXSXMXSXZXAXAXAXAXAXAXAXZXdXaXyXaXdXgXjXjXjXjXkXkXMXMXSXZXZXAXZXZXZXAXAXDXDXDXDXDXDXAXAXAXAXAXAXAXZXZXZXSXSXSXSXSXSX",
"fXjXBXMXBXMXjXBXBXMXNXBXNXBXMXkXBXBXBXfXfXfXfXfXfXfXfXsXsXsXsXsXpX0X0X0X0X5X-X-X-X-X*X#X[.[._.E.E.~.)._.#X2X1X1X1X1X1X5X5X1X1X-X-X-X*X-X*X#X#X#X#X@X@X#X#X#X#X#X+X]._.).!.!.Z.S.3XgXMXMXMXmXfXaXsXwXqXqXqX*X+X+X).).].].).~.W.E.E.E.Z.Z.Z.Z.n.l.p.p.p.p.p.p.p.p.p.p.p.p.p.p.y.y.p.p.p.i.l.c.b.T.Q.Q.W.W.W.W.W.W.W.W.T.R.T.T.n.n.n.n.m.u.i.y.[ / W b b b b } n.W.'.'.'.'.].].]._.!.!.=XsXwX0X0XqXqXqXqX0X0XqXqXpX0X-X).0.| | 0.i.z.Z.!.).[.].].].=X*X#X-X=X=X=X=X-X1X@XA.z.z.D.@X-X@X-X:X9X=XoX9X&X&X:X].@X3X&X5X`.oX4X3X;X+X_.&X&X9X`.oX:X:X>X`.>X:X:X:X`.9X;XrX`.;X4X:X&XoX&X&X&X`.oX&X:X;XoX;X:XtX&X:X;XyX>XrXiXdX4XrXiXyXrXrXrXdXyXyXcXhXkXhXkXhXhXlXlXlXlXlXlXkXlXlXlXcXcXcXcXCXlXcXCXAXkXcXcXcXdXzXzXcXcXcXcXCXkXcXcXSXzXCXCXCXcXCXCXkXSXcXkXzXCXcXhXhXcXSXCXCXcXcXkXjXhXhXzXCXdXdXhXgXdXuXuXuXyXqX9X:X-X=X*X+X_.!.V.a.~ m m m M `.:X9X9X4X9X9X9X0XaXyXaXfXdXpXdXMXjXdXyXtXjXjXaXaXjXNXMXfXaXpXtX0X4X4X4X3X&XoX_.!.A.S.A.A.A.!.!.).).).`._.oX+X@X&X4XaXaXyXyXyXyXyXdXkXkXkXkXNXkXdXdXdXdXdXdXjXfXdXjXMXMXfXfXkXkXkXMXSXSXSXSXZXZXZXZXAXAXAXAXAXAXAXSXyXyXpXaXgXfXjXjXjXkXMXMXMXSXSXZXAXAXAXAXAXAXAXDXDXDXAXDXDXAXAXAXAXAXZXZXZXZXSXSXSXSXSXSXSX",
"gXfXfXjXBXjXjXjXMXBXNXMXMXMXMXkXBXBXBXfXfXfXfXfXfXBXfXsXsXsXsXsXpX0X0XpX0X5X-X-X-X-X-X*X#X[.[.).~.~.~.~.'.#X2X1X1X1X1X5X1X5X1X-X1X-X*X-X*X#X@X#X#X+X+X#X#X+X#X#X[.].).).!.!.V.S.qXgXBXBXMXBXfXaXpXwXqXqX5X*X+X#X~.).].].).~.W.E.E.E.Z.Z.Z.Z.B.l.p.p.p.p.p.p.p.p.p.p.p.p.p.p.y.y.p.p.p.i.l.M.n.T.Q.Q.W.W.W.W.W.W.W.W.T.Q.R.T.n.n.n.n.m.i.i.y.{ [ ! K b b b [ m.W.'.'.'.'.].].'._.!.!.=XsXwX0X0XqXqXqXqX0X0XqXqXpXqX#XA.| | 0.0.p.z.z.S.E.[.[.].].*X[.)._.-X-X3X3X-X*X_.E.V.!.+XqX@X:X3X9XyX`.@XtX@X:XoX_.=X&X9X3X`.:X&X=X:XS.@X&X;X&XD.&X;X:X&X;X9X&X:X&XOX>X:X:XOX;X;X>X;XoX:X&X;XD.&X:X9X@X&X;X:X9X9X9X&XtX4X9XrXdX>XrXuXyXrXrXdXdXlXuXCXzXkXkXkXkXkXlXlXlXcXcXcXcXlXlXcXcXCXCXCXCXcXcXCXAXkXcXcXcXdXzXzXzXhXzXcXCXkXcXcXAXzXcXzXcXzXkXkXdXjXkXkXdXCXSXkXjXjXcXcXkXcXcXjXzXzXzXkXkXuXzXgXaXuXuXyXyX0X9X;X=X&X@XA.).A.l.M m m n n M `.3X9X9X9X9X9X9X0X0XaXyXaXdXdXjXkXjXjXjXjXdXfXfXjXjXjXjXjXdXfXaXpXtX0X4X4X4X&XoX_.!.A.A.A.A.A.!.!.).).).`.`.+X@X@X&X9XpXpXyXyXyXyX0XyXfXkXfXfXkXjXdXdXdXdXdXjXkXjXjXjXNXMXkXfXkXkXkXkXSXSXZXZXZXZXZXAXAXAXAXAXAXAXAXaXaXaXaXgXfXfXjXjXkXkXMXSXSXBXSXZXAXAXAXAXAXAXAXDXDXAXAXDXAXAXAXAXAXZXZXZXZXSXSXSXSXSXSXSXSX",
"aXdXfXfXfXfXfXjXBXMXBXMXMXMXBXBXBXjXMXjXfXfXfXfXfXjXfXgXaXsXsXsXpXpXpXpX0X5X1X1X1X1X-X*X*X#X+X[.R.E.~.~.'.[.#X*X1X1X1X1X1X1X1X1X1X1X*X*X*X#X#X#X#X+X+X+X+X+X#X+X[.].).).!.E.B.R.qXgXmXBXMXmXgXaXpXwXqXqX1X*X*X+X)._.].'.~.W.W.E.Q.E.R.Z.Z.Z.b.l.p.i.i.i.p.p.p.p.p.p.y.p.y.y.p.p.p.p.p.l.l.c.n.Z.Q.W.W.W.W.W.W.W.W.W.Q.Q.Q.T.n.T.n.n.m.i.i.u.} ` / P b c K [ c.'.'.'.].].].].].'.!.~.=XsXwX0X0X0X0X0XqX0XpXqXqXpX5X*XZ.| 8.0.0.p.i.z.z.b.R._.+X*X*X]._.].*X=X5X5X+X_.-X@X@X:X0X+X@X9X9XyX9X_.5X0X@X4X_.:XtX+X3X&X+X3X4XtX^.OX&X4X3X`.oX:X:X9X^.&X:X&X&X@X&X:X:X&X`.:X&X:X&X&X:X;X;X^.&X:X4XoX:X>X:X4X9X9X;XrX>X9XrXdX>XrXyXyXrXrXdXuXkXdXdXhXkXlXlXhXkXkXlXkXCXcXCXCXcXkXcXcXAXCXCXcXcXcXcXAXcXcXcXcXzXkXkXkXhXzXcXCXkXcXcXcXzXzXzXcXdXkXjXdXdXkXkXuXkXCXCXkXzXkXkXjXkXkXkXzXjXdXdXdXdXuX0XdX0X9X9X3X-X-X-X+X).B.v.p.| M n n m m n z.0X9X9X9X9X9XtXtXtXtXpXfXpXdXfXkXkXjXjXjXkXkXjXjXkXjXjXjXfXfXgXfXaXpX0X3X;X=X@XOX`.!.!.A.A.A.A.D.!.).).`.`.`.].+X&X*X9XyXyX0XtXyXsX0X0XfXkXfXdXfXdXdXdXfXfXdXjXkXfXjXjXdXkXNXfXkXMXMXkXMXSXZXZXZXZXAXAXAXAXAXAXAXAXMXyXaXaXdXgXfXjXjXkXkXkXkXMXMXSXSXAXAXAXAXAXAXDXDXDXDXAXAXAXAXAXAXZXZXAXZXZXZXBXBXBXBXSXSXMXMX",
"pXaXdXgXgXfXfXfXjXBXMXMXMXBXBXBXBXBXBXjXBXBXjXfXfXfXfXfXaXsXaXsXaXaXpXpX0XqX5X3X1X1X-X*X*X*X#X[._.!.E.~.~.~.].#X1X1X1X1X1X1X=X1X1X1X5X*X*X2X1X1X#X+X+X+X+X+X[.[.[._.).).E.E.B.E.qXgXgXBXmXmXgXsXpXwXqXqX1X*X*X[.].[.].).W.W.W.E.Q.E.Z.Z.Z.Z.b.i.p.i.i.i.p.p.p.p.p.p.y.p.y.y.p.p.p.p.p.l.l.M.n.Z.Q.W.W.W.W.W.W.W.W.W.Q.Q.Q.T.Z.T.T.n.m.x.u.u.$.[ ` W b c P ` i./.'.'.].].].].].'.~.~.=XsXwX0XqXqX0X0X0X0XpXqXqXpX0X+X!.| 0.0.0.0.p.i.i.l.B.!.[.+X*X[.[.+X3X3X3X3X@X+X3X=X3X5XqX).&X9X:X0X&X&X0X;X9X3XoXtX:X3X3XoX;X;X4X:X^.&X;X0X;X_.=X:X:X9X^.:X&X:X&X@X&X;X:XoXoX:X;X&XoX:X:X4X:X@X:X&X;XoX4X9X9X:X9XrXrXiX>XrXyXhX9XyXyXxXrXrXkXdXdXuXdXjXkXlXkXhXkXzXkXkXCXlXCXCXcXkXcXcXCXCXCXcXcXkXcXCXCXcXCXAXCXcXCXAXSXkXkXcXzXcXcXcXkXzXkXCXkXcXkXdXdXkXkXdXdXcXCXkXzXkXkXzXdXjXjXdXdXdXdXdXdXuX9XyX:X3X=X*X+X`.E.Z.B.v.0.~ m b m m m m ~ ).=X3X9X9X9X9XiXyXyXyXyXfXpXfXjXdXdXjXkXjXjXjXjXjXjXjXjXfXjXfXpXrX4X4X3X1X=X&X@XOX`.!.!.D.A.A.A.D.!.).).`.`.`.`._.@X-X5X0X0X0X0XyXaX0X0XdXjXdXdXdXdXdXdXkXfXdXdXMXdXkXjXdXkXkXkXkXkXMXkXMXSXSXZXZXZXAXAXAXAXAXAXAXSXfXyXaXdXdXgXfXjXjXkXMXMXMXMXMXSXZXAXAXAXAXAXAXAXDXDXDXAXAXAXAXZXZXZXZXZXZXZXZXBXMXMXMXMXMXMXMX",
"tXpXaXaXdXgXfXfXfXjXkXkXkXkXBXBXBXBXjXjXBXBXBXBXjXfXfXfXfXsXaXsXaXaXaXpXpX0XqX5X3X3X1X*X*X*X*X+X]._.~.E.E.~.~.+X#X1X1X1X1X1X1X1X1X1X5X2X*X2X1X1X#X+X[.+X+X+X+X[.].).).!.E.A.V.E.5XgXgXMXBXmXgXaXpXwXqXqX1X*X*X[.[.+X].~.W.W.W.E.E.E.Z.Z.A.Z.b.i.p.i.i.i.p.p.p.p.p.p.p.p.p.p.p.p.p.p.p.i.l.m.n.R.Q.W.W.W.W.W.}.}.W.W.W.W.Q.T.T.T.T.n.m.c.i.u.u.} ` W b c K ! $.Q.'.'.].].{.{.].].).).1XsXwX0XqXqX0X0X0X0XpXqXqXpX0X#X).| 0.0.0.0.p.p.p.i.z.Z.!.`.#X[.[.*X=X3X3X3X1X-X0X5X3X5XqX).=X3X&X9X_.;X3X&X9X=X&X0X@XtX=X@X0X=XtX`.`.4X3XtX@XOX4X=X4X&XOX>X@X>X@XoX:X&X>XoX@X;X&X&XD.9X>XyX&X&X>XOX9XOXrX>XtX:X:XrX9X9X;X9XrXuX4XyXuXhXuXrXiXdXdXkXkXkXjXkXkXjXkXzXkXkXCXlXcXCXcXkXcXcXCXSXCXcXCXcXcXcXAXcXcXAXCXCXCXcXcXAXCXzXzXzXcXcXkXzXkXCXkXcXcXzXjXkXlXdXuXlXcXzXdXzXkXdXdXkXuXuXuXuX9XyXuX9X=X&X].#X`.`.`.`.z.0.| ` m m m m ! m M | l.3X3X0X9XqX9X9XyXuXpXyXpXdXpXfXfXaXaXjXjXjXjXjXfXdXdXdXfXfXfXfXfXaXpXpXpX0X5X5X@XOX_.`.).!.A.A.D.D.!.).).`.`.`.`.`.+X*X3X0XqX9X0XyXaX0XyXaXfXdXdXdXdXdXdXkXfXdXaXkXfXCXdXjXkXkXkXkXMXkXkXMXSXSXZXZXZXAXAXAXAXAXAXAXMXaXyXaXdXdXfXkXkXjXkXkXSXSXSXSXSXZXAXAXAXAXAXAXAXAXDXDXAXAXAXAXZXZXZXZXZXZXZXZXBXBXBXkXkXkXkXkX",
"0XtXpXaXdXfXfXfXfXfXjXkXkXkXBXkXBXBXjXjXBXBXBXBXfXfXfXfXfXgXsXsXaXaXaXaXpXqXqXqX5X5X3X*X*X*X*X*X#X].).R.R.E.~.].#X*X1X1X1X=X1X1X1X1X#X1X*X*X*X*X#X+X+X+X#X+X[.].].).).E.E.A.B.E.3XaXgXMXmXmXgXsXpXwXqXqX1X*X*X#X+X[.'.W.W.W.W.E.E.E.Z.Z.A.Z.b.i.p.i.i.i.p.p.p.p.p.p.p.p.p.p.p.p.p.p.p.i.l.m.n.R.Q.W.W.W.W.W.W.W.W.W.W.W.Q.R.T.R.T.n.m.c.i.u.u.@.[ W b b v b [ m.W.'.].].{.[.].].).).-XsXwX0XqX0X0X0X0X0XpXqXqXpXqX5X!.0.0.0.0.0.p.p.p.i.z.z.B.A.`._.].@X=X3X5XqX5X3XpXqX@X:X0X+X&X3X@X3X_.&X&X=X=X&X=X&X&X3X@X5XtX&X5X`.+X4X4XtXOX&X4X&X9XD.;X:X;X:X`.&X9X&X4X`.:X&X&X@X`.rX9X9X@XoX>X&X4XOXyX:XuX;X:XyXyXrX>XzX9XzXrXzXzXxXrXxXdXkXuXdXlXkXhXhXkXkXkXzXkXkXCXkXCXCXCXkXcXcXCXcXCXcXcXcXcXcXAXkXcXCXcXcXcXAXcXcXcXdXzXhXcXcXzXzXkXcXdXkXkXjXjXcXkXzXuXkXlXhXdXdXhXdXdXkXrXyXyXyX-X9X3X&X@X_.A._.!.V.a.| ! ! m m b b m ! M n M 0.+XqXpX0X9XqX9X9XyXuXaXyXpXdXpXdXdXaXfXaXjXjXjXfXdXdXjXaXjXaXaXfXsXaXpXtX0X5X3X3X@XOX_.`.`.!.D.A.D.D.!.!.).`.`.`.`.`.].@X;X5X3X5X0XyXaXtXyXaXfXaXaXdXdXdXdXkXfXfXaXkXfXNXaXkXSXkXkXkXkXkXkXMXSXZXZXZXZXAXAXAXAXAXAXSXgX0XyXaXdXfXfXkXkXkXjXkXSXSXSXSXZXZXAXAXAXAXAXAXAXAXDXDXAXAXAXAXSXZXZXZXZXZXZXSXBXMXBXkXjXjXjXjX",
"4X0X0X0XaXaXgXfXfXfXfXjXjXkXBXBXBXBXBXBXBXfXBXmXfXfXfXfXfXfXgXsXsXsXsXsXsXqX0X0XqX5X5X-X-X*X*X*X#X[._.E.Z.Z.!._.[.#X-X1X1X1X1X1X1X1X1X2X2X#X#X#X*X#X+X+X#X+X[.].].).).E.E.R.B.b.1XsXfXBXBXBXfXgXsXwXqX5X1X*X#X#X{.].).W.W.W.Q.Q.E.R.R.Z.A.E.v.i.p.p.i.i.i.i.p.p.p.p.p.p.p.p.p.p.p.p.p.i.c.m.B.T.R.Q.W.W.W.W.W.~.~.W.W.W.R.Q.T.T.T.n.m.m.c.i.u.@.[ ! K b v b ! m.(.'.].[.[.[.[.].).).1XgX0X0X0X0XtX0XyXpXpX0X0XaXqX@XE.0.0.0.0.0.p.a.a.a.z.z.b.E.!._.+X#X-X3XqX0XqX5X3X3X@X`.@X).oX+X@X@X+X&X_._.;XoX;XoX&X;X&XtX&X=X3X`.3X&X5XqXOX3X3X&X3X`.:X;X4X:XD.:X4X:X>XD.:X;X:X@X@X0X0X0XoX=X:XyX:XOXyX&XaX&X9XtX9XtX9XhX9XhXuXuXiXzX9XCXuXuXuXuXhXzXhXhXkXkXAXjXCXkXcXkXCXCXCXzXcXcXcXlXAXcXcXyXcXCXCXzXAXCXcXkXcXcXkXcXcXzXcXdXkXCXkXCXkXkXdXzXzXjXzXuXdXdXxXhXhXzXzXkXdXuXrX>X:X9X9X3X=X&X&X_.!.V.i.0.| ~ ! ! ! ! ! ! ! ! M M m n | -X1X5XqX0X0X0X0XrXyXdXaXyXpXhXNXaXjXaXkXaXjXjXjXdXdXdXMXaXkXyXaXdXaXaXpX0X0X3X=X&X@X_.`.`.).!.D.D.D.!.!.!.^.`._.OX_.oX+X&X=X3X3X3X9XyXaXtXtXaXdXaXaXdXdXdXdXkXfXfXdXjXdXkXdXMXSXMXjXkXkXkXkXMXSXSXZXZXZXAXAXAXAXAXZXkXaXqXaXaXgXfXjXkXkXkXkXkXSXZXSXSXZXZXZXZXAXAXAXAXAXAXDXDXDXDXAXZXZXZXZXZXZXZXSXSXSXMXMXkXkXjXkXkX",
"3X4XqX0X0X0X0XpXaXgXfXfXfXfXjXkXBXBXBXBXBXfXBXfXgXgXgXfXfXfXfXsXsXsXsXsXsX5X0XpX0X5X5X1X1X-X*X*X*X#X[._.E.Z.R.~._.].+X*X1X1X=X=X2X2X2X2X2X2X*X*X*X#X+X+X#X+X[.].].).).E.R.R.V.v.=XsXfXBXBXBXfXgXsXwXqX5X1X*X#X#X[.].~.W.~.W.Q.Q.E.R.R.Z.Z.A.v.i.p.p.i.i.i.i.p.p.p.p.p.p.p.p.p.p.p.p.p.i.c.m.B.T.R.Q.W.W.~.W.~.~.~.~.W.W.R.Q.T.T.T.n.m.m.c.i.u.@.{ ! P K b K ! s.T.~.'.[.[.[.[.].).).1XgX0X0X0X0XpXpXyXpXaX0X0XsX0X*XA.0.0.0.0.0.p.a.a.a.z.z.z.Z.).[.*X-X-X3XqXqX3X:X=X&XoX).`.!.!.!.D.!.D._.`.].=XoX@X`.oX&X&X5X@X&X=X_.&X@X3X3X@X0X5X3X:X_.3X&X4X=X^.:X9X9X&XD.9X4XtX=X=X9X4X0XoX3X:XyX=XoXyX3XaX&XtXrXuXuX9XuX>XdXdXlX9XdX4XcXdXdXdXdXdXhXhXhXkXkXAXjXCXzXcXzXCXcXAXzXcXcXlXkXlXlXCXzXCXCXcXkXkXcXkXjXcXcXcXzXdXyXuXrXdXCXcXdXkXzXdXdXzXkXkXuXuXdXdXuXuXaXuXyXtX9X:X=X;X5X3X=X+X!.S.V.0.| ~ ! ! ! ! ! ! ! ! ! ! ! ! ! ~ M b.-X5XqX0X0X0XyXyXyXpXdXaXyXpXjXNXjXjXdXjXjXkXjXjXdXdXjXkXjXfXaXdXaXaXaXpX0X0X3X=X&X@X+X_.`.).!.D.D.D.!.!.!.^.`.OXoX+X@X&X;X:X3X3X5X9X0XyXtXtXyXdXaXaXdXdXdXdXkXfXfXfXkXdXdXfXNXSXkXjXkXkXkXfXkXkXNXSXZXZXAXAXAXAXAXMXaX0X0XaXaXdXfXjXkXkXkXMXkXMXZXZXSXZXZXZXZXAXAXAXAXAXAXDXDXDXDXAXZXZXSXZXZXZXSXSXSXSXMXMXkXkXkXkXkX",
"3X5X4X4X9X4X4X4X0XpXaXgXgXfXfXfXmXBXBXBXfXjXfXfXfXgXgXgXfXfXBXfXgXsXsXsXpX5X0X0X0X5XqX1X1X1X-X*X#X#X#X[.).!.E.!.~._.].#X*X1X2X1X*X2X1X2X2X2X*X*X2X*X+X+X#X+X[.]._.).!.E.R.Z.V.v.=XsXfXmXmXmXfXgXsXwXqX1X1X#X#X*X#X].).).).~.E.Q.Z.A.A.Z.Z.Z.l.i.p.i.i.i.i.i.p.p.p.p.p.p.p.p.p.p.p.p.p.l.c.m.B.T.R.Q.W.W.W.W.W.~.~.~.W.W.Q.Q.Q.Q.T.n.n.m.m.i.u.y.@.` ! P K K K y.T.W.'.].#X[.+X[._._.1XgX0X0X0X0XyXpXpXpXpXtX0XaXyX3XS.0.0.0.0.0.p.a.i.a.i.a.z.b.).[.*X-X-X-X3X3X=X&X@X+X_.`.A.A.A.A.S.S.z.A.S.A.S.D.!.`._.oX&X+XoX@X+X@X@XOX;X@X&X3X3X4X=XoX4X@X3X@XOX>X4XtX`.OX9X4XtX=X3X9X:X0X&XtX=XyX;X&XyX0XdXoXuX9XiX9XuXkX9XyXuXcXuXcXiXCXhXhXhXhXhXhXhXhXkXkXAXzXCXkXcXzXcXlXCXxXcXlXlXkXzXkXAXkXCXCXCXjXkXcXcXzXkXCXcXdXzXdXkXzXdXkXCXuXzXdXdXdXdXjXdXyX9XuXuX9X9X9X:X;X=X&XoX`.`._.).A.0.8.| | ~ ! W ! ! ! ! ! ! ! ! ! ! ~ ~ ! | 0.].qXqX0XyXpXyXyXuXyXpXdXdXpXaXaXNXjXdXjXdXjXkXjXfXdXfXjXaXjXkXaXfXaXaXaXpX0X0X3X-X@X@X@X_.`.).!.!.!.!.!.!.!.^.`._.OX_._.oX&X;X5X9XqX9X9X0XyXyXyXyXdXfXdXdXdXfXkXdXfXjXkXdXfXfXMXMXfXjXMXMXkXfXkXMXMXSXZXZXAXAXAXAXSXkX0X9XaXyXaXaXgXkXMXkXMXSXNXMXZXZXSXZXZXZXZXAXAXAXAXAXAXAXAXDXDXAXZXZXSXNXNXNXBXMXMXkXjXkXkXMXMXkXkX",
"3X3X3X3X3X3X3X3X3X9X0XpXsXaXgXfXfXfXmXfXfXjXgXfXfXgXgXgXgXgXfXfXgXgXsXpXpXqX0X0X0X5XqX3X1X1X1X*X*X*X#X#X].).~.E.E.~._.].*X2X2X2X2X2X1X2X2X2X2X*X2X*X#X+X#X+X].]._.).!.E.R.Z.V.b.-XsXfXmXfXmXfXgXsXwXqX1X1X#X*X*X{.].'.'.).~.E.Q.R.A.A.Z.Z.Z.l.p.p.i.i.i.p.i.p.p.p.p.p.p.p.p.p.p.p.p.p.l.c.m.B.T.R.Q.W.W.W.W.W.~.~.~.W.W.R.R.Q.R.T.n.n.m.m.c.u.y.@.` ! W b c b ` n.W.'.'.#X#X+X[._._.1XsX0XpX0X0XtXpXpXpXpXtXpXaXpX3XV.0.0.0.0.0.p.p.p.p.p.0.a.z.!._.[.#X-X-X-X-X&X+X]._.`.`.S.A.!.A.S.V.a.z.0.0.a.N.z.V.!.`.@X^.`.+X`.&XoX_.&X_.@X&X&X3X&X@X9X@X:X@XoX9X&XrX^.;X:X:X9X@X0X4X=X0X;XaX=XyX3X3XtX4XdXOXdX9XhX9XdXhXuXuXrXkXyXkX9XlXkXkXzXzXhXhXhXhXkXlXAXzXCXkXcXhXkXzXcXuXcXlXkXzXcXcXCXzXCXCXcXzXcXAXAXkXkXAXCXuXdXuXcXkXzXuXkXdXdXdXdXyXyXuXyX9X;XyXiX:X3X=X@XoXOX`.!.A.a.a.d.} ~ ~ ! ! ! ! ! ! ! ! ! ! ! ! ! ! ` ~ ~ ~ | `.&XqX0X0XpXaXdXuXaXuXyXdXdXpXdXaXNXkXdXkXaXkXMXjXfXaXjXjXyXkXMX0XaXaXsXpXyX0X0X5X=X&X+X@X+X`.`.!.!.!.!.!.!.!.^.`._._._._.oX@X:X0XqX0X0X0X0XyXyXdX0XdXfXfXaXdXfXkXfXjXjXkXdXfXfXMXkXdXkXNXMXkXMXNXSXSXSXZXZXZXAXAXAXfXdX3X9XfXpXaXaXdXkXMXMXMXNXZXZXSXSXSXZXZXZXZXAXAXAXAXAXAXAXAXAXAXAXZXSXBXBXBXMXMXMXkXkXfXkXkXBXBXkXkX",
"5X3X3X3X3X3X3X3X3X3X4X0X0XpXsXdXgXsXfXgXgXfXgXfXgXgXgXgXsXgXjXgXgXgXsXpXpXqX0X0X0XqXqX5X5X3X1X1X1X*X#X#X+X_.~.R.A.!._.+X#X*X2X2X2X2X2X2X2X2X2X2X2X*X*X#X#X#X[.].).).~.E.R.B.b.v.-XsXjXmXfXmXfXgXsXsXqX5X1X*X1X*X{.].].'.).~.W.E.R.R.R.Z.Z.m.i.p.p.p.p.p.p.i.i.i.p.p.p.p.p.p.p.p.p.p.i.l.c.n.Z.T.Q.W.W.W.~.~.~.~.W.W.W.W.R.R.R.T.T.n.n.m.n.c.i.u.@.[ ! W K c c ! i.W.'.'.{.#X#X[._._.-XsX0XaXaX0X0XpXpXyXtXtXpXaXpX3X!.0.0.0.0.0.p.p.p.p.p.p.p.p.B.E.)._.@X#X*X*X@XoX_.`.).!.A.A.!.V.l.z.z.z.z.z.z.a.a.a.a.z.z.V.D.!.OX+X+XOXoX@X@XoX@X&X&X@X@XoX9X&X&X_.&XyXoX:X3X:X9X&XtX0X=X9X:XdX=XMX:X9XyXyXrX&XdX9XdXtXuXdXdXcX9XlXdXkXrXdX9XuXjXNXjXyXkXCXzXuXAXyXzXuXkXdXzXzXlXiXCXzXlXhXzXcXzXdXzXkXkXkXkXkXkXkXkXkXkXzXzXjXzXdXdXuXdXdXdXuXyX9X:X;X:X;X=X&X@X].).!.A.A.v.a.8.} | | | | | | ` ` ~ / ! ! ! / / ! ! ) ) | | } ~ ~ E.-XqX0XaXyXyXdXfXyXdXdXtXaXjXkXzXNXNXjXaXkXaXkXMXjXjXdXfXfXtXkXMXfXyXyXpXpXyX0X0X3X:X=XoX+XoX_.`.^.!.!.!.!.!.^.`.`._._._.OXoX@X:X0X0XqX9X9X0X0XyXdXaXaXdXdXaXdXfXjXjXkXkXkXfXfXjXkXMXfXkXSXSXNXCXZXZXZXSXZXZXZXZXAXZXfX:X3X0XdXdXdXdXgXkXMXMXMXNXZXZXSXSXSXSXSXZXZXZXZXAXAXAXAXAXAXAXAXAXZXBXMXMXMXMXMXkXkXkXkXkXkXBXkXkXjX",
"0X9X4X3X3X3X3X3X3X3X3X9XqX0X0XpXpX0XgXsXsXgXfXfXgXgXsXsXaXaXBXsXsXgXsXpXpX0X0X0X0XqXqXqX5X5X3X5X5X-X#X#X+X[.`.!.A.R.!.).].#X*X2X2X2X2X2X2X2X2X2X2X*X*X#X#X#X[.].).).E.E.R.B.b.v.-XsXmXmXfXmXfXgXsXwXqX5X1X1X1X*X{.].].'.).~.W.E.E.R.R.Z.n.m.p.p.p.p.p.p.p.i.i.i.p.p.p.p.p.p.p.p.p.p.i.l.m.n.T.T.Q.W.W.W.~.~.~.~.W.W.W.W.W.W.(.T.U.n.m.m.n.m.s.u.@.` ! ! K b b ! p.(.'.].{.#X#X[.]._.=XpXpXaXaXyXtXaXaXtXtXtXaXaXpX:X!.0.0.0.0.0.0.0.p.p.p.p.p.p.z.b.A.~.].+X[.+X]._.`.`.!.D.A.A.S.V.V.V.z.z.z.z.z.z.z.z.z.z.a.a.z.V.S.A.D.!.`.+X+XoX+X=X=X@XoX_.:X&X&X`.&X3X_.:X@X=X3X=XyX;X9X:X3XyX:XfX=X0XtXyXaX:XdX:XdXtXdXdXdXkX>XkXdXkXdXkXyXuXdXkXjXyXzXkXCXzXlX9XkXhXcXzXzXzXCXkXCXkXlXhXhXcXkXzXkXcXcXCXyXkXSXkXzXdXuXyX9X9X9X9XyXyXyXyXrX9X4X;X;X;X=X=X@X_.D.S.A.b.p.0.8.| | ) | | | | | ` ` ` ` ) / / / / / / ) | | } | ~ } z.-XqXqXyXaXyXyXdXaXtXjXNXuXaXjXkXaXNXNXaXaXkXaXkXjXfXjXkXjXdXpXjXkXfXaXtX0XtXtX0X4X3X:X:X+XoXoX_._.^.!.!.!.!.^.^.`.`._._.OXoXoX@X=XqX0X3X;X:X9X0X0XyXfXyXyXdXaXdXdXdXfXkXjXkXjXjXfXdXkXkXMXSXSXSXZXZXZXZXZXZXZXZXZXZXfX9X@X:XtXdXfXkXfXfXkXMXMXkXNXCXZXSXSXSXSXSXZXZXZXZXAXAXAXAXAXAXAXAXZXSXBXMXMXBXNXBXkXkXkXkXkXkXkXkXkXjX",
"0X0XqX5X3X3X3X3X3X3X3X3XqX9X0X0X0X0XgXsXpXsXsXgXgXsXsXsXaXaXfXaXaXgXgXsXwXpXwX0X0XqX0XqXqXqXqXqXqX1X*X#X+X+X].~.E.A.A.A.).[.#X*X*X2X2X2X2X2X1X1X-X*X*X*X#X#X[.].).).E.E.R.V.b.b.-XgXjXmXmXmXmXgXsXqX5X1X1X1X*X*X#X]._.).).~.E.R.E.R.R.Z.n.m.i.p.p.p.p.p.i.i.i.i.p.p.p.p.p.p.p.p.p.p.l.l.n.Z.T.R.W.W.W.W.'.'.~.~.W.W.~.W.W.W.W.T.T.T.n.n.m.m.s.u.$.[ / ! P b b b y.T.'.].#X#X#X+X[.].-XpXsXpXpXpXpXaXaXtXtXpXaXdXyX-X!.0.0.0.0.0.0.0.p.p.p.p.p.p.i.i.z.Z.`.`._.].`.).).).!.!.D.A.S.A.S.V.V.S.V.V.V.V.V.V.V.z.l.a.a.a.z.V.z.z.V.!.!.A.!._.oX_.`.oXoX_.oX`.&X&X`.;XD.@X=X:X9X&X0X@X9X0X:XyX&XyX9XaXkX9XkX9XdXtXdXdXyXkX>XzXiXhXdXkXaXaXdXdXjXrXuXuXkXkXzX9XzXuXkXdXzXuXkXkXkXdXzXuXrXdXzXdXyXyXyXrX9XyXdXdXuXrX9X9X9X9X9X9X9X:X-X&X&X&XoXoX_._.).!.A.V.l.p.0.0.0.0.} } | ` | [ } [ | ` ` ` [ [ ` [ ` [ [ [ | | | } | ` i._.0X9X0XuXdXyXyXaXaXtXjXNXjXjXjXjXzXhXhXdXdXjXdXjXjXjXjXMXjXpXdXfXfXdXyX0X0XtXtXtX3X;X;X;X&XoXoXoX_.`.^.!.^.^.`._.`._._.oXoXoX+X@X&X3XqX3X:X3XyXaXaXtXyX9X0XdXaXdXdXdXdXfXkXkXkXMXSXkXSXSXCXCXSXZXZXZXAXAXAXAXZXZXSXZXSXyX:X3XyXdXkXkXkXkXkXMXMXMXSXSXZXSXSXZXZXZXZXZXZXZXAXAXAXAXAXAXAXAXZXSXMXMXMXSXNXkXkXkXkXkXkXkXkXkXkXjX",
"pXtX0X4X3X3X3X3X3X3X3X3X3X3XqXqXqXqXpXpXpXsXsXgXgXsXsXsXaXaXgXaXpXsXgXsXpXpXpX0X0XqX0XqX0XqXqXqXqX1X*X#X#X+X]._.~.A.B.B.R.).].#X#X*X2X2X2X2X1X2X-X*X*X*X#X#X[.].).).E.E.R.B.b.V.-XgXmXmXfXfXfXsX0XqX1X-X1X1X*X1X[.]._.).).~.E.R.R.Z.Z.Z.Z.m.i.p.p.p.p.i.i.p.i.i.p.p.p.p.p.p.p.p.p.p.l.c.n.T.T.Q.W.W.W.W.W.W.~.~.W.W.~.W.W.~.W.Q.T.T.n.m.m.m.i.u.y.} ` ! W b b b } n.'.{.#X#X#X+X[.].*XpXaX0X0XpXpXaXaXtXpXpXdXfXaX:X!.0.0.0.0.p.0.0.p.p.p.p.p.a.i.i.p.l.A.!.).).).).).).!.D.D.A.!.!.A.z.A.A.A.S.S.S.S.S.V.z.z.z.z.z.z.z.z.a.a.V.z.z.z.V.!.!.`._._.`._.`.&X].`.-XV.oX@X3X:X;X9X@X9X4X:X0X@XaX4XaX9X&XdX>XdXrXuXdXyXhX:XdX>XiXrXdXdXdXdXaXjX9XyXrXdXkXzXdXyX9XuXrXzX9XyXyXuX9XyX9X;XrXyXyX9X9X9X9XyX;X;XyX9X9X9X9X&X&X&X&X@XoX`.!.D.D.A.S.V.V.l.0.0.8.| | | } } } 0.0.} } } } } [ { | ` ` ` ` ` [ | | | | | | | | } 0.!.[.0XyXuXuXaXuXpXaXjXpXjXjXkXkXkXjXaXzXzXyXdXjXdXMXNXkXjXjXjXyXdXdXdXaXtX9X0X0X0X0X3X;X:X;X&X+X_.oX_.`.^.^.^.^.`._.`._._.oXoXoX+X+X@X3X4X3X:X:X3X9X9X0X0XyXaXdXyXaXaXdXfXfXfXfXjXMXMXfXNXNXSXCXSXSXZXZXAXAXAXAXZXZXSXMXaX3XdXaXaXaXkXkXMXkXMXNXNXNXSXSXZXSXSXZXZXZXZXZXZXZXAXAXAXAXAXAXAXAXZXSXMXMXMXMXkXkXkXkXkXkXkXkXkXkXkXjX",
"aXyX0X0XqXqX5X3X3X3X3X3X3X3X3X3X4XqX0X0XpXpXaXaXaXaXsXsXaXaXaXaXpXsXsXsXpXpX0X0XqXqX0X0XqXqXqXqXqX5X1X*X#X+X+X[._.A.B.Z.B.E.).].#X#X2X2X2X2X1X1X1X*X*X*X*X#X[.]._.).~.E.R.B.v.V.1XgXfXfXfXfXgXsXwXqX+X1X5X1X1X*X[.]._.).).~.R.Z.R.R.R.Z.B.m.i.p.p.p.i.i.i.i.i.i.i.i.p.p.p.p.p.i.p.i.i.c.n.B.T.R.W.W.W.W.W.W.W.W.~.~.~.W.W.~.W.Q.T.Q.T.n.m.c.i.u.y.@.| / ! b b b / c.W.'.#X#X#X+X[.].+XpXaX0X0XsXaXaXaXpXyXaXdXfXaX3X#X0.0.0.p.p.d.d.d.d.p.p.p.a.a.a.a.a.z.V.A.).!.!.).).).!.!.!.).).!.!.!.D.A.A.A.A.A.S.S.V.V.V.V.b.V.V.V.z.z.z.z.z.z.z.z.z.V.V.V.A.!.`.`.`.`._.=X&X&X&X&X:X:X&X0X=X:X3X@X9X9X0XyX:XdX;XuX9XiXyXyXyX>XuX9XyX4XdXyXyXyXyXuXyX9X9X9XyX9X:XdXuXyX9X9X9X9X9X9X9X:X-X-X:X9X9X;X9X-X9X9X9X9X9X&X@X3X-X#X-X@X`.A.S.V.z.V.V.V.V.V.z.i.0.0.0.0.0.0.} } } } } } } } { } } } } { [ [ [ | | | } | | } } 0.0.p.Z.@XqXaXpXuXuXaXaXaXdXzXaXjXzXNXkXjXdXaXdXkXkXfXdXdXkXSXMXkXfXfXaXdXaXaXaXyXyX0X0X0X0X5X3X3X3X5X@XOXOX`.`.`.`.^.^.`._.`._.OXoX+X+X+X+X@X;X4X3X:X4X3X3X4XyXyXdXdXdXaXaXaXdXdXdXfXfXfXMXMXfXMXSXSXZXSXSXZXZXAXAXAXZXZXZXMXkX9X&XaXdXdXdXfXkXkXNXSXSXSXSXSXSXZXZXZXZXZXZXZXZXZXZXAXAXAXAXAXAXZXZXSXMXMXMXMXkXkXkXkXkXkXkXkXkXkXkXkXkX",
"aXpXpXtX0X0X9X5X5X5X5X3X3X3X3X3X3X5X4XqX0XtXpXpXpXpXpXpXpXpXaXaXsXsXsXsXpX0X0XqX0XqX0X0XqXqXqXqX5X5X3X=X*X#X#X+X_.!.Z.Z.B.Z.~._.].#X#X*X2X2X1X1X1X2X*X*X*X#X[.]._.).~.E.R.B.v.B.1XgXfXfXgXgXgXsXsXqX1X1X1X5X*X*X]._.).).).~.R.Z.T.Z.Z.Z.B.v.i.p.p.p.i.i.i.i.i.i.i.i.p.p.p.p.i.i.p.i.i.m.n.B.T.R.W.W.W.W.W.W.W.W.~.~.~.W.W.W.W.R.Q.Q.T.m.c.c.x.u.u.@.[ / ! K b b W u.T.W.#X#X+X[.+X].+XsXaX0X0XpXaXaXaXpXaXaXdXfXaX9X+Xp.0.0.d.d.d.d.d.d.p.p.p.p.a.a.a.a.i.z.z.V.A.E.!.).).!.!.!.).).).!.!.!.!.!.!.!.E.A.A.A.E.A.S.V.V.V.V.z.z.z.z.z.z.z.z.z.z.l.z.z.V.S.A.A.S.S._.OXoXoX_.=X:X&X=X`.&X;X&X3X=X3X9X;XuX&XtX:X9X9XrXyX>XiX;XyX9XrXrX9X9X9X9X9X3X:X9X9X9X&X-X:X9X9X4X:X;X;X-X;X:X:X-X&X&X@X@X&X@X&X&X&X&X@XoX_.+X].`.!.V.z.z.z.z.a.z.z.z.z.z.z.i.p.0.0.0.0.y.0.0.0.} } } } } } } } } } } } } } } } } } } } y.p.i.l.v.).=XtXyXaXuXaXaXaXaXaXjXjXkXlXkXkXjXjXdXdXjXkXkXdXdXjXkXkXfXdXdXdXaXyXyXyXdXfX0X0X0X0X4X3X3X3X+X&X&XOX`.`.`.`.`.`._._.`._.OXoX+X+X+X+X@X;X5X5X3X9X9X9XtXdXfXdXdXfXdXdXdXdXdXfXkXfXfXkXNXkXkXMXSXZXSXSXSXZXAXAXAXZXZXZXkXaX3X:XdXdXdXdXfXjXkXMXSXSXSXSXSXCXZXZXZXZXZXZXZXZXZXZXAXAXAXAXAXAXZXSXMXMXMXMXMXkXkXjXjXjXkXkXkXkXkXkXkXkX",
"aXaXaXaXpXtX0XqXqXqX9X9X4X3X3X3X3X5X5X4X4XqX0X0X0X0X0X0X0XtXpXpXaXaXaXpXpX0X0XqX0X0X0X0XqXqXqXqX5X5X3X=X*X*X*X#X]._.E.Z.B.B.E.).].[.#X*X2X2X2X2X1X2X*X*X*X*X[.[.].).~.E.R.B.v.B.5XgXmXfXgXgXgXsXsXqXqX1X1X5X#X+X_._.).).).~.R.Z.Z.Z.Z.Z.B.v.i.p.p.i.i.i.i.i.i.i.i.i.i.i.i.i.i.i.i.i.c.v.n.T.Q.R.W.W.W.W.W.W.~.~.'.~.'.~.W.~.W.Q.Q.W.T.n.m.c.c.i.y.@.{ / ! ! b b ! i.Q.'.{.#X+X+X+X[.+XpXaX0X0XaXaXpXaXaXaXdXdXjXuX0X].a.p.p.p.p.d.d.d.d.p.p.p.p.a.a.i.i.i.i.l.z.A.A.E.E.!.).).).).).).).!.!.!.!.!.!.!.!.!.E.!.!.A.A.A.Z.B.V.z.z.z.z.z.z.z.z.z.l.z.z.z.z.z.V.V.V.S.A.!.`.`.@X@XoXOX^.@X&X&X;XoX=X:X&X9XoX>X@X;X:XtXdXyXuX@X9X:X>X;X;X;X;X:X;X&X&X-X:X-XoXoX@X&X&X&X&X&X@XoXoX&X&X@XoX@X@XoX`._.`.D.D.D.D.^.!.V.V.z.z.z.z.z.z.z.z.z.v.v.b.b.z.i.p.p.p.y.y.y.y.y.0.y.0.0.} } } } } } } } } } 0.0.0.0.0.0.0.i.l.b.B.E.&X3XyXpXaXaXaXaXaXdXfXjXkXlXlXkXkXjXkXjXjXjXkXkXkXgXuXSXMXkXfXfXdXaXaXdXdXyXtXtXtXtXtXqX3X3X3X=X+XOX@X_.`.`.`._._._._._._.oX+X+X+X@X@X@X;X3X4X9X9XyX0XyXfXkXfXdXdXdXdXfXdXdXfXkXkXfXkXMXkXjXSXSXZXSXSXSXZXAXAXAXZXZXZXMX9X:X9XdXjXfXfXfXfXkXMXSXSXSXCXSXSXZXZXZXZXAXAXZXZXZXZXAXAXAXAXAXZXSXMXMXSXMXkXkXkXjXfXfXjXfXkXkXkXkXkXkXkX",
"aXaXdXdXaXpXtX0X0X0X0X0X0X9X4X3X5X5X5X5X5X5X4XqX0X0X9X9X0X0XtXpXpXpXpXpX0X0X0XqX0XqXqXqXqXqXqXqX5X5X3X=X=X*X*X*X[.].).Z.B.b.Z.E.).].{.#X2X2X2X2X1X2X*X*X*X*X{.[.].).E.E.R.B.v.B.5XgXmXmXfXfXfXgXsX0XsX1X1X-X-X_._._.).~.~.~.R.Z.Z.Z.Z.Z.B.v.i.p.p.i.i.i.i.i.i.i.i.i.i.i.i.i.i.i.i.i.c.v.n.R.R.W.W.W.W.W.W.W.W.~.'.W.~.~.W.~.W.R.Q.W.T.n.m.c.c.i.p.y.{ ` ! ! K b P u.U.W.[.#X#X+X+X[.+XwXaX0X0XaXsXaXaXpXaXdXdXjXuX0X).i.p.p.p.p.d.d.p.d.p.p.p.p.a.a.i.i.i.i.l.l.B.A.A.E.!.!.).).).).).).`.`.`.).).).).!.!.!.).!.E.A.E.E.A.B.V.z.z.z.z.z.z.z.z.V.V.z.z.z.z.z.z.z.z.z.S.A.A.`._.`.^._.&X&X@X@X_.&X&X&X;XOX;XoX&X&X&X9X:X;X&X;X@X9X@X@XoX@X&X&X+XoX#X-X#X`.@XoX_.`.`.`.]._.`.`.).D.D.A.S.V.z.0.z.a.z.z.a.a.0.V.z.V.V.z.z.B.V.V.S.A.Z.B.B.B.V.z.i.p.p.p.p.p.p.y.p.y.y.y.y.0.} } } } } 0.0.0.0.0.0.0.p.p.p.p.l.b.A.!.+X3X9XtXpXaXaXaXdXdXfXfXkXkXlXlXkXkXkXkXkXjXkXkXjXkXdXyXkXkXfXdXdXdXaXaXaXaXaXaXpXpXpXtX0X5X3X3X=X&X+X^.OX_.`.`._._._._._._.oXoX+X+X@X@X@X=X3X4X9X9XaX0X0XaXkXfXdXaXaXdXfXdXdXkXkXkXfXkXMXNXfXMXMXSXSXSXSXZXAXAXAXZXZXZXjX4X3X9XdXfXjXkXjXkXNXMXSXSXSXSXSXSXZXZXZXZXAXAXZXZXZXZXZXZXZXZXZXSXMXMXMXMXkXkXkXkXjXfXfXfXfXkXkXkXkXkXkXkX",
"gXdXgXgXaXaXpXpXyX0X0X0XtX0X0X4X4X5X5X4X5X5X4X9XqXqX9X9X0X0X0XtX0X0X0X0X0X0X0X0XqXqXqXqXqXqXqXqX5X5X3X1X1X1X-X*X+X+X]._.B.b.B.R.~.].{.#X*X2X2X2X2X2X*X*X*X*X{.{.].).E.R.R.n.l.Z.5XgXgXmXfXBXmXgXsX0XqXqX5X1X*X_._._.).!.E.E.R.R.Z.Z.Z.Z.Z.v.i.p.p.i.i.i.i.i.i.i.i.i.i.i.i.i.i.i.i.i.c.v.n.Q.(.W.W.W.W.W.W.W.~.'.'.W.W.~.W.'.~.W.Q.W.Q.n.n.m.m.c.i.y.} ` ! ! P b K ) n.R.].{.#X#X+X+X+XwXaX0X0XsXaXsXpXpXaXdXdXjXaXqX`.i.a.a.a.a.a.a.i.i.p.p.a.a.a.i.i.i.a.i.a.a.z.S.A.A.!.!.!.!.).).`.`.`.`._._.`.`.).!.!.).).).!.E.!.!.A.S.B.V.V.V.V.V.V.V.B.V.V.V.b.V.V.V.z.z.z.z.z.z.V.V.S.D.!.)._.oXoX_.oX&X&XoXoXoXoXoX&X&X&X;X&X&X&X;X;X;X=X&X&X&X&X@X`.!.`.].).z.`.A.l.0.p.p.p.0.0.0.0.0.0.0.0.0.0.0.a.a.a.a.l.z.z.V.Z.A.S.S.V.!.A.A.A.A.A.A.Z.Z.V.z.i.p.p.p.p.p.p.p.p.p.y.y.y.y.0.0.0.0.0.0.0.0.0.0.0.0.l.l.z.v.E.S.S.!.=X0XaXjXpXjXMXjXjXkXzXkXNXjXlXlXkXkXkXcXkXjXCXjXdXjXfXaXdXfXdXdXdXdXaXaXpXpXyXyXpXpXpXtX0X4X4X3X;X&X@X+XOXOXOXOX`.`._._._.OXoXoX+X+X@X@X&X=X3X3X9X9XyXtX0XyXjXfXdXaXaXdXjXdXdXjXkXMXfXkXNXNXkXkXMXSXSXSXSXZXZXAXAXZXSXSXaX&XtX0XyXdXkXkXkXjXSXkXMXSXSXCXZXZXZXZXAXAXAXZXZXZXZXZXZXZXZXZXSXBXSXSXMXMXkXkXkXkXjXjXfXfXfXjXkXkXkXkXkXkX",
"fXgXfXdXaXaXaXaXaXpXyXtXyXyX0X0X0X4X5X5XqXqX0XqXqXqX9X9X0X0X0XtX0X0X0X0XpX0X0X0XqXqXqXqXqXqXqXqX5X5X5X1X1X1X-X*X#X+X]._.Z.b.b.Z.E.).'.{.#X*X2X2X*X*X*X*X*X*X*X{.].).E.R.T.b.z.A.qXgXgXmXfXfXfXgXsX0XqXqX5X1X*X[._._._.~.E.E.E.R.Z.Z.Z.Z.Z.c.i.i.p.i.i.i.i.i.i.i.i.i.i.i.i.i.i.i.i.i.c.v.U.Q.W.(.W.W.W.W.W.W.~.).~.~.W.'.~.'.~.W.R.Q.R.T.n.m.m.c.i.y.} ` / ! W b b ! i.Q.'.{.#X#X#X+X+XqXsXpXpXaXaXsXaXpXdXdXdXjXdX0X].i.a.a.a.a.i.i.i.i.p.p.a.a.a.i.i.i.i.i.a.a.z.V.A.A.E.!.!.!.).).`.`.`.`._._._.`.).!.).`.`.).).!.!.!.!.E.S.V.V.S.B.S.S.S.S.B.S.V.V.V.V.V.V.V.V.V.z.z.z.z.V.V.V.S.S.S.D.D.`.oX@X&X&X&X&XoX;X&X&X&X&XoXoXoXOXOX_.D.V.a.D.V.0.| 0.b.z.| 8.| ~ ~ | | | | | | 8.0.0.0.d.p.0.0.0.a.a.l.z.z.V.V.S.A.R.R.S.`.!.!.!.!.E.A.Z.B.V.z.i.i.p.p.p.p.p.p.p.p.p.y.y.y.0.0.0.0.p.p.p.y.p.p.p.p.v.b.B.S.!.A.D.`.:XtXdXjXpXjXMXjXkXkXkXkXNXdXlXlXdXdXdXdXjXMXdXjXdXdXdXdXaXaXaXdXfXdXyXyXtXtX9X9XtXpXtX4X4X4X4X3X;X&X@X+X+X+XOX`.`.`._._._.OXOXOX+X+X@X*X&X=X:X3X3X9X0XtXyXyXfXdXaXaXaXfXjXfXdXjXkXMXfXkXMXMXMXkXkXSXSXSXSXSXZXZXZXSXSXkX9X3X9XdXaXfXkXMXNXjXkXMXMXSXSXCXZXZXZXZXAXAXAXZXZXZXZXZXZXZXZXSXSXBXSXSXMXMXkXkXkXkXkXjXfXfXfXjXkXkXkXkXkXkX",
"fXfXfXfXgXgXgXgXdXsXaXpXpXaXyXtX0X0XqXqX0X0X0X0X0X0X9X9X0X0X0X0X0X0X0X0XpX0X0XqXqXqXqXqXqX0X0XqX5X5X5X5X5X5X1X*X#X+X]._.~.B.b.B.T.W.).].{.#X*X*X*X*X*X*X*X*X*X*X[.).E.R.B.v.v.E.qXgXgXmXfXsXsXgXgX0XqXqX5X1X*X[.]._._.).E.E.E.R.A.A.Z.Z.B.c.i.i.i.i.i.i.i.i.i.i.i.i.i.i.i.i.i.i.i.i.c.n.n.T.(.W.W.W.W.W.~.~.'.).'.'.'.'.~.'.W.W.W.Q.R.R.U.n.m.c.i.y.} | ` ! ! K b K u.R.'.{.#X*X@X+X+XqXaXpXpXpXaXaXsXaXdXdXjXkXgXaX#Xl.a.a.a.a.a.a.i.i.i.i.a.a.i.i.i.i.i.i.i.i.l.z.Z.A.E.!.!.!.!.!.).`.`._._._._.`.).).`._.].`.!.!.!.!.!.).E.A.S.A.A.S.S.S.S.S.A.S.S.S.S.S.S.S.V.V.V.V.V.V.V.V.V.V.z.z.z.z.V.D.D.D.D.D.D.S.D.S.D.D.S.V.V.V.z.z.q.q.0.8.0.8.| ~ 0.| | 8.| | 0.0.8.8.8.8.8.8.8.0.0.p.a.p.a.a.z.z.z.V.V.Z.S.D.!.!.^.`.!.[.`.`.`.).!.R.R.Z.v.a.i.i.i.i.i.i.i.i.i.p.p.p.p.p.p.p.p.p.p.p.p.p.i.l.v.V.A.S.A.).`.!._.&X9XyXdXkXpXjXNXjXkXkXkXkXNXdXlXlXNXkXdXuXdXkXdXdXdXdXdXaXyXpXyXdXfXdXyXyXtXtX9X9XtXpXrX4X4X4X4X3X;X&X@X+X+X+XOX`._.OX_._.oXoXoXoXoX@X@X&X&X=X;X3X3X4X9X0XyXtXdXaXaXaXaXfXkXfXdXjXkXSXfXkXkXMXMXMXkXMXZXZXSXZXSXSXSXSXkXjX:X0X9XkXdXjXkXMXMXkXfXMXMXSXSXSXZXZXZXZXZXAXAXZXZXZXZXZXZXZXZXSXSXBXSXSXMXkXkXkXkXkXkXkXjXfXgXjXkXkXkXkXkXkX",
"fXfXfXfXfXfXfXfXfXaXgXsXaXaXaXaXpX0X0X0X0XpXtX0X0X0X9X9X0X0X0X0X0X0X0X0XpX0X0XqXqXqXqXqXqX0X0XqX5X5X5X5X5X5X1X*X#X+X[.].).Z.b.B.n.R.W.).'.[.{.#X*X*X*X*X*X[.*X[.].).E.R.B.v.v.~.qXgXgXfXfXpXpXgXgX0XqXqX5X1X*X[.]._.].).E.E.E.E.R.A.Z.Z.Z.c.i.i.i.i.i.i.i.i.i.i.i.i.i.i.i.i.i.i.i.i.c.n.n.Q.(.W.W.W.W.W.~.~.'.).~.'.'.'.~.'.W.W.W.Q.Q.R.T.m.m.m.i.p.0.} ` ! ! P b K @.n.'.#X#X#X#X[.[.0XpXpXaXpXpXpXaXgXhXhXjXkXhXgX-Xz.a.a.a.a.i.i.i.i.i.i.a.a.a.i.i.i.i.i.i.i.l.z.b.A.E.!.!.!.!.!.!.).`._._._._.`.).).`._._.`.!.!.!.!.).).!.A.A.S.S.A.A.A.A.A.A.A.A.A.S.S.S.S.S.S.S.S.S.S.S.S.S.V.V.z.z.z.S.`.OX^.S.N.V.N.V.V.V.V.V.N.V.V.a.0.0.8.8.8.0.0.8.8.| 8.0.8.} } 0.0.0.0.0.0.0.0.0.0.p.p.p.p.v.V.V.S.S.A.E.!.^.^.).).OXOX!.[.`._.`._.).!.R.Z.z.a.l.l.l.i.i.i.i.i.i.i.i.p.i.p.p.p.p.p.p.p.p.a.z.b.Z.A.D.).`._.`.`.oX:X9XuXhXkXpXjXkXjXkXkXlXlXNXjXlXNXjXhXkXcXdXaXdXaXdXjXjXdXaXdXdXdXdXfXdXdXaXpXtXtXtXtX0X4X3X4X4X3X=X&X@X@X+X+XOX`._.OX_.OXoXoXoXoXoX@X&X=X=X&X=X:X:X3X3X9X0X0XaXyXaXaXaXdXkXjXfXkXMXSXfXfXkXkXSXMXMXSXZXZXZXZXZXSXSXkXjXfX:X0XaXdXfXjXkXkXkXSXkXMXMXNXSXSXSXSXZXZXZXAXAXZXZXZXZXZXZXZXZXZXZXBXSXSXMXkXkXkXkXkXkXkXkXfXfXjXkXkXkXkXkXkX",
"fXfXfXfXfXfXfXfXfXfXfXsXaXaXaXpXpXpXtX0XtXyXtX0X0XqXqX0X0X0X0X0XyXyXtXtXtX0X0XqXqXqXqXqX0X0X0XqX5X5X3X3X5X3X1X1X*X#X[.[.].].E.Z.b.B.E.~.'.].[.#X*X*X2X2X{.].*X].[.'.Q.[.T.v.v.~.qXgXgXgXgXsXsXgXsXwXqX5X1X=X*X+X[._.].).~.E.E.E.R.Z.Z.Z.Z.l.i.i.i.i.i.i.i.i.i.i.i.i.i.i.i.i.i.i.i.l.c.n.B.R.R.W.W.W.W.W.~.'.'.).~.'.'.~.).'.~.W.W.W.Q.T.Z.n.M.m.l.p.$.{ ` ^ ! W K K [ v.~.[.#X#X@X].].0XpXpXaXaXyXaXdXfXfXdXjXNXfXdX-Xz.l.z.a.a.i.i.l.i.i.i.i.i.i.i.i.i.a.a.l.l.z.z.z.B.A.E.E.E.!.!.!.)._._.].]._._.`.`.`.`.).).!.).E.).`.).!.E.A.A.A.A.S.S.A.A.A.A.A.A.A.A.A.A.A.A.S.S.S.S.S.S.S.V.z.z.z.z.A.@X=XoX^.D.D.S.S.S.A.D.D.D.D.V.a.8.0.0.0.8.8.0.0.0.0.8.} } 0.0.0.0.0.0.d.a.p.p.p.p.i.l.z.b.Z.E.!.!.).`.&X_.@X&X+X@X@X@X@XoX].]._._.).~.R.V.c.c.l.l.c.c.a.i.i.i.i.i.i.p.i.i.i.i.p.a.a.l.b.b.V.!.!.!.`.`.`.`.`.oX:X9XyXuXdXNXaXjXjXjXkXlXlXlXlXzXkXkXjXdXkXNXjXuXaXaXdXfXfXdXaXdXdXdXjXjXjXfXaXyXtXtXyX0X9X3X3X3X3X:X=X*X@X@X+X+XOX`.OXOXoXoXoXoXoXoX+X@X&X=X=X&X&X:X3X3X3X9X0XtXdXaXdXfXdXdXjXjXdXNXkXSXfXjXMXMXSXSXSXSXZXZXZXZXZXSXMXSXjX3X3X0XaXdXfXjXkXkXkXSXSXSXSXSXSXSXSXSXZXZXZXZXAXAXZXZXZXZXSXSXSXZXZXSXNXNXMXkXMXMXMXkXkXkXkXfXfXkXkXkXkXkXkXkX",
"fXfXfXfXfXfXfXgXdXMXgXsXaXaXaXpXpXpXtXtXtXyXyX0X0X0X0X0X0X0X0X0XyXyXtXyXtX0X0XqX0X0X0X0X0XqX0XqX5X5X5X3X5X3X1X1X1X*X*X#X{.].).R.B.b.Z.E.~.].[.#X*X*X2X*X*X[.*X[.].W.'.'.Z.v.v.).qXgXgXgXgXgXsXgXsXwXqX5X1X-X*X+X[.+X~._.).~.E.E.R.Z.Z.Z.B.l.i.i.i.i.i.i.i.i.i.i.i.i.i.i.i.i.i.i.i.l.c.n.B.R.R.W.W.W.).'.~.~.'.'.~.'.'.'.'.'.~.W.W.W.R.T.B.n.M.m.l.p.y.} ` ^ ! ! K K ! y.W.].#X#X@X+X[.qXpXpXaXaXaXdXdXfXfXdXfXNXkXdX&Xz.z.z.z.z.i.i.l.i.i.i.i.i.i.i.i.i.a.a.l.l.z.l.z.b.Z.R.E.E.!.!.~.)._.).).).`.].].`.`.).).).).`.!.).`.).!.E.A.A.A.A.A.A.A.S.A.A.A.A.A.A.A.A.A.A.A.A.S.S.S.S.S.V.V.z.V.V.).3X3X@X_.`.`.`.!.D.D.D.!.!.!.A.z.0.0.0.0.0.0.0.0.0.0.0.0.0.0.0.0.0.0.d.a.a.i.i.i.a.z.b.B.Z.E.E.!._._.+X=X@X&X3X&X&X=X;X=X+X+X+X]._.~.R.V.c.v.v.c.c.c.c.c.a.i.i.i.i.i.i.i.i.i.i.i.l.v.V.V.S.A.`.oX`.`.`.`.`.oX;XqXuXdXuXdXSXdXjXhXkXNXNXlXjXhXzXhXjXkXhXjXjXhXdXhXkXjXdXdXdXdXdXdXdXjXjXjXdXaXyX0X0X0X0X4X5X3X3X3X;X&X&X@X@X+X+XOXOXOXOXoXoXoXoXoXoX+X+X&X=X:X=X=X3X3X3X3X3X9XyXkXkXkXkXkXfXfXfXaXMXfXMXjXNXCXSXSXSXSXSXZXSXZXZXZXSXSXSXdX9XtX0XyXfXkXkXkXMXSXSXSXMXMXMXZXAXAXZXZXZXAXZXAXAXZXZXZXZXSXSXSXSXZXSXNXMXMXMXkXMXMXkXkXkXkXjXjXkXkXkXkXkXkXkX",
"jXfXfXfXfXfXfXjXjXaX0XfXfXdXaXaXaXpXaXpXpXpXpXyXtXtXtXtXyXtX0X0XyXyXyXyXtX0X0X0X0X0X0X0X0X0X0XqXqXqX5X3X5X5X1X5X1X1X*X#X#X].'.~.B.v.b.Z.~.'.[.#X#X*X*X*X*X*X{.[.].).[.~.Z.v.b.[.qXgXgXgXgXgXgXgXsXwXqX5X1X-X#X+X[.+X~._.).).E.E.R.R.Z.Z.b.i.i.i.i.i.i.i.i.i.i.i.i.i.i.i.i.i.i.i.i.l.v.n.B.Q.R.W.W.~.'.'.'.'.'.'.'.'.'.'.'.'.~.W.W.W.R.T.Z.n.m.m.c.p.y.} { ` ^ ! P K P | T.).#X*X-X*X+X3XtXpXsXsXaXdXdXfXfXdXjXNXkXdX&Xz.z.l.z.z.l.l.l.l.l.i.i.i.i.i.i.i.a.a.a.l.z.z.z.z.B.R.!.!.!.!.)._._.).).).`.[.[._.`._._.`.`.].!.`.`.).!.!.!.!.!.!.A.!.D.A.!.!.A.A.A.A.A.A.A.A.A.A.A.S.S.S.S.V.V.V.S.S.`.9X0X=XoXoX@XoXoX_._.OXOXoX`.`.S.a.a.0.0.0.0.0.0.0.0.0.0.0.0.0.0.0.p.i.z.z.b.b.b.b.A.A.!.).[.)._.*X=X3X0X3X0XpXqX0X4X4X5X*X&X#X$X].!.B.b.b.v.b.v.c.v.c.c.c.l.a.a.a.l.l.c.c.v.v.v.v.A.E.!.).`.oX+X_.`.`.`.`.&X9XyXaXdXuXdXCXjXjXhXjXzXlXNXNXNXNXCXkXkXlXjXhXdXhXkXjXfXdXdXdXdXdXdXdXdXdXaXpXyXyX0X0X0XqX5X5X5X5X3X=X&X&X&X@X+X+XoXOXoX+X+X+XoXoX+X+X+X+X&X&X3X:X:X5X9X3X3X3X3X9XdXdXfXkXkXkXkXkXjXZXfXMXjXSXZXZXZXCXSXSXSXZXZXZXZXSXSXfX0X9XyXaXdXfXkXkXMXMXMXSXSXMXMXMXZXAXAXAXAXAXAXAXAXAXZXZXZXZXSXSXSXSXSXSXMXkXMXMXkXkXMXMXkXkXkXkXjXkXkXkXkXkXkXkX",
"jXfXfXfXfXfXjXjXfXaXaXaXfXaXaXaXsXaXsXpXpXpXpXpXpXpXpXpXpXtXtXtXtX0XpXyX0X0X0X0X0XyX0X0X0X0X0XqXqXqXqX5X5X5X5X5X1X1X1X*X#X[.].).B.v.v.B.E.~._.[.#X*X*X*X*X1X{.*X).{.).).R.n.Z.*XqXgXgXgXgXgXgXgXsX0XqX1X1X1X+X#X+X].].).).).~.E.R.R.Z.Z.b.i.i.i.i.i.i.i.i.i.i.i.i.i.i.i.i.i.i.i.i.l.v.n.B.Q.R.W.W.~.'.'.'.'.'.'.'.'.'.'.'.'.W.W.W.W.R.R.B.n.m.m.c.i.y.{ { ` ^ ! L P P ^ m.~.+X@X*X-X+X=XtXpXaXaXaXdXfXfXfXdXjXNXkXaX&Xz.z.z.l.l.l.l.z.z.z.l.z.i.i.i.i.i.a.a.a.l.z.z.i.z.b.A.E.!.!.~.)._._._.]._.`.+X+X`._.].].`.`.].`.`.`.).).).).).).).!.!.D.D.!.!.A.A.E.A.A.A.A.A.E.A.A.A.S.A.S.S.V.V.S.A.!.qXaX3X&X@X=X&X@X@X&X=X=X=X].@X!.z.z.a.a.a.p.p.0.0.0.0.p.0.p.p.p.d.i.l.v.b.V.Z.Z.Z.).)._.].-X_.[.3XqX0XdX0XaXfXpXgXqX0XqX1X=X&X+X].Z.B.b.b.b.b.v.v.v.c.c.c.c.l.c.l.l.c.v.v.b.V.B.B.!.).`._._.oXoX`.`.`.`.`.:XqXyXaXdXdXjXkXjXdXhXkXlXlXlXkXjXlXNXkXjXNXjXdXdXhXdXuXdXfXfXdXdXdXaXaXaXpXpXyXyXtX0X0X0XqX5X9X9X3X:X&X&X&X&X&X@X+XoXOXoXoX+X+XoXoX+X+X+X+X@X&X3X3X3X4X9X3X3X9X0XyXdXdXdXdXfXjXjXkXfXSXMXSXfXkXZXZXZXSXSXSXSXZXZXZXSXMXfX9X&X9X0XkXkXdXkXMXMXkXMXSXSXSXSXSXSXZXZXAXAXAXAXAXAXAXZXZXZXZXSXSXSXSXMXNXMXkXkXMXkXjXjXkXkXkXkXkXkXkXkXkXkXkXkXkX",
"jXfXjXjXjXjXjXfXfXaXfXgXgXaXaXaXaXgXpXpXaXaXpXpXpXpXpXpXpXtXtXtXtX0XpXtX0X0X0X0X0X0XyX0X0X0X0XqXqXqXqX5X5X5X5X5X1X1X1X*X*X#X[.].~.b.v.b.b.E.~.).[.#X#X2X2X2X*X*X'.'.R.).R.B.B.#XwXgXgXgXfXgXgXgXsXqX5X1X1X1X#X*X#X].].).).).~.E.R.R.Z.Z.m.i.i.i.i.i.i.i.i.i.i.i.i.i.i.i.i.i.i.i.i.c.v.n.T.R.W.W.W.~.'.'.'.'.'.'.'.'.'.'.'.'.W.W.W.E.Q.Q.T.B.n.M.c.i.y.$.} | ` ! ! P W ^ i.~.#X*X&X*X@X&XpXpXaXaXaXdXdXfXdXdXkXSXCXdX@Xz.z.z.z.z.z.z.l.l.z.z.l.z.i.i.l.i.z.z.z.z.z.z.z.z.b.Z.R.!.~.~.).)._._.].]._.[.[.`._.[.].`.`.].].`._.`.`.).).`.).!.!.!.!.!.).!.!.D.E.E.E.E.E.E.E.!.R.A.A.A.A.A.A.Z.A.S.D.9XdXjX9X:X3X:X=X;X:X=X:X&X&X:X`.z.z.z.l.l.i.p.p.d.d.d.d.d.p.i.z.v.V.A.V.R.!.!.`.`.oX`.&X@X-X#X-XaX0XfXSXdXBXMXSXZXfXtXsX0X;X&X].~.B.V.B.b.b.b.n.v.v.v.v.c.c.c.a.a.l.z.v.V.B.Z.R.~._.oX+X@X@X@XoX`.`.!.`.=X9XyXuXdXdXjXjXkXZXdXZXNXNXNXNXkXkXkXkXjXjXkXjXdXdXhXaXdXdXfXfXdXdXaXaXaXaXpXyXyXyX0X0X0XtXtX4XtXtX5X:X;X;X=X=X=X&X@X+XoXoX+X+X+X+XoX+X+X@X@X@X&X=X3X9X0X9X3X3X9XyXaXdXdXaXdXdXfXfXkXMXNXSXSXSXMXCXSXSXSXZXZXZXZXAXAXSXkXkX@X&X3X0XaXMXdXkXMXMXkXkXMXSXSXSXZXSXSXAXAXAXAXAXAXAXAXZXZXZXSXSXSXSXSXMXMXMXkXkXkXkXjXfXjXkXkXkXkXkXkXkXkXjXjXkXkX",
"jXfXjXjXjXjXjXfXgXgXgXaXaXfXfXaXaXdX0XaXgXsXpXpXpXpXpXpXpXtXtXtXtX0XpXyX0X0X0X0X0X0X0X0X0X0X0X0XqXqXqXqX5X5X5X5X1X1X1X*X2X2X#X].).R.b.v.b.Z.E.).].[.#X*X2X2X*X{.[.W.).W.R.B.b.[.wXgXgXgXfXfXfXgXsXwXqX1X1X*X1X#X+X[._.).).).~.E.R.R.R.Z.m.i.i.i.i.i.i.i.i.i.i.i.i.i.i.i.i.i.i.i.i.c.v.n.T.R.W.W.W.~.'.'.'.'.'.'.'.'.'.'.'.~.W.W.W.E.E.Q.T.B.n.m.c.i.y.0.} [ ` ! ! P W ! s.~.2X1X&X@X@X=XaXpXpXpXaXdXdXdXdXdXkXSXMXkX_.V.z.z.z.z.z.z.l.l.z.z.l.l.l.z.z.z.l.l.l.l.l.z.l.z.b.B.A.!.!.~.~.).)._._.]._.[.[.`._.+X].`.`.].].].].`.`.).).).).).!.!.!.!.).).!.D.E.E.E.E.E.E.E.E.R.A.A.A.A.A.A.A.A.V.A.aXMXSXjXfXdXdXaXyX0X9XdXaXqX0X&Xz.a.l.z.z.z.z.i.p.a.i.i.i.l.z.b.V.B.R.A.!.`._.+X&X].#XqXqXaXyX0XSXgXkXZXjXZXSXMXMXjXfXfXsX3X*X_.!.B.V.b.b.b.b.n.m.v.v.v.v.c.c.c.c.v.V.B.B.A.E.`.].+X@X&X&X&X@X_.`.!.!.@X9XyXuXdXdXdXjXkXCXCXdXSXCXNXNXNXNXNXNXkXjXdXdXdXdXaXdXuXdXaXaXaXaXaXaXaXaXaXaXpXyX0X0X9X9X0XtX0XaXpX4X3X3X3X:X:X:X;X&X@X+X+X+X+X+XoXoX+X+X@X@X@X@X&X3XqX0X9X3X3X9XtXdXfXaXaXMXkXfXdXkXSXSXSXSXCXCXSXSXSXSXZXZXAXZXAXAXSXMXyX@X:X0XyXaXkXdXkXMXMXkXkXMXSXSXSXSXZXSXZXZXZXZXAXAXAXAXZXZXSXSXSXSXSXMXMXkXMXMXkXkXkXfXfXkXkXkXkXkXkXkXkXkXjXjXjXjX",
"jXjXjXjXjXjXfXgXgXgXgXgXaXfXfXaXaXpXyXaXgXsXpXpXpXaXaXpXpXpXpXtXtXpX0XpXyXyX0X0X0X0X0X0X0X0X0X0XqXqXqXqX5X5X5X5X5X1X1X2X*X*X*X#X).).Z.l.v.b.R.~.~.[.{.*X*X*X{.[.'.).'.Q.R.B.b.[.wXgXgXgXfXfXfXfXgXwXqX5X1X*X1X#X+X[.).).).).~.E.E.R.R.Z.m.i.i.l.l.l.l.l.i.i.i.i.i.i.i.i.i.i.i.i.c.c.n.n.T.W.W.W.W.'.'.'.'.'.'.'.'.'.'.'.'.).W.W.W.W.W.E.Q.T.n.n.m.l.p.y.} [ ` ! ! W W ! p.W.*X3X#X@X@X=XaXaXaXaXaXdXfXdXdXdXkXSXMXkX_.V.z.z.z.z.z.z.l.z.z.z.z.z.z.z.z.z.z.z.z.z.z.z.l.z.v.B.Z.E.!.~.~.~.)._._._._.[.[._._.+X].`._.].].].].`.).).).).`.).).`.).).).).).D.!.!.!.!.E.!.!.E.E.A.E.!.E.E.A.A.A.S.A.pXDXAXMXSXZXSXMXMXMXfXkXaXjXjXwXz.a.l.z.z.v.z.z.z.z.z.z.z.b.B.Z.A.!.!._._.+X-X9X0X-XuXfXfXSXSXSXAXAXSXAXSXSXSXMXkXjXjXaXgX5X=X_.R.V.V.v.v.b.B.n.m.b.v.v.v.b.b.b.b.Z.R.E.!.~._.+X#X*X&X&X=X&X@XOX`.D._.;XyXuXdXdXgXdXkXMXSXCXjXkXCXCXCXCXCXCXNXNXNXNXkXkXjXdXhXuXaXaXyXpXpXaXaXaXaXaXaXaXaXdXaXaXaXaXpX0XaXpX4X3X4X3X3X:X:X:X&X@X@X@X@X@X@X@X@X@X@X@X@X@X@X&X:X9X4X3X3X9XyXyXdXfXaXaXaXyXdXfXkXSXSXSXCXCXCXZXZXAXAXAXAXAXAXAXAXSXMX:X&X9XdXyXaXkXdXkXMXMXkXkXMXSXSXSXSXZXSXZXZXZXZXAXAXAXAXZXZXSXSXSXSXSXMXMXkXkXMXkXkXkXjXkXkXkXfXkXkXkXkXkXkXkXkXkXkX",
"BXjXjXjXjXfXgXgXgXfXgXfXfXaXaXdXaX0XjXsXaXaXpXpXpXaXaXpXpXpXpXtXpXaXyXpXpXyXyXyX0X0X0X0X0X0X0X0XqXqXqXqX5X5X5X5X5X1X1X*X*X2X*X#X].].!.l.l.b.Z.E.~.].[.{.*X{.{.[.).{.~.W.R.n.b.#XwXgXgXgXmXfXfXgXgXwXqX5X1X1X+X*X+X].).~.~.~.E.E.R.R.R.Z.m.i.i.i.i.i.l.l.i.i.i.i.i.i.i.i.i.i.i.i.c.c.n.n.T.W.W.W.W.'.'.'.'.'.'.'.'.'.'.'.'.).W.W.W.W.W.E.Q.T.n.n.m.l.p.y.} | ` ! W W W W | B.[.*X@X@X@X=XaXaXaXaXdXdXdXdXdXdXkXSXSXfX@Xz.z.z.z.z.z.z.l.l.z.z.v.v.z.z.v.v.b.v.v.z.z.z.z.z.v.V.Z.A.!.!.~.~.)._._._._.].[._._.[.[._.].[.].].].`.`.).).).`.`.).).).).).).).!.!.!.!.!.!.!.!.E.E.A.!.!.!.!.!.!.A.!.D.3XAXDXkXSXAXAXSXSXSXkXZXSXZXAXSXS.z.z.z.z.z.z.z.z.z.z.z.z.A.A.E.!._.!.@XoX-X3XyXgXyXAXSXkXAXAXSXAXFXAXDXCXNXNXSXSXfXfXtXpX0X=X_.A.V.V.b.b.b.V.n.b.b.v.b.b.b.b.b.b.!.~._._.].#X*X=X=X=X=X=X&XoX`.`.`.@X:XdXdXdXdXdXjXkXMXCXCXMXkXSXCXCXCXCXCXCXNXlXjXjXhXdXdXjXuXaXaXpXpXpXaXaXaXaXpXaXaXaXaXdXdXdXfXpX5XtXtX9X4XqX4X3X3X3X:X;X&X@X@X@X@X@X@X@X@X@X@X@X@X@X&X:X9X0X0X9X3X0XyXaXdXdXdXkXdXfXfXkXNXMXNXCXCXZXZXAXAXAXAXZXZXZXAXAXSXMX&X=XaXfXaXaXMXdXkXNXkXMXkXMXSXSXZXSXSXSXZXZXZXZXZXZXZXZXZXSXSXSXSXSXSXNXMXkXkXkXkXkXkXfXkXkXkXfXfXkXkXkXMXMXBXkXkXkX",
"MXBXBXBXjXfXgXgXgXgXfXfXfXaXaXfXaXpXjXaXaXaXaXaXaXaXaXpXpXpXpXpXpXpXsXpXtXtXyXyXtX0X0X0X0X0X0XqXqXqX5X5X=X5X3X5X5X3X1X-X*X*X*X#X[.[.).Z.c.v.n.R.E.'.].[.#X[.#X[.'.'.'.).~.b.n.*X0XgXmXmXfXfXgXgXsXqX0X1X1X1X[.-X]._.).~.).).E.E.E.R.R.Z.m.i.i.i.i.i.l.l.i.i.i.i.l.l.l.l.l.l.i.i.c.c.n.B.T.W.W.W.W.'.'.'.'.'.'.'.'.'.'.'.'.'.W.W.W.E.E.Q.R.T.n.n.v.c.p.y.} [ / ! ! ! W W ! c.].+X*X#X@X=XaXpXaXaXaXdXdXdXdXdXkXNXNXjX@Xz.V.V.b.z.v.v.z.z.z.v.v.c.z.z.v.v.b.b.b.b.v.v.v.v.b.b.B.A.E.E.~.).).)._._._.].]._.].].]._.].oX].].].`.`.`.`.`.`.`.).).).).).).).!.).!.!.!.!.!.!.!.!.!.D.D.!.!.!.!.D.!.D.-XSXAXCXCXZXAXAXAXAXSXAXZXAXAXFX`.S.V.V.V.V.z.z.z.z.z.z.V.V.A.).].*X=X3XaXyXdXkXkXkXSXZXSXZXAXZXZXAXAXAXAXNXNXNXNXfXdX0X0X3X*X!.A.B.B.V.V.b.b.b.b.v.b.V.B.B.B.Z.A._.].+X@X*X-X3X3X:X;X&X&X@XOX`.`.@X:XrXuXdXdXjXjXkXMXCXCXSXSXMXCXCXCXCXCXCXMXkXjXdXdXdXdXdXjXuXuXaXpXpXpXaXaXaXaXyXdXdXaXaXaXaXfXfXpX4X0XtX4X9X4X4X4X4X4X:X;X=X@X@X@X&X&X&X@X&X&X@X@X&X@X&X:X9X9X0XyX4X0XyXaXaXaXdXkXjXkXkXkXMXSXSXSXSXZXZXAXAXAXAXZXZXZXAXZXSX9X&X:XdXaXdXdXMXjXkXSXkXNXBXMXBXZXZXZXZXZXZXAXZXZXAXAXZXZXSXMXSXSXNXMXMXMXkXkXkXkXkXkXjXfXkXkXkXfXjXkXkXMXMXMXkXkXBXkX",
"BXBXBXjXgXfXfXfXaXaXjXjXfXfXfXaXsXfXpXaXdXaXaXaXsXaXaXpXpXpXpXpXpXyXaXyXtXtXtX0X0X0X0X0X0X0XqXqXqXqX5X5X3X5X5XqX5X5X5X=X=X=X*X@X#X[.].E.v.c.m.Z.R.W.).].{.[.{.{.].].'.).B.Z.~.1X0XgXmXmXfXfXgXsXwXqXqX5X=X-X1X[._.).).).).).~.E.E.R.R.Z.v.i.i.i.l.l.l.l.i.i.i.i.i.i.l.l.l.l.i.i.c.c.n.B.Q.W.W.W.W.).'.'.'.'.'.'.'.'.'.'.'.'.~.W.E.Q.Q.Q.R.T.n.n.n.m.l.p.} } [ / ! ! P K ! i.~.+X*X#X@X-XpXaXaXaXaXdXdXdXdXdXkXNXMXjXoXS.V.V.B.V.V.b.b.v.v.z.c.c.z.z.v.v.b.b.b.b.v.v.v.v.b.b.B.Z.R.E.!.).).`.`._.`._._._.].]._.oXoXoX].].].`.`._._.`.`.`.).).).).).).).!.!.!.!.!.!.!.!.!.!.!.!.!.!.!.!.!.D.D.S.:XCXAXCXCXZXAXAXAXAXZXAXZXAXSXZX_.S.V.S.S.B.b.z.z.z.z.V.S.D.`.@X-X0X0XdXMXfXkXMXSXSXZXAXZXAXAXZXZXCXCXSXSXNXNXkXjXdXaX0X4X3X_.A.Z.B.B.B.V.V.b.V.b.b.V.B.Z.A.A.!.!.+X@X*X=X=X1X3X3X:X;X&XoXoX`.^.OX&X9XiXuXdXjXkXjXkXCXCXCXCXCXCXNXNXNXNXkXkXjXjXjXjXyXdXdXdXkXaXaXaXaXaXaXaXaXaXyXyXdXdXyXtX0X0XaXaX0X0XpXtX0X9X4X4X4X4X4X:X;X=X&X@X@X&X&X&X@X&X&X@X@X&X@X&X:X9X3X9XyX9XyXaXaXaXyXaXfXfXMXMXkXMXMXSXSXSXSXZXAXAXAXZXZXZXZXZXSXkX9X:X9XdXyXdXdXfXjXMXSXkXNXBXMXBXZXZXAXZXAXZXZXZXZXZXZXZXZXSXMXMXMXMXMXkXkXkXkXkXkXkXkXjXjXfXfXkXkXkXkXkXMXkXMXkXkXkXkX",
"fXMXkXgXaXfXfXfXaXaXjXjXfXfXfXaXaXfXpXdXaXaXaXaXsXaXsXaXaXaXaXpXtXpX0XpXpXtX0XqX0X0X0X0X0X0XqXqXqXqXqX5X5X5X0XqXqX5X5X1X1X1X*X*X+X[.].).B.c.c.n.Z.Q.W.).'.{.'.[.{.[.).W.B.R._.1XwXgXmXmXmXfXgXsXwX0X5X5X-X-X1X[._._._._.).).~.E.E.R.R.B.m.c.i.l.l.l.l.l.l.i.i.i.i.i.i.i.l.c.c.c.c.M.n.U.Q.W.W.W.W.~.~.'.'.'.'.'.'.'.].].'.'.'.W.E.Q.Q.Q.R.T.B.n.n.v.c.i.y.} | / / ! W K ! p.E.+X*X#X#X-XaXpXaXaXaXdXdXdXdXfXkXSXMXdXoXA.S.S.V.B.B.B.b.b.z.z.l.l.v.v.v.v.v.v.b.b.m.m.m.m.b.B.Z.Z.R.E.!.~.).`.).).`.`._._.].].].].].].`.`._.`.`._._._._.`.`.`.`.`.).).).!.!.!.!.!.!.!.!.).!.!.!.!.!.!.!.!.!.`.D.-XSXAXAXAXAXAXAXAXAXAXSXAXAXSXZX3XS.S.S.S.S.S.z.z.z.S.A.).@X-X0XyXjXdXkXSXMXMXSXSXSXAXAXZXAXAXZXZXSXMXkXMXMXkXjXdXpX0X3X-X*XA.Z.V.V.B.V.B.B.V.V.V.B.B.A.R.~.`._.[.*X=X3X5XqX5X3X3X:X;X@XOX`.`.`.oX:XiXuXuXdXkXMXkXMXCXCXNXNXNXkXkXjXkXkXkXkXkXkXdXdXSXjXdXdXkXdXaXdXdXdXdXaXaXaXaXaXfXfXaX0X9X9XyXpXyXyXtX0XtX0X9X4X4X4X4X>X:X;X&X&X&X&X&X&X@X&X&X&X&X&X&X&X;X9X:X9X0X9XaXaXaXaXaXaXfXdXkXSXSXSXSXSXSXSXSXZXAXAXAXZXZXZXZXSXMXyX3X9XyXdXaXkXNXMXSXSXkXSXSXZXSXSXZXZXZXZXAXZXAXAXAXAXZXZXZXZXSXMXkXjXkXjXjXkXkXkXkXkXkXkXjXjXfXfXjXMXkXMXMXkXkXkXkXBXMX",
"aXBXjXgXgXfXfXgXgXfXfXfXfXaXaXfXdXaXgXaXaXaXaXsXaXaXaXaXaXaXaXyXtXpX0XpXpXtXqXqX0X0X0X0X0X0XqXqXqXqXqXqXqX5XpX0X5X5X5X1X1X1X-X*X#X+X[.].E.v.c.m.n.R.Q.W.'.{.'.{.{.[.W.W.~.E.~.1XwXgXfXgXfXgXgXsXwXwX5X5X1X-X[.-X_._.]._.).).~.E.E.R.R.B.m.c.i.i.l.l.l.l.l.i.i.i.i.i.i.i.l.c.c.c.m.m.n.T.Q.W.W.W.W.~.~.'.'.'.'.'.'.'.{.].'.'.'.W.E.Q.Q.Q.(.T.B.n.n.n.c.i.y.{ [ [ / ! W K ! y.Z.[.*X+X+X-XpX0XaXaXaXdXdXdXdXfXkXSXMXaXoX).A.S.S.Z.Z.B.B.b.v.z.l.l.v.v.v.v.v.v.b.b.m.m.m.m.b.B.Z.Z.R.E.E.!.~.).).).`.`.`._.].].].]._.`.`.`._._.`._._._._.`.`.`.`.`.).).).).`.).).).).).).).!.).).!.!.!.!.!.`.).D.=XSXAXAXAXAXAXAXAXSXAXSXAXAXZXDXpXS.S.S.S.S.S.V.V.A.).@X=X9X0XfXMXCXkXkXSXCXCXSXSXZXAXAXZXAXAXZXSXNXMXkXkXkXjXdXaXtX9X:X&X).B.Z.A.V.S.S.B.B.V.B.V.B.Z.A.E.].+X@X*X3X5XqXqX0X9X3X:X&X&XoX`.`.D.`.@X9XaXuXuXdXkXCXMXkXSXCXkXMXkXkXjXkXkXkXMXCXCXNXkXjXjXjXdXdXjXdXdXaXaXaXaXpXpXaXyXaXkXfXaXyXyXtXaXsXaXyX0X0X0X0X9X4X4X>X4X>X:X;X&X&X&X&X&X&X@X&X&X&X&X&X&X&X;X9X:X9X0X9XaXaXaXaXaXdXfXaXdXkXkXkXMXMXMXMXMXSXZXAXAXAXZXZXZXMXjX3X3XyXtXaXdXjXSXkXMXSXMXCXMXAXZXZXZXZXZXAXAXAXAXAXAXAXZXZXSXSXSXMXfXfXjXjXfXjXkXkXkXkXfXjXjXjXjXfXjXkXkXkXMXkXkXkXkXMXMX",
"dXdXfXdXgXgXfXfXfXfXfXfXfXdXdXfXgXaXgXaXaXaXaXsXaXaXaXaXaXpXaXaXpXpXtXpXpXtX0X0X0X0X0X0X0X0X0X0XqXqXqXqXqXqX0XqX5X5X5X3X3X3X1X*X*X+X+X].).R.m.v.m.B.R.Q.W.'.'.].'.#XR.'.W.E.).1XwXgXfXgXfXgXsXsXpXwX5X5X5X1X*X+X]._.]._.).).~.E.E.R.Z.B.v.l.l.i.l.l.i.i.c.c.c.c.l.l.i.i.i.l.c.c.M.n.n.T.W.W.W.W.W.).'.'.'.'.'.'.].'.[.].'.'.).).~.E.Q.Q.R.Q.T.B.n.n.m.i.y.} } [ / ! W K ! ` R.].+X+X#X-XaXyXaXaXaXdXdXdXdXfXkXNXMXyX@X`.D.D.A.E.A.S.S.V.b.b.z.z.z.z.b.b.b.b.b.b.m.b.b.b.b.B.Z.Z.R.E.E.E.!.~.)._.`.`._._._._.].]._.`.`.`.`.].`.].].]._._._.`.`.`.`.).).`._.`.`._.`.`.).).`.`.`.).!.!.!.!.`.`.!.&XSXAXAXAXAXAXAXAXAXAXAXAXAXZXAXSX`.S.S.S.S.S.V.V.D.=X9X:X9XyXdXjXNXNXNXCXCXCXCXZXAXAXAXAXAXAXAXZXNXSXjXjXkXjXaXyX0X4X;X@XS.S.S.S.S.S.S.Z.V.V.S.A.!._._.!.@X&X&X3X4X0X0X0XqX3X=X=X&XoXOX`.D.`.@X9XdXdXaXdXjXkXMXkXkXCXMXNXMXjXjXMXMXkXkXSXCXNXNXkXjXjXjXdXdXjXdXdXaXaXpXpXyXyXyXyXaXfXfXaXaXaXaXyXaXaXpX0X0X0X0X9X4X4X4X4X>X:X;X&X&X&X&X&X&X&X&X&X&X&X&X&X&X;X9X9X9X9X9XyXaXaXaXdXfXdXdXdXfXjXfXkXMXMXMXSXSXSXAXAXAXZXZXZXMXkX:X9XaXtXaXfXkXfXMXkXZXNXZXSXAXZXZXZXSXSXAXAXDXDXAXAXAXZXSXSXSXSXMXfXdXfXfXfXfXjXkXkXkXkXjXjXjXjXfXfXjXkXkXMXkXkXMXMXMXMX",
"dXaXdXdXgXgXfXfXfXfXfXfXfXfXgXgXgXgXaXaXgXaXsXaXaXaXaXaXaXpXaXaXpXpXpXpXpXtXyXpX0X0X0X0X0X0X0X0XqXqX0X0XqXqXqX4X5X5X5X3X3X3X1X1X*X#X+X[.).~.Z.v.v.n.Z.R.E.).].].{.W.W.'.~.R.'.5XwXgXgXgXgXgXsXpXpX0XqX5X5X1X*X[.].].]._.).).~.E.E.R.Z.B.v.i.l.i.l.l.i.i.c.c.c.c.l.l.i.i.i.l.c.m.m.n.B.Q.W.W.W.W.W.).'.'.'.'.'.'.'.'.{.].[.].'.).).~.W.Q.R.R.T.B.B.n.c.i.p.0.} | [ / ! W ! / n.'.+X+X#X-XaX0XaXaXaXdXdXdXdXfXkXNXkXaX-X).!.!.!.!.E.A.A.B.b.b.b.b.z.z.b.b.b.b.b.b.b.b.b.b.b.B.Z.R.R.E.E.E.!.~.).).`.`._._._._.].].]._.`.`.`.].`.].].].]._._.`.`.`.`.).).).`.[.[.`.).`.`.).`._.`.`.).!.!.).`.`.!.&XSXAXAXAXAXAXAXAXAXAXAXAXAXAXAXSX`.S.S.S.!.!.!.`.oX4XyX9XuXdXkXNXCXCXCXCXCXCXCXZXAXAXAXAXZXAXAXZXSXSXjXjXkXdXyXtX9X:X&X`.S.S.S.S.A.A.A.A.S.A.!.!.`.+X+X_.;X5XqX0X0X0XqX4X3X;X&X@X@XoXOX`.`.oX;XrXdXdXdXjXkXkXkXkXCXCXjXCXMXjXdXkXkXfXfXkXCXNXMXjXjXjXdXdXdXdXdXdXdXaXaXyXyXyXyXyXaXdXdXyXyXdXdXyXpXaXyX0XtX0X9X9X4X4X4X4X>X:X;X;X&X&X&X&X&X&X&X&X&X&X&X&X&X;X9X9X9X9X9X0XaXdXaXdXfXdXfXdXjXMXjXkXMXSXSXSXSXZXZXZXAXZXZXZXMXdX:X9XdXyXdXkXkXkXMXkXkXMXZXAXAXZXZXZXSXSXZXAXDXAXAXAXAXZXSXSXSXMXMXkXfXfXfXfXfXjXkXkXkXkXjXjXjXfXjXkXkXkXMXMXMXNXNXNXNXMX",
"aXaXdXdXdXgXgXgXfXfXfXfXfXfXgXgXgXgXaXgXgXgXsXaXaXaXaXaXsXsXaXaXaXaXaXpXpXtXtXpXyX0X0XyX0X0X0X0X0X0X0X0XqXqX5X5X5X5X5X3X3X3X1X1X-X#X+X+X).~.W.Z.c.m.n.T.R.W.[.[.{.W.].W.~.R.].5XsXgXgXgXgXgXsXpXqXqX0XqX1X1X*X].+X+X[._.).).~.E.E.R.A.B.v.c.c.c.l.l.i.i.s.c.c.c.l.l.l.l.l.c.m.m.n.n.T.Q.W.W.W.W.W.'.'.'.'.'.{.{.[.'.[.{.[.[.].].'.).~.W.R.W.R.T.B.n.v.i.p.0.} } [ / ! ! W ! p.'.{.+X#X-XaX0XaXaXaXdXdXdXjXjXkXCXjXdX-X!.`.`.`.).!.E.A.A.B.V.V.b.b.b.b.b.b.b.B.B.b.b.B.B.B.B.Z.A.R.E.E.E.!.~.)._.`.`._._._._.].].]._.`.`._.].`.].].].].]._._._._.`.`.`.).`.[.[.`.).`.`.`.`._._.`.`.!.!.).`.`.).@XSXAXAXAXAXAXAXAXAXAXAXAXAXAXAXAX@XS.S.`.oX@X&X&X=X9X0XyXuXjXCXCXZXZXZXZXZXCXSXZXAXAXAXAXAXZXAXAXZXZXjXkXjXaXtX9X4X;X@XA.S.A.A.A.A.A.A.!.!.!.`._.+X*X*X@X;X0XyXqX0X9X5X3X:X=X&X@XoXoXOX`.`.&X9XiXdXjXkXkXkXkXkXkXCXCXjXCXkXNXdXSXCXaXaXCXCXMXkXjXjXdXdXdXdXdXdXdXaXdXaXaXyXyXyXyXyXaXaXyXaXdXdXyXpXpX0X0XtXtX0X9X9X4X4X4X4X:X:X;X&X&X&X&X=X=X;X=X&X&X&X&X&X;X9X9X0X3X3X0XaXfXdXdXdXfXMXdXgXMXZXZXZXZXZXZXAXAXZXZXZXZXZXZXkX9X:X0XaXdXkXjXkXMXkXkXjXMXSXZXZXZXZXZXZXZXZXAXDXDXAXAXAXZXZXSXSXMXkXkXkXfXjXkXjXjXjXjXjXfXjXkXkXfXkXSXMXMXNXSXSXSXSXSXSXSX",
"aXdXaXaXaXaXgXgXfXfXfXfXfXfXgXgXgXdXsXgXgXgXaXaXaXaXaXaXsXsXaXaXpXaXpXpXpXtXyXpXyX0X0XyX0X0X0X0X0X0X0XqXqXqX5X5X5X5X5X3X3X3X1X1X1X*X#X+X_.~.~.Q.v.c.m.n.T.Q.).'.).{.].W.~.R.].5XsXgXgXgXgXgXsX0X0X0XqXqX5X1X+X#X+X#X].].).).~.E.E.R.Z.B.v.c.c.c.c.l.i.i.s.c.c.c.l.l.l.l.l.c.m.m.n.n.T.R.W.W.W.W.W.'.'.'.'.].{.{.[.'.[.[.{.{.[.[.].].'.).W.W.R.Q.B.n.m.l.p.y.} } [ / ! ! b W } ).#X[.+X3XpX0XaXdXaXdXdXdXjXjXkXCXfXdX:X!.`.`.`.`.).!.E.A.S.B.B.B.b.b.b.b.b.b.B.B.b.b.B.B.B.Z.Z.R.E.E.E.E.!.~.).).`.`._._.`._.].].]._._.`.].].].].].].].]._._._._._.`.`.`._.`.`._._.`.`.`._._._.`.`.).!.).`.`.`.@XSXAXAXAXAXAXAXAXAXAXAXAXAXAXAXAX9X!.!.@X-X=X=X;X:X4X9XyXaXkXCXNXZXZXZXZXZXSXCXZXAXAXAXZXZXSXAXZXZXCXjXjXdXaXtX9X:X&X`.A.A.A.A.A.A.D.!.!.!.`._.+X*X3X3X=X&X0XtX3X4X3X3X3X:X=X&X@XoXoXOX`.oX:XuXuXjXkXNXNXkXkXkXMXkXSXkXNXkXCXdXNXSXSXSXSXNXkXkXjXdXdXdXdXdXdXdXdXaXaXaXaXpXyXyXyXtXyXaXyXaXdXdXyXtXtX0X0XtXtXtX9X9X4X4X4X>X:X:X;X;X&X&X&X=X;X;X;X&X&X&X&X&X;X9X0X0X3X9XtXaXdXfXdXfXkXZXdXdXSXSXSXZXZXZXAXAXZXSXSXSXZXAXZXkX=X3XtXaXfXkXfXkXSXkXMXkXMXMXMXBXSXZXZXZXZXZXAXAXDXAXAXAXAXZXSXSXMXkXkXkXjXfXkXjXkXjXjXjXjXfXkXkXfXfXSXSXNXSXSXSXSXSXSXSXSX",
"aXdXaXaXaXdXdXdXgXgXfXgXdXdXdXdXdXdXdXdXdXdXaXaXaXaXaXaXaXaXaXaXpXpXpXyXyXyXyXyXyX0X0XyX0X0X0X0X0X0X0X0X4X5X3X3X5X5X3X3X5X1X3X1X1X1X*X+X[._.).E.B.c.c.v.Z.T.E.~.W.{.).W.E.E.].5XsXgXgXgXfXgXsXwX0X5XgXqX5X].#X*X+X#X_.].).).~.E.E.R.Z.B.v.c.i.i.i.i.l.l.c.s.s.s.s.s.c.s.c.c.c.v.m.n.T.Q.(.(.W.W.~.'.'.'.[.[.[.[.[.[.[.[.{.{.{.[.[.[.].'.).).W.Q.Z.n.v.l.p.y.} | [ / ! ! W W } E.#X[.+X5XaXyXdXaXaXaXdXfXjXjXMXCXdXdX=X`._._._._.`.!.).A.A.A.Z.B.B.b.b.b.b.b.b.b.b.b.b.b.B.Z.Z.A.E.E.E.E.E.!.).).).).).).`._.].].].]._._.].[._.].].].].].]._._._._._._._._._._._.]._._.`.`._.`.).`.`.`.`.`.`._.@XSXAXAXAXAXAXAXAXAXAXAXAXAXAXAXAXaX@X&X;X:X:X:X9X9X9X9XuXdXkXCXkXZXCXAXZXZXCXCXZXAXAXCXSXCXNXkXCXCXNXdXdXaXyX9X4X&X_.D.A.A.D.!.!.!.!.^.`.^.oX&X&X3X0X0X3X=X9X0X4X4X3X3X3X:X&X@X@XoXOXOXoX9XrXyXuXdXkXCXCXAXNXkXNXMXMXkXNXNXkXjXkXNXAXCXCXMXkXkXjXjXdXjXdXdXdXdXdXaXyXpXaXaXyXtXyXyXyXaXaXpXaXjXpXtXpXtXyXyXtXtX9X9X9X9X>X>X:X:X;X;X;X;X;X;X;X;X;X&X&X;X;X;X:X9X9X9XtXtXyXaXaXfXfXkXjXSXgXdXkXSXSXSXSXZXZXZXZXSXSXSXAXAXSXyX=XqXyXaXdXjXfXkXZXSXMXMXSXSXMXSXSXSXZXZXZXZXZXAXAXAXAXAXAXZXZXBXMXBXBXkXjXfXjXkXjXjXkXkXfXfXkXkXkXfXkXSXSXSXSXSXSXSXSXSXSX",
"yXaXyXyXaXaXdXdXgXgXdXdXdXdXdXdXdXdXdXdXdXdXdXaXaXdXdXdXaXaXaXaXpXaXpXaXaXyXyXyXyXyX0X0X0XaX0XpXpX0X0X0XqX3X0X4X5X4X4X3X3X5X5X5X1X1X*X#X+X].).E.T.v.i.l.n.Z.T.R.W.].~.W.E.E.+X5XsXsXgXgXgXgXsX0X0XpX0XqX1X-X=X#X+X].+X_.).).~.E.E.R.Z.B.v.c.i.i.l.l.l.c.c.s.s.s.s.s.c.s.c.c.c.v.m.n.U.Q.(.(.W.W.~.'.'.'.].[.[.[.[.[.{.[.{.{.[.[.[.[.[.].'.).W.Q.Z.n.v.c.i.y.@.} [ / / ! ! ! } R.#X+X#X5XpXpXaXaXaXaXdXfXjXjXMXCXjXdX=XoXoXoXoXoX].).`.!.!.A.A.Z.S.B.V.b.b.b.b.b.b.b.b.b.B.Z.A.E.E.E.E.E.E.!.).).).).).).)._.].].].].]._.].[.].].].].].].]._._.].]._._._._._._._.]._._._._._.`.).`.`.).).`.`._.oXfXSXAXAXAXAXAXAXAXAXAXAXAXAXAXAXgX&X;X:X:X3X9X9X9X0XyXdXdXkXCXkXSXSXCXCXZXCXCXZXAXZXCXSXCXCXSXCXNXkXdXaXyXtX4X:XOX!.D.D.A.D.!.!.^.`.OX+X`.&X;X=X5X0X0X3X3X9X9X9X4X3X:X3X;X&X@XoXOXOXoX:XrXtXuXaXdXkXCXCXZXCXNXCXCXjXjXCXCXkXkXMXMXCXCXCXMXkXkXkXkXjXdXdXdXdXdXdXdXpXpXaXaXaXyXtXpXaXdXaXpXaXkXaXpXdXyXaXyXtX9X9X9X9X4X>X>X:X:X:X:X;X;X;X;X;X;X;X;X:X>X>X:X:X9X9X9XaXdXtX0XtXdXkXkXaXfXkXjXjXSXSXSXSXZXZXZXZXZXSXSXAXAXSX9X=XyXyXaXdXdXfXkXZXZXMXMXSXSXSXSXSXSXZXZXZXZXZXAXAXAXAXAXAXZXBXMXMXMXkXkXjXjXjXfXfXkXkXMXfXfXMXSXkXMXkXMXSXSXSXSXSXSXSXSXSX",
"aXdXaXaXaXaXdXdXdXdXdXdXdXdXdXdXdXdXdXdXdXdXdXdXdXdXdXdXdXdXaXaXaXaXaXaXaXaXyXyXaXyXyXyXpXaX0XpXpXtX0X0X0X5XpX0XqXqXqX4X5X5X5X3X1X1X-X*X#X].).E.R.n.i.i.c.n.B.R.E.W.~.R.E.E.#X5XwXsXsXgXgXgXsXpXqXgXqXqX*XqX-X+X#X].+X_.).).~.E.E.R.Z.B.n.c.c.c.c.c.c.c.c.c.c.c.c.c.c.c.c.c.v.v.n.n.T.Q.(.W.W./.'.'.'.'.{.{.[.[.[.[.{.{.{.{.{.[.[.[.[.[.'.).W.W.R.B.n.c.i.y.y.{ | ` ` / ! ! } B.].#X*X3XpXaXaXaXaXaXjXjXjXjXMXCXjXdX=XoX@X@X@X@X+X_.oX`.).!.A.A.A.S.B.V.b.B.B.B.B.B.B.B.Z.Z.A.E.E.E.E.E.!.!.!.).).).).).).`.].].].].].].].].].].+X].].].].].].].].]._.].].].].].].].]._.]._.`.).`.`.).).`.`._._.0XAXAXAXAXAXAXAXAXAXAXAXAXAXAXAXfX&X:X9X:X9X9X9XyXyXuXdXdXcXSXjXSXSXZXZXZXCXAXAXZXZXCXZXZXCXCXkXkXjXjXfX0X4X;X@X^.D.D.D.!.^.`._.oX+X@X&X+X:X4X5X0X5X5XqX9X4X4X9X9X3X;X:X=X@XoXoXOXoX:XyXiXuXaXhXjXkXNXNXNXSXCXSXNXkXjXCXCXkXkXNXMXjXMXCXMXkXkXjXdXCXkXuXaXdXdXdXdXdXaXdXdXdXpXtXyXaXaXaXaXdXMXdXaXdXyXaXyX9X9X9X9X9X4X>X>X>X:X:X:X;X:X;X;X;X;X;X;X:X>X>X>X>X9X9XrXtXyXpXtXrXfXfXfXjXkXjXfXjXkXkXMXSXZXZXAXAXAXAXAXAXZXkX=X-XyXaXdXdXdXkXMXSXSXSXSXSXSXSXSXSXSXZXZXZXZXZXAXAXAXAXAXZXBXMXBXMXkXkXkXkXkXjXkXjXkXMXMXkXkXSXSXkXSXkXMXSXSXSXSXSXSXSXSXSX",
"fXfXfXdXdXaXdXdXdXdXdXdXdXdXdXdXdXdXdXdXdXdXgXdXdXdXdXdXaXaXaXaXpXpXaXaXaXaXaXyXaXaXyXaXaXpXsXpXpXtX0X0X0XpX0X0X0X0X0XqXqX5X5X5X5X1X1X*X*X[.].~.W.B.c.i.i.m.n.Z.R.R.~.T.R.E.#X5XqXwXsXsXgXgXsXpXpXsX0X-X-X5X#X#X+X@X_.].).).~.E.E.R.Z.B.n.c.c.c.c.c.c.c.c.c.c.c.c.c.c.c.c.c.v.v.m.n.T.Q.(.W.W.'.'.'.'.'.'.].[.[.[.{.{.{.{.{.[.[.[.[.[.[.'.).W.W.Q.Z.n.c.l.p.y.} } [ ` ` ! ! | n.].2X*X3XpXaXaXaXaXaXjXjXzXjXMXNXjXdX=X_.&X&X@X&X@X+X#X].`.).!.A.A.A.S.B.B.B.B.b.B.B.B.B.Z.Z.A.E.E.E.!.!.!.!.).).).).).).).`.].].].].].].].].[.[.].].].].].].].].].].].].].].].].].].].].]._.`.`._._.`.).`._.`.`.:XAXAXAXAXAXAXAXAXAXAXAXAXAXAXAXkX;X9X:X4X9X9XyXdXuXdXjXuXcXCXhXCXCXZXZXZXZXAXAXAXZXZXCXCXkXdXdXfXjXjXjX4X:X@XOX^.^.!.^.OX@X@X&X@X@X=X;X@X5X0X0X0X4X5X0X9X3X4X9X4X;X;X;X&X@XoXOXoX:XyXuXuXaXjXkXkXkXMXkXjXSXAXCXCXkXjXCXSXkXkXCXkXdXMXCXMXMXkXjXjXdXjXjXdXdXdXdXfXdXaXdXdXdXpXtXtXtXyXtXyXdXkXaXyXyX0XyXtX9X9X9X9X9X>X>X>X>X>X:X:X:X:X:X;X;X;X;X&X;X;X:X>X>X4X>X0XdXdXaXpXpXjXdXfXkXkXkXjXjXMXkXkXSXZXAXAXAXAXAXAXAXSXfX=X:XaXaXdXdXfXkXMXSXSXSXSXSXSXSXSXSXSXSXZXZXZXZXAXAXAXZXZXZXMXBXBXjXMXkXkXkXkXkXjXjXkXMXMXMXkXMXSXZXSXSXMXSXSXSXSXSXSXSXSXSX",
"kXkXkXfXdXdXdXaXaXdXdXdXdXdXdXdXdXdXdXdXdXdXdXfXdXdXdXaXpXpXaXaXpXaXaXaXaXaXaXaXaXdXyXaXpXpXaXpXtX0X0X0XpXpX0X0X0X0X0XqXqX5XqXqX5X1X5X*X*X#X[.).).~.B.a.i.l.v.B.T.R.E.T.R.W.#X5XqXwXsXaXsXgXsXpXpXqXqX=X3X1X#X@X+X#X].].).).).~.E.E.Z.B.n.m.c.c.c.c.c.c.c.c.c.c.c.c.c.c.c.c.c.v.m.n.T.R.(.W.'.'.'.'.'.'.'.'.'.'.[.[.[.{.[.[.[.[.{.{.[.[.].'.~.~.E.R.n.c.l.p.y.} } | [ ` / ! ` i.'.*X#X5XpXaXaXaXaXdXhXjXjXkXNXNXyXfX3XoX&X&X&X@X&X@X&X@XoX_.`.).D.A.A.S.B.B.B.B.B.B.Z.Z.Z.Z.Z.Z.A.E.E.).~.!.).).).).).).)._.].].].].[.[.[.[.[.[.[.[.].].].].[.[.[.[.[.].].].[.[.].[.[.[.[.]._.].].]._.`.`._._._.-XAXAXAXAXAXAXAXAXAXAXAXAXAXAXAXSXyX9X>X:X9XiXuXhXuXdXCXyXcXCXdXCXCXCXZXZXZXZXZXAXAXCXSXNXdXaXjXjXdXaXtX:X&XoX_.^.`.`.`.@XoX@X:X=X@X4XtX4X9XtXtXtX9X9X9X9X4X4X4X:X;X;X;X&X@XOX@X&X:XrXuXdXkXkXjXjXCXCXkXjXCXZXCXCXCXkXCXSXkXkXCXkXdXkXkXjXjXjXjXjXdXdXjXhXaXdXdXdXaXaXaXaXdXaXyXtX0X0XtXyXpXdXaXyX0X9XyXtX0X9X9X9X9X>X>X:X:X:X:X:X:X:X:X;X:X:X;X;X;X:X:X>X9X9X4XtXdXdXpXaXdXkXdXdXfXjXkXkXkXSXkXkXSXZXZXAXAXAXAXAXSXMX-X@X3XaXaXdXdXjXkXMXSXSXSXSXSXSXSXSXSXSXSXZXZXZXZXZXAXAXZXZXBXMXMXMXfXkXBXkXkXkXkXkXfXkXkXMXMXkXkXMXSXSXMXSXSXSXSXSXSXSXSXSXSX",
"kXkXkXkXkXfXdXdXaXaXaXdXdXdXdXdXdXdXdXdXdXdXdXfXdXdXdXaXaXaXaXaXaXaXaXaXaXaXaXaXaXyXaXyXtXtXtXtXtXtX0X0X0XqX4X5X4XqXqXqXqXqXqXqX5X3X5X1X1X*X#X].).).A.l.i.i.l.b.B.Z.T.R.R.W.#X5XwXsXsXsXsXsXsXsX0XwX1X5X5X1X*X+X+X+X[.].).).).~.E.E.Z.n.n.m.c.c.c.c.c.c.c.c.c.c.c.c.c.c.c.c.c.m.n.T.T.(.(.W.'.'.'.'.'.'.'.'.'.'.[.[.[.[.[.[.[.[.{.{.[.[.].].'.~.W.R.n.v.l.p.y.} } | [ ` ! ! ~ 0.W.#X#X5XsXaXpXaXaXdXhXjXjXkXNXNXNXdX@XoX&X&X@X@X&X&X&X@X@XoX].`.).).E.A.Z.B.B.B.B.B.Z.Z.Z.Z.Z.Z.A.E.E.).~.~.).).).).).).)._.].].].].[.[.[.[.[.[.[.[.].[.].].[.[.[.[.[.].].].].].].].[.].].].].+X+XoX]._.`._._.oX&XcXAXAXAXAXAXAXAXAXAXAXAXAXAXAXAXdX9X4X9X9XuXdXhXuXdXCXdXkXCXjXCXCXCXCXZXZXZXZXAXZXSXNXkXjXNXlXjXpX9X4X@X@X+XoXOXOXOXoX@X&X&X3XyX@X;X9X4X9XtXtXtXtX9X9X4X4X3X:X>X;X&X@X@XOX@X>X9XrXaXdXdXkXkXhXjXCXCXkXkXCXCXCXCXCXkXCXSXCXNXCXkXjXjXdXdXdXdXdXdXdXdXdXdXuXaXdXaXpXyXyXaXdXdXaXtX0X9X0XyXyXaXaXyXtXtXyXyXtX9X9X9X9X>X:X:X:X:X:X:X:X:X:X;X:X:X:X;X;X:X>X9XyXyX9XtXaXaXyXaXdXjXyXyXdXdXkXMXjXSXSXMXSXZXSXZXAXAXAXAXMXdX@X-XqXpXaXdXjXkXkXMXSXSXSXSXSXSXSXSXSXSXSXSXZXZXZXZXZXAXZXZXBXBXMXMXMXfXMXMXkXkXkXkXfXkXkXkXMXkXkXMXkXkXSXSXSXSXSXSXSXSXSXSXSX",
"MXNXMXMXMXMXkXfXfXdXaXaXdXdXdXdXdXdXdXdXdXdXdXdXgXdXdXdXaXaXaXaXaXaXaXaXaXaXaXaXaXtXaXtXtXtXtXtXtXtX0X0X0XqX4X3X5X0X0X0X5XqX5X5X5X5X=X=X1X*X#X].).).!.B.l.i.i.l.v.n.T.R.T.~.#XqXsXsXgXgXsXsXgXwX0X0X5XqXqX1X*X+X+X+X[.].).).).~.!.E.Z.B.n.v.m.c.c.c.c.c.c.c.c.c.c.c.v.v.v.m.m.m.n.T.R.W.W.W.'.'.'.'.'.'.'.'.'.'.[.[.[.[.[.[.[.[.[.[.[.[.{.].'.~.W.Q.Z.v.l.p.y.} } | ` ` / / / ` B.].#XqXsXaXaXaXaXdXdXhXjXkXNXNXjXtX&X:X&X&X&X&X&X&X&X&X@X@X]._.`.).).!.A.Z.B.B.B.S.A.Z.Z.Z.Z.Z.A.E.E.).).).).).).).).).)._._.].].].[.[.[.[.[.[.[.[.[.[.].].[.[.[.[.[.].[.].[.[.].].].[.+X+X+X@X@X@XoX_.oX_.oXoXoXdXAXAXAXAXAXAXAXAXAXAXAXAXAXAXAXkX9X9X9X9XuXdXdXdXhXkXjXkXCXCXCXCXCXCXZXZXZXZXZXSXNXjXkXNXkXdXyX9X>X:X;X@XoXOXoX@X@X@X&X4X9X4XaX:X4X4X4X9XtXtX9X9X4X>X:X:X;X;X;X;X@XOXoX@X>X4XyXaXdXdXhXkXkXhXjXCXCXMXCXSXCXMXMXCXkXNXCXSXSXMXkXkXdXdXdXdXdXdXdXaXdXdXaXyXyXuXpXyXyXtXtXyXyX0X0XtXtXtXyXyXaXaXpXpXpXyXyXtX9X9X9X9X>X>X:X>X:X:X:X:X:X:X;X;X:X:X:X;X:X>X9XyXyX9XtXyXtXtXtXpXMXkXdXkXdXkXSXMXkXZXMXSXSXMXSXAXAXAXAXMXpX&X9XpXpXdXjXkXMXMXMXMXSXSXSXSXSXZXZXSXSXSXZXZXZXZXZXZXZXZXSXBXSXMXMXkXdXkXkXkXkXkXkXjXMXkXkXkXMXSXSXkXkXSXSXSXSXSXSXSXSXSXSXSX",
"SXSXNXSXSXSXMXkXkXfXfXdXdXdXdXdXdXdXdXdXdXdXdXdXdXdXdXdXdXdXdXdXdXaXaXaXaXaXaXaXyXyX0XtXtXyXtXtXtXtX0XtXpX0X0XqXqX0X0X0XqXqXqX5X5X5X*X1X1X1X*X[.).).).A.B.z.a.i.c.b.Z.R.T.W.#XqXsXsXgXsXsXsXgXsX5X3X0XqX5X-X#X+X+X+X[.].).).).~.!.E.Z.B.n.v.m.c.c.c.c.c.c.c.c.c.c.c.v.v.v.m.m.m.n.T.R.W.W.W.~.'.'.'.'.'.'.'.'.'.'.[.[.[.[.[.[.[.[.[.[.[.{.].].'.).W.R.m.l.p.0.} } | ` ~ / / / ` c.).].5XsXaXpXaXdXdXhXjXjXkXMXNXkXaX&X@X&X&X&X&X&X&X&X&X&X@X+XoX].`.).).).E.A.S.S.A.A.A.Z.Z.Z.Z.A.E.E.).).).).).).).).).).)._._.]._.[.].[.[.].[._.[.[.[.].].[.[.].[.[.[.[.[.[.+X[.+X+X+X+X+X#X#X#X#XoX[.oX_.oXoX`.yXFXAXAXAXAXAXAXAXAXAXAXAXAXAXAXcX9XrX9XyXdXdXdXdXjXkXkXCXCXCXCXCXCXCXZXZXZXCXCXCXkXkXkXjXuXtX9X9X>X;XoX+X@X&X&X&X&X&X:XtXyX9X9X9XpX4X4X9XtXtX9X4X:X:X;X;X&X&X;X;X@XoX@X;X4XrXaXdXhXhXhXkXkXjXkXSXSXCXSXCXNXkXMXCXkXMXCXCXCXjXdXjXdXjXdXdXdXdXdXdXaXdXuXtXtXuXyXpXpXyXtXyXyXyXyXyXtXyXyXyXaXaXaXdXaXyXyXtX9X9X9X9X>X>X:X>X:X:X:X:X:X:X;X;X:X:X:X;X:X:X4X9X9X9X9XtX0XtXyXpXkXkXkXSXkXSXSXZXSXSXSXZXSXfXZXAXAXAXAXgX0X9XyXaXpXdXkXkXMXkXMXMXSXSXSXSXZXZXZXSXZXAXZXZXZXZXZXZXZXZXSXSXMXMXMXfXkXkXkXfXMXkXkXjXkXkXkXkXMXNXMXSXSXMXSXSXSXSXSXSXSXSXSXSX",
"SXSXCXCXZXZXMXMXMXMXkXjXdXdXdXdXdXdXdXdXdXdXhXdXdXdXdXdXdXdXdXdXdXdXaXaXaXaXaXpXyXpXtXyXpXpXtXtXpXtX0XtXtXqX0X0X0X0X0X0XqXqXqXqX5X5X=X1X1X-X*X[._.).).E.E.b.i.0.l.v.b.B.B.!.#XqXsXgXgXsXsXsXsXsX5XqXqX3X1X1X#X+X+X+X[._._.).).~.E.E.Z.B.n.n.m.m.m.m.v.v.c.c.c.c.c.c.v.c.v.v.v.n.B.R.R.W.W.W.'.'.'.'.'.'.'.'.'.'.'.[.[.[.[.[.[.[.[.[.[.[.[.[.[.].).).E.m.l.y.} } } } | ` / ^ / ) } W.].5XsXaXpXaXdXdXdXdXjXkXkXkXdXdX&XOX&X&X&X&X=X=X&X&X-X-X&X@X+X]._.`.`.).A.A.A.A.A.A.A.S.Z.Z.A.E.E.).!.).).).).).).).).`.`._._._.[.].].].].].].].].].].].].].].].].].[.[.[.].+X+X+X+X+X@X&X&X-X-X_.oXoX_.oXoX`.qXAXAXAXAXAXAXAXAXAXAXAXAXAXAXAXSXdXyXyXuXhXdXdXzXkXlXCXCXCXCXZXZXZXZXZXZXCXCXNXlXkXhXzXaXrX4X4X:X;X&X`.oX;X9X:X:X:X:X4XyXyX9X9X0X9X4X4X9XrX9X9X>X:X;X;X;X;X;X;X;X&X@X;X>XrXiXhXzXkXkXjXkXkXlXCXCXSXCXSXCXNXMXNXSXZXAXCXCXMXjXdXdXdXdXdXdXdXdXhXdXdXaXuXyXyXyXpXaXaXyXyXyXyXpXaXyXyXyXyXyXaXdXdXdXyXtXtXtXrX9X9X9X>X>X>X>X:X:X:X:X:X:X:X:X:X:X:X:X:X>X4X9X;X:X9XtX0XtXyXaXkXkXNXZXSXSXSXAXZXSXSXZXSXZXAXAXAXZXMXyX:X:XaXaXaXdXkXkXkXkXkXkXMXMXSXMXAXZXZXSXSXAXAXZXZXZXZXZXSXSXSXNXMXMXMXkXkXkXjXfXMXkXkXkXkXkXkXkXMXSXNXNXNXMXNXNXNXNXSXSXSXCXCXCX",
"SXSXCXCXZXZXNXSXSXNXkXkXkXjXfXdXdXdXdXdXdXdXdXdXdXdXdXdXdXdXdXdXdXdXaXaXaXaXaXaXpXyXyXyXyXpXyXyXtXtX0X0X0X0X5X0X0X0X0X0XqXqXqXqX5X5X3X=X1X-X*X[._.).).~.E.Z.z.0.i.l.v.v.b.!.*XqXsXgXgXaXsXsXsXpX0X0XqX3X1X-X+X[.+X+X[._._.).).~.E.E.Z.B.n.n.m.v.m.m.v.v.c.c.c.c.c.c.v.m.v.v.v.m.B.R.R.W.W.W.'.'.'.'.'.'.'.'.].].'.[.[.[.{.{.#X#X#X#X[.[.[.[.[.[.).).E.m.l.y.0.} } } | ` ` / / / } T.].qXsXaXaXdXdXdXdXdXjXkXkXkXjXyX&XOX&X&X&X&X=X:X&X=X-X=X=X-X&X@X+X].].`.).D.A.A.A.A.A.S.Z.Z.A.E.E.E.!.!.).).).).).).).).).`._._.].].].]._._.].].].].].].].]._.].].].[.[.].].+X+X@X+X+X*X*X#X-X&X_.@XoX_.oXoX`.0XkXAXAXAXAXAXAXAXAXAXAXAXAXAXAXCXjXyXuXdXzXdXhXzXkXlXCXCXCXCXCXCXZXZXZXCXCXCXlXkXjXdXaXaXyXrX4X:X&XoXOX@X:X4X9X9X9XrXyXyX9X3X4X9X9X4X4X4X9X4X4X:X;X&X&X&X&X&X&X@X;X>X>X4XiXaXhXkXkXkXjXkXlXlXCXCXCXCXCXNXNXNXNXkXjXjXjXjXdXdXdXdXdXdXdXdXdXdXhXdXdXuXyXdXdXuXdXpXtXyXyXyXyXaXaXyXyXyXyXyXaXdXaXyXrX9XtXtXrX9X9X9X>X>X4X>X:X:X:X:X:X:X:X:X:X>X:X>X>X9X9X9X;X:X9XyXtXtXpXjXdXkXSXSXSXSXSXSXSXSXSXZXZXZXAXAXZXAXkX0X=X&XaXaXaXdXfXkXNXSXkXkXSXMXMXMXZXZXAXZXSXZXZXZXZXZXZXZXCXSXSXNXMXMXkXkXkXjXfXfXMXMXMXjXkXMXMXkXMXSXSXMXkXMXNXNXNXNXSXSXCXSXSXSX",
"CXZXCXSXZXZXZXZXZXSXNXkXkXkXjXjXdXdXdXdXdXdXdXdXdXdXdXdXdXdXdXdXdXdXdXdXaXaXaXaXpXyXyXyXpXpXpXpXyXyXyX0XtX0X5X0XtX0X0X0XqXqXqXqX5X5X3X=X1X=X*X+X+X_.)._.~.Z.v.p.p.p.i.i.a.~.1XqXwXsXgXsXsXsXsXpXqXqX5X5X1X1X#X+X+X+X[.]._.).).~.E.E.Z.B.n.n.v.v.m.c.c.c.c.c.c.c.c.c.v.c.v.v.n.n.B.R.Q.W.W.W.).).'.'.'.].].].].[.{.{.{.{.#X#X#X#X#X#X+X+X[.[.[.[.).).E.n.l.i.p.0.} } } | ` / ^ / } c.].qXsXaXaXdXdXdXdXdXfXkXkXkXdXdX`.oX&X&X&X&X;X:X&X=X-X-X-X=X-X&X#X@XoX_.`.).).A.A.A.A.A.Z.Z.A.A.E.E.E.!.!.!.).).).).).).).)._.]._.].[.]._.)._.].].].].].]._._._.].].oXoXoXoX+X@X*X#X*X-X-X@X#X#X_.@X@XoX@XoX`.qXkXAXAXAXAXAXAXAXAXAXAXAXAXAXSXSXCXuXdXzXzXzXhXkXkXlXlXlXCXCXCXCXCXZXCXCXCXkXkXjXdXaXaXaXyXtX>X;X@XoX@X;X:X4X9XrXuXdXaXtX4X3X4X4X4X:X:X:X>X>X:X;X&X&X&X&X&X&X@X@X;X4XrXiXuXdXkXlXlXkXjXkXlXlXcXcXcXcXNXNXCXMXkXjXdXjXkXkXjXdXdXdXdXdXdXdXdXdXdXdXaXyXyXdXdXuXaXpXtXyXyXyXyXpXpXyXyXaXaXuXaXaXaXyXrX9XtXtXrX9X9X9X4X4X4X4X:X:X:X:X:X:X:X:X:X>X4X>X9X9X9XrX:X4X0XpXtXyXaXkXaXkXMXNXSXSXSXMXMXSXZXZXZXZXAXAXAXAXSXaX9XqXaXaXaXjXMXNXSXSXMXjXSXSXMXSXSXAXAXAXZXSXSXZXZXZXZXZXSXSXNXMXkXjXjXkXjXjXjXkXkXMXMXkXkXMXNXkXMXCXZXSXNXMXNXNXNXSXSXSXSXSXNXNX",
"ZXZXSXNXZXZXAXAXZXZXCXCXNXMXkXkXkXjXjXfXdXdXaXaXaXdXdXdXdXdXdXdXdXdXdXdXaXaXaXaXpXyXyXyXpXpXpXpXyXyXyXyXtXqX0X0X0X0X0X0XqXqXqX5X5X3X=X=X1X=X*X#X+X]._._.~.R.b.i.0.d.p.i.a.~.1XqXwXsXgXsXsXgXgXsXwX3X5XqX1X1X*X+X+X+X[.]._.).).~.E.E.Z.B.n.n.v.v.m.m.c.c.c.c.c.c.c.c.v.c.v.v.n.n.B.R.Q.W.W.W.).).'.'.'.].].].[.[.{.{.{.*X*X*X*X*X#X#X+X+X[.[.[.[.).).Q.b.l.l.i.} @.} } | [ / ^ ^ [ p.].0XsXaXdXdXdXdXdXdXfXkXkXkXkX9XoXoXoX&X&X&X:X:X@X=X-X=X=X=X-X-X&X&X@XoX].`.`.).!.A.A.A.A.A.A.E.E.E.E.E.!.!.E.E.).).~.).).).).].).].].]._._._._.].].]._.]._._._.].].oX+X+X@X@X#X*X*X*X-X*X@X@X@XoX&X@XoX@XoXoX-XSXAXAXAXAXAXAXAXAXAXAXAXAXAXSXSXcXdXdXzXzXkXkXkXkXlXlXlXlXCXCXCXCXCXCXCXkXkXhXdXdXaXkXhXtX4X:X&XoX@X;X:X:X4XrXuXaXkXyX9X4X0X4X:X:X:X:X:X:X:X;X&X&X&X@X@X&X;X&X&X>XtXiXuXhXhXkXlXlXkXjXkXlXlXCXkXkXcXkXMXNXNXjXkXMXMXjXdXdXdXdXdXdXdXdXdXdXaXaXaXuXyXyXuXaXyXyXaXaXaXpXyXyXyXyXtXyXaXaXaXaXaXdXaXtXtXtXtXrX9X9X9X9X4X4X4X:X:X:X:X:X:X:X:X:X>X>X>X>X9X9X9X4X9XtXyXtXyXaXaXdXdXjXkXMXMXMXfXfXMXZXZXZXZXAXAXZXAXaX0X0XyXyXaXaXgXfXkXSXZXCXkXAXSXSXSXMXZXAXAXZXSXSXZXZXZXZXZXZXNXMXMXkXjXjXkXjXkXkXMXdXjXkXjXkXMXNXMXNXZXZXSXSXNXSXNXNXSXCXSXSXSXNXNX",
"AXAXZXZXZXAXZXZXZXZXSXSXSXSXSXMXkXkXkXjXdXdXdXaXdXdXdXdXdXdXjXjXjXhXdXdXdXaXaXaXaXpXpXpXpXpXpXyXtXyXyXaXpX0XtXtX0X0X0XqXqX0XqX3X3X3X=X=X=X=X*X*X#X+X].].~.~.R.l.p.0.p.p.i.E.1XqXwXsXgXsXsXgXgXgXwX5XqXqX1X1X*X#X+X+X[.].]._.).~.E.E.Z.B.n.n.v.v.v.v.v.v.v.m.m.m.m.m.m.v.m.m.n.n.B.Q.Q.W.W.).).'.'.'.'.].[.[.{.{.{.{.*X*X*X*X*X*X*X#X#X+X+X[.[.[.).).Q.b.l.l.i.y.} } { [ ` / ^ ^ ! } E.sXpXaXdXdXdXdXfXdXfXMXNXkXjXyX@XoXoX@X&X;X:X:X&X=X=X=X-X-X-X-X-X-X&X@X+X]._._.`.!.!.!.!.!.!.E.E.E.E.E.~.~.!.!.~.~.).).).).)._._.]._.).).).)._.].]._.).]._.].].].+X@X#X@X#X#X&X-X-X-X=X-X@X&X#X@X-X&XoX+XoX@X-XAXAXAXAXAXAXAXAXAXAXAXAXAXAXZXCXCXdXdXdXzXjXkXcXzXcXlXlXcXCXNXCXCXCXCXNXkXjXdXdXdXdXjX4X4X4X@XoXoX@XrXtXuXaXyXdXuXdXtXrX4X9X4X;X;X:X4X>X:X;X&X&X&X&X@X@X@X;X;X;X>XiXaXxXhXzXlXlXlXkXkXkXlXCXCXAXkXCXkXkXCXCXdXMXdXaXkXdXdXdXdXuXdXdXdXhXdXdXaXuXuXaXuXtXaXuXyXaXdXdXaXpXyXyXyX0XyXaXaXaXaXuXaXaX9XyXyXtXtX9X9XtX4X9X9X4X3X:X:X:X:X:X;X:X:X4X4X:X:X4X9X9X9XuXpXpXyXyXpXyXdXaXdXdXkXMXMXjXfXMXCXZXZXAXAXZXSXjXqX9X0X0XyXyXaXgXfXjXMXSXSXMXZXSXSXSXSXCXZXZXZXSXZXZXZXAXAXSXZXNXMXkXkXkXkXkXkXjXkXMXjXjXjXjXkXMXNXMXSXSXCXCXCXCXSXSXSXSXSXSXSXNXMXMX",
"AXAXAXZXZXAXZXZXZXZXZXZXSXSXSXSXSXMXMXkXkXjXdXdXdXdXdXdXdXdXdXjXkXkXhXdXfXdXaXaXaXaXaXaXpXpXpXyXtXyXyXyXtXtXyXtX0X0X0X9X9X0X0X5X5X5X:X=X1X1X-X*X#X#X[.].).).!.v.i.p.0.0.p.E.1XqXwXsXgXsXsXgXgXsXqX0X5XqX5X1X-X#X+X+X[.]._._.).~.E.E.Z.B.n.n.n.v.v.v.v.v.v.v.m.m.m.m.c.c.v.n.n.B.T.R.W.W.W.~.).'.'.'.'.].[.{.#X{.*X*X*X*X*X*X*X*X*X#X#X+X+X[.[.].).~.E.b.c.l.i.y.y.} } } ` ` ^ ! ! } E.sXpXaXdXdXdXdXfXdXfXMXMXkXjX9X@XoXoXoX&X;X:X&X;X=X=X=X;X;X-X-X-X-X=X&X&X#X@XoX_.`.).!.).!.!.!.!.!.!.~.).).).).).).).).`.).)._.].]._._._.)._.].[.[.[.`.+X].+X#X+X+X-X&X@X&X-X=X-X=X-X=X=X&X&X&X&X&X&X@X+XoXoX-XAXAXAXAXAXAXAXAXAXAXAXAXAXAXAXCXCXdXdXdXzXjXlXcXkXcXcXcXcXCXSXSXCXCXCXlXlXjXdXdXaXuXuX4X4X>XOXOX@X&XrXtXuXuXaXdXyXuXtXrX4X4X4X;X@X;X4X:X;X;X&X&X&X&X@XOX&X>X>X;X>XiXaXzXzXlXlXlXlXlXkXkXlXCXCXCXcXcXkXkXCXCXuXMXjXkXdXkXjXdXaXuXdXdXaXdXdXhXdXuXyXaXuXtXdXaXaXaXaXaXpXyXyXtX0X9XtXpXaXdXaXyXyXuX9XyXyXyXtX9X9X9X:X4X4X4X3X:X:X:X:X:X:X:X:X>X>X;X:X>X4X4X9XuXaXpXpXpXpXyXdXaXaXdXkXkXSXSXMXSXZXZXZXAXAXZXSXjX3XqXyXyXyXaXaXaXfXjXMXkXkXNXSXMXMXSXSXSXSXSXSXSXZXZXZXZXAXSXSXkXkXkXkXMXkXkXkXjXkXkXkXkXjXkXkXMXMXNXSXSXSXSXSXSXSXSXSXSXSXSXMXMXkXMX",
"AXAXAXAXAXAXZXZXZXZXZXZXZXSXSXSXCXCXSXSXNXkXjXjXdXdXdXdXaXaXaXdXjXkXkXjXjXfXdXaXdXdXdXaXaXaXaXyXyXyXaXyXtXtXyXtX0X0X0X9X5X0X0XqXqX5X3X:X1X1X1X-X*X#X+X[.).).!.b.v.p.} } 0.!.5XqXsXsXgXgXsXsXpX0XqXqX5XqX5X1X1X*X#X+X[.]._._.).~.!.E.Z.B.n.n.n.m.v.v.v.v.c.c.m.m.m.m.m.v.v.n.n.B.T.W.W.W.W.W.'.'.'.'.'.].{.#X*X*X2X*X*X*X*X*X*X*X*X*X#X#X+X[.[.].).~.R.b.m.l.i.i.y.} } } | ` / ! ! } E.sXpXaXdXdXdXhXfXdXfXMXNXjXdX9XoX`.`.oX&X;X:X@X;X:X3X3X:X:X:X:X:X:X-X=X-X*X&X@X@X].`.`.`.).).).).).).).).).).).).).).).`.`._.].[.[.[.].].].].[.+X*X@X[.#X+X#X1X-X-X=X=X-X=X:X3X3X3X3X3X3X&X#X-X=X&X&X@XoXoX_.@XSXAXAXAXAXAXAXAXAXAXAXAXAXAXAXZXCXdXdXdXjXjXlXSXkXcXCXCXCXCXCXCXCXSXCXNXNXkXzXdXuXtX4X>X:XOXOXoX@X&X9XrXtXdXdXyXdXyXrX4X>X:X:X&X$X&X>X;X;X@X&X&X&X&X&XOX&X>X>X>X>XiXaXxXzXlXlXlXlXkXkXkXCXCXcXkXCXcXkXMXCXSXdXSXkXCXNXdXaXdXdXdXjXdXaXaXdXhXhXuXyXaXuXuXhXdXaXpXyXyXyXtXtXtX9X4X9XyXaXdXaXyXyXyX9XyXyXyXtX9XtXuX9X9X9X4X3X:X:X:X:X:X:X:X:X>X:X;X:X:X;X&X>X9XyXyXyXyXyXtXdXaXdXdXkXkXZXSXSXSXZXZXZXAXAXZXSXjX-X3XaXdXaXgXgXgXdXfXkXkXjXkXMXMXMXSXSXSXSXSXSXSXSXSXSXSXZXZXkXkXkXkXkXMXkXkXkXkXkXkXkXkXkXMXNXSXSXSXSXSXNXNXNXNXSXSXSXSXSXMXkXkXkXkX",
"DXDXAXAXAXAXZXZXZXZXZXZXZXSXSXSXSXSXSXSXCXCXkXkXkXjXdXdXaXuXuXuXdXjXkXkXkXjXjXdXdXdXdXdXdXaXaXyXyXyXyXyXpXpXpXpXtX0X0X9X5X0X0X0XqXqX5X3X5X1X1X1X*X*X[.[._.).~.B.b.p.| ~ 0.~.5XqXsXsXgXgXsXpX0XqXqXqXqX5X1X1X1X*X#X+X[.]._._.).~.!.E.Z.B.n.n.n.n.v.v.m.m.c.c.c.c.m.m.m.v.m.n.n.B.Q.W.W.W.W.~.'.'.'.'.{.{.{.#X*X*X*X*X*X*X*X*X*X*X*X*X#X#X#X[.[.].).!.R.b.m.c.i.i.p.0.} } { ` ` ^ ! } Q.sXpXaXdXdXdXhXfXfXfXkXNXjXdX9XoX`.`.oX&X=X=X;X=X4X4X3X:X:X:X3X:X:X:X-X=X-X-X*X&X@X[._._.`.`.`.`.`._._._._.).).).~.).).`._.].[.+X+X[.[.[.[.[.[.*X*X*X@X-X*X-XqX3X-X-X-X-X-X3X3X3X3X3X3X:X@X@X=X-X&X@X@XoXoX_.oXSXAXAXAXAXAXAXAXAXAXAXAXAXAXAXZXNXdXdXdXjXjXkXCXkXCXCXCXCXCXCXZXCXCXNXkXNXzXzXdXtX4X@X@X@X^.OXOX@X&X4XrXtXhXaXtXdXtX4X>X>X>X;X@X$X@X;X;X$X@X&X&X&X&X%X@X%X>X%X>X>XuXxXhXzXlXlXlXlXkXkXkXCXCXjXdXCXCXkXMXCXSXMXAXkXjXjXjXdXdXdXdXjXdXdXaXaXdXdXuXaXaXaXuXhXhXaXyXyXtXtXtXtXtXtX9X0XyXaXdXaXyXyXyX9XyXyXyXtX9X9XrX>X4X9X4X3X:X:X:X:X:X:X:X:X:X:X:X:X>X4X4XtXaXaXyXaXaXaXpXfXaXdXdXkXkXSXSXkXSXSXSXZXZXAXSXSXjX-X3XyXdXgXgXgXjXfXfXkXkXkXjXkXSXSXMXSXSXSXSXSXMXSXBXMXBXNXZXkXkXkXkXkXjXkXkXkXkXkXkXkXkXMXMXSXSXNXSXSXSXNXMXNXNXSXSXCXSXMXMXkXjXjXkX",
"AXAXZXZXAXAXAXAXAXAXZXZXZXAXAXAXZXZXZXSXSXSXNXNXCXNXjXdXdXdXuXiXuXdXjXkXkXkXkXjXhXdXdXdXdXdXaXaXpXyXyXyXyXtXyXyXtXtX9X9X0X0X0XqXqXqXqX5X5X1X1X1X-X*X[.[.[.].~.Z.b.i.} ~ 0.!.*XwXsXsXgXaXsXpX0X0XqX5XqX5X3X3X3X-X*X@X+X_._.).).!.E.E.Z.B.B.B.B.n.b.v.v.v.v.v.v.v.v.v.v.v.v.n.B.T.R.W.W.W.W.).'.'.'.].{.{.#X#X*X*X*X*X*X*X#X*X#X#X*X*X*X#X#X[.].].).~.R.b.m.m.l.i.y.y.} } [ [ / ^ ! } E.sXpXaXdXdXdXhXhXhXjXkXCXjXdXoXOXOXOXoX&X&X=X:X=X4X4X3X:X:X:X:X:X:X:X:X-X=X=X=X-X&X@X_._._._._._._._._._.]._._.`.).)._._._.].+X+X@X+X+X#X#X#X#X*X-X-X-X=X-X-XqX3X-X-X:X:X3X3X3X9X3X3X3X=X&X@X=X=X=X@XoXoXoXoXoX9XAXAXAXAXAXAXAXAXAXAXAXAXAXAXCXcXdXdXhXzXkXcXcXkXcXCXCXAXAXCXCXCXlXkXkXaXdXjXaXrX>X@X@XOXOXOX@X%X;X4XrXtXaXuXyXuXrX:X:X;X;X&X@X@X@X@XOXoX@X=X&X@X@XOX,X%X<X<X<X%X7XzXxXzXxXlXzXhXlXNXlXCXCXjXdXCXCXNXNXCXCXkXfXCXjXdXdXdXdXdXdXdXdXaXaXaXaXaXdXdXdXaXaXdXdXaXtXpXtXtXtXtXyXtX9XtXyXdXdXaXyXyXyX9XyXyXyXtX9X9X9X4X9X9X4X4X:X:X:X:X:X:X:X:X:X:X:X:X4X9X9XiXdXaXyXdXdXfXdXfXdXdXdXfXjXkXMXjXMXSXSXSXZXAXSXMX0X0X9X0XaXfXgXgXgXfXkXkXkXkXjXMXSXSXMXSXMXNXZXMXNXSXNXMXMXNXSXSXfXfXkXkXjXkXkXkXkXkXkXMXkXkXMXNXSXSXSXSXNXNXMXNXMXNXZXZXNXMXkXjXjXdXfX",
"AXAXAXAXAXAXAXAXAXAXZXZXZXZXAXAXZXZXZXSXSXSXCXSXCXNXjXjXhXdXdXuXuXuXuXaXhXkXkXkXkXjXhXdXdXdXjXdXdXaXpXpXyXyXyXyXyXtXrX9X0X0X0X9XqXqXqXqX5X1X1X1X-X+X*X#X#X+X~.Z.b.l.0.| p.[.qXgXwXpXsXsXsXpXwXpX0XqX5X5X3X3X3X=X*X@X@X[._.).).!.E.E.Z.B.B.B.B.n.b.v.v.v.v.v.v.v.v.v.v.v.n.n.B.T.R.W.W.W.).).'.'.'.'.{.{.#X#X*X*X*X*X*X*X#X*X#X#X*X*X*X#X#X[.].].).E.A.n.v.c.l.i.u.y.} { [ [ ` ^ ! } W.sXpXaXaXdXdXdXhXhXNXNXAXkXhX&X`.oX`.oX&X&X=X:X;X3X3X:X:X:X:X:X:X:X:X:X:X-X-X=X=X-X#X+X_._._._.].].].].].]._.].]._.].].]._._.[.+X+X+X+X#X#X#X*X-X-X-X-X=X=X-X5X:X-X3X3X9X9X9X9X9X4X5X3X;X&X&X&X&X&X@XoXoXoXoX`.4XCXAXAXAXAXAXAXAXAXAXAXAXAXAXCXCXjXdXjXjXcXcXcXkXcXCXCXCXAXCXCXCXlXzXzXaXaXaXiX4X;X@XOXOXOX@X;X;X>X4XyXyXuXuXyXiX4X:X;X;X@X@X@X$X$X$XOXoX&X=X&X$X,X,X%X%X%XXX8X<XxXxX7XxXxXzXxXxXzXlXlXkXkXCXjXCXdXCXNXCXCXkXfXCXjXdXdXdXdXdXdXaXuXuXaXaXaXaXaXdXhXdXdXhXdXaXtXaXyXtXtXtXyXyX0XtXyXdXdXaXyXyXyXrXyXyXyXtX9X9X9X9X9X9X4X4X:X:X:X:X:X:X:X:X:X:X:X>X9X4X9XtXuXaXyXfXdXjXdXjXfXfXfXfXjXjXSXMXSXSXSXZXZXAXSXkX0X0X0X0XaXgXkXfXaXdXkXMXMXkXkXNXMXNXMXSXMXMXAXkXkXMXSXSXMXMXSXSXjXfXkXkXkXkXkXkXkXkXkXMXkXkXkXMXMXMXSXSXNXNXNXNXNXNXCXCXNXMXkXjXdXdXdX",
"AXAXAXAXAXAXAXAXAXAXAXAXAXAXAXAXZXZXZXZXCXCXCXSXCXNXkXkXkXkXjXhXdXaXuXuXaXdXjXkXkXkXkXjXjXfXjXjXfXdXdXaXyXpXyXyXyXtXrXtX0X0XqXqXqXqXqXqX5X5X1X-X-X1X+X-X1X#X~.R.B.v.p.| 0.#X0XsX0XwXpXsXsXpXsXsX0XqXqXqX5X5X3X3X=X*X@X+X_.).~.!.E.E.Z.B.B.B.B.n.b.v.v.v.v.v.v.v.v.v.v.v.n.n.B.Q.W.W.W.W.).'.'.].[.[.{.{.#X#X*X*X*X*X*X*X#X#X#X#X*X*X*X*X#X[.].].).E.Z.n.v.c.l.i.u.y.} { { ` ` ^ / | ~.wXtXpXaXaXdXdXdXdXNXNXAXlXdX&X^.oX`.oX@X&X;X=X;X=X=X:X3X3X:X:X:X:X:X:X:X:X:X-X-X=X*X&X+X].[.[.[.[.[.].].].].].].].].].[.].].].[.+X+X+X@X+X+X*X-X-X1X-X-X-X-X3X3X3X9XqX9XqX0X0X0X9X9X4X3X:X=X&X&X@XoX_.`.`.`.`.:XCXAXAXAXAXAXAXAXAXAXAXAXAXAXCXCXkXjXjXkXcXcXcXcXcXcXcXSXCXCXCXkXkXzXhXaXuXaXtX>X@X@XOX^.OX;X>X>X4XrXuXaXaXuXuX9X:X>X;X;X$XoXoXoXoXOXOX$X:X@X$XOXXXXX,XXXH.H.8X<X7X<X<X7X7XzXxXxXzXzXNXaXkXCXjXCXdXCXCXCXCXkXjXCXjXdXdXdXdXdXaXuXuXuXuXuXuXyXuXaXdXdXdXdXaXpXtXaXyXtXtXtXyXyX0XtXyXdXdXdXyXyXyXtXyXyXtXtX9X9XrXtXrX9X4X4X:X:X:X:X:X:X:X:X:X:X:X4X9X9X9XrXyXyXtXdXdXdXaXjXfXkXkXkXjXkXZXSXSXZXZXAXAXAXSXkX0X0XyXaXdXgXjXjXgXdXkXkXkXkXfXMXkXMXSXMXSXMXkXAXkXkXSXCXNXMXSXMXkXkXkXkXkXkXkXkXkXkXMXMXkXkXkXMXMXMXMXNXSXNXNXCXSXNXMXMXNXkXkXdXdXaXdX",
"AXAXAXAXAXAXAXAXAXAXAXAXAXAXAXAXZXZXZXZXZXZXZXCXCXCXcXcXlXlXkXkXjXhXdXdXdXdXaXdXhXjXkXkXkXjXjXjXdXdXjXaXpXpXpXpXyXyXtXtXtX0X0XqXqXqXqX5X5X5X-X1X1X=X1X1X*X[._.~.Z.b.i.0.0.#X0XpXqXqXwXwXaXpXsXsXpX0XqXqX5X5X3X3X=X*X@X+X_.).~.!.E.E.Z.B.B.B.B.n.b.v.v.v.v.v.v.v.v.v.v.v.n.B.T.Q.W.W.W.~.).'.'.].[.[.{.{.#X#X*X*X*X*X*X*X#X#X*X#X#X*X*X*X#X[.].].).E.Z.n.m.c.l.i.u.y.} { [ ` ` ^ / ` ).wX0XpXaXaXdXdXdXdXjXjXNXjXaX;X^.oX`.oX@X;X:X&X=X&X=X:X3X9X3X3X:X:X:X:X:X:X:X-X-X=X=X-X*X+X+X+X+X+X[.].].].].].].].].].[.[.].].[.[.+X+X+X+X+X#X=X1X1X-X-X-X-X3X9X9XqX0X0X0X0X0X0X9X9X5X3X3X;X&X@XoX`.`.`.`.`.`.-XkXAXAXAXAXAXAXAXAXAXAXAXAXAXCXCXcXjXkXcXcXcXcXcXcXcXCXcXcXCXkXkXjXhXhXaXuXyX4X>X@XOXOXOX$X;X>X4XrXyXpXaXdXuXtX>X>X;X;X&XoXOXoXoXOXOXOX$X4X@X,XXXXXH.XXH.j.H.8X8X<X8X8X<X<XxXiXiXxXxXNXtXkXjXdXCXCXCXCXCXNXkXdXCXjXdXdXdXdXaXaXuXuXuXyXyXyXyXyXuXaXdXaXyXyXyXtXaXyXtXyXtXyXyXtXtXyXaXdXdXuXyXyXtXyXtXtXtX9XrXyXtX9X9X4X4X:X:X:X:X:X:X:X:X:X;X>X9X9X9X9X9XyXyX9XaXaXaXpXfXjXkXkXkXkXMXAXZXAXZXZXAXAXAXSXjX0X0XaXfXdXkXfXfXkXjXkXMXjXfXdXMXNXNXSXkXMXkXkXSXMXkXkXNXSXSXMXkXMXkXkXkXkXkXkXkXkXjXMXMXkXkXkXMXkXkXkXMXNXSXNXCXSXNXkXjXMXkXfXdXaXuXuX",
"AXAXAXAXAXAXAXAXAXAXAXAXAXAXAXAXAXAXAXAXZXZXZXZXSXSXSXSXCXNXkXkXkXkXjXhXdXdXaXaXdXdXjXkXkXkXkXjXfXdXkXdXaXaXaXpXyXyXtXtXyXyX0X0X9X9X9X5X5XqX=X5X5X1X5X1X#X]._.).A.R.V.8.8.*XsX0X0XqXwXsXsXsXsXgXpX0X0XqX5X5X5X3X3X=X*X@X[.).).!.!.E.A.Z.B.B.B.n.b.b.v.v.v.v.v.v.v.v.v.m.n.B.T.Q.W.W.W.~.'.'.'.].[.[.[.{.#X*X*X*X*X*X*X*X#X[.1X#X*X*X*X#X#X[.]._.).E.T.n.v.v.l.i.p.y.y.} } | ` / / ` #XsXpXaXaXdXdXdXdXdXhXjXkXhXjX;XD.oX`.oX@X&X;X=X=X&X=X:X3X9X9X3X:X:X:X:X:X:X:X:X;X=X;X=X=X-X&X&X@X@X@X+X+X+X+X].[.[.[.[.[._._._.+X+X+X+X+X@X@X*X=X3X3X3X:X=X-X3X9XqX0X0X0X0X9X9X9X4X4X4X3X:X=X&X@XOX`.`._._.`.`.&XfXAXAXAXAXAXAXAXAXAXAXAXAXAXCXCXcXkXkXcXcXcXCXCXCXCXCXcXcXNXkXhXzXdXuXuXtX4X>X@XOXOXOXOX@X>X4XrXiXaXaXxXhX4XrX>X>X>X;X@XOXOXOX$XOX.XOX$X$XOX,X.XH.H.g.h.h.g.8X8XH.H.H.<X7X%X7X7X<XxXzXzXkXkXdX0XCXCXjXZXkXdXdXdXdXdXdXdXdXaXaXaXuXuXyXuXyXyXyXuXaXdXaXtX9X9XyXtX9XtXtXyXyXyXyXtXtXuXdXaXuXuXyXyXyXyXrXyX4X4XyX9X9X9X4X4X:X:X:X:X:X:X:X:X;X;X4X4XtXrX9X9XiXyX9XpXyXyXaXdXfXkXkXMXkXMXZXZXAXZXAXAXAXAXjX0X-X0XaXfXgXjXfXjXkXkXkXMXfXfXfXkXNXSXMXkXMXMXMXkXkXkXkXkXNXNXMXMXkXkXkXkXMXkXjXkXdXfXMXMXkXkXkXMXMXkXkXkXNXSXMXMXkXkXfXfXfXfXdXaXuXyXuX",
"AXAXAXAXAXAXAXAXAXAXAXAXAXAXAXAXAXAXAXAXZXZXZXZXCXSXCXSXCXNXMXkXkXkXkXkXjXhXdXaXaXaXdXhXkXNXNXkXjXjXkXdXaXaXaXaXpXyXyXtX0X0XqX4XqX9X9X9XqX5XqXqX5X5X1X1X#X]._.).!.!.V.0.a.*X0X0XwXwXpXaXgXsXsXsXpXpXpXqXqX5X5X3X3X=X*X@X+X_.).~.!.E.A.Z.Z.Z.B.B.B.n.b.v.v.v.v.v.m.m.n.n.B.B.R.R.W.W.W.'.'.'.].{.[.[.{.{.#X*X*X*X*X*X*X*X#X[.1X#X*X*X#X#X[.[.].).).E.T.n.v.v.l.i.i.p.y.} } { [ ` ` ` ).pXpXaXaXdXdXdXdXdXhXkXkXjXtXoXD.oXOX@XoX;X:X;X=X=X:X3X4X9X4X3X3X:X:X3X3X3X3X3X:X;X:X:X:X=X=X-X*X&X#X@X@X@X+X+X+X+X+X[.[.[._.[.+X[._.].+X@X*X*X=X3X3X3X:X-X:X3X9XqXtX0X0X0X9X0X9X9X4X4X3X:X=X&X&XoX_._._._.`.oX@XhXAXAXAXAXAXAXAXAXAXAXAXAXAXAXCXCXcXcXSXcXSXCXCXCXCXCXcXcXlXhXhXzXyXtXrX4X>X@XOXOXOXOX$X@X:X4XuXaXxXxXhXhX4X4X>X>X>X;X$XOX^.OX$X.X^.OXOXOXOXXXH.C.h.h.4.,.4.j.8X8Xg.H.8X<X<X7X7X<XxXxXzXzXlXCXjXCXkXjXNXkXdXdXdXdXdXdXdXdXaXaXaXuXuXyXuXuXuXuXuXaXdXaXyX9X4X9XtX9X4X9XyXaXyXyXtXyXuXaXaXuXuXyXyXuXyXtXtX;X;XrX9XrX9X4X4X:X:X:X:X:X:X:X:X;X:X9X4XtXrXrX4XiXaXpXaXpXaXdXfXfXjXkXMXSXSXSXZXZXZXAXAXAXSXaX9X3X0XpXgXfXfXfXjXjXkXkXNXMXkXkXaXjXMXkXkXNXSXMXkXjXjXjXkXkXjXkXSXMXMXkXkXMXMXfXfXfXkXMXMXkXkXkXMXMXMXkXkXMXMXMXkXkXfXfXdXdXdXaXuXuXuXuX",
"AXAXAXAXAXAXAXAXAXAXAXAXAXAXAXAXAXAXAXAXZXAXAXZXAXZXZXCXCXCXCXNXNXMXkXkXkXkXhXdXdXaXaXdXjXkXkXkXjXNXkXhXdXaXaXaXaXpXpXyXtX0X9X4XqX9X9XqX3X*X5X-X1X1X=X-X*X[._._._.!.B.i.V.1XqX0XwXpXpXpXaXaXgXaXyXyXyXyX0X5X5X5X3X3X=X*X#X[.).~.!.E.A.Z.Z.Z.Z.Z.B.B.b.b.v.v.v.v.m.n.n.Z.T.T.R.W.W.~.).'.'.[.[.[.{.{.{.{.#X*X*X*X2X*X*X*X*X#X*X*X#X#X[.[.].].).).).E.R.B.b.v.c.i.i.p.y.0.{ } | ` ` ` T.wXpXaXaXdXdXdXdXdXhXkXkXjXtXoXD.oX`.@XoX;X3X:X;X=X:X3X9X9X3X3X3X4X3X9X3X3X3X4X3X:X:X:X:X:X:X-X=X-X*X&X&X&X@X@X+XoX+X+X+X+X].+X+X]._._.oX@X&X*X=X-X:X3X3X:X3X3X9X0XtXyXtXtXyXyX0X9X9X4X3X:X;X=X&X&XoXoX_.`.`.OX@XhXAXAXAXAXAXAXAXAXAXAXAXAXAXAXAXSXcXCXcXcXcXcXcXcXcXcXcXcXlXhXhXzXuXyXtX>X%XOXOX^.^.OX$X;X4XtXaXjXjXjXzXzXrX4X>X@X&X@XoXOX^.OXOX^.OX^.^.^.C.XXH.h.,.,.,.,.,.,.g.j.h.j.H.C.<X7X7X7XiXxXxXzXlXCXjXCXdXkXdXfXdXdXdXdXdXdXaXdXaXaXaXuXuXyXuXuXuXuXaXaXaXaXyXyXpXdXyX4X:X4XtXyXyXtXyXpXaXaXaXaXuXuXyXtXrX9XyX9X9XtX:X9X9X4X4X:X:X:X:X:X:X;X;X;X>X9X4X9XtXtX4XiXaXdXpXaXdXfXjXkXkXkXMXSXMXSXSXZXAXAXAXZXjXqX9XyX9XyXaXfXjXfXjXjXkXkXMXSXSXkXNXkXkXkXkXSXSXNXMXMXMXMXMXkXkXMXMXNXMXMXMXMXMXkXfXkXkXMXMXkXkXkXkXMXMXMXkXkXkXjXdXdXdXdXdXaXaXaXdXdXdXdX",
"AXAXAXAXAXAXAXAXAXAXAXAXAXAXAXAXAXAXAXAXAXAXAXAXZXZXZXZXCXCXSXCXCXNXMXkXkXkXjXjXhXdXdXaXdXdXdXdXdXkXjXhXdXdXaXaXaXaXaXaXaXpXtX0X9XqX5X5X5X3X5X1X1X1X*X-X-X+X[.].].~.B.z.!.5X5XqXpXsXpXaXaXgXgXsX0XpXpXpX0XqX5X5X3X3X=X*X*X[._.~.!.E.A.A.Z.R.Z.Z.Z.B.B.b.b.v.v.b.m.n.Z.Z.T.R.Q.W.W.).'.'.'.[.[.[.{.{.{.{.#X*X*X*X2X*X*X*X*X*X#X*X#X[.[.].].].).).~.E.R.B.b.v.c.i.i.i.p.y.} } { ` | ` b.wXpXaXaXaXdXdXdXdXdXkXkXhXjX&X^.`.`.@XoX&X3X3X:X:X:X3X9X3X3X:X3X3X3X3X3X3X3X3X3X3X3X3X9X3X:X:X:X-X=X=X-X-X*X&X@X@X@X@X+X+X+X+X+XoX_.].oX@X&X*X=X-X-X3X3X:X3X3X9X0XtXyXyXyXyXyXyX9X4X4X3X:X;X;X=X&X&XoXoXoX`.oX&XhXAXAXAXAXAXAXAXAXAXAXAXAXAXAXAXSXCXCXcXcXcXcXcXcXcXcXkXlXkXdXaXhXhXhXuX>X@XOX^.^..XOX$X>XrXuXxXjXkXkXzXzX4X4X>XOX@X$XOXOX^.OXOX^.OX.X^.C.g.e.h.4.,.,.<.>.<.,.h.h.,.,.h.j.8X7X7X7X7XxXxXxXlXdXtXCXdXkXuXfXdXdXdXdXdXdXdXdXdXaXuXuXuXyXuXuXuXuXaXuXaXaXpXpXdXkXMXjX4X9X9X9XtXtXyXaXaXaXuXuXuXuXuXyXyXrXtX>X4X9X:X9X0X4X3X:X:X:X:X:X:X;X;X:X4X9X:X9XtXtX4XtXpXaXtXpXdXjXjXkXSXSXMXMXkXMXSXZXAXZXZXAXdX:X3XaXqX0XyXaXfXfXgXjXkXkXfXjXkXdXfXkXMXMXMXNXSXSXMXkXkXkXkXkXMXSXMXMXMXMXMXkXkXSXkXjXkXMXMXkXkXkXkXMXMXkXkXkXjXfXdXdXdXdXdXaXaXaXdXdXdXdX",
"AXAXAXAXAXAXAXAXAXAXAXAXAXAXAXAXAXAXAXAXAXAXAXAXAXZXCXCXZXZXZXZXCXSXNXkXkXkXkXkXjXjXdXdXaXdXaXaXdXhXdXhXhXhXdXdXdXdXdXdXdXaXyXtX9X3X3X3X3X3X3X3X=X=X*X-X*X#X+X+X[.).Z.l.!.5XqX0XsXaXgXgXgXfXfXaXsXaXgXpX0X0XqX5X3X3X:X-X#X+X_.).!.E.A.A.A.R.R.R.Z.Z.B.B.B.b.b.B.B.B.B.Z.T.R.Q.W.).).'.'.].].[.[.{.#X{.#X#X#X*X*X2X*X*X*X*X*X[.*X*X[.].].].]._.).~.E.R.B.n.m.c.i.i.i.p.y.$.} { ` | ` ).sXpXpXyXaXdXdXdXdXdXkXkXdXdX&X`.`.`.oXoX;X3X3X:X:X:X3X9X3X:X:X3X3X:X:X:X9X9X:X:X9X9X9X9X3X3X3X3X3X:X-X-X-X=X-X&X&X#X@X@X+X@X+X@X@X@X@X#X&X&X*X=X-X:X:X:X:X:X3X9X0XtXtXtXyXyXyXtX9X9X4X4X:X:X:X;X;X&X&XoXoXoXoX&XdXAXAXAXAXAXAXAXSXAXAXSXAXAXAXAXSXCXCXCXCXCXCXlXlXcXcXzXhXhXaXuXdXxXuXrX@XOXD.D.^.OX@X@X>XaXaXxXhXzXzXzXzXaX4X>X$X@XOX^..X^.^..X.X.X.XC.h.h.,.,.,.<.<.<.<.<.<.<.<.>.<.,.,.8X8X8X<X7X7XxX7XuXkXhXjXkXjXyXkXdXdXdXdXdXdXdXdXdXaXaXuXyXpXaXaXaXaXaXaXaXaXyXpXaXaXdXkX9XtX4X9XtXtXpXaXaXuXuXuXuXuXuXyXtXrX9X>X>X4X4X9X9X4X:X;X;X:X:X:X:X:X:X:X>XrX>X9XtXtX4XyXaXdXtXpXdXkXdXjXSXZXSXSXSXMXSXZXAXSXSXAXdX:X3XdXaX0X0XaXaXjXdXjXkXkXfXdXfXdXdXfXkXMXkXMXSXSXNXjXfXkXkXjXkXCXNXMXMXMXkXkXkXkXMXkXkXkXMXkXMXMXkXkXkXkXjXjXdXdXdXdXdXdXdXdXdXdXdXdXjXjX",
"AXAXAXAXAXAXAXAXAXAXAXAXAXAXAXAXAXAXAXAXAXAXAXAXAXZXCXCXZXZXZXZXAXZXCXCXMXNXNXMXkXkXjXdXdXdXaXaXdXdXhXhXjXjXjXhXdXdXdXdXdXaXpXyX9X3X3X:X:X3X3X3X=X+X5X*X#X#X#X+X[._.R.b.~.5X0XpXgXgXfXfXfXfXjXjXBXgXpXpXpXyX0XqX3X3X3X-X#X+X].).!.!.E.A.E.E.E.R.R.R.Z.Z.Z.B.B.T.Z.Z.B.B.Z.Q.E.W.).).'.'.].].].[.[.#X#X#X#X#X*X*X*X2X*X*X*X*X[.*X*X#X[.].[.[.].).~.E.R.Z.n.m.c.l.i.i.p.y.$.} { ` ` ` ].gXpXyXyXuXdXdXdXdXdXkXkXdXdXoX`.`.`.oXoX;X3X:X:X:X:X3X9X3X3X3X3X3X9X4X4X9X9X9X9X9X0XyXyX0X4X4X9X3X3X3X3X3X3X-X=X-X-X&X@X@X@X#X*X&X&X&X&X-X*X-X=X=X;X:X:X:X:X3X9X0XtXtXyXyXyXyXtX9X9X9X9X4X4X>X:X:X;X&X&X@XoXoX-X9XSXAXAXAXAXAXAXSXSXAXSXAXAXAXAXCXCXCXCXAXAXAXCXCXcXlXzXhXaXaXaXuXrXrXrX;XOXD.^.^.OX@X@X>XaXaXaXxXhXzXzXzXuX>X:X@X$X.X^..X^.^..X.X.XC.h.,.,.,.>.:.<.<.<.<.<.<.<.<.:.>.,.,.h.H.H.H.<X7X7X7XiXrXhXdXkXaXNXMXkXfXdXdXdXdXdXdXuXuXdXaXpXpXaXaXaXaXaXaXdXdXtXpXpXpXaXyXtXyX4XtXtXyXpXaXuXuXuXuXuXuXuXyXtXtXrX4X4X9X9X9X0X9X3X:X:X:X:X:X:X:X:X:X>XrX>X9XtXtX4XyXaXdXyXaXaXkXdXdXjXSXSXZXSXMXSXAXAXSXSXZXkX9X3X0XjXaXaXgXyX0XgXfXjXjXjXfXjXNXfXdXdXdXaXkXSXSXSXMXkXkXkXkXkXSXSXMXfXjXjXkXkXfXkXkXkXkXkXkXMXMXkXkXjXjXjXdXdXdXdXuXdXdXdXdXdXfXdXjXjXjX",
"AXAXAXAXAXAXAXAXAXAXAXAXAXAXAXAXAXAXAXAXAXAXAXAXAXAXAXAXZXZXZXZXAXZXSXCXSXCXCXCXCXCXCXMXkXhXdXdXdXdXdXdXhXhXjXjXjXjXhXhXdXaXpXtX0X9X9X3X3X:X:X-X=X=X-X-X*X@X@X+X+X].~.B.~.qX0XpXgXfXfXfXfXfXjXjXSXfXaXaXaXpX0X0XqX3X3X-X*X+X[.`.!.!.!.E.E.E.E.E.E.E.A.R.Z.B.B.R.R.R.T.Z.R.E.W.~.).).'.'.].].].[.[.+X#X*X#X#X*X*X*X2X2X*X*X*X[.*X*X#X[.[.[.[.].).~.E.R.Z.n.m.c.l.i.i.p.0.$.} { { ` } [.pXpXpXyXyXuXdXdXdXdXMXCXdXuXoX`._.oXoX-X:X3X:X:X3X3X3X9X4X4X4X9X9X9X9X9X9X9X9X9X9X0XyXyX9X9X9X9X9X3X3X3X3X3X:X:X-X=X-X&X&X&X&X-X&X-X&X&X-X=X=X=X-X:X:X:X:X3X4X9X0XtXtXtXtXrXtXyXyXtXrX9X9X9X4X:X:X:X;X&X&X&X&X-X4XSXAXAXAXAXAXAXSXSXAXSXAXAXAXAXAXCXCXCXAXAXAXCXcXlXlXlXzXdXaXaXiX>X>X>XOX^.D..X.X$X@X;X4XaXaXaXaXaXxXzXlXuX;X>X@X$X.X^..X^.^.^..XH.e.4.z ,.,.>.:.<.<.<.<.<.<.<.<.:.>.,.,.,.g.j.g.8X7X7X7XiX7XuXtXzXuXkXNXMXkXjXdXdXdXdXdXhXdXuXyXyXyXaXaXaXaXaXaXaXdXyXpXpXpXpXyXtXyX4XtXtXyXaXaXuXuXuXuXuXuXuXyXyXyXtX9X9XrXrXtXtXtX4X:X:X:X:X:X:X:X:X:X>X9X4XrXyXyX9XiXaXdXyXaXdXkXdXaXdXMXSXSXSXSXSXAXAXAXSXMXgX0X9X9XfXgXgXfXfXyXgXdXdXdXfXkXkXfXSXfXfXkXdXkXMXMXMXMXMXkXkXkXkXNXNXkXkXjXkXkXkXkXfXkXkXkXkXkXMXMXjXjXfXfXdXdXdXdXuXuXaXdXdXdXdXfXjXjXjXkX",
"AXAXAXAXAXAXAXAXAXAXAXAXAXAXAXAXAXAXAXAXAXAXAXAXAXAXAXAXZXZXZXZXCXSXSXSXCXCXCXCXCXSXCXSXkXkXjXdXdXdXdXdXaXaXdXhXjXdXhXhXdXaXpXtXyX0X9X3X3X:X:X-X=X=X*X-X*X@X@X@X+X_.~.S._.0XpXsXgXfXkXfXfXfXjXfXfXjXkXgXaXaXpXyX0X3XqX3X*X+X[._.).!.!.!.E.E.E.E.E.E.E.E.R.Z.Z.R.Q.Q.R.R.Q.W.W.).).).'.'.].].].[.+X+X#X*X#X#X*X*X*X*X2X*X*X*X[.*X#X#X[.[.[.[.].).~.E.R.Z.n.m.c.l.i.i.p.0.$.} { [ ~ } [.wXpXyXyXyXuXdXdXdXdXMXCXdXuXoX`.oXoXoX:X:X3X:X3X3X:X3X0X9X9X9X9X9X9X9X9X9X0X9X9X9X9X9X9X9X9X9X9X9X9X9XqXqX9X3X3X:X:X-X=X-X-X=X-X&X-X=X=X&X-X-X=X-X:X:X:X:X3X4X9X0XyXyXyXtXrXrXiXyXyXtXrX9X9X9X9X9X9X:X;X;X;X-X;X4XSXAXAXAXAXAXAXSXSXAXSXAXAXAXAXAXCXCXCXCXCXcXlXlXlXlXlXkXdXaXtX4X;X@XOXF.D.D.OXOX$X;X>XtXaXaXaXuXuXaXzXlXtX>X>X$XOX.X^..XD.D.D..Xg.4.,.,.<.<.<.<.<.<.<.<.<.<.<.<.:.>.,.,.,.,.4.4.g.8X7X7X7XiX7XiXxXhXyXNXCXMXkXjXjXdXjXdXdXaXaXuXyXyXpXaXaXaXaXdXdXaXyXpXpXyXyXyXtXtX4X0XtXyXaXaXuXuXuXuXuXuXuXyXyXyXyX9X9XtXtXtXyXtX9X4X:X:X:X:X:X:X:X:X:X9X4XrXyXyX9XiXaXdXpXaXdXkXdXdXfXkXkXkXMXSXSXAXAXDXZXjX0X0X0X0XyXgXgXgXjXMXaXpXaXdXfXfXdXdXfXkXkXkXdXfXkXkXfXkXkXfXjXkXkXkXMXkXkXMXMXkXkXNXkXkXkXkXMXMXMXkXjXdXdXdXdXuXdXdXuXuXaXdXdXdXdXfXjXjXjXkX",
"ZXZXZXZXAXAXAXAXAXAXAXAXAXAXAXAXAXAXAXAXAXAXAXAXAXAXAXAXAXAXAXZXSXSXCXSXCXCXCXCXCXCXCXCXNXkXkXkXjXhXdXdXdXaXdXdXdXhXhXhXfXjXdXaXaXyX0X9X3X:X:X;X;X;X=X*X&X@X&X@X_.`.!.S.=X0XpXpXsXdXkXaXfXfXkXMXSXkXgXaXdXdXaXaXyXyX9X9X-X@X+X_.).).).).).).).).).!.!.!.!.A.A.R.Q.Q.Q.Q.E.E.W.~.).).).'.].].[.[.#X#X*X#X#X#X*X*X*X*X*X*X*X*X[.{.#X[.[.[.[.]._.).E.E.R.Z.B.m.c.l.i.p.p.y.0.} } | ` } [.0XaXaXaXdXaXdXdXdXfXMXSXSXuXS.D.oXoX&X9X9X:X3X3X4X3X3XtX0X0X9X9X0X0X9X0XyXyX0X0X9X9X9X0X9X9X9X9X9X9X9X9X9X9X4X3X3X3X:X:X=X=X=X=X=X=X=X;X=X&X=X:X:X:X:X:X:X3X4X9X0XyXyXyXyXtXyXyXuXiXiXrXyXrX9X9X9X9X4X>X:X>X:X:X4XcXSXAXAXAXAXAXAXAXAXAXAXAXAXAXAXCXCXZXCXCXlXlXlXlXlXhXhXuXuXrX>X;XOXD.V.V.D.OX@X%X;XtXiXuXaXaXaXiXuXhXzXrX>X;XOXOX.X^.^.^.C.C.H.g.4.z s <.<.>.>.<.<.<.>.<.<.<.<.>.<.>.<.,.,.,.,.h.XX<XxX7XxXiXhXiXCXuXdXjXNXdXkXkXdXuXdXaXaXaXuXyXtXyXaXaXpXaXdXdXaXpXpXyXtXtX0X0XtX9X9XtXyXaXaXuXyXyXyXuXaXaXyXyXyXyXrX9X9X9XtXtX9X4X3X:X:X:X:X:X4X4X:X:X9X9X9XyXyXrXyXaXaXaXdXfXjXfXjXkXkXkXjXMXSXSXZXAXAXAXfX0X0X0X0XgX9XyXaXjXkX0XyXaXfXjXdXdXfXfXkXkXjXfXjXkXMXdXdXfXkXkXkXkXjXMXkXkXMXMXkXkXSXMXfXjXkXSXkXkXjXjXdXdXdXdXuXdXdXdXdXdXdXdXdXfXjXjXjXkXMX",
"CXCXCXCXZXZXZXZXAXAXAXAXAXAXAXAXAXAXAXAXAXAXAXAXAXAXAXAXAXAXAXZXCXCXCXSXCXAXMXCXCXCXCXCXNXNXNXNXkXkXjXhXdXdXaXaXdXdXhXjXkXNXMXjXdXaXtX9X9X3X:X:X:X:X-X-X&X=X&X@X_.`.!.A.=X0XpXpXaXaXfXdXgXfXkXMXSXSXSXMXfXgXaXaXaXyX0X0X-X&X+X]._.`.`._._._._._._.`.`.`.).E.R.E.W.Q.Q.Q.E.E.W.W.).).'.'.].[.[.{.#X#X*X#X#X*X*X*X*X*X*X*X*X*X[.[.#X+X[.[.[.].].).E.E.R.Z.B.m.c.l.i.p.p.y.0.} } | | y.*XwXaXaXaXdXdXdXdXdXjXSXCXCXuXD.`.oX_.&X:X-X:X3X4X9X9X3X9XyXyXtXyXyX0X0XyXyXyXyXyXyXyXyXyXyXyXyX9X9X9X9X9X9X9X9X4X3X4X4X3X:X:X:X:X=X=X;X;X=X=X;X:X:X:X3X3X3X3X4X9X0XyXyXyXyXyXiXyXuXiXiXyXuXyXyXyXrX9X9X4X>X>X>X>X:XcXSXAXAXAXAXAXAXAXAXSXAXAXAXAXAXCXCXCXCXlXlXlXNXlXhXiXrXrXrX4X;X@X.XS.N.V.D.OX@X;X;XiXaXhXxXuXtXrXtXtXyXrX>X%XOX.X^.^.D.D.C.g.g.4.,.s s <.<.>.>.<.<.<.<.<.<.<.<.>.,.:.>.<.<.<.<.,.8XxX7X7X7X<XzXiXlXiXaXaXjXuXdXkXdXuXdXaXaXuXuXyXtXtXyXyXyXpXaXaXaXpXpXyXtXtX9X9XtX0X9XtXyXaXaXuXyXyXyXiXuXaXyXtXtXtXrX9X9X9X9X9X4X3X:X:X:X:X:X:X4X4X:X>X4X4X9XyXyXrXuXaXaXaXdXfXjXjXkXMXMXSXMXMXSXSXZXZXAXSXgX0X0X0X0XyXaX0XaXjXaXdXyXdXkXMXdXaXjXkXfXfXjXkXkXkXMXjXjXfXkXMXkXkXfXMXkXkXkXkXkXkXMXMXjXjXkXNXkXfXdXdXdXdXdXdXdXdXdXdXdXdXdXdXfXkXfXjXMXCXCX",
"SXSXSXSXZXZXZXZXZXZXAXAXAXAXAXAXAXAXAXAXAXAXAXAXAXAXAXAXAXAXZXZXCXCXSXCXZXAXMXCXCXCXSXCXCXCXCXCXCXlXkXkXjXdXdXaXaXdXhXjXkXNXNXkXfXdXyX0X0X9X3X3X3X3X:X=X&X:X;X+X_.`.).!.;XpXyXaXsXdXaXfXfXjXkXSXSXZXZXZXfXfXdXaXaXyX0X0XqX*X@X+X[.]._.[.+X+X+X+X+X+X[.[._.~.!.~.~.W.W.E.E.E.W.W.).).'.'.[.{.{.{.#X#X*X#X#X#X*X*X*X*X*X*X*X*X[.[.#X#X[.[.[.].].).E.E.R.Z.B.n.v.l.i.i.p.y.0.} } } } i.5XsXaXdXaXdXdXdXdXdXkXSXAXSXyX`.`.`._.:X:X&X;X9X9X9X0X0X9XtXyXaXaXyX9X0XuXuXyXyXyXyXyXyXyXyXyXyXyXrXyXyXyX9X0X9X9X4X4X4X9X3X:X3X3X=X;X:X=X=X;X:X3X3X3X9X4X3X4X9X0X0XtXtXtXyXyXyXyXuXiXiXdXdXdXdXdXuXyXrX9X4X>X>X:X:XcXSXAXAXAXAXAXAXAXAXAXAXAXAXAXAXAXlXCXkXlXlXlXlXzXuXiX>XrXrX>XOXOX.XS.N.V.D..X;X>X>XuXxXtXuXxXzXrX9X4X4X4X>X@X.X^.^.D.C.C.g.r.h.,.s p >.<.<.>.>.<.<.<.<.<.<.<.<.,.,.:.:.<.<.<.<.,.8X7X7X<XXX7XxXxXuXrXuXaXjXuXdXkXdXuXaXaXuXuXaXaXyXtXpXyXpXaXaXaXaXpXtXtXrX0X4X4X9X0X0XyXpXaXaXuXyXyXyXtXyXyXtXtXtXtXrXrX9X9X9X9X4X3X:X:X:X:X:X>X:X:X4X9X4X9X9XyXyXyXuXaXaXaXdXjXjXjXkXjXjXfXfXkXSXSXZXAXAXMXyX0X0X0X0X0XgX0XaXaXpXgXaXaXfXkXfXaXaXfXfXfXfXjXkXkXkXkXjXfXjXkXMXkXfXMXkXkXMXkXkXkXMXMXkXfXkXkXdXaXaXdXdXdXdXdXdXdXdXjXjXdXdXdXfXkXjXjXMXCXCX",
"SXSXSXSXSXSXZXZXZXZXAXAXAXAXAXAXAXAXAXAXAXAXAXAXAXAXAXAXAXAXZXZXCXCXSXCXCXCXCXSXSXCXCXCXCXCXCXCXCXCXCXlXkXjXdXdXaXdXdXdXdXjXkXkXkXjXaXyX0X0X9X4X9X9X3X:X:X3X=XoX[._.`.!.=XpXyXaXdXgX0XkXfXjXkXSXSXSXkXfXMXfXgXaXaXaXyX0XqX-X&X@X+X+X+X+X#X*X*X*X#X@X+X+X[.).~.).~.W.W.W.W.W.W.W.).'.'.[.{.{.#X#X#X#X*X#X#X#X*X*X*X*X*X*X*X*X[.[.#X#X[.[.[.].].).E.E.Z.Z.B.n.v.l.i.p.p.y.0.} } } } v.wXpXaXaXaXdXdXhXhXdXkXAXAXSX9X`.`.`.&XqXqX:X3X9X4X0XyXaX0X0XyXdXdXyX9X0XuXdXuXuXuXuXuXuXuXuXuXuXuXyXyXyXyXyXtX9X9X9X9X9X9X3X3X9X4X:X;X;X=X:X:X3X3X4X3X9X9X3X9X9X0XtXtXtXtXyXyXyXyXuXuXuXdXjXkXhXdXdXuXiXrX9X9X>X:X:XcXSXAXAXAXAXAXAXAXAXAXAXAXAXAXAXAXkXlXzXkXkXlXlXzXhXiXrXrXrX;XOX.XD.C.N.C.D..X>X>X4XaXxXxXaXuXaXuXyX9X4X>X;XOX.X^.^.D.C.C.g.4.4.z i p >.>.<.>.>.<.<.<.<.<.<.<.>.,.,.:.:.<.<.<.<.h.8X7X8Xg.H.<X7XxX7X7XuXzXNXdXkXkXdXuXdXuXuXuXdXdXpXtXaXaXdXdXfXaXpXtX0X0X9X9X9X4X4X4X0XyXpXaXaXuXyXyXyXtXtXtXrXrXtXtXrXrX9X9X9X4X4X3X:X:X:X:X:X4X:X:X9X9X9X9XrXiXyXyXaXdXdXaXaXdXjXkXjXjXkXkXkXMXSXSXAXAXAXkX0X0X0X0XqXyXyXgX0XaXdXyXaXyXyXdXfXfXaXaXfXkXfXkXkXkXkXMXkXjXdXfXMXMXfXMXkXkXMXkXkXkXkXMXkXjXjXfXdXaXaXdXdXdXdXdXdXdXjXjXjXdXjXdXdXkXMXMXkXCXCX",
"SXSXCXCXSXSXSXSXCXZXZXZXAXAXAXAXZXZXZXZXAXAXAXAXAXAXAXZXZXZXZXZXZXCXCXCXNXNXCXCXCXNXZXCXCXCXCXCXCXCXNXNXNXkXjXdXdXdXdXdXdXdXdXjXkXkXdXuXyXtX0X9X0X9X3X3X:X:X&X@X+XoX`.!.=XyXyXaXdXfXkXMXkXkXkXMXMXjXdXjXMXkXfXdXdXaXyX0XqX3X-X-X&X&X&X&X*X*X*X*X*X*X+X+X[._.).).~.~.~.E.W.W.W.).).'.[.[.{.{.{.#X*X*X#X*X#X*X*X*X*X*X*X*X*X*X+X#X#X#X[.[.].]._.~.E.E.Z.Z.B.n.v.l.i.p.p.y.0.} } } } m.wXpXaXaXdXhXhXhXhXjXMXAXAXSX9X`.`.&X;XqXqX9X9XqXqXyXuXaXyXuXdXdXdXyXrXyXuXdXdXdXdXdXdXdXuXuXuXuXuXuXyXyXyXuXiX9X9X9X9X9X9X4X4X9X9X:X:X;X;X:X:X:X:X:X4X9X9X4X9X9XrXrXrXtXtXiXiXyXyXuXdXuXdXkXkXhXhXhXdXdXiXiXrX4X:X:XuXAXAXAXAXAXAXAXAXAXAXAXAXSXAXAXAXjXkXkXzXzXuXzXaXaXiX>X>X>X%X.XC.N.g.f.g.C.H.,X%X7XiX7X7XxXjXuXtXtXyXyX@X,XOX.X^.^.D.C.f.f.h.z s i p >.>.>.<.<.<.>.<.<.>.<.<.<.<.>.:.:.>.<.<.<.,.h.j.h.4.h.8X7X7X<XxXrXaXuXlXzXjXhXjXhXaXaXaXdXdXaXpXaXdXdXdXaXpXyX4X4X9XtX0X9X4X4X4XtXyXpXaXaXaXyXyXtXtXtXtXtXtXtXtX9X9X9X9X9X4X>X:X:X:X:X:X>X>X:X>X9X9X9X9XtXyXyXyXdXfXdXdXpXaXfXkXfXjXkXkXMXSXSXSXAXAXAXjX0X:XdX0X9XyXpXaXyXpXaXsXsXaXtXsXfXBXfXaXfXjXjXjXfXjXkXkXMXkXdXdXMXMXjXkXkXkXkXjXkXkXjXjXjXhXhXdXdXaXdXdXdXaXaXdXdXdXjXjXjXjXkXdXjXkXSXSXMXNXCX",
"CXCXCXCXCXCXCXSXCXZXZXZXAXAXAXAXZXZXZXZXAXAXAXAXAXAXAXZXZXZXZXZXZXCXCXNXNXNXCXCXCXNXCXCXCXNXNXCXCXNXNXNXNXNXkXjXjXjXjXdXdXdXdXdXjXkXjXdXaXyX0X0X0X0X4X:X=X=X=X&X@XoX^.!.=XpXyXaXfXjXkXkXkXkXkXkXjXdXjXkXMXkXfXdXdXaXyXtXqX9X3X-X-X*X-X-X-X-X-X-X-X*X@X+X[.]._.).~.~.~.E.W.W.).'.'.[.[.{.{.{.{.#X#X*X#X#X#X*X*X*X*X*X*X*X*X*X#X#X#X#X[.].]._.~.~.E.E.R.Z.B.n.v.l.i.i.p.y.0.} } { } l.5XgXpXaXhXzXhXhXjXjXSXAXAXSXyX`._.oX:XqXqX0XyXyXyXuXaXaXdXdXjXaXdXuXyXuXaXdXdXdXdXdXdXdXdXdXuXuXuXuXyXyXyXuXuXrX9X9X9X9X9X9X9X9X9X9X9X:X:X9X9X9X9X9X9X9X9X9X9X9XrXrXrXiXuXuXuXuXuXuXuXiXuXdXhXhXhXjXjXhXuXiXrX9X4X:XcXcXAXAXAXAXAXAXAXAXAXAXAXSXAXSXCXkXkXlXlXxXhXuXtXtXrX>X;X%XOXH.C.F.g.f.g.g.H.XX%X<X7X<X7XiXuXuX9X4X>X:X@X,X.X.X^.^.D.C.f.r.z z i p s s >.>.<.<.<.>.<.<.<.<.<.<.>.>.>.>.:.:.:.:.,.,.,.,.,.,.8X8X<X<XxXxXpXyXkXhXhXhXdXhXfXdXaXaXaXdXfXaXaXdXdXyXyXyX4X4X9XtX0XtX0X3XtXyXyXpXaXdXaXyXyXyXyXyXyXtXtXtXtX9X9X9X9X9X4X>X:X:X:X:X:X:X>X>X>X4X9X9X9XtXtXtXyXaXdXaXjXaXdXdXjXkXkXkXfXSXZXSXSXAXAXAXkX0XyX9X0X0XyXpXaXaXaXaXsXsXgXfXpXgXBXBXjXdXdXfXjXjXjXdXkXkXMXkXjXMXMXkXjXkXkXdXkXkXkXdXdXjXhXdXdXdXdXdXdXdXaXaXdXdXdXjXjXjXjXjXdXjXNXSXSXCXCXCX",
"SXCXCXSXCXCXCXSXSXCXZXZXAXAXAXAXZXZXZXZXAXAXAXAXAXAXAXZXZXZXZXZXZXCXCXSXCXCXNXNXNXNXlXNXNXkXkXNXCXNXNXNXNXNXNXkXkXkXkXjXdXdXdXdXdXdXdXdXaXaXyXtX0X0X4X:X=X=X=X&X&X_.^.D.3XpXyXgXfXkXMXkXkXkXkXkXjXdXkXkXkXkXjXdXdXaXyXyX0XqX9X:X=X=X=X=X=X=X-X-X=X-X*X@X[.]._.).).~.~.~.W.).'.].[.{.{.{.{.{.{.{.*X*X*X*X#X#X*X*X*X*X*X*X2X*X#X#X#X#X[.]._.~.~.!.E.E.E.Z.B.n.v.l.i.p.p.y.0.0.} } } l.5XgXaXaXjXkXzXzXjXjXSXAXAXAX:X`.-X:X9X0XyXyXaXhXgXgXdXdXjXkXkXdXjXdXdXdXdXdXdXdXdXdXdXdXdXdXdXuXuXuXuXuXuXuXdXyXrXtXrX9X9X9X9X9X9X9X9X9X9X9X9X9X9X9X9X9XrX9X9X9X9X9XiXiXuXuXuXuXuXuXuXiXuXdXhXhXhXkXkXkXhXdXyXrX9X9XkXcXAXAXAXAXAXAXAXAXAXAXAXAXAXSXCXlXhXlXCXuXhXuXtX4X>X;XOXOX.XC.C.g.e.9.e.g.H.XXXX%X<X%X<X>X7XtXrX>X;X@X>X$X.X^..X^.C.C.f.4.s s i p >.s >.>.<.<.<.>.>.<.>.>.<.<.<.<.<.>.>.:.:.<.<.<.,.,.:.,.h.8X<X<X<X>XyXrXhXaXaXaXaXaXdXfXdXaXdXjXfXdXaXtXtXpXuXpX4X4X9XtXtX4X4X4X;X0XyXaXdXdXaXpXyXyXyXyXyXyXyXtXrX9X9X9X9X9X9X4X>X:X:X:X:X:X>X4X4X9X9X>X4X9XrXtXuXuXaXpXkXjXNXCXSXCXNXNXkXSXZXZXZXAXAXAXkX0XaX:X0X0XaXpXaXaXaXaXsXsXgXkXaXdXaXfXfXfXgXfXdXjXjXdXkXjXdXjXjXdXkXMXjXkXjXdXjXjXjXdXdXfXdXdXdXdXdXdXdXdXdXdXdXdXjXjXkXMXkXkXkXkXkXCXSXCXSXNX",
"SXSXSXMXSXSXCXSXSXSXZXZXZXZXZXZXZXZXZXZXAXAXAXAXAXAXAXZXZXZXZXZXZXCXCXCXCXCXNXkXkXNXkXkXkXkXkXkXlXNXNXNXNXNXNXNXNXNXkXkXjXjXhXdXdXaXaXaXaXaXaXyX0X0X9X3X3X;X&X@X&X`.!.D.3XpXyXfXfXkXkXMXMXMXMXMXkXjXkXkXkXkXjXfXdXdXaXyX0X0XqX3X3X:X:X:X3X1X1X1X1X-X*X#X+X_.).).).~.~.~.).'.].[.{.{.{.{.{.{.{.{.*X*X*X*X#X#X*X*X*X*X*X*X2X*X#X#X#X#X].].).~.!.E.R.E.Q.Z.Z.n.v.l.i.p.p.y.0.0.} } } l.wXwXsXdXhXkXzXkXkXkXSXAXAXAX9XoX:X-XqXyXuXuXdXkXjXhXdXjXkXMXkXjXMXkXkXjXjXhXdXdXdXdXdXdXdXdXdXuXuXuXuXuXuXdXdXuXyXyXtXrXrXrX9X9X9XyXyX9X9X9X0X9X9X9X9X9XrX9X9XrXtXtXiXiXuXuXuXuXuXdXdXdXdXhXjXhXjXkXCXCXkXhXdXuXrX9X9XAXAXFXAXAXAXAXAXAXAXAXAXAXAXSXCXlXuXlXlXhXrXuXtX>X@X%X.X.XH.g.g.e.4.4.h.g.H.XXXX,X%X,X<X%X%X7XuX4X>X@X>X$X.XD..X^.C.C.r.4.z u p p s s >.>.<.<.<.>.>.>.>.>.<.<.<.<.<.<.<.>.<.<.<.<.>.:.<.,.j.8X8X<X%X7XiXrXaXuXuXuXuXuXaXdXfXdXaXdXaXaXyXtXyXtXyXpX4X4X9XtXtX9X4X3X9XtXyXaXdXaXaXaXyXyXyXuXuXyXiXtXrX9X9X9X9X9X4X4X>X:X:X:X:X:X>X4X9X9X9X4X4X9XrXtXuXyXaXaXkXfXjXNXMXkXkXZXSXSXSXZXZXAXAXAXkX0X0X0X9X0XaXaXaXyXpXaXaXsXaXaXfXaXpXaXaXgXfXfXfXfXkXCXjXjXkXMXCXjXjXkXkXjXdXdXdXdXfXaXaXdXdXdXdXdXdXdXdXdXdXdXdXdXjXjXkXNXMXkXNXkXkXCXSXSXCXNX",
"kXkXkXkXkXNXCXSXSXSXCXZXZXZXZXZXZXZXZXZXAXAXAXAXAXAXAXAXZXZXZXZXCXCXCXCXCXCXNXkXkXlXkXkXkXkXkXkXkXkXkXkXkXNXNXNXNXNXkXkXkXkXjXhXdXaXuXaXaXaXaXuXyXtX9X9X>X:X&X@X=X`.D.D.3XyXyXdXfXkXMXNXSXSXSXSXMXkXkXjXjXjXjXjXjXdXdXdXyXyX0X9X3X3X3X3X3X3X3X3X3X-X-X*X+X_._.).).).).).).].[.[.#X#X#X#X#X#X#X#X#X#X*X#X#X#X*X*X*X*X1X1X*X*X*X*X#X#X$X]._.!.~.R.R.E.E.Z.B.n.v.c.i.p.p.d.y.0.} } | m.sXqXaXdXkXhXkXlXCXCXAXAXAXAX:XoX-X0XdXaXdXjXkXkXkXjXjXjXkXMXMXkXCXNXNXNXNXkXjXkXjXjXjXjXdXdXdXdXuXuXdXdXdXdXdXdXdXuXyXyXyXyXyXrXyXyXyXqXqXyXyXyX0X9XrXrXrXrXtXyXyXyXiXuXuXuXuXdXdXdXhXhXzXzXzXzXkXlXCXCXlXzXhXdXyX9X9XAXAXSXAXAXAXAXAXAXAXAXAXAXAXSXAXjXiXuXhXzX>XrX4X>X@X%X.XH.C.g.4.Q z 4.h.h.C.g.g.H.8X<X<X%X<X7X7XxX>X,X;XOX.XD.C.D.C.f.9.Q s s s s s s >.>.<.>.>.>.>.>.>.>.>.<.<.<.<.<.<.>.>.<.<.<.:.:.<.<.h.g.8X7X<X7XiXtXiXuXuXuXpXuXyXaXjXaXaXaXaXpXpXpXaXyXuXaX4X4X4XyX9X9X4X;X9XtXyXaXdXaXaXaXtXyXuXuXyXiXtXtXrX9X9X9X9X4X9X4X>X:X:X:X:X:X4X9X9X9X9X9X9XrXrXyXuXuXaXaXjXdXdXkXjXjXkXSXSXSXSXZXZXZXDXMX0XqX3X0XqX9XyXyXyXyXyXpXaXaXaXpXgXdXsXpXaXdXfXfXfXjXkXNXjXkXMXMXNXkXjXkXjXjXdXdXdXdXdXdXdXdXdXdXdXdXdXhXjXjXhXdXdXjXjXjXkXjXkXNXkXkXMXNXCXCXCXSX",
"kXkXkXkXMXNXCXCXCXCXCXZXZXSXZXZXZXZXZXZXAXAXAXAXAXAXAXAXZXZXZXZXCXCXCXCXCXNXkXkXkXkXkXkXjXjXjXjXjXjXjXjXkXkXlXlXkXkXNXCXCXNXjXhXdXdXdXaXaXaXaXaXuXyXtX9X9X4X:X;X=X_.D.D.3XtXyXdXjXkXMXNXSXSXSXSXCXMXkXkXjXkXjXkXkXjXdXdXaXyXyX0X9X9X9X4X5X3X3X3X3X-X-X*X+X]._.).).).).)._.].[.[.#X#X#X#X#X#X#X#X#X#X#X#X*X*X*X*X*X1X1X1X1X*X*X*X#X+X].]._.!.).E.R.R.R.Z.B.n.v.c.i.p.p.p.y.0.} } } n.gX0XdXdXjXhXhXNXCXSXAXAXAXAX:XoX:XyXgXgXdXkXSXSXSXSXNXNXCXCXCXCXCXSXSXZXZXCXNXCXNXkXkXjXjXhXdXdXdXdXdXdXdXdXhXhXdXdXaXaXaXuXuXyXyXyXyXyXyXyXyXyXyXyXyXyXiXiXyXuXaXaXuXuXdXdXdXdXdXhXzXkXkXkXkXkXlXcXCXCXlXlXzXzXuX9X9XAXSXSXAXAXAXAXAXAXAXAXAXAXAXSXAXkXuXuXxXuX4X7X4X@XOX$XH.H.g.f.Q z z ,.4.h.h.h.4.H.XX8X<X%X%X7X7XxX>X,X%X.X^.^.C.C.C.f.Q z s s p p s >.>.>.<.>.>.>.>.>.>.>.<.<.>.>.>.>.<.:.:.<.<.<.:.:.<.<.,.h.8X7X7X7XiXyXiXiXuXuXaXaXaXaXaXaXaXyXyXpXaXaXdXaXaXaX9X4X4XtX4X9X4X;X4X9XtXpXaXpXyXaX9XyXuXuXrX9X9XrXrX9X9X9X9X4X4X>X>X:X:X:X:X:X4X4X9X9X9X9XtXiXyXtXyXdXfXaXdXdXjXkXfXkXkXkXMXSXSXZXZXZXAXgX9XqX0X3X3X0XyXyXyXyXyX0XpXaXpXyXaXaXgXsXaXaXgXfXjXkXjXjXkXkXkXkXkXkXkXkXjXdXdXdXdXdXdXdXdXdXdXdXdXaXaXzXkXhXdXdXdXdXjXkXkXjXkXCXMXkXkXNXSXSXSXZX",
"kXkXcXcXCXNXCXkXNXCXCXCXCXSXCXCXCXCXZXZXAXAXAXAXAXAXAXAXZXZXZXZXCXCXCXCXCXNXkXkXjXjXhXhXhXhXhXhXhXhXhXhXjXjXkXjXjXkXNXCXCXNXjXdXdXhXdXdXaXaXaXaXaXuXyXtX9X9X>X:X;X_.D.D.9XtXyXdXkXkXMXNXMXMXMXMXkXMXCXNXNXNXMXNXMXkXjXdXdXaXyXtX0X9X9X9X9X5X3X3X3X:X=X*X#X+X_._.).).).).].[.[.#X#X#X*X#X*X*X*X*X*X*X*X*X*X1X1X1X1X1X1X1X-X*X*X*X*X+X].]._.!.).E.R.R.R.Z.B.b.v.c.i.i.p.p.y.0.} } } R.gXaXgXdXkXjXzXNXCXSXAXAXAXAX9X@X:XaXfXfXjXCXSXSXSXSXCXSXSXSXSXCXZXCXZXAXAXCXSXSXSXSXCXkXkXjXjXjXzXdXdXdXdXdXhXhXdXdXdXdXdXdXuXuXuXuXyXuXuXyXyXyXyXyXyXuXuXuXdXdXdXdXdXdXdXdXdXdXzXkXlXlXlXlXcXcXcXcXcXlXlXlXkXzXuX9X4XSXAXAXAXAXAXAXAXAXAXAXAXAXAXSXAXCXhXuXaX4X7X>X;X@XOXOXH.g.f.9.Q s u z ,.,.,.,.,.j.g.H.XXH.XX7X<XxX%XOXOX^.^.D.C.C.C.9.z s p p p p s >.>.>.<.<.>.>.>.<.<.<.<.<.>.<.<.<.<.:.:.<.<.<.:.:.<.<.<.h.8X7X7XxXiXtXiXiXuXuXaXaXdXdXdXaXaXaXpXyXpXaXaXaXaXaXrX:X:XtX4X4X3X&X:X9XtXyXyXyXyXyX4XtXyXyX9X9X9XrXrX9X9X9X9X9X9X>X>X>X:X:X:X>X4X9X9X9X9X9XtXtXtXuXdXaXdXaXyXfXkXkXfXkXMXSXZXZXZXZXZXZXZXpX3XqX0X3X3X0X0X0X0X0XtX0XpXgXfXdXfXjXfXgXsXdXdXfXkXkXkXdXjXkXkXjXjXkXkXjXdXdXdXdXdXdXdXdXdXdXdXdXdXdXdXdXjXjXhXjXjXjXkXMXMXkXkXCXCXkXkXNXSXSXCXZX",
"kXkXkXCXCXNXNXkXMXCXSXCXSXSXSXSXCXCXZXZXAXAXAXAXAXZXZXZXZXZXZXZXCXCXCXCXNXkXkXjXhXdXdXdXdXdXdXdXdXdXdXhXhXhXjXjXkXkXkXjXkXkXkXhXhXjXhXdXdXaXuXaXaXuXuXyXrX9X4X>X:X`.A.D.4X0XyXdXfXjXkXkXMXMXMXkXjXjXCXSXSXSXSXCXCXNXkXjXfXdXaXyX0X0X0X9XqX4X3X3X3X3X=X*X#X+X[._._._._.).].[.#X#X#X#X*X*X*X*X*X*X*X*X*X1X1X1X1X1X2X1X1X5X1X*X*X*X*X+X].]._.!.).E.R.R.R.Z.B.b.v.l.i.i.d.p.y.0.} } 0.!.gXfXgXjXkXjXkXCXSXSXAXAXAXAXqX&X9XdXjXkXkXSXSXSXSXSXCXCXCXCXCXCXZXZXAXAXAXZXCXAXCXSXSXCXcXkXkXkXkXzXzXhXdXhXhXhXdXdXdXdXdXdXdXdXdXuXuXdXdXyXyXuXuXuXuXdXdXdXdXdXdXdXdXdXjXjXhXhXkXkXlXlXcXcXcXcXcXcXlXkXlXlXkXlXuX9X:XcXAXAXAXAXAXAXAXAXAXAXAXAXAXSXAXCXzXuXuX>X7X;X@XOX^..XC.g.e.4.4.s y u i p <.p p ,.h.h.g.e.g.<X%X7X%X.X.X^.D.D.C.C.C.4.s s p p p s s s >.>.>.<.>.>.<.<.<.<.<.<.>.<.<.<.<.>.:.>.<.>.:.:.<.,.>.,.H.<X7XxXiXiXiXiXiXuXuXuXaXaXdXjXjXdXaXpXyXtXtXtXtXrX9X&X:XtX:X:X3X&X:X4X9XrXtXyXtXyX4X9X9X9X9X9X9X9X9X9X9X9X9X9X9X>X>X:X:X:X:X>X4X9X9X9X9X9XtXyXyXyXuXdXdXaXtXdXfXkXjXkXMXkXSXSXSXZXZXZXSX0X3XqX3XqX0XqX4X9X9X9X0XaXaXaXaXaXaXgXfXfXdXdXdXdXjXkXMXjXjXkXjXjXdXjXjXhXdXdXdXdXdXdXdXdXdXdXhXaXdXdXdXdXdXkXkXjXkXjXjXCXCXMXkXkXCXMXMXMXNXSXCXSX",
"cXCXCXCXCXCXcXcXcXCXCXCXCXSXSXCXCXCXCXZXAXAXAXZXZXZXZXZXCXCXCXCXCXCXCXCXlXkXlXhXdXuXuXdXaXaXuXyXuXuXdXdXdXdXhXhXjXjXjXjXkXCXCXkXkXkXkXjXhXdXaXaXaXuXuXyXtXrX9X4X;X`.S.D.4X0XyXdXdXfXkXjXkXkXkXkXjXkXCXCXSXSXCXCXNXNXkXjXdXdXaXyXyX0X9X0X9X9X4X3X3X:X:X-X*X*X@X_.`.`._._._.[.#X#X#X#X#X*X*X1X*X*X*X2X1X1X1X1X1X5X5X5X1X1X1X1X*X*X*X#X+X[.'.!.).E.Z.R.R.Z.B.b.v.l.i.p.d.p.0.0.8.} 0.).gXjXfXjXkXkXlXCXCXSXAXAXAXAX9XqXuXgXfXkXMXSXCXSXSXSXCXCXZXZXZXZXAXAXAXAXAXAXAXAXAXCXCXSXSXCXcXlXlXkXzXzXzXzXzXdXdXhXhXhXdXdXdXdXdXdXdXdXdXuXuXdXuXuXuXdXdXdXdXdXdXdXdXzXkXkXkXzXkXkXcXcXSXCXCXCXCXCXlXkXkXNXcXcXuX9X4XfXAXFXAXAXAXAXAXAXAXAXAXAXAXCXZXCXhXtXtX>X4X;X$XOX^.D.f.e.4.z u u i s i p p p i s ,.h.g.h.h.g.%X%X%XD.^.^.D.C.C.C.e.4.s s i p p p p p >.>.>.>.>.<.<.<.<.>.>.<.>.>.<.>.>.<.>.>.>.>.:.:.:.<.,.,.h.XX<X7X7X7XiXiXiXiXuXuXpXpXdXjXjXdXdXaXtX9XtX0X0X0XqX=X3XpX:X3X3X=X;X3X9X9X9XyXiXyX9X9X9X9X9X9X9X9X9X9X9X9X4X9X9X4X:X:X:X:X:X>X4X9XrXrX9XrXyXyXyXyXyXaXdXdXyXaXdXkXMXSXkXgXkXkXBXZXAXZXMX9X=X&X4X4X5X4X3X5X9X0X4X4XyXaXaXdXaXaXdXgXdXdXdXdXdXjXkXjXkXkXjXjXhXhXjXjXhXdXdXdXdXdXdXdXdXjXdXaXdXjXkXjXjXNXNXjXMXdXjXNXSXNXMXkXSXSXSXNXMXSXSXSX",
"cXcXCXCXCXCXcXCXcXcXcXcXCXCXCXCXCXCXCXCXAXAXAXZXZXCXCXCXCXCXCXCXCXCXkXkXkXkXkXdXdXdXdXdXaXaXyXtXtXtXyXuXaXdXdXdXhXhXjXkXNXCXCXNXkXkXkXkXkXhXdXaXuXuXuXyXyXtX9X9X=X!.S.^.9X0XaXdXdXdXfXfXfXjXkXMXCXSXCXCXCXCXCXNXjXjXdXdXdXdXdXuXyXyX0X9X0X0X0X9X4X3X:X=X*X*X@X_._._._.].].+X#X*X*X#X#X*X1X1X*X*X1X1X1X1X1X1X5X5X5X5X5X5X5X1X1X*X*X*X#X+X].~.).E.Z.R.Z.B.n.m.c.l.i.p.d.d.0.0.} } } [.BXgXfXjXkXlXCXCXCXCXAXAXAXAX9XqXuXdXfXkXSXCXSXSXSXSXCXCXZXZXZXZXAXAXAXAXAXAXAXAXAXCXZXCXCXCXCXCXcXlXlXkXkXlXkXhXhXzXkXzXzXdXdXdXdXdXdXdXdXdXdXdXdXuXdXdXdXdXdXdXdXhXzXjXkXkXkXkXcXcXCXCXCXCXCXCXCXCXCXCXNXNXlXCXdXyX4XgXAXAXAXAXAXAXAXAXAXAXAXAXAXCXMXlXaX4X4X>X>X@XOX^.C.g.e.4.z z u u s i i i p p p p s ,.,.,.h.H.XXXXXX.X^.^.D.S.N.C.4.,.s p i p p p p p s >.>.>.>.<.<.<.>.>.>.>.>.:.:.:.:.>.<.<.>.>.:.:.p >.,.,.h.C.XX<X7X7X7XiXtXiXuXyXpXpXaXdXaXaXdXaXyX9XyX0X0X0X0X;X:XpXqX0X5X=X;X3X9X9X9XyXiXrX9X9X9X9XrXrXrXrXrXtXrX9X>X9X9X4X:X;X;X:X:X>X4X9XrXrX9XrXyXyXyXyXuXdXdXfXaXaXdXfXMXMXkXfXjXkXBXZXAXZXfX5X=X:X=X0XaXaX5X3X9X0XyXyXtX4X0XdXdXpXaXaXdXdXdXdXdXdXjXjXkXjXjXjXhXdXfXfXdXdXdXdXdXdXdXdXdXdXdXaXdXkXNXkXkXNXCXkXkXjXjXMXSXSXSXMXMXSXSXNXSXSXSXSX",
"cXcXcXcXCXCXcXcXkXcXcXcXCXCXCXCXCXCXCXCXAXAXAXZXZXCXCXCXCXCXCXCXCXlXkXkXkXkXzXdXdXdXdXdXdXaXyXtXtXtXrXtXyXuXaXdXdXdXhXjXkXkXkXlXkXkXkXkXkXkXhXaXuXuXuXyXyXtX9X9X&XD.S.`.9XyXdXdXdXdXfXfXfXfXfXkXCXZXSXCXNXCXCXMXkXjXjXdXdXdXdXuXyXuXyX0X0X0X0X0X9X3X3X:X=X-X*X+X[.[.[.[.[.#X*X*X*X*X*X*X1X=X*X*X1X1X1X1X5X5X5X5X5X5XqX5X5X5X5X1X-X*X*X#X].E.).E.Z.R.Z.B.n.m.c.l.i.p.p.p.y.0.} } } [.BXgXkXkXkXCXCXCXCXAXAXFXAXkX:X0XuXgXfXkXSXCXSXCXCXCXCXZXAXAXAXAXAXAXAXAXAXAXAXAXAXAXAXZXCXCXCXCXCXCXcXcXcXcXcXzXzXkXkXzXkXzXzXzXzXzXzXzXzXhXzXzXzXdXdXzXhXzXzXzXzXkXkXkXcXcXcXcXcXcXCXCXAXCXCXCXCXAXCXCXCXkXzXlXuXyX4XdXAXAXAXAXAXAXAXAXAXAXAXAXAXCXjXNXdX:X4X>X;XOX^.D.N.q.4.,.z s u u i p i i p p i p s ,.s ,.h.XXH.H..X.X^.D.D.C.g.g.z z s i i s p p p p >.>.>.<.>.<.<.<.>.>.>.>.:.:.:.:.:.>.<.<.>.>.:.:.p :.<.,.h.g.H.,X7X7X7XiXuXiXuXuXpXpXaXdXaXaXaXaXaXtXaXyXpX0X0X=X-XqX0XqX3X&X&X:X9X9X9XyXrXrX9X9X9X9X9XrXrXrXrXtXtX9X4X9X9X4X4X:X:X:X:X4X9X9XrXtXrXtXyXyXyXyXuXdXdXkXdXfXgXaXMXfXfXjXfXMXZXAXZXBXaX3X3XqX_.3X0X0X0X9X9X0XyXdXaX9X9XaXdXaXaXdXdXdXdXdXdXdXdXhXhXhXhXhXhXdXfXfXdXdXdXdXdXdXdXdXdXjXdXdXdXjXMXkXMXMXMXMXjXjXkXkXMXSXCXSXMXNXNXNXSXSXSXSX",
"cXCXcXlXcXcXcXcXcXcXcXcXCXCXCXCXCXCXCXCXCXCXZXCXCXCXCXCXCXCXCXSXcXlXkXkXkXkXhXdXdXhXhXdXdXaXyXtXtXtX9X9XrXtXyXuXaXdXdXdXdXyXuXjXkXkXkXkXkXkXkXdXaXuXuXyXtXrX9X9X@XD.A._.0XaXdXfXdXdXfXfXfXkXfXjXMXSXCXSXCXCXCXCXNXNXNXjXdXdXdXdXaXuXyXyXyXtX0X0X9X3X3X:X:X=X=X@X+X+X+X+X+X*X*X*X*X*X*X*X-X1X1X1X1X1X1X5X5X5X5XqXqXqXqXqX5X5X5X1X1X-X*X*X].~.).E.R.R.R.Z.n.m.v.l.i.p.p.d.y.0.} } 0.).gXgXkXjXkXCXCXCXCXCXAXFXFXgX:X0XaXgXjXSXCXSXZXCXCXCXCXZXAXAXAXAXAXAXAXAXAXAXAXAXAXAXAXZXAXAXAXAXAXCXCXCXCXCXcXcXkXcXcXkXkXkXkXkXkXzXzXzXzXzXzXkXzXhXzXzXzXkXcXkXkXcXcXcXcXCXSXSXCXCXCXCXAXCXCXCXCXCXCXCXlXuXiXhXyX9X4XdXAXAXAXAXAXAXAXAXAXAXAXAXAXCXkXAXkX4X>X;X@X.X.X^.N.r.z z s u i i p p i i p p p s s s i ,.h.H.g.g.g..X.XD.D.C.g.4.z i i i i p p p p p >.>.>.<.>.>.>.>.>.<.>.>.<.>.<.>.>.<.<.:.:.>.:.:.p :.:.<.4.H.8XXX<X7X7XiXuXuXuXuXaXpXaXdXaXaXaXaXaXyXdXaXpX0X9X=X*X:X5X3X=X&X&X;X:X9X9XrXrX9X9X9X9X9X9X9X9X9X9X9X9X9X4X4X9X4X>X:X:X:X:X>X4X9XrXtXrXrXyXyXyXyXyXdXfXkXfXkXjXaXSXaXdXMXgXSXAXAXZXMXqX-X3X0X4X5X5X0X0X0X0X0X9XdXjXtX0X0XpXaXaXdXdXdXdXdXdXdXdXdXdXdXdXdXdXdXdXdXdXdXdXhXdXdXdXdXzXkXkXkXdXdXjXkXkXkXMXCXkXMXMXkXkXNXSXZXSXSXNXNXSXMXMXMX",
"CXCXkXkXcXCXcXkXcXcXcXcXcXcXCXCXCXCXCXCXCXCXCXCXZXCXCXCXCXCXSXSXCXcXlXlXkXkXkXhXdXhXhXdXdXuXyXyXtXtX9X9X9X9X9X9X9X9XtXuXaXdXdXdXhXkXlXjXkXkXkXkXkXdXaXyX9X9X9X4XoXD.z.`.9XaXdXfXdXdXdXdXjXMXkXSXCXCXSXCXSXCXCXCXCXCXCXkXjXdXdXdXdXdXaXuXyXyX0X0X9X3X3X:X:X:X=X*X#X+X+X+X#X*X-X-X-X*X*X*X-X-X=X1X1X1X5X5X5X5X5XqX5XqXqX0XqX5X5X5X1X-X-X*X+X_.).E.E.E.E.Z.B.b.z.l.i.p.p.y.y.0.6.8.0.).mXgXkXfXkXkXCXCXCXSXAXFXFXgX:X0XdXdXkXcXCXCXZXCXCXCXZXZXAXAXAXAXAXAXAXAXAXAXAXAXAXAXAXAXAXAXAXAXAXAXAXAXAXAXCXCXcXcXcXcXkXcXcXcXkXzXzXkXkXkXkXcXcXkXkXkXcXSXCXSXSXSXSXSXSXSXCXCXAXAXCXCXAXAXCXCXCXCXCXCXkXyXuXuXyX9X4XuXAXAXAXAXAXAXAXSXAXSXAXAXAXSXMXAXdX>X>X@XOX^.C.g.f.4.z s u u i i i i i i p p p s s >.s ,.,.h.h.g.H.XX.XC.V.g.f.4.z s i i i i p s >.>.>.>.<.<.>.>.<.<.<.<.:.>.<.:.p <.>.>.>.:.:.:.:.:.:.:.>.<.,.h.XXXX<X7XxXzXuXuXuXaXaXaXaXdXdXaXaXaXdXdXdXdXaX0X4X;X-X-X:X-X=X&X&X=X:X9X9XrXrX9X9X4X9XrX9X9X9X4X4X9X9X9X4X4X4X>X>X>X:X:X>X>X4X9XtXtXtXtXyXuXuXyXyXdXfXjXjXNXMXaXSXfXfXSXjXSXAXDXZXfX5X3X5XqX0XqX3X3X0XtXtXtXyXpXdXdXyX0XtXyXaXaXdXdXdXdXdXdXdXdXdXdXdXdXdXdXdXhXdXdXdXjXdXdXdXdXdXjXkXNXjXdXdXkXkXMXMXkXCXCXMXkXkXSXCXZXCXNXNXSXSXSXBXMX",
"CXkXjXCXCXCXkXkXkXkXkXkXlXlXlXlXCXCXCXCXSXSXCXCXCXCXCXCXCXCXCXCXCXCXCXCXlXkXkXkXhXdXhXhXdXaXuXyXtXtX9X9X9X9X9X4X9X9XrXyXuXaXaXaXdXjXjXjXjXkXkXkXNXkXdXyX9X9X9X:XoXD.z.`.9XaXdXfXfXfXfXfXkXkXZXSXCXSXCXNXCXCXZXZXSXNXNXNXkXdXdXdXdXdXdXdXaXpXyXyX0X9X3X:X:X:X-X-X*X*X*X*X*X-X=X=X=X-X-X-X=X-X1X3X5X5X5X5X5X5XqXqXqXqXqXqXqXqXqX5X5X1X-X-X#X+X_.~.!.E.E.A.B.b.v.l.i.i.p.y.y.y.0.8.8.#XgXjXkXfXjXkXcXcXCXSXAXAXAXpX:X0XgXdXdXjXkXCXCXCXCXAXCXAXAXAXAXAXAXAXAXAXAXAXAXAXAXAXAXAXAXAXAXAXAXAXAXAXAXAXCXCXCXcXcXcXcXcXcXcXcXcXcXcXSXcXcXcXcXcXSXSXSXSXSXSXCXSXCXSXSXSXCXCXAXAXCXCXAXAXCXCXCXAXCXCXkXyXuXuXiX9X4XyXSXAXAXCXAXAXAXSXAXSXSXAXAXSXCXDXdX4X@XOX.XD.g.g.4.z s u i i i i p p p i i i p p p s >.p ,.,.4.g.g.C.C.C.g.f.r.Q s p i i i i p s >.>.>.>.<.<.>.>.>.>.<.<.:.:.<.:.p :.>.>.>.>.:.:.:.:.:.:.>.>.,.h.H.H.%X<X7XzXuXuXuXaXdXdXdXjXjXdXfXfXfXdXdXdXaXaX0X3X-X:X:X:X;X&X&X=X:X9X9XyXyXrX9X9X9XrX9X9X9X4X4X9X9X9X>X>X>X>X>X>X:X:X>X:X>X9XtXtXtXtXyXuXuXuXuXdXdXaXdXSXSXaXMXMXkXSXMXSXZXZXMXdX3X3X3X3X3XqX0XqX4X0XtXtXtXyXpXaXyXtX0XtXyXaXaXdXdXdXdXdXdXdXdXdXdXdXdXdXaXdXdXjXhXdXkXdXdXjXuXhXjXdXkXdXdXkXkXMXkXkXCXNXMXMXNXSXSXSXSXNXNXSXSXZXZXSX",
"cXjXkXCXCXCXkXkXjXjXkXkXkXkXlXlXcXcXCXCXSXCXCXCXCXCXCXCXCXCXCXCXCXCXCXCXCXlXkXkXkXhXdXhXdXdXuXuXyXtX9X9X9X4X4X4X9X9XrXtXyXyXyXuXdXdXdXhXkXkXkXkXNXNXhXaXyX9X4X&XoXD.z.`.9XaXdXfXkXkXjXjXkXkXZXSXZXCXSXSXCXCXCXCXCXNXMXNXkXjXdXdXhXdXdXdXdXdXaXaXyX0X9X3X3X-X-X=X-X-X-X*X-X=X1X1X1X-X-X-X1X3X3X5X5X5X5X5XqXqXqX0XqX0X0XwX0XqXqXqX5X5X1X=X*X#X+X_.).E.E.E.Z.b.z.l.i.p.p.y.y.y.0.6.p.].ZXjXMXfXkXkXCXCXCXSXAXAXAXpX-X0XdXdXdXjXkXCXSXAXAXAXAXAXAXAXAXAXAXAXAXAXAXAXAXAXAXAXAXAXAXAXAXAXAXAXAXAXAXAXAXAXAXSXcXcXcXSXSXSXcXcXSXCXCXSXCXCXCXCXAXSXSXcXCXCXCXCXCXCXCXCXCXCXAXAXAXAXAXAXAXAXCXCXZXCXkXyXuXuXiX9X4XrXCXAXAXSXAXAXAXcXAXSXSXAXAXSXCXAXaX;XOX.X^.C.f.9.z u u u i i p i i p p p i i i i i p >.i s z 4.r.g.g..XC.g.f.4.,.u a i i i i p p >.>.>.>.>.>.>.>.>.>.>.<.p :.<.:.:.:.:.>.>.>.:.:.:.:.:.:.>.>.<.4.g.XX,X%X<X7XxXuXpXaXdXaXdXdXfXfXjXfXfXdXdXaXaXdXaX5X-X:X:X:X;X&X*X=X;X:X9XyXiXyXrX9X9X9X9X9X9X4X4X9X9X9X4X>X>X4X4X4X>X>X>X:X>X9XtXyXtXtXyXuXdXdXdXdXdXdXdXjXkXMXMXjXkXSXMXMXBXBXfXaX3X3X3X3X3X3X0X0X0X4X9X0X0XtXyXaXpXtX0XtXtXyXuXdXdXdXdXdXdXdXdXdXdXdXdXdXaXdXdXkXkXdXkXjXjXkXdXjXCXkXMXkXjXkXkXkXMXMXjXkXMXMXMXMXMXNXSXSXNXSXSXZXZXZX",
"jXcXCXCXCXCXkXkXjXjXjXkXkXkXlXlXcXcXCXCXSXSXCXCXCXCXCXCXCXCXSXCXCXCXCXCXCXCXlXkXkXkXhXhXdXdXaXuXtXtX9X4X4X4X4X4X9X9XrXtXtXrXtXyXuXyXuXdXkXkXkXkXNXNXkXhXaXyX4X&XoXD.z._.9XaXfXfXkXkXkXkXMXSXNXZXZXZXCXCXCXCXCXSXSXCXMXMXkXkXjXjXjXhXjXdXfXdXdXdXaXtX9X3X3X3X:X:X3X-X-X=X-X1X1X1X1X1X1X1X1X1X3X5X5X5XqXqXqX0X0X0X0XwXwXpXpX0X0XqXqXqX5X1X-X*X*X[.).!.E.E.Z.b.z.l.i.p.p.y.y.y.y.6.d.*XBXSXMXjXkXkXCXCXSXSXAXFXFXgX-X0XdXdXkXCXCXZXAXAXAXAXAXAXAXAXAXAXAXAXAXAXAXAXAXAXAXAXAXAXAXAXAXAXAXAXAXAXAXSXAXAXAXCXCXCXCXAXCXAXSXcXcXcXcXSXSXSXSXCXAXAXSXcXCXCXAXAXAXAXAXAXCXCXAXAXAXAXAXAXAXAXCXCXZXCXkXyXiXiXrX9X4X9XCXAXAXSXAXAXAXcXAXSXSXAXAXSXMXCX9XOXOX^.C.g.r.4.z s u u i i p i i i p p i i i i u i p >.i p ,.4.4.g.XXC.g.r.4.z a a u i i i p p s >.>.>.>.>.>.>.>.>.:.>.p :.>.:.:.:.:.>.<.:.:.:.:.:.:.:.>.>.,.h.H.8X%X,X,X%XuXiXuXuXyXyXyXpXdXfXjXfXfXdXdXaXaXdXdX9X=X=X=X=X=X=X&X=X;X:X9XyXyXyXrX9XrXrXrX9X9X4X4X9X9X9X4X>X>X4X4X4X4X4X>X:X>X9XtXyXtXtXuXuXdXjXjXdXkXSXMXdXjXMXfXMXSXSXMXkXMXBXfXyX=X=X3X5X5X5X5XqX0X4X4X9X9X0XtXyXyXtX0X9X9XtXuXdXdXdXdXdXdXdXdXdXdXdXdXdXaXdXdXjXkXkXdXjXjXdXkXjXkXCXdXjXkXkXkXkXkXMXdXjXkXMXkXMXkXMXZXNXNXSXZXZXZXZX",
"jXCXCXCXCXlXlXkXkXkXkXkXkXkXlXlXlXlXlXlXCXCXCXCXCXCXCXCXCXCXCXCXCXCXCXCXCXCXlXlXkXkXkXhXdXdXuXyXyX9X9X4X>X>X>X>X:X:X;X&X;X>X9X9XtXyXyXdXkXkXjXkXkXNXNXkXhXaXtX:X@XD.D.@X9XaXdXkXkXkXkXMXSXZXSXZXAXCXCXSXSXSXSXSXSXSXSXkXkXkXkXkXjXjXjXjXjXjXjXjXdXyX9X3X3X3X3X5XqX3X:X3X3X3X3X3X3X3X3X3X3X3X3X5X5XqX0XqXqXpXpXpXpXsXpXpXpXpXpXpX0XqXqX5X1X-X*X#X].).E.E.Z.n.v.c.i.p.p.p.p.p.0.0.0.1XBXSXkXfXkXkXCXSXSXAXFXFXFXgX-X9XdXNXCXCXAXAXAXAXAXAXAXAXAXAXAXAXAXAXAXAXAXAXAXAXAXAXAXAXAXAXAXAXAXAXAXAXAXSXAXAXAXAXCXCXCXCXCXCXAXCXSXSXCXCXSXSXCXAXAXCXSXSXCXCXAXAXAXAXAXAXAXAXAXAXAXAXAXAXAXAXCXCXZXZXNXaXyXrX9XrX4X9XSXAXAXSXAXAXCXCXAXSXAXAXAXCXdXZXaXD.^.D.V.f.f.,.u a u i i p i i i i p p p i i i i i s s >.s s ,.4.g.C.g.g.r.4.s y a u u u u i p s >.>.>.>.>.>.>.>.>.>.>.:.:.>.>.:.:.:.<.<.>.>.>.>.>.:.:.:.>.>.4.g.8X<X%X%X7XuXiXyXtXyXyXyXpXaXdXfXdXdXdXdXaXaXaXdX9X:X=X;X=X=X&X=X=X:X3X9XtXyX9X9X9XrXrXrX9X9X9X4X4X9X9X>X>X4X4X4X4X4X4X4X4X4X9XtXyXtX9XuXaXdXdXkXdXMXkXSXdXjXfXfXSXSXSXNXMXSXSXdX;X=X=X:X3X3X5X5X0X0X0X0X0X0X0XtXtXyXtX0X9XrXyXaXaXdXdXdXdXdXdXdXdXdXdXdXdXdXdXdXhXkXkXdXkXkXdXkXkXkXCXdXjXkXkXMXkXkXkXjXjXkXCXjXkXkXkXZXNXNXSXSXSXCXSX",
"kXCXCXCXCXlXlXkXlXkXkXkXkXkXlXlXlXlXlXlXCXCXCXCXCXCXCXCXCXCXCXCXCXCXCXCXCXCXlXlXkXkXkXhXhXdXdXuXyX9X9X4X:X:X:X:X;X&X&X&X&X;X:X>X9XtXyXaXhXjXdXjXkXNXNXNXkXhXuX9X&XD.S.@X0XaXfXMXMXkXkXMXSXSXZXZXCXCXCXAXAXAXSXkXSXSXSXkXjXjXkXkXjXjXjXjXjXjXjXjXdXuX9X9X4X4X5XqX0X3X3XqX5X5X5X5X5X5X5X5X3X3X3X3X5XqXpX5XqXpXsXpXpXsXaXaXsXpXpXsXpXwXqXqX5X1X-X*X[._.).~.E.Z.b.c.i.p.p.p.p.p.0.0.d.5XBXMXkXkXkXcXCXSXSXAXAXFXFXgX:X0XjXCXMXSXZXAXAXAXAXAXAXAXAXAXAXAXAXAXAXAXAXAXAXAXAXAXAXAXAXAXAXAXAXAXAXAXAXSXAXAXAXAXCXCXCXCXCXCXAXCXSXCXCXCXCXCXAXAXAXAXCXAXAXAXAXAXAXAXAXAXAXAXAXAXAXAXAXZXAXZXCXCXZXZXCXhXyXrXrXyX4X9XCXAXAXSXAXAXCXCXAXAXAXAXAXCXkXZXjXD.D.C.f.r.4.z u a u i i p i i i i p p p i i i i p p p s s z ,.h.g.g.r.9.r.,.u a u u u u u i i p >.>.>.>.>.>.>.>.>.>.>.>.>.>.>.>.>.<.>.>.>.>.>.>.>.:.:.:.:.p ,.h.8X8X<X<X<XuXiXuXtXyXyXpXpXaXaXdXdXdXaXaXaXaXyXaXtX4X3X3X3X;X=X=X=X:X3X9X9X9X9X9X9X9X9X9X9X9X9X4X4X9X9X4X>X4X4X4X4X4X4X4X>X4X9XtXtXrX4XyXuXdXdXkXdXkXMXSXfXfXMXaXZXSXSXSXSXCXSXdX;X=X&X;X:X3X3XqXtXpXyXyXtXtXtXtXtXyXtXtXtXyXaXaXdXdXdXdXdXdXdXdXdXdXdXdXdXdXdXdXhXhXkXkXjXjXjXdXjXkXMXkXjXkXkXkXkXkXkXkXjXjXCXCXkXkXjXMXSXSXSXSXSXCXSX",
"CXCXCXCXlXlXlXlXkXkXkXkXkXlXkXkXlXlXlXlXlXlXCXCXCXCXCXCXCXCXCXCXCXCXCXCXCXCXlXlXkXkXkXjXhXdXdXdXuXrX9X4X:X;X;X&X&X&X&X&X&X&X;X:X4X9XtXyXuXaXdXjXkXNXNXNXNXkXaX9X;XS.z._.0XaXfXkXMXkXkXMXSXSXSXSXSXZXCXCXCXCXAXAXSXSXkXfXdXdXjXkXjXjXjXjXjXkXkXjXdXuXyX0X0X0X0X0X0XqX5XqXqXqXqXqXqX5XqXqXqXqX0XqXqXqXsX0X0XsXsXpXpXsXdXgXsXsXsXsXsXsXwXqXqX5X1X-X+X].).).~.R.n.v.i.p.p.p.p.p.d.0.d.5XmXjXkXkXkXkXSXCXSXAXAXAXFXgX&X9XdXkXjXMXCXSXCXCXAXAXAXAXAXAXAXAXAXAXAXAXAXAXAXAXAXAXAXAXAXAXAXAXAXAXAXAXAXAXAXAXAXAXAXAXAXAXAXAXAXAXCXCXCXCXAXAXAXAXAXAXCXAXAXAXAXAXAXAXAXAXAXAXAXAXAXAXAXAXZXAXAXAXAXZXCXkXdXuXdXdX>XrXCXAXAXCXAXAXAXcXAXSXAXAXAXCXCXCXNX^.S.N.f.9.Q u u u i i p p p p i i p p p p i i i i p i i i z ,.r.g.9.h.h.h.z a u u u u u u i p p s >.>.>.>.>.>.>.>.>.>.>.>.>.>.>.>.:.p >.,.<.:.:.>.:.:.>.:.,.,.,.h.8X<X<X<XxXxXaXyXyXaXyXtXtX0X0X0XyXyXyXyXyXtXyXyX0X4X5X3X:X=X=X=X;X:X9X9X9X9X9X9X9X9X9X9X9X9X4X4X9X4X>X>X4X4X4X4X>X4X4X>X>X9XtXyXuXiXhXdXdXaXhXdXfXSXMXkXfXMXaXZXCXSXSXSXCXSXdX;X&X&X=X:X3X3X0X0X9X3X3X4X9X0XtXtXyXtXyXyXuXaXdXdXdXdXdXdXdXdXdXdXdXdXdXdXdXdXdXdXdXjXkXhXjXkXjXdXjXkXCXkXkXkXkXjXjXkXkXjXjXNXCXkXMXMXjXNXSXSXNXSXSXSX",
"CXCXCXkXlXlXlXkXlXkXkXkXlXlXkXkXkXkXkXlXlXlXlXlXCXCXCXCXCXCXCXCXlXCXCXCXCXlXlXlXkXkXkXkXjXhXhXhXaXtX9X9X;X&X&X&X&X@X&X@X@X&X&X;X:X4X9XtXyXuXdXhXkXkXkXlXNXkXdXtX:XV.a._.0XaXgXkXMXkXkXMXSXSXSXMXCXCXCXAXAXAXSXSXSXkXkXfXdXdXjXjXkXkXjXjXkXkXkXjXdXdXdXuXyXyXyXyX0X0XqX0XqX0X0XqXqXqXqX0X0X0X0X0X0XpXgXsXsXaXsXpXpXgXfXfXgXsXaXsXgXgXsXwXqXqX5X1X#X+X[.].).R.B.v.i.p.p.d.d.p.0.0.i.5XmXjXkXMXcXcXCXCXSXAXAXAXAXpX_.&X9XuXjXkXNXSXCXCXAXAXAXAXAXAXAXAXAXAXAXAXAXAXAXAXAXAXAXAXAXAXAXAXAXAXAXAXAXAXAXAXAXAXAXAXAXAXAXAXAXAXAXAXCXCXAXAXAXAXAXAXAXAXAXAXAXAXAXAXAXAXAXAXAXAXAXAXAXCXCXZXAXAXAXCXCXNXkXdXzXkX>X9XCXAXAXSXAXCXAXcXAXSXAXAXAXAXZXCXZX^.C.g.r.9.z u u i i i p p p p i i p p p i i i i i i u u u z ,.h.g.Q 9.h.4.s u u u i i i i i i p p s >.>.>.>.>.>.>.>.>.<.<.>.>.>.>.>.:.>.<.>.>.:.>.:.:.>.>.,.<.,.h.<X%X%X7XzXxXaXuXaXaXpXaXpXaXaXaXyXyXtXtXtX0X9X9X9X3X3X3X=X&X&X&X=X:X:X9X9X:X9X4X4X4X9X9X4X9X4X4X4X4X4X4X>X>X>X>X4X4X4X>X>X9XtXyXuXyXdXaXaXuXdXaXdXSXkXSXjXfXkXSXSXSXSXSXSXSXdX;X&X&X&X=X3X3X0X0X0X0XqXqX9X0XtXtXyXyXpXaXaXaXdXdXdXdXdXdXdXdXdXdXdXdXdXdXhXdXhXdXdXhXjXjXjXjXNXdXdXjXMXkXkXjXjXdXjXkXkXkXkXjXCXkXMXZXkXMXNXSXNXNXNXSX",
"CXCXCXcXlXlXlXlXlXkXkXkXlXlXlXlXkXkXlXlXcXcXlXlXCXCXCXCXNXCXCXNXCXCXCXCXCXlXlXCXlXkXkXkXkXjXhXhXdXuXrX9X;X&X&X@XoXoXoXoXoXoX@X&X;X:X;X;XtXyXaXdXdXkXkXkXkXNXjXyX:XS.a.oX0XaXdXfXkXaXkXkXMXaXaXkXCXCXCXCXSXSXSXkXkXkXjXfXjXjXkXkXkXkXkXkXCXMXkXjXjXdXdXdXdXaXyXyXyX0X0X0X0X0X0XqX9X9X0X0XtXyXyXpXpXdXgXsXaXaXsXpXaXgXfXfXfXgXfXfXjXfXdXsXpX0XqX5X*X*X#X*X~.R.Z.b.i.p.p.d.y.y.0.6.8.5XmXBXkXSXCXCXCXCXkXAXAXAXSXqX_.;X:XtXhXkXNXCXSXCXAXAXAXAXAXAXAXAXAXAXAXAXAXAXAXAXAXAXAXAXAXAXAXAXAXAXAXAXAXAXAXAXAXAXAXAXAXAXAXAXAXAXAXAXAXAXAXAXAXAXAXAXAXAXAXAXAXAXAXAXAXAXAXAXAXAXAXAXAXAXAXAXAXAXAXZXCXCXCXCXkXhX>X>XCXFXAXCXAXSXAXkXAXAXAXAXAXAXCXCXNXS.f.e.f.Q s u u i i i i p p p p p p p p i i i i i i u u i s z 4.,.4.r.h.,.u u u u i i i i i p p s >.>.>.>.>.>.>.>.>.>.>.<.<.<.>.>.>.:.>.>.>.>.p >.>.:.:.:.<.<.<.h.8X%X%X7XuXaXdXdXdXdXdXdXdXdXkXMXaXyX0X0X0X0X9X9X5X:X=X=X&X*X&X&X=X:X3X4X3X3X3X3X>X4X4X4X9X9X4X>X4X>X>X>X4X4X4X4X>X>X4X4X4X9XrXyXuXyXaXuXaXuXaXuXdXNXaXMXjXZXaXMXNXNXNXNXSXMXfX&X@X@X&X&X=X;X5X0X0X0X0XqX4X9X9XtXyXpXpXaXuXaXaXaXaXdXdXdXdXdXdXdXdXdXdXdXhXdXhXdXdXdXjXjXjXhXNXdXaXdXkXkXkXkXjXdXdXkXkXkXkXjXkXkXMXZXSXkXNXSXMXMXNXNX",
"CXCXcXcXCXCXlXlXlXkXkXkXlXlXlXlXkXkXkXlXcXcXlXkXlXCXCXlXNXCXCXNXlXCXcXCXlXlXlXCXlXkXlXlXkXkXhXhXhXdXyX9X4X;X&X@XoXoXOXOX`.OXoX@X&X=X=X=X9XtXyXyXaXdXjXkXkXNXkXyX=X`.V.oX0XaXdXfXkXNXCXMXMXkXMXSXSXSXkXfXfXkXfXhXdXjXjXkXkXkXjXjXjXkXkXcXCXCXkXkXkXkXfXdXdXdXaXyXpXpX0X0X0X0X0XqXqXqX0X0XpXpXpXpXaXdXdXaXpXsXaXgXdXgXaXgXBXMXBXjXfXfXgXaXpX0XqX3X=X=X*X*X).E.Z.b.i.i.p.y.y.0.6.} 0.*XBXgXjXCXCXCXCXCXjXAXAXFXFXgX&XoX9XuXdXkXNXCXSXCXAXAXAXAXAXAXAXAXAXAXAXAXAXAXAXAXAXAXAXAXAXAXAXAXAXAXAXAXAXAXAXAXAXAXAXAXAXAXAXAXAXAXAXAXAXAXAXAXAXAXAXAXAXAXAXAXAXAXAXAXAXAXAXAXAXAXAXAXAXAXAXAXAXAXAXCXSXZXCXCXcXhX>X:XcXAXAXCXAXCXAXkXAXAXSXSXSXCXkXZXNXC.f.9.h.z s u i i i i i i p p p p p p p i i i i i i u u i i z z s 4.h.4.,.u u u u i i i i i p p s >.>.>.>.>.>.>.>.>.>.>.>.>.>.>.>.>.<.>.<.<.>.:.>.:.:.:.>.<.>.<.4.g.XX<X<XuXuXdXdXfXdXdXdXaXaXdXdXaXyX0X0X0X0X9X5X3X=X*X&X&X&X@X&X=X;X3X3X3X3X3X4X4X4X4X4X9X9X4X>X4X4X>X>X:X:X:X:X>X>X4X>X4X4X9XyXuXuXuXuXuXuXaXdXyXkXtXjXMXkXNXMXNXCXSXSXSXkXtX@X@X@X*X&X&X&X3X5X9XqXqX9X4X9X0XtXyXpXpXaXuXuXaXaXaXaXdXdXdXdXdXdXdXdXdXdXdXdXhXdXdXdXhXhXjXdXhXdXdXdXkXkXMXMXkXjXjXkXkXkXkXkXMXkXMXNXSXNXSXSXNXMXNXNX",
"CXCXcXCXCXCXlXkXkXlXlXkXkXlXlXkXkXkXkXlXcXcXlXlXlXlXlXlXlXCXCXlXCXCXCXlXlXCXCXlXlXlXlXlXkXkXkXhXhXhXuXyX9X9X&X&XoXOX`.D.`.`.oXoX@X&X&X=X;X4X9X0XyXuXdXjXkXNXjXtX:X@XD.@X0XaXdXdXkXCXNXMXSXSXZXZXSXMXfXdXdXkXjXdXdXfXkXSXCXkXjXdXdXkXcXCXCXCXMXkXNXNXkXfXdXdXaXyXpXaXaXaXpX0X0X0X0X0XyXpXaXsXsXaXaXdXdXyXpXaXaXfXfXfXdXgXjXkXfXdXdXfXfXjXwX0XqX5X5X3X=X*X_.!.R.V.l.i.p.p.0.0.8.} d.1XBXaXgXMXSXcXCXCXjXAXAXFXFXgX@X:XdX0XdXkXCXCXSXSXAXAXAXAXAXAXAXAXAXAXAXAXAXAXAXAXAXAXAXAXAXAXAXAXAXAXAXAXAXAXAXAXAXAXAXAXAXAXAXAXAXAXAXAXAXAXAXAXAXAXAXAXAXAXAXAXAXAXAXAXAXAXAXAXAXAXAXAXAXAXAXAXAXAXAXCXCXCXCXCXjXuX:X;XkXAXAXCXAXcXAXkXAXAXcXcXcXcXdXCXNXD.f.4.4.s u u p i i i i i p p p p p p p i i i i i i u u i a s s z h.4.,.z u u u u i i i i i p s s >.>.>.>.>.>.>.>.>.>.>.>.>.>.>.>.>.<.>.>.>.>.>.:.:.>.>.>.<.>.>.,.h.XX<X<XuXuXdXdXfXgXdXdXdXdXaXaXpXyX0X0X0X0X9X5X3X&X@X&X&X&X@X&X&X=X:X3X3X3X3X4X9X4X4X4X9X9X9X4X4X>X>X>X:X:X:X:X>X>X>X>X4X4X9XrXtXyXaXaXaXuXdXdX3XdXaXCXSXkXAXMXCXZXZXZXNXfX=XOX@X@X*X&X&X&X;X3X4X4X3X3X9X0XyXyXuXuXuXuXaXaXaXaXdXdXdXdXdXdXdXdXdXdXdXdXdXhXjXjXhXdXhXhXjXjXjXkXjXdXjXkXCXCXkXkXjXjXjXkXMXMXkXMXNXMXCXSXMXMXNXSXSXSX",
"cXCXCXCXCXlXkXkXkXlXkXkXkXlXlXkXkXkXkXkXcXcXlXlXkXkXkXkXlXNXCXlXCXCXCXlXlXCXCXlXlXlXlXlXkXkXkXhXhXhXdXuXiXrX:X&XoXOXD.D.D.`.`.oX@X@X@X@X&X;X:X4X9XyXuXdXhXkXdXtX0X@XD.=XtXaXaXaXfXkXaXkXfXSXZXSXSXSXSXkXjXSXkXdXaXdXkXCXCXkXdXdXdXzXCXAXCXSXNXNXCXCXMXjXfXfXaXyXaXaXaXaXsXpXyXpXpXpXaXaXaXaXaXaXaXdXdXaXaXaXaXgXjXjXjXkXBXMXMXjXfXfXjXjXpX0XqX5XqX5X=X#X].).E.B.v.a.i.d.0.0.0.8.p.qXgXgXdXkXkXkXCXCXjXAXFXAXSXqX&X9X9XdXdXkXSXSXCXCXSXAXAXAXAXCXAXAXAXAXAXAXAXAXAXAXAXAXAXAXAXAXAXAXAXAXAXAXAXAXAXAXAXAXAXAXAXAXAXAXAXAXAXAXAXAXAXAXAXAXAXAXAXAXAXAXAXAXAXAXAXAXAXAXAXAXAXAXAXAXAXAXAXAXSXcXkXCXkXdXuX4X;X&XjXAXAXCXAXCXAXkXAXAXcXcXcXcXdXCXCX.Xe.Q z u u i i i i i i i i i i i i p p i i i i i u u u i y s u z h.4.,.z u u u u i i i i p p s s >.>.>.>.>.>.>.>.>.>.>.>.>.>.>.>.>.>.>.:.:.<.>.p >.>.:.:.<.:.>.,.g.XX<X<XuXuXdXdXfXfXfXfXkXjXdXdXpXyX0X0XqX0X4X3X;X&X@X&X&X&X&X&X&X=X:X:X:X:X3X4X9X4X4X4X9X9X9X4X4X>X>X>X:X:X:X:X>X>X4X>X4X4X4X9XrXyXdXdXaXuXdXdXfXSXaXkXSXSXZXSXSXZXZXZXNXdXoX`.@X@X&X&X&X&X;X3X3X5X3X4X9XtXyXaXuXuXuXuXaXaXaXaXdXdXdXaXdXdXdXdXdXdXdXdXdXdXdXkXhXdXdXhXhXhXdXjXjXdXjXkXkXkXjXjXjXjXjXkXMXMXMXCXNXMXSXSXMXkXNXSXCXSX",
"cXCXCXCXCXkXjXcXCXlXkXkXkXcXlXkXkXkXkXkXlXlXlXkXkXkXkXlXlXlXcXcXCXCXlXkXlXCXCXlXlXlXlXlXkXlXkXhXhXhXhXdXaXyX9X&X&XoXD.S.A.D.!.`._.oXoXoX@X&X=X:X4X9XyXdXdXdXaXiX0XD.D.:XaXaXyXaXdXaXdXkXfXZXkXMXCXZXCXCXNXNXkXdXdXjXkXMXMXjXdXdXdXjXCXAXAXCXCXCXCXCXCXkXkXjXkXkXfXfXdXaXdXaXaXaXaXdXfXfXfXgXgXaXaXaXaXgXgXdXdXfXjXkXkXkXBXMXBXSXBXfXfXfXpX0XqXqX9X4X-X*X*X].!.Z.V.l.i.d.0.0.0.0.p.qXgXjXfXkXjXjXkXcXjXAXAXAXFXqX`.:XdXdXdXjXkXCXCXCXSXSXCXCXAXSXSXSXAXAXAXAXAXAXAXAXAXAXAXAXAXAXAXAXAXAXAXAXAXAXAXAXAXAXAXAXAXAXAXAXAXAXAXAXAXAXAXAXAXAXAXAXAXAXAXAXAXAXAXAXAXAXAXAXAXAXAXAXAXAXAXAXAXCXSXcXcXcXdXdX9X;X&XoXkXAXAXkXSXCXAXkXCXAXkXkXCXCXkXZXNXH.h.,.s s i i p p i i p i i i i i i i i i i i i u u u a u u u u s 4.,.z s u u u u u i i i p p p s >.>.>.>.>.>.>.>.>.>.>.>.>.>.>.>.>.>.>.:.:.,.>.:.<.>.:.:.<.,.:.,.H.%X<X%XiXuXdXdXfXfXjXjXBXfXdXpXpXtX0X9X5X5X5X3X;X&X&X@X@X@X@X@X&X&X=X:X:X:X3X3X9X4X9X4X4X4X4X>X4X:X:X:X:X:X:X:X>X>X>X>X4X4X4X9XrXyXdXhXaXuXaXdXjXdXdXkXSXdXSXCXNXSXZXZXMXyX!.`.+X@X@X@X@X@X=X3X4X4X9X0XtXyXaXdXdXuXaXaXaXaXaXaXdXdXdXuXuXdXdXdXaXaXdXdXdXaXuXdXhXdXdXdXjXhXdXdXdXjXjXjXkXjXdXkXkXjXjXkXkXkXCXCXNXNXCXZXNXkXMXSXCXSX",
"kXCXCXCXkXjXkXCXCXcXkXkXkXlXlXkXzXzXkXkXkXkXkXkXkXkXlXlXlXlXlXcXCXCXlXlXlXCXcXlXlXlXlXlXlXlXkXjXhXjXkXjXdXuX9X:X:X&X`.D.A.D.D.D.!._.oXoX@X@X&X&X:X4X9XyXaXuXyXtX3X`.A.:XaXaXaXdXdXdXfXkXNXkXfXNXCXCXCXZXCXNXkXjXjXkXkXjXjXdXjXjXzXkXCXCXCXCXCXAXCXCXCXkXkXkXkXkXkXfXfXfXfXfXjXfXfXfXfXfXfXfXgXdXaXaXgXfXjXgXgXjXjXkXkXkXkXMXBXBXMXkXfXgXaXpX0X0X0X4X3X=X=X+X).A.B.z.i.d.0.0.0.0.p.qXmXMXkXfXjXkXkXCXkXAXFXFXSX`.`.&X0XdXuXdXjXkXMXSXCXCXSXSXSXSXAXAXAXAXAXAXAXAXAXAXAXAXAXAXAXAXAXAXAXAXAXAXAXAXAXAXAXAXAXAXAXAXAXAXAXAXAXAXAXAXAXAXAXAXAXAXAXAXAXAXAXAXAXAXAXAXAXAXAXAXAXAXAXAXAXAXAXCXAXAXSXSXjXdXdXyX&XOXjXAXAXkXSXcXAXjXSXSXcXkXCXCXdXlXjXN.Q ,.s u p i i p i i p p i i i i i i i i i i u u u u a u u a u s ,.z s u u u u u i i i i p p p s >.>.>.>.>.>.>.>.>.>.>.>.>.>.>.>.>.>.>.>.>.<.>.>.>.>.:.:.<.,.h.h.8X%X%X%XuXaXaXuXdXfXfXfXfXgXdXaXpXtX0X9X5X3X5X3X3X3X;X&X@X+X+X+X@X&X=X=X;X:X:X3X4X9X9X4X4X>X>X>X4X:X:X:X:X:X:X:X>X>X>X>X4X4X9X9XrXtXaXdXaXuXaXaXdXkXkXfXNXdXSXCXSXSXSXSXjX4X^.`.+X+X@X@X@X@X=X3X9X9X0XyXaXaXdXdXdXdXdXdXaXaXaXaXdXdXdXyXyXaXdXdXaXaXdXjXjXaXyXaXdXdXdXhXjXkXkXjXdXjXjXjXkXjXjXkXkXjXjXkXkXkXCXCXMXSXCXZXSXjXkXSXCXSX",
"CXCXAXkXjXkXCXCXCXCXkXjXkXCXcXkXkXkXkXzXzXzXkXkXkXkXkXkXlXlXcXcXCXCXlXlXCXCXlXlXlXlXcXcXcXcXlXlXkXjXkXkXjXdXyX9X9X&XoX`.A.A.A.S.A.`.`.oX@X@X@X@X&X:X3X9XtXtX9X4X=X_.D.3XyXaXfXfXjXjXMXSXSXfXkXSXCXSXMXkXMXMXkXkXMXMXkXdXdXjXjXkXkXkXlXCXCXCXAXAXCXCXCXkXkXkXjXjXjXkXkXkXMXBXBXjXfXfXfXfXfXfXfXgXaXgXfXjXkXgXgXkXMXMXMXMXkXMXMXSXMXBXfXfXgXaXpX0XtX0X5X3X3X@X`.!.A.V.a.p.0.0.0.0.p.wXmXMXkXkXkXkXcXSXkXFXAXFXAX`.)._.:XuXyXdXdXfXkXSXSXCXSXCXSXSXAXSXAXAXAXAXAXAXAXAXAXAXAXAXAXAXAXAXAXAXAXAXAXAXAXAXAXAXAXAXAXAXAXAXAXAXAXAXAXAXAXAXAXAXAXAXAXAXAXAXAXAXAXAXAXAXAXAXAXAXAXAXAXAXAXAXCXCXCXAXAXSXAXcXdX9X@X`.hXAXAXSXAXkXCXhXSXSXcXkXCXCXhXkXaXf.z z i a i i p i i i p p p p s p i i i i i i u u u a a u u u u u z s u y u u u u u i i i p p p s >.>.>.>.>.>.>.>.>.>.>.>.>.>.>.>.>.:.>.>.>.>.>.>.:.:.>.<.>.,.h.H.<X%X%X<XuXaXuXyXaXdXdXdXaXaXgXgXaXtX0X4X3X3X3X3X3X3X;X&X@X+X+X+X@X@X&X=X;X:X3X3X4X4X9X4X9X4X>X>X4X:X4X4X>X>X:X:X>X>X4X4X4X9X9XrXyXtXyXaXaXaXaXaXdXkXkXdXMXfXSXZXZXSXMXkXdX=X`.`.oX+X@X@X@X&X=X:X9X0XyXdXdXdXdXdXdXdXdXdXdXaXaXaXdXhXdXyXyXuXaXaXaXaXdXhXhXdXyXaXdXdXdXdXhXkXkXkXdXdXdXkXkXjXjXkXkXjXjXkXkXkXCXMXMXMXSXZXZXkXfXNXCXSX",
"CXCXCXjXjXcXCXCXcXcXkXjXkXcXkXjXzXkXkXzXzXhXzXzXzXzXkXkXlXlXlXlXCXCXlXlXlXlXlXlXlXlXlXcXCXcXlXcXcXkXkXkXkXjXuX9X9X;X@X`.D.A.S.V.S.A.`._.@X@XOXOX@X=X:X9X9X9X>X:X&X!.OX3XtXaXfXfXkXMXNXZXkXkXSXkXkXMXNXkXjXkXNXCXCXkXjXdXdXjXjXkXkXkXlXcXCXCXAXCXCXCXcXkXkXkXjXjXfXkXMXMXBXMXBXjXfXfXfXfXfXfXfXfXgXfXfXkXkXfXgXfXMXMXMXMXMXMXSXSXBXMXjXfXfXaXaXpXtX0X9X3X3X@X_.!.R.V.z.p.0.0.0.0.p.wXgXjXkXkXkXkXcXCXMXAXFXFXFX`.A.`.&XyX9XuXdXhXjXMXSXSXSXSXSXSXSXSXAXAXAXSXAXAXAXAXAXAXAXAXAXAXAXAXAXAXAXAXAXAXAXAXAXAXAXAXAXAXAXAXAXAXAXAXAXAXAXAXAXAXAXAXAXAXAXAXAXAXAXAXAXAXAXAXAXAXAXAXAXAXAXCXCXSXcXcXcXcXkXfXuX9XoXD.dXSXAXSXAXcXSXdXSXSXcXkXCXCXNXNXxXf.z u u p i i i p i i p p s s s s s i i i i i u u u u a u u u a u s s u y u u u u u u i i p p p p >.>.>.>.>.>.>.>.>.>.>.>.>.>.>.>.>.:.:.>.>.>.,.:.:.:.<.<.>.,.,.H.<X,X,X7XxXaXyX0XaXaXaXaXsXgXjXfXaX0XqX3X3X3X3X3X:X=X*X@X@X@X@X@X+X@X&X=X;X:X3X3X4X>X4X>X9X>X>X>X4X:X4X4X>X>X>X>X>X>X4X4X4X9X9XyXyXrXtXyXaXuXdXdXjXfXfXkXNXfXNXCXZXSXkXjXaXoX`.`.OX+X@X+X@X&X=X:XyXaXaXdXjXjXdXdXaXaXaXaXaXaXaXaXdXdXdXuXyXyXuXuXuXuXaXdXdXaXuXuXaXdXaXaXaXdXjXkXjXdXdXkXkXjXjXkXkXjXjXkXkXkXCXkXkXMXMXSXCXMXjXMXSXCX",
"CXCXCXkXkXCXcXcXcXkXkXkXkXcXkXjXzXkXkXzXzXhXzXkXzXzXkXlXlXkXlXlXCXCXNXlXlXlXcXcXcXlXlXcXCXcXcXcXCXlXkXkXkXkXdXuXyX9X:X&XD.S.N.z.z.z.V.V.!.)._._.+X&X:X3X3X:X;X=X&XD._.4XtXaXgXfXkXkXMXMXkXkXSXkXjXMXNXkXjXMXMXkXkXkXjXdXjXjXkXkXkXcXCXCXCXCXCXCXCXCXkXkXMXkXkXjXjXMXSXMXMXMXkXkXfXfXkXkXjXfXfXfXfXkXfXkXkXfXgXfXkXSXSXkXMXSXSXSXBXBXMXBXfXgXaXpXtXrX4X5X3X@XoX^.R.V.z.p.p.0.0.0.p.wXgXjXkXkXkXkXMXkXMXAXFXFXSXS.S.`.-X0X0XaXgXjXkXMXSXSXCXNXSXCXSXCXZXCXCXZXAXAXAXAXAXAXAXAXAXAXAXAXAXAXAXAXAXAXAXAXAXAXAXAXAXAXAXAXAXAXAXAXAXAXAXAXAXAXAXAXAXAXAXAXAXAXAXAXAXAXZXZXZXZXAXAXAXCXAXCXSXcXcXcXkXkXkXhXhXyX&XD.uXCXAXcXAXSXSXdXCXSXkXkXCXkXlXNXzX9.u u u u i i i p i i p p s s s s s i i i i i u s u u u u u u u u u z s a u u u u u u i i i p p p >.>.>.>.>.>.>.>.>.>.>.>.>.>.>.>.>.>.:.:.:.>.<.:.i p :.:.:.<.,.C.XXXXXX%X4X9XyXyXaXdXdXdXaXfXkXfXsX0X4X3X3X3X3X;X=X=X*X*X&X&X@X+X+X@X@X&X:X3X3X3X4X4X4X4X4X4X4X4X>X>X>X>X4X4X4X4X4X4X4X4X4X4X9XrXtXrXtXyXuXyXdXhXkXfXfXkXMXkXkXNXSXNXkXfXyXOX`._.OXoX@X@X&X=X3X0XaXdXdXdXfXkXjXdXuXuXuXuXaXaXaXaXaXaXaXuXyXtXtXuXaXuXuXdXdXaXuXuXaXdXyXuXaXdXjXkXkXdXdXkXkXjXjXkXkXjXjXkXjXkXNXMXNXSXkXSXSXSXkXkXNXSX",
"CXcXkXCXCXCXCXcXcXkXkXcXkXkXkXkXzXzXkXzXzXzXkXzXzXzXkXlXlXkXlXlXlXlXlXlXlXcXcXcXlXlXlXcXcXcXcXlXlXlXlXlXkXkXjXdXdXyX9X:X`.S.z.q.a.a.a.a.S.!.`.`.oX@X=X:X:X=X&X&X@XA.`.4XpXaXaXgXdXdXfXfXkXkXMXkXkXkXkXkXkXCXkXjXdXjXjXjXjXjXkXkXkXcXCXCXCXCXCXCXCXCXCXkXkXkXCXCXSXCXCXkXkXMXkXkXkXkXMXMXkXfXfXfXjXkXfXkXkXjXfXfXkXSXSXMXMXSXSXSXBXBXMXBXfXaXaXaXtXrX4X5X;X@XoX`.!.B.z.i.p.0.0.0.p.sXgXfXkXkXjXkXkXjXMXAXFXFXSXS.A._.:XyXaXdXkXMXkXkXSXSXCXNXCXCXSXSXSXCXCXCXCXCXAXAXAXAXAXAXAXAXAXAXAXAXAXAXAXAXAXAXAXAXAXAXAXAXAXAXAXAXAXAXAXAXAXAXAXAXAXAXAXAXAXAXAXAXAXAXAXAXZXZXCXCXAXAXCXCXCXSXcXcXkXzXzXzXhXhXdXyX&XD.kXAXAXkXCXAXSXaXAXCXkXjXCXlXiXNXjX1.u u u u i i p p i i p p s s s s s i i i i u i i u u u u u u u u u z z u u u u u u u i i i i p p p >.>.>.>.>.>.>.>.>.>.>.>.>.>.>.>.>.>.>.:.:.:.>.:.:.:.:.>.>.,.XX8X<X%X,XrX9XyXyXaXdXdXdXgXfXaXaXpX0X3X3X3X;X=X=X&X*X=X=X&X@X+X+XoX+X@X&X;X3X3X3X4X4X4X4X4X4X4X4X>X>X:X:X>X>X4X4X>X4X4X4X4X4X9X9X9XrXtXuXaXyXdXdXjXfXjXkXMXkXfXkXkXjXdXdX0XoXOX_.oX@X&X=X=X3X9XyXdXdXdXdXdXjXjXaXuXuXuXuXuXuXuXuXuXyXyXuXuXtXtXuXuXuXaXaXaXuXdXaXaXaXuXaXdXdXjXkXkXdXdXjXkXjXjXkXkXkXjXkXjXkXMXMXNXMXjXMXNXSXNXkXMXNX",
"cXkXCXCXCXCXcXcXcXCXCXCXcXkXkXkXlXlXlXlXlXkXkXzXzXzXkXlXlXkXlXlXkXkXlXlXlXlXcXcXlXkXcXcXcXlXlXlXlXlXlXlXlXlXjXjXzXdXyX9X&X`.N.q.0.0.0.0.a.V.!.)._.`.@X-X=X&X@XoX@XA.`.5XtXaXaXgXdXdXfXfXkXkXMXMXMXjXjXkXMXCXkXjXjXjXjXjXjXjXkXMXkXcXSXCXCXCXAXCXCXCXCXCXCXCXCXCXSXCXCXSXMXMXMXMXMXMXMXkXBXjXfXfXjXkXfXkXkXkXfXfXkXSXSXMXkXkXkXkXMXkXkXfXaXsXaXaXpXtXqX5X;X@XoX`.!.A.V.z.d.0.0.0.a.sXgXfXkXkXjXkXkXjXMXAXAXFXkXB.S.`.-X0XaXfXkXMXMXkXSXSXCXCXSXSXSXSXSXCXCXCXCXSXAXAXAXAXAXAXAXAXAXAXAXAXAXAXAXAXAXAXAXAXAXAXAXAXAXAXAXAXAXAXAXZXAXAXAXAXAXAXAXAXAXAXAXAXAXAXAXAXAXAXAXAXAXAXCXCXCXSXcXcXkXzXhXhXdXdXuX9XoX`.SXAXAXkXCXCXSXuXAXSXcXjXCXlXhXzXuX5.u u u u i i i i i i i i i i i i i i i i u u s u u u u u u u u u u s z u u u u u u u i i i i p p p >.>.>.>.>.>.>.>.>.>.>.>.>.>.>.>.<.>.:.:.:.:.>.>.:.:.:.>.p ,.H.%X%X,X>XrX9XyXyXaXaXdXdXaXpXtXyXpXpXqX5X1X=X=X=X;X=X*X&X&X@X+X+XoX+X@X&X;X3X3X3X4X4X4X4X>X>X4X>X:X:X:X>X:X:X:X:X>X>X4X4X4X4X9X9X9X9XyXaXdXyXaXdXdXfXfXfXkXkXdXdXdXdXdXdX3XoX@XoX@X&X=X;X:X3X0XdXdXdXdXaXaXdXdXaXuXuXuXuXyXyXyXyXyXtXtXyXuXtXtXuXuXuXuXuXaXuXdXjXdXaXdXdXdXjXhXjXjXkXdXdXjXkXkXkXkXkXjXkXkXjXjXkXNXkXkXjXkXMXNXMXkXMX",
"kXCXCXCXCXCXcXcXcXCXCXCXcXkXkXkXkXlXlXcXCXcXlXkXzXkXkXlXlXkXlXlXkXkXlXlXlXlXcXlXkXlXcXcXcXlXlXlXlXlXlXlXlXlXkXkXkXzXdXyXyX;X`.V.a.0.0.8.| i.Z.!.).`._.@X@X+XOX_.oXS.`.3XtXaXaXfXkXkXkXkXMXMXMXMXCXjXjXkXNXCXkXjXjXjXjXjXjXjXkXMXkXlXCXCXCXCXAXAXAXCXCXCXAXZXCXSXSXZXCXSXMXMXMXMXkXkXfXdXfXjXfXfXfXkXjXkXMXjXfXfXkXMXMXjXjXkXkXkXjXfXfXgXaXaXdXdXpX0X4X3X3X&X+X`.~.A.b.l.d.0.0.p.a.gXfXfXkXkXjXkXkXjXMXAXFXAXjXb.b.A.@X3X0XaXfXkXkXkXSXSXCXCXCXSXSXSXCXSXCXCXSXSXSXSXAXAXAXAXAXAXAXAXAXAXAXAXAXAXAXAXAXAXAXAXAXAXAXAXAXAXAXAXAXZXAXAXAXAXAXAXAXAXAXAXAXAXAXAXAXAXAXAXAXAXAXAXCXCXCXSXcXcXkXzXzXhXdXuXpX4XD.D.cXAXAXkXCXCXSXuXAXSXkXdXCXkXzXCXlX5.u a u u i i i p i i i i i i i i i i i i u u s u u u u u u u u u u s z i a u u u u u i i i i p p p >.>.>.>.>.>.>.>.>.>.>.>.>.>.:.:.<.<.:.:.>.>.:.<.<.:.:.p p s h.H.,X%X>XrX9XyXpXaXaXdXdXpX4X0XtXsXpX0X0X;X=X=X=X=X=X=X&X&X@X+X+XoX+X@X&X=X3X3X3X4X4X4X4X>X>X>X>X:X:X:X:X:X:X:X:X:X:X4X4X4X4X9X9X9X9XuXaXaXrXyXyXdXfXjXkXdXdXdXaXdXdXaXdX=XoX@XoX@X=X:X:X3XqXyXdXfXdXdXaXaXdXdXpXuXuXyXyXyXyXyXyXtXtXtXyXuXtXtXuXuXuXuXuXaXuXaXjXjXaXkXhXhXjXdXdXdXkXjXdXjXkXkXkXkXjXkXkXkXjXdXMXMXjXkXfXfXMXNXMXkXkX",
"cXCXCXCXCXCXcXlXkXkXlXlXlXkXkXkXlXlXdXCXCXCXlXkXkXkXlXlXkXkXlXkXkXkXlXcXcXlXlXlXkXlXcXcXlXlXlXlXlXlXlXlXlXlXlXkXkXkXjXdXdXyX:X_.V.8.~ ~ ! | a.R.R.!.!.`.+X+X+X+X!.S._.tXpXsXaXfXBXSXSXSXMXMXMXSXCXkXjXkXCXCXkXjXjXjXjXjXjXkXMXMXSXMXCXCXCXAXAXAXAXAXZXCXZXAXAXSXSXCXSXCXMXMXMXMXkXfXdXdXdXdXdXaXdXjXjXMXMXkXkXkXkXfXkXfXkXMXMXkXkXjXfXdXaXaXdXdXyX9X3X3X4X=X+X`._.Z.b.z.d.0.0.0.z.gXfXjXkXkXjXkXBXkXMXAXFXAXGXz.z.S.oX:X9X9XuXfXkXkXNXCXCXCXSXCXCXCXCXCXCXCXSXSXSXSXSXSXAXAXAXAXAXAXAXAXAXAXAXAXAXAXAXAXAXAXAXAXAXAXAXAXAXAXAXAXAXAXAXAXAXAXAXAXAXAXAXAXAXAXAXAXAXAXAXAXCXCXCXCXCXCXcXcXkXjXjXzXdXuXyX>X`.S.dXCXAXkXCXCXCXdXCXCXjXdXCXzXlXNXNXf.z a a i i i i i i i i i i i i i i i i i u u s i u u u u u u a u u s s u u u u u i i i u i i p p s >.>.>.>.>.>.>.>.>.>.>.>.>.>.:.:.>.<.:.>.<.<.:.:.:.:.:.>.p ,.h.H.XX<X<X7XrXyXaXdXdXdXfXsXgXpXpXaX0XqX0X5X=X*X*X*X*X=X*X*X@X+X+X+X+X+X#X=X:X:X3X3X3X3X3X:X:X:X:X:X:X:X:X:X:X:X:X3X3X4X4X4X4X9X9X9X9XaXaXpXtXtXyXaXdXjXkXdXaXaXaXdXdXdX9X@XoX@XoX&X;X3X9X9XtXaXdXjXfXdXaXaXaXaXaXpXpXtXtXyXtXtXtXtXtXtXyXyXyXyXyXuXyXuXaXaXuXaXjXjXdXkXjXjXjXdXaXdXkXkXdXdXkXkXkXkXdXMXMXMXkXjXkXMXkXMXkXkXkXMXMXkXkX",
"CXCXCXcXcXkXkXkXkXkXkXkXlXkXkXcXlXhXlXlXlXlXkXkXkXkXkXkXkXkXkXkXkXkXlXcXcXcXlXlXlXlXcXcXlXlXlXlXlXlXlXlXlXlXlXlXkXkXkXjXhXaXyX:XD.z.8.| m b ! a.V.A.!.!.`.`.`.`.D.A.oX0XpXsXaXfXMXMXMXMXMXMXNXSXCXkXjXkXkXkXjXjXjXjXjXjXkXCXSXCXCXSXSXCXZXAXAXAXZXCXZXSXCXCXCXSXkXNXCXCXMXMXMXkXkXfXdXdXdXdXdXdXdXjXjXkXjXMXNXjXdXaXdXdXkXMXkXkXkXkXkXfXfXdXdXaX9X9X9X0XqX5X-X+XR.B.B.V.p.p.0.0.z.gXmXjXjXkXjXkXBXkXMXAXAXFXgXz.l.B._.:X3X9XyXdXjXkXkXMXNXNXNXMXMXNXCXSXCXCXSXCXSXSXAXAXAXAXAXAXAXAXAXAXAXAXAXAXAXAXAXAXAXAXAXAXAXAXAXAXAXAXAXAXAXAXAXAXAXAXAXAXAXAXAXSXCXCXSXSXCXCXCXCXCXCXCXCXCXCXcXcXkXjXjXhXuXyX9X-XD.S.dXCXAXkXCXCXCXdXCXcXkXhXCXzXiXNXZXg.z a u p p i i i p p i i i i i i i i i i u u u u u u u u a u a a u s s u u u u u i i i u i i p p s >.>.>.>.>.>.>.>.>.>.>.>.>.>.>.>.<.>.:.:.>.>.:.:.:.:.:.h.,.h.H.XXXX%X<X7XrXyXuXdXdXdXdXfXgXaXaXpX0XqXqX5X1X*X*X*X*X*X@X@X@X+X+X+X+X+X*X&X;X:X3X3X3X3X3X:X:X:X:X:X:X:X:X:X:X:X:X3X3X4X4X4X4X9X9X0XtXaXaXaXyXtXpXaXaXfXkXkXdXaXaXdXdXaX9X@XoXoX@X&X:X9X0XyXdXdXdXfXdXdXdXaXpXpXpXpXpX9XtXtXrXtXtXtXtXtXtXtXyXyXyXyXyXyXuXaXuXaXhXdXdXhXhXjXhXdXaXdXjXkXjXjXkXkXMXkXdXkXkXCXCXkXkXMXMXMXMXkXMXMXkXkXMX",
"CXCXCXkXkXkXkXkXkXkXkXkXkXkXkXkXlXkXCXlXkXkXkXkXkXkXkXkXzXzXzXzXzXkXlXlXlXlXlXcXcXcXlXlXlXlXlXlXlXlXlXlXlXlXlXlXlXkXkXkXkXhXaXyX-X`.z.0.! n b ~ d.V.A.!.!.!.!.!.V.D.+X3X0XsXaXfXjXjXkXkXMXMXNXSXCXkXjXjXjXjXjXkXjXjXjXjXkXCXSXCXSXSXSXZXAXAXAXAXAXZXZXSXSXSXSXkXjXkXNXNXMXkXkXkXkXfXdXdXdXfXfXfXfXfXjXkXkXkXkXkXdXyXfXfXkXMXkXkXkXkXkXkXjXdXaXtX0X0X0X0XqX5X=X+XR.A.Z.V.a.0.0.0.l.gXmXjXkXjXjXkXkXkXMXAXAXSXgX0.0.V._.-XyXdXkXkXkXkXkXkXkXkXkXkXkXkXSXCXAXCXCXSXSXSXAXAXAXAXAXAXAXAXAXAXAXAXAXAXAXAXAXAXAXAXAXAXAXAXAXAXAXAXAXAXAXAXAXAXAXAXAXAXAXAXSXSXSXCXCXCXCXCXCXCXCXCXCXCXCXCXCXcXkXjXjXhXyX9X9X&XD.S.zXAXAXkXCXAXAXdXCXCXlXkXCXlXzXNXNXg.z a i p p i p p p p i i i i i i i i i i u u u u u u u u a a a a a u u u u u u u u u i u i i p s s >.>.>.>.>.>.>.>.>.>.>.>.>.>.>.>.<.>.:.p >.>.:.:.:.:.:.h.H.H.H.H.XX,X%X4XrXyXyXdXdXdXdXgXdXaXpXpXsX0XqX5X5X*X*X*X@X@X@X@X@X+X+X+X+X+X@X&X;X:X3X:X3X3X3X:X:X:X:X:X:X:X:X:X:X:X:X3X3X3X3X4X4X9X9X0XyXyXdXfXfX0XaXaXdXdXjXMXMXfXaXdXdXaX9X@XoXoX&X:X3X0XuXdXdXdXdXdXdXdXaXaXuXyXyXyXtX4X0XrX9XrX0X0X0XtXtXtXtXtXyXyXyXuXuXaXuXdXdXdXaXdXdXhXhXjXdXdXdXkXkXjXjXkXNXCXkXdXMXCXCXMXkXkXNXMXNXMXNXkXkXNXSX",
"CXcXkXkXkXkXkXkXkXkXkXkXkXkXkXkXjXCXkXkXlXkXkXkXlXkXkXkXzXhXhXhXzXkXkXlXkXlXlXlXcXcXlXkXlXlXlXlXlXlXlXlXlXlXlXlXlXlXkXkXkXkXhXaXaXyX@XV.0.~ m n ~ d.V.A.S.S.S.S.V.!.+X=X0XpXsXfXfXfXfXfXNXNXNXSXNXkXjXjXdXjXkXjXjXjXdXdXjXjXkXCXSXSXZXAXAXAXAXAXZXCXCXSXSXSXSXkXkXkXjXjXkXkXkXkXkXfXdXdXdXjXfXjXfXfXfXfXfXMXMXfXdXdXkXkXkXkXkXkXkXkXkXkXkXfXaXtX0XtX9X9X3X=X+X`.~.!.Z.z.a.d.0.p.z.gXjXgXjXjXjXkXkXkXMXAXjXAXqXa.0.b.`.-X9XdXkXkXjXjXjXjXkXkXkXjXjXkXCXZXCXCXCXSXSXkXSXSXSXSXSXAXAXAXAXAXAXAXAXAXAXAXAXAXAXAXAXAXAXAXAXAXAXAXAXSXAXAXAXAXAXAXAXAXAXAXAXSXAXCXCXSXCXCXCXcXcXcXCXCXcXCXCXkXkXkXjXhXrX9X:X@XS.S.jXAXAXcXAXAXCXdXCXcXCXkXZXNXzXuXlX.X,.u p s p p p p p p i i i i i i i i i i u u u u u u u a a a a a a a a a u u u u u u i u i i p s >.>.>.>.>.>.>.>.>.>.>.>.>.>.>.:.:.>.<.>.:.:.>.:.:.:.:.>.,.H.H.XXH.H.XX,X4XtXyXyXaXdXdXdXgXdXaXpXpXsXpX4XqX5X1X*X@X@X@X@X@X+X@X+X+X+X+X@X*X=X:X3X:X3X:X:X:X:X:X:X:X:X:X:X:X:X:X:X3X3X3X3X4X4X9X9XtXpXtXdXkXNXtXaXdXdXdXdXMXMXkXdXdXdXaX9X@X+X@X=X:X9XyXdXfXfXdXdXdXdXdXaXyXyXtXtXtXtX4X9X9X9X9X9X9X9X9X9X0XtXtXtXyXuXuXyXuXuXdXdXdXuXdXdXdXdXhXdXdXjXkXMXkXdXkXNXCXCXdXkXCXCXMXkXkXkXSXNXNXMXjXMXSXSX",
"dXdXjXkXdXdXjXCXjXkXNXNXNXkXkXkXkXCXlXkXlXlXlXlXlXlXkXkXzXzXzXzXzXkXzXzXkXlXlXlXlXlXlXkXlXlXlXlXkXkXlXlXlXlXlXlXlXcXcXcXcXkXkXdXdXdXyX&XA.0.n n f ~ 0.i.V.V.z.z.v.!.#X1X0XpX0XpXfXfXdXdXdXSXSXkXMXkXjXjXdXkXMXjXjXjXdXdXdXjXjXkXCXCXZXZXAXZXAXAXAXZXZXCXSXSXkXjXkXkXjXjXjXkXkXkXjXdXdXdXfXfXjXfXfXjXkXkXkXkXkXfXfXjXkXkXkXkXMXMXkXkXkXkXfXdXyXyXtX0X9X3X3X-X+X).!.!.S.z.z.a.p.p.Z.sXgXgXfXfXfXfXjXfXBXAXAXSXpXp.p.V.`.:X:X0XaXjXkXfXfXkXkXkXkXkXkXkXCXSXSXSXCXCXCXkXkXCXCXCXSXAXAXSXSXAXAXAXAXAXAXAXAXAXAXAXAXAXAXAXAXAXAXAXAXAXAXAXAXAXAXAXAXAXAXAXSXSXCXCXAXCXCXCXCXkXjXkXkXkXcXSXCXkXkXkXzX9XrX4X;XoXS.S.jXCXAXSXCXCXCXdXCXkXkXlXlXlXjXlXNXg.,.u u s p p p p p p i i i i i i i i i u u u u u u u u a a a a a a a a a u u u u u u u u i i p s >.>.>.>.>.>.>.:.>.>.>.>.>.>.>.:.:.>.>.<.>.p >.:.:.:.:.>.>.h.H.8XXXXX,X>XtXyXyXyXsXgXgXgXgXgXsXsXpXpXpXqX5X5X3X=X@X+X+X@X@X+X@X[._.+X+X@X&X=X:X3X:X:X3X3X:X:X:X:X;X;X;X;X:X:X:X:X:X:X:X:X3X4X9X9XtXaXtXaXkXCXyXaXdXdXdXdXkXkXkXfXfXgXtXoX@X@X&X=X3X0XyXdXjXjXdXdXaXaXaXaXpXyXyXrXrX9X4X9X9X4X9X9X9X9X9X9X9XtXtXtXyXaXuXyXyXaXdXdXaXaXaXdXdXdXdXdXdXdXjXCXkXdXkXCXCXCXjXjXkXMXMXCXMXjXNXNXSXMXfXMXSXNX",
"uXuXdXjXdXkXNXjXjXkXNXNXNXlXlXkXkXCXlXkXlXlXlXlXlXlXlXkXkXzXzXkXkXkXzXzXkXkXkXkXlXlXlXlXlXlXlXlXkXkXkXkXlXlXlXcXlXlXcXcXCXkXkXkXzXdXdXyX=X!.8.n l n ~ 0.a.b.z.z.v.!.#X3X0XpX0XpXaXfXfXfXkXSXZXSXNXkXjXdXdXkXkXdXdXjXdXdXdXjXkXkXCXCXZXZXAXZXAXAXAXAXAXAXAXCXkXjXkXkXkXkXMXNXCXMXjXdXdXdXdXdXfXfXjXkXkXkXkXkXkXkXfXkXkXfXfXfXMXMXMXkXkXkXdXyXyXyX0X9X4X3X-X-X*X_.!.!.A.B.z.a.p.p.E.gXgXgXfXfXfXfXAXZXZXAXHXFXBXz.0.z.`.=X3X0XaXkXkXfXfXkXkXkXkXkXMXkXSXSXCXSXSXCXZXCXCXCXZXZXAXAXAXSXSXAXAXAXAXAXAXAXAXAXAXAXAXAXCXAXAXAXAXAXAXAXAXAXAXAXAXAXAXAXSXAXSXSXCXCXCXSXCXCXCXjXjXkXjXjXkXSXCXkXkXkXdXyXrX>X;XoXS.V.dXCXCXkXkXkXCXdXCXkXkXlXlXlXlXZXzX1.z i u p p p p p p p i i i i i i i i i u u u u u u u u a a a a a a a u u u u u u u u u u i i p s >.>.>.>.:.>.:.p :.>.>.:.>.>.>.>.>.p p >.>.p p p p :.:.>.,.h.H.XXXXXX%X7XuXuXuXyXsXgXgXgXgXsXsXsXpXpXpXpX5X5X1X*X@X+X+X@X#X@X*X[._.[.+X@X&X=X:X3X:X:X:X:X:X:X:X:X;X;X;X;X:X:X:X:X:X:X:X:X3X4X9X9XtXyX9XyXdXjXyXtXfXfXfXfXdXdXdXdXsXdX0X@X@X@X=X;X3X0XaXdXjXfXdXaXaXaXaXyXyXyXyXtX9X4X4X4X4X4X9X9X9X9X9X9X0XyXyXtXyXdXuXyXuXdXdXdXdXdXdXdXdXdXdXhXdXdXjXkXkXdXkXkXCXCXkXjXkXkXkXMXMXfXMXSXSXNXkXMXNXNX",
"yXyXdXdXjXMXkXdXhXkXNXCXCXkXlXkXkXCXlXkXkXlXlXlXlXlXlXkXkXzXzXkXkXkXzXzXzXlXkXkXlXlXlXkXlXzXlXlXkXkXkXkXlXlXlXkXkXkXkXkXkXcXcXcXkXzXdXdXpX3XE.~ f d n | 0.a.z.i.v.!.&X1X0XpX0XtXpXfXfXfXkXMXSXZXCXkXkXjXdXjXjXdXdXdXjXjXkXkXNXCXCXCXZXAXAXAXAXAXAXAXAXAXAXAXCXSXMXMXNXNXNXNXCXMXkXdXdXdXdXdXdXfXfXfXkXkXkXkXkXkXkXkXkXkXMXkXfXfXfXfXfXfXaX0XyXyX0X9X5X3X=X=X-X@X!.!.E.S.z.i.p.0.).gXjXgXfXjXfXfXAXSXSXAXDXAXsXa.0.z.!.-X3X0XaXkXkXfXfXkXkXkXkXMXMXMXSXSXSXSXSXCXSXAXAXCXCXZXAXAXAXSXSXAXAXAXAXAXAXAXAXAXAXAXAXAXCXCXAXAXAXAXAXAXAXAXAXSXAXAXSXSXAXAXAXSXCXCXSXSXCXCXCXkXkXcXcXkXkXSXcXcXkXhXdXdXrX>X;XoXV.z.uXZXCXkXkXkXCXdXCXkXkXlXlXlXhXlXNXC.z s u u p p p p p p i i i i i i p i i u u u u u u u a a a a a a a a u u u u u u u u i i i p s s >.>.>.>.:.>.:.p :.>.>.>.>.>.>.>.>.:.p :.:.>.p i p :.>.<.,.h.H.XXXX%X<XiXuXaXuXuXaXdXfXdXsXaXsXpXpXpXpX0X5X1X1X*X@X+X+X@X*X*X=X+X_.[.+X@X&X=X:X3X:X:X:X:X:X:X:X:X;X;X;X;X:X:X:X:X:X:X:X3X4X4X9X9X9XtX4XyXdXjXdXdXdXfXfXfXdXdXdXdXdXdX9X+X@X&X=X:X9XyXaXdXdXdXaXyXyXyXyXrX4X4X4X4X9X4X4X4X4X4X9X9X9X9X9X9XtXuXuXtXuXdXaXyXuXdXdXdXdXdXhXhXjXhXdXkXjXdXdXkXkXMXjXkXkXNXCXkXkXkXkXkXMXkXjXMXSXNXSXkXMXNX",
"9XyXuXdXCXjXdXjXhXkXNXCXCXNXkXkXkXCXCXkXlXCXlXlXlXlXlXlXkXzXzXkXlXkXzXzXzXkXkXkXkXkXkXkXzXzXlXlXkXkXkXkXlXlXlXzXzXzXzXzXkXcXcXcXcXkXzXdXdXyXqXB.| n d n | 0.0.0.v.!.*X1X0XpX0XtXpXgXfXfXfXaXdXMXCXkXjXjXdXdXdXdXdXdXjXkXkXNXCXCXCXCXCXZXAXAXZXZXAXZXZXCXCXZXAXAXSXCXNXMXkXkXkXkXjXdXdXdXdXdXdXdXdXdXfXkXkXkXkXkXkXkXkXkXkXjXkXfXfXdXdXdXyX0XaXyX0X9X5X3X3X=X-X*X`.!.!.A.z.i.p.0.[.gXjXgXfXkXfXfXkXfXSXDXZXSXwX0.0.z.!.*X3X0XaXfXMXkXjXkXkXkXkXMXMXMXMXSXSXkXkXkXCXCXCXSXSXZXAXAXAXSXSXAXAXSXSXAXAXAXAXAXAXAXAXAXSXSXAXAXAXAXAXAXAXAXAXSXSXSXSXAXAXSXAXAXCXCXSXSXCXCXcXjXkXcXcXkXcXSXcXkXkXdXuXjX9X>X;XoXN.q.yXAXAXCXCXCXCXzXCXkXkXlXlXlXzXNXlX9.z s i u p p p p p p i i i i i i i i i u u u u u u u a a a a a a a a u a u u u u u u u i i p p s >.>.>.>.>.<.>.>.>.>.>.>.>.>.>.>.>.>.>.>.>.>.p p p :.>.<.<.h.8XXX,X%X7XxXaXaXuXaXaXaXaXaXaXaXpX0X0XpXpXpX5X*X=X=X*X+X+X@X*X*X=X+X_.[.+X+X@X&X;X3X:X:X:X:X:X:X:X:X:X;X;X;X:X:X:X:X:X:X:X3X4X9X9X9X9XtX4XrXyXaXdXyXaXdXdXdXfXkXkXkXBXaX:XoX+X@X&X=X0XaXaXaXaXaXyXtXtXtXrX0X5X5X5X5X4X3X4X3X:X3X4X4X9X9X9X9XtXuXaXyXuXdXaXyXaXdXdXdXdXhXhXhXjXdXkXkXkXdXdXjXMXCXjXdXkXNXCXkXkXkXkXkXMXMXfXkXNXMXCXkXkXMX",
"V._.:X9XtXpXdXaXaXdXdXdXdXhXzXzXkXCXNXNXCXCXCXlXlXlXlXlXkXzXzXlXlXkXhXzXkXkXkXkXlXlXzXzXzXzXlXlXkXkXkXkXkXkXkXjXhXjXjXjXkXkXkXkXkXkXkXkXfXdX0X+XE.~ d d m | 8.0.A.+X=XqX0XpXaXaXaXdXfXkX0XyXaXfXkXjXdXdXdXdXdXdXdXdXjXkXMXCXCXCXCXCXZXZXAXAXAXAXZXZXZXCXCXCXAXAXZXSXCXkXkXkXkXkXkXkXfXfXdXdXdXdXdXdXdXfXjXkXjXkXkXkXfXkXjXdXkXfXdXdXdXaXyXyXaXtX9X9X4X4X5X3X=X@X_.!.R.Z.z.i.0.0.A.gXjXgXgXMXjXfXkXkXSXFXFXFX5X0.0.l.A._.3XqXyXgXjXfXfXjXkXkXkXSXMXSXSXSXSXkXkXSXCXSXSXSXSXCXZXZXAXAXAXAXAXSXSXSXSXAXAXAXAXAXAXAXCXSXCXCXCXCXAXAXAXAXCXAXCXCXkXSXCXSXSXSXSXSXSXSXCXCXkXjXkXkXkXcXcXcXlXkXkXdXuXyX4X&XOXS.N.q.uXAXAXCXCXCXCXjXCXCXCXCXCXCXiXxXlX9.u u i u i i p p p p p i i i i i i i i u u u u i u u a a a a a a a a a a a u u u u i i i p i p p >.>.>.>.>.<.>.>.>.>.>.>.>.>.>.>.>.>.>.>.>.>.p p :.p :.<.<.h.8X8X<X7X7XtXpX0X0XpXaXaXpXpXpXpX0X0X5X3X3X3X1X*X=X=X*X+X+X+X@X#X-X]._.].[.+X@X*X=X:X:X:X3X3X3X:X:X:X:X:X:X:X:X:X:X:X:X:X3X3X4X9X0X9X9X9X9X9XtXaXfXtXfXdXdXdXjXBXSXjXpXyX@X_.+X@X&X=X0XaXpXaXaXaXpXyXrX4X4X0X4X3X4X4X4X3X:X:X:X:X>X4X4X9X9XrXyXuXaXaXuXdXaXuXaXdXdXdXdXdXhXhXjXhXkXkXkXdXdXjXMXCXjXdXjXNXNXMXMXkXjXNXMXSXjXkXMXMXSXkXkXkX",
"z.V.D.@X9XtXtXyXfXdXyXtXyXaXzXkXCXjXjXCXCXCXlXlXlXlXlXlXlXkXkXlXlXzXhXkXkXkXzXzXkXkXzXzXzXzXlXlXkXzXkXkXkXkXhXhXhXjXjXjXjXjXkXkXjXjXjXjXkXfXaX3X*Xz.m d n ~ | 0.!.@X3XqX0X0XpXaXaXaXdXjXaXaXdXdXdXdXdXdXdXdXdXdXdXdXjXkXkXMXCXCXCXCXCXZXAXAXAXAXAXAXAXAXZXCXZXAXCXSXCXkXkXkXkXkXkXkXkXfXfXfXfXdXdXdXdXfXfXkXfXkXkXfXdXfXkXdXfXdXdXdXdXaXaXaXaX0X9X4X4X9XqX3X=X+X`.!.A.B.l.i.0.0.!.aXfXdXgXMXfXfXkXjXSXDXFXZX*Xp.d.a.S._.3XqX0XaXdXfXfXjXjXjXkXkXSXSXMXSXSXSXSXCXSXCXSXSXSXCXZXZXCXCXAXSXSXAXSXkXkXSXAXAXAXAXZXZXCXCXSXSXCXCXCXCXCXCXCXAXAXCXdXkXSXSXSXcXkXkXcXSXcXcXkXkXkXkXkXcXcXlXkXzXzXdXiXrX9XoX!.D.N.q.uXZXAXCXCXCXCXjXCXcXjXkXlXlXuXxXNX9.u u i i i i p p p p i i i i i i i i i i i i u i u u a a a a a a a a a a a u u u i i i i p i p p p >.>.>.>.>.>.>.>.>.>.>.>.>.>.>.:.p p >.>.:.:.:.i :.<.,.h.j.H.XX7XiXuXxXaXaXaXsXpXpXyXpXpX0X0X0X0X3X3X1X1X*X=X=X@X+X[.+X+X+X*X[._.].].[.+X&X=X:X:X3X3X3X3X:X:X:X:X:X:X:X:X:X:X:X:X:X3X3X4XrX0X9X9X9X9X9XtXjXjXaXMXfXfXkXBXMXBXaX0X0XOX`.+X@X*X=X3X0XyXaXaXaXaXtX0X5X4X4X4X4X4X4X4X3X:X;X:X:X:X4X4X9X9XtXyXyXaXaXaXdXaXuXaXdXdXdXdXdXdXhXhXjXkXkXjXdXuXdXkXkXkXjXjXkXMXkXkXkXkXMXMXSXMXkXkXNXMXkXkXkX",
"&XD.V.V.S.OX:XuXdXpX0X9XtXaXdXhXjXNXNXjXkXkXlXkXkXkXlXkXkXlXlXkXkXjXzXkXkXkXzXzXzXzXzXzXzXzXlXlXkXkXkXkXkXhXhXhXhXhXhXzXzXzXhXhXjXjXdXdXkXfXdXwX1X!.0.m f n ~ | ).#X:X9X5XqX0XtXtXyXaXdXfXfXdXdXdXdXdXdXdXdXdXdXdXhXjXkXjXkXNXCXCXCXZXZXAXAXAXAXAXAXAXAXZXZXAXAXZXSXCXMXkXkXkXkXkXkXkXkXkXjXfXfXdXdXdXdXfXkXfXkXjXfXdXdXdXyXaX0XyXdXdXdXaXaXyX0X9X9X4X4X3X-X*X[.).A.Z.b.z.a.p.p.).gXgXpXsXBXjXfXkXjXCXDXDXFX5X0.0.i.V.~.-XqX0XaXaXdXfXfXhXhXkXkXkXMXSXSXSXSXSXSXSXSXSXCXSXCXZXCXSXSXSXSXAXSXkXSXSXSXSXSXSXCXCXSXSXSXCXSXSXSXCXCXSXSXCXCXAXSXhXkXcXcXcXkXhXhXkXkXkXkXcXcXSXSXSXcXkXjXzXdXdXuXrX9X:X`.D.S.a.N.yXCXAXCXCXCXCXdXCXkXjXkXlXlXxXzXNXr.u u i i i i p p p p i i i i i i i i i i i u u u u u u a a a a a a a a a u u u i u i i i i i p p p >.>.>.>.>.>.>.>.>.>.>.>.>.>.:.:.p p :.>.>.>.>.:.>.,.,.g.XX8X%X7XiXuXaXaXdXfXaXpXyXyXpXpX0XqX0XpX5X3X1X1X=X*X*X*X@X[._.[.+X-X+X].].].[.@X&X-X:X:X:X3X3X3X3X:X:X:X:X:X:X3X3X:X:X:X:X3X4X9X0XtX9X9X9X9X9XtXdXdXdXSXfXdXkXsXgXdXtXqX9X_.!.+X@X*X=X3X9XtX0X0X5X3X;X:X3X3X3X3X3X3X3X3X:X;X=X;X:X:X4X9X9XrXyXiXiXuXdXaXdXaXaXdXhXdXhXdXdXdXjXkXkXjXkXkXdXdXdXjXjXkXkXjXjXkXkXkXMXMXkXMXCXSXjXfXSXNXkXkXMX",
"uX9X&XD.N.V.D.OX;X4XtXtXdXaXaXhXjXhXjXkXkXkXkXkXkXlXlXkXjXCXkXjXhXzXkXkXkXzXzXzXzXzXzXzXhXzXlXkXzXzXzXzXjXhXhXhXhXhXhXhXhXhXhXhXdXdXdXdXkXkXfXaXqX#XA.0.n d n | _.*X:X9X3X3X0X0X0XtXyXaXMXkXdXaXuXaXdXdXdXdXhXhXhXhXjXjXjXjXMXCXCXCXZXZXZXZXAXAXZXZXAXAXAXAXZXAXZXCXCXMXkXkXkXkXjXkXjXkXkXkXkXjXdXaXaXaXdXkXdXkXkXkXkXfXfXfXkXdXdXdXdXdXaXyXtX9X9X9X4X3X3X=X#X_.!.A.B.v.z.i.p.p.`.gXdXpXaXjXdXdXkXhXMXAXFXDX1Xy.0.p.V.!.*X5X0XyXyXuXhXfXdXgXhXfXkXkXkXkXkXCXSXSXkXkXSXCXSXCXSXSXCXCXSXSXSXSXSXSXSXSXSXSXSXCXSXCXSXSXSXCXSXcXcXSXSXSXSXSXCXCXcXcXcXkXkXkXzXzXzXhXhXjXcXCXAXAXCXSXkXzXzXhXuXyX9X>X&XoXD.N.q.N.aXCXAXCXCXCXCXdXCXkXcXCXCXCXzXzXZXf.u u i i i i p p p p i i i i i i i i i u u u u u u u u a a a a a a a a a u u u i u i i i i i p p >.>.>.s :.:.>.>.>.>.>.>.>.>.>.>.>.:.:.>.>.>.>.<.<.,.,.,.g.XX8X%X<X7X7XtXrXpXaX0X0XyX0XpXpX0XqX0XpX5X3X1X1X1X=X*X@X@X[._.].[.*X+X].].].].+X&X-X:X:X:X3X3X3X3X:X:X:X:X:X:X3X:X:X:X:X:X3X4X4X9XtX9X9X9X0X9X0XtXyXpXNXaXyXdX0XaXpX0X0X9X_.!.oX@X*X=X3X3XqX0X0X4X3X=X;X3X3X;X3X3X3X3X:X;X&X&X;X:X:X4X4X9XrXyXiXiXuXdXaXdXaXaXdXhXdXdXdXdXjXjXjXNXdXkXMXjXjXjXjXjXkXkXkXjXjXkXkXCXCXkXMXZXZXMXfXMXSXjXkXNX",
"CXkXyX4XD.^.V.a.V.$X3XyX9XtXaXfXhXdXaXhXhXhXjXkXkXkXkXkXhXCXkXhXhXkXkXkXkXkXzXzXzXlXzXhXhXzXlXzXzXzXzXzXzXhXhXhXdXdXdXdXdXdXdXdXdXdXdXdXjXkXjXgXpX-X).z.! f d | !.*X3X-X5X5X3X3X3X0XfXCXdXdXaXyXyXuXdXdXdXhXjXjXjXjXkXjXjXhXkXNXCXCXZXCXZXZXAXAXZXAXAXAXAXAXAXAXZXZXCXNXkXkXkXkXfXkXfXkXkXkXkXfXdXaXyXdXdXdXdXjXkXkXkXjXkXMXkXkXfXdXaXaXyX0X0X9X0X9X5X3X-X*X@X_.).A.Z.b.z.a.a.p.*XgXpXpXaXfXdXdXNXhXkXAXFXSXqX| } p.v.E.#X3X0XyXuXaXdXgXdXgXdXhXdXjXkXkXkXMXMXkXjXkXMXCXCXCXCXCXSXMXZXSXCXAXAXCXCXCXCXSXSXCXCXSXkXkXCXAXCXkXkXCXSXSXSXSXSXcXcXcXcXcXcXkXkXcXkXhXhXjXlXCXCXCXcXcXkXjXzXzXuXrX9X>X&X&XD.a.q.S.aXCXAXCXCXCXCXjXCXcXCXkXZXNXzXNXZXC.z u i s p i p p p p i i i i i i i i u u u u u u u u a a a a a a a a a a u u i i u u i i p p p p >.>.>.>.:.:.:.:.>.>.>.:.>.>.>.>.>.>.:.>.>.:.:.>.,.:.:.<.g.H.<X<X%X4XtXpXuXyXyXaXyXpXqXpXsXpX5X0X0X5X5X1X3X1X=X*X#X#X+X].].+X[.[.[.[.].].+X*X:X:X:X:X:X:X:X:X:X:X:X:X:X:X:X:X:X:X:X:X:X3X4X9XtXtXtX0XyXyXpXyXyXyXtXaXyXaXaXaXpX0X0X;X`.!.].#X*X=X3X3X5XqX0X0X3X=X;X3X3X;X=X;X;X=X&X&X=X;X:X3X>X9X9X9XrXyXyXuXaXaXaXaXdXdXdXdXdXdXdXuXkXjXjXNXdXjXkXjXNXjXjXkXkXkXkXkXdXkXCXCXCXjXkXZXCXNXkXkXMXkXkXSX",
"CXNXkXkXyX9XoXV.a.a.!.&XrXrXtXtXyXyXyXuXdXuXdXdXhXkXkXkXjXkXCXhXhXkXkXhXhXNXlXhXhXlXzXhXhXzXlXzXzXzXzXzXhXhXhXdXdXdXdXdXuXuXuXuXuXuXuXaXdXjXkXkXpX-X`.S.| n n 0.!.*X;X;X5X5X3X3X3X0XdXfXfXaXaXyXuXaXdXdXhXhXjXkXkXjXkXkXkXkXkXkXCXCXCXCXCXCXZXZXAXAXAXCXZXAXAXAXZXZXCXNXkXkXkXkXkXMXkXkXkXkXfXfXfXdXdXfXfXdXdXkXkXjXjXkXkXMXfXkXdXyX0X0X0X0X0X0X0X9X5X3X-X&X+X_.).A.Z.b.z.a.p.p.*XgXpXaXgXgXdXdXCXhXkXAXDXFX*X} } p.v.R.+X1XqXpXfXfXgXgXgXgXdXhXdXfXjXkXkXkXkXkXkXkXMXkXjXjXMXSXkXkXZXSXCXAXZXZXSXSXSXCXSXAXCXSXkXkXSXAXAXCXcXCXSXcXcXSXcXcXcXcXcXcXcXcXcXSXcXcXkXkXjXjXkXkXzXdXdXhXhXdXuXrX4X:X;X@XS.a.q.V.aXNXZXCXCXCXAXkXAXCXlXjXCXlXzXxXzXN.z u s p p p p p p p i i i i i i i i i u u u u u u u a a a a a a a a a a u u u i u u i i p p p p p p p s >.>.>.p :.>.>.>.>.>.>.:.:.:.>.>.>.:.:.>.p >.>.:.g.XX8X<X%X7XtXpXyXyXaXaXpXpX5XpXsXpX0X0X5X3X1X1X1X=X*X*X#X#X@X+X+X+X].[.[.].]._.oX*X:X:X:X:X:X:X:X:X:X:X:X:X:X:X:X:X:X:X:X:X:X3X4X4XtXtXtXtXfXkXkXdXyXkXyXfXfXfXfXgXaXaX0X@X!.!.`.[.#X*X3X3X3X5XqX4X3X=X;X;X;X;X&X=X=X=X&X=X;X:X4X4X9X9XrXtXyXyXyXuXaXaXuXaXdXdXdXdXdXdXdXaXjXjXjXkXdXdXdXjXCXjXjXkXkXjXkXCXjXkXCXCXCXjXfXSXSXkXkXjXkXkXkXMX",
"NXCXCXCXhXhXdX9XOXN.N.S.oX&X3X9XtXtXtXyXrXrXrXiXuXdXkXlXjXkXCXhXhXlXlXhXzXCXCXzXhXlXzXhXzXlXzXzXhXzXzXzXhXdXdXdXdXdXdXdXdXuXiXyXyXyXyXyXaXdXfXkXwX-X_.A.l.b n 0.!.*X=X=X5X5X3X3X0X0XtXaXdXdXaXyXuXuXdXdXhXjXkXkXkXkXkXkXkXNXCXNXCXCXSXCXCXCXZXZXAXAXCXCXZXAXAXAXSXSXNXMXkXMXkXkXkXkXMXkXkXkXjXfXkXfXdXkXkXdXdXkXkXjXfXfXfXkXdXfXdXyXtX0X0X0X0X0X0X9X5X3X=X@X_.+X!.S.V.z.z.z.p.a.*XgXpXaXgXgXdXdXCXhXkXAXDXFX{.} } y.c.T.].-X5X0XgXgXdXaXgXgXdXhXfXfXjXfXjXkXkXkXkXkXkXCXCXMXjXjXjXfXSXCXCXSXSXSXSXSXCXSXSXZXCXCXCXSXSXCXAXCXCXcXcXcXcXcXcXcXcXcXcXcXcXkXkXcXcXkXkXkXjXjXjXzXdXuXdXhXhXhXrX9X>X;X;XOXV.a.q.N.tXCXZXCXCXCXCXjXCXcXjXdXNXzXiXlXNXf.z u i u p p p p p p p i p p i i i i i u u u u u u u a a a a a a a a a a u u u u i i i i p p p p p p p p :.>.>.p :.>.<.>.>.>.:.:.:.>.>.>.>.:.:.>.:.:.>.,.g.8X8X%X<X7XiXaXyXpXaXaXpX0X5XpXtXtXpX5X5X3X1X1X*X*X*X#X#X@X@X+X[.+X].].[.[.]._.].*X3X:X3X:X:X:X:X:X:X:X:X:X:X:X:X:X:X:X:X:X3X3X4X4XyXtXtXyXaXjXkXNXdXfXaXjXkXdXgXfXaXaXqX`.S.A.!.].#X*X=X=X=X;X3X3X:X=X&X&X=X=X&X&X=X=X=X;X:X4X9X9XrXrXtXyXuXyXyXuXaXaXaXaXdXdXdXdXdXdXdXdXdXjXjXjXjXdXdXjXkXkXMXjXjXjXkXCXCXkXMXNXCXkXkXNXZXMXkXjXkXMXkXkX",
"NXNXkXjXCXCXNXjXyX4X^.V.V.D.OX;X4X>X>X4X>X9X9XrXiXuXkXlXdXCXjXhXkXkXlXkXlXlXlXkXzXlXlXhXzXlXzXzXhXzXhXhXdXdXdXdXdXdXdXdXdXuXyXtXtXtXtXtXyXaXgXfXqX*X_.!.l.m n 0.!.*X=X=X5X5X3X9XtXtX0X0XtXaXdXyXyXaXdXdXjXjXkXkXkXjXkXkXNXNXCXCXSXSXCXCXCXCXAXAXAXAXCXSXCXAXAXCXSXNXNXMXMXMXkXkXjXdXkXfXfXkXfXdXfXgXdXfXkXfXfXkXfXfXfXjXjXkXfXfXfXdXaXyXyX0X0X9X9X4X3X3X=X]._.@XE.Z.V.z.z.z.p.i.*XgXpXpXgXgXdXdXCXhXjXAXAXFX*X} | 6.i.B._.*X3X0X0XyXyXaXgXhXhXfXfXfXfXfXjXjXjXjXkXkXCXCXCXCXCXSXkXfXSXCXSXSXSXCXCXSXCXSXCXCXSXSXSXCXSXCXCXAXCXkXkXkXcXcXcXcXcXcXcXcXcXkXhXzXzXhXjXjXkXkXlXkXzXzXzXkXkXkXrX9X>X;X;XOXN.a.q.a.4XZXZXCXCXCXkXdXkXhXjXdXlXzXzXlXNXC.z u u u p p p p p p p i p p i i i i i u u u u u u u a a a a a a a a a a u u i u i i i i p p p p p p >.p :.>.>.>.>.>.>.p p :.>.>.>.>.>.>.>.p p >.p ,.,.,.g.8XXX%X<X7XiXaXpXaXaXdXpX0XqXpX0XtXpX5X3X1X1X=X*X=X#X#X+X+X+X[.].[.].].[.[._._.].*X3X3X3X:X:X:X:X:X:X:X;X;X:X:X:X:X:X:X:X:X3X3X4X4XyXtXtXyX0XpXdXfXtXfXdXaXdXaXaXpXyXpX5X!.z.A.!.`.+X#X&X=X=X=X=X=X=X&X&X&X*X*X&X&X=X;X:X:X4X4X0XtXtXyXyXiXyXuXyXuXdXdXaXuXaXdXdXdXdXhXjXjXaXhXjXdXkXdXdXjXdXkXCXjXdXkXkXkXCXjXkXCXCXCXkXaXkXkXkXMXkXkXMXMX",
"lXkXkXlXNXNXNXNXNXhXtX&XV.V.V.S.D.OX;X>XiXrX>X>XrXiXuXdXkXkXkXkXkXkXkXkXNXkXkXkXjXkXkXzXzXkXzXhXhXhXhXhXdXdXdXdXhXdXdXdXaXyXtX9X9X9X0X0XyXyXpXaX5X@X`.A.z.~ m A.!.*X=X=X5X;X&X0XpXyXyXyX0X0XdXdXaXdXdXhXjXjXkXkXjXjXkXkXNXNXCXCXSXSXCXCXCXZXAXAXAXZXCXCXCXZXZXCXNXMXMXSXSXMXkXkXfXaXkXdXdXfXdXdXdXdXdXfXkXfXMXkXfXfXfXkXkXfXkXkXjXfXdXdXaXyX9X3X3X3X3X:X=XoX_.[.E.B.V.v.z.a.p.i.qXgXpX0XgXgXgXgXkXdXjXAXAXZX'.} } } d.b.~.+X1XqX0X0XyXaXdXjXkXjXjXjXjXjXjXjXjXjXkXNXSXCXCXSXCXSXkXkXCXSXSXCXSXCXCXCXSXCXCXSXSXCXCXCXCXCXCXZXCXMXkXkXkXkXcXcXCXkXkXCXkXkXjXzXzXjXkXhXcXkXkXkXkXlXCXCXjXdXiXrX>X;X;XOXN.a.q.a.&XZXAXCXCXCXkXdXlXjXjXdXCXzXtXzXNXC.u u u u p p p p p p i p s p i i i i i u u u u i u u u u a a a a a a u u u u u u i i i i i p p p >.p >.p :.>.>.>.>.>.:.p p :.>.>.>.>.>.>.:.p p >.:.h.g.h.H.8XXX%X<X7XiXuXaXaXaXaXyX0XqX0X0X0X0X5X5X3X=X=X=X*X*X#X[.].].].].].].].].]._._.[.@X=X3X:X:X3X3X3X3X:X:X:X:X:X:X:X:X:X:X:X:X:X:X4X9XyXtX0X0X4X0XaXaX0XfXaXyXgXaXsXpXpXsX5X_.v.R.!.`.`.+X+X@X&X&X&X&X=X&X&X@X@X&X&X=X:X3X4X4X9X9XrXtXiXyXyXyXuXuXyXuXdXhXaXyXuXdXjXdXdXjXjXjXdXdXjXdXkXkXhXjXjXkXkXkXdXkXkXkXCXkXfXMXSXSXkXaXfXkXkXkXkXkXkXkX",
"lXkXkXCXCXNXNXCXNXkXjXaX:XoXS.q.q.V.`.&X:X9X9X9X9X9XrXyXaXdXkXkXjXhXhXjXkXjXhXdXhXkXkXzXkXkXzXhXhXhXhXhXhXhXhXhXhXdXdXdXyXtXrX9X4X9X0XtX0XqX9XqX3X+X).A.a.~ M A.!.#X=X3X5X&X3X0XtXyXyXyXyXdXdXjXjXdXhXjXjXjXkXkXkXkXjXjXkXNXNXCXCXSXCXCXCXZXZXAXAXZXZXCXCXCXCXNXMXMXNXSXSXMXkXkXdXyXdXdXdXfXdXdXdXdXdXfXfXfXMXkXjXjXkXkXjXdXkXfXfXfXdXaXaXyX9X3X3X3X3X3X3X@X`.!.E.Z.B.b.z.a.p.i.qXgXaX0XgXgXgXdXdXuXkXFXAXBX{.} } } 0.a.E.[.1XqX0XyXuXuXdXjXkXjXjXjXdXdXkXkXkXkXkXNXSXCXSXCXCXCXCXCXSXCXSXCXCXSXSXSXCXSXCXCXCXSXZXCXCXCXNXCXCXSXCXkXkXkXkXkXkXjXjXkXdXjXjXjXjXkXkXdXlXzXhXjXjXkXjXdXiXrXrX4X>X;X@X^.N.a.0.a.:XZXAXCXCXCXCXjXAXCXkXhXCXzXhXzXzXe.u u u i p p p p p p i p s p i i i i i u u u u i u u u u a a a a a a u u u u u u i i i i i p p p >.>.p p >.>.>.>.:.:.:.:.:.:.>.:.:.>.>.:.:.:.:.:.:.,.h.h.H.%X%X%X<X7XuXiXaXaXpX0X0XpXqX0X0X0X0X5X5X5X5X=X=X#X1X#X].].].].].].].].].]._._._.@X-X;X:X:X3X3X3X3X:X:X:X:X:X:X:X:X:X:X:X:X:X:X3XyX9XyX0X0X9X0XpXaXpXgXgXyXfXfXfXsXpXpX3X!.V.A.`.`.`.`._.+X&X&X@X*X&X@X@X@X@X@X&X=X;X3X9X9X9X9XrXyXyXuXyXuXuXyXyXuXdXdXdXuXuXdXhXdXdXjXjXhXdXdXhXjXkXNXkXdXNXkXjXkXjXkXkXCXSXMXjXdXCXMXkXfXdXkXkXkXkXkXjXkX",
"kXzXlXCXCXNXCXCXNXNXkXhXdXyX;XD.a.a.z.S.`.@X:X9XrX9X9X9XtXyXaXdXdXdXdXdXdXdXdXdXhXkXzXzXkXkXzXhXhXhXhXhXhXhXhXhXdXdXuXiXrX9X9X9X4X9X0X0X0X5X3X3X@X`.).E.a.~ ~ S.).+X*X5X3X=XqXqX0XqX9X9XyXdXdXkXkXkXkXjXjXjXkXkXkXkXjXjXkXNXNXCXCXCXCXCXCXCXCXCXSXCXZXCXCXCXCXkXkXMXNXNXSXMXMXkXkXdXkXfXdXfXfXdXfXfXfXfXdXjXfXjXkXkXMXkXMXkXSXkXdXdXaXyXtX0X0X0X9X9X9X9X-XoX!.!.E.B.B.b.z.a.p.a.qXsXgXaXaXgXdXdXNXdXjXZXAXFXW.} } | 8.i.R.].-X5X0XyXuXuXaXdXjXfXjXjXdXjXkXCXCXMXkXkXNXNXCXNXCXCXCXNXSXSXMXMXCXSXkXkXMXSXCXNXMXSXZXCXCXNXkXkXCXCXCXCXCXcXkXkXzXdXdXjXdXzXjXjXjXjXhXdXkXdXdXdXdXdXdXiX9X>X>X>X@XOXOXD.V.a.9.a.tXZXAXCXCXAXCXjXCXCXkXhXCXzXzXzXxX9.y u i i p p p p p p p p s s i i i i i u u u u u u u u u u u u u u u u u u i i i i i i i p p p p >.>.p p >.>.:.>.>.>.:.:.:.:.:.:.p :.:.p p :.:.p >.<.,.h.XXXX<X<X7XiXuXuXaXpXtX0X0X0X0X0X0X0X0X5X5X5X5X-X*X5X+X@X[.].].].].].].].].]._._._.+X*X=X-X-X:X:X3X3X:X:X:X:X:X:X:X:X:X:X:X:X:X:X:XtX3XtX0X9X9X9XtXaXaXaXjX0XaXjXfXfXsX0X1XA.V.B.!.!.`.).`._.+X@X@X+X@X+X+X+X+X+X&X=X:X3X4X9X9X9XyXyXyXuXuXaXuXyXyXyXuXaXdXaXaXdXdXdXdXdXhXhXdXdXdXkXkXkXkXhXkXkXkXjXkXjXjXSXSXSXkXaXSXkXkXjXdXfXkXkXkXjXfXfX",
"kXlXcXlXlXlXlXCXNXkXkXjXkXlXhX9X`.S.N.N.V.D.oX;X9X9X9X9X9XrXtXyXuXaXdXdXdXdXdXdXzXkXhXzXzXzXzXhXhXhXhXhXhXhXhXdXdXdXuXyX9X9X9X4X3X4X0X0X5X3X:X=X[.!.!.E.0.~ 8.A._.+X*X5X;X4X3XqX5X9X9X9XyX9XdXdXkXkXjXdXjXkXkXjXdXdXjXkXkXNXNXCXCXCXCXCXCXCXNXkXMXSXCXCXNXNXNXjXkXMXMXkXkXkXMXMXfXdXfXdXfXfXdXfXdXfXfXdXdXfXdXfXjXjXkXkXkXfXkXfXaXyXyX0X0X0XtXtX9X0X0X0XoX`.`.!.E.Z.B.b.z.a.p.z.qXsXgXaXdXgXdXdXjXdXkXFXFXZX'.| | | 6.i.R.].*X3X0XyXuXuXuXdXgXdXdXjXjXkXkXkXkXkXkXkXkXNXNXNXCXCXNXNXCXSXSXSXkXkXkXkXMXSXSXkXkXCXZXZXCXNXkXkXNXCXCXCXCXCXkXkXjXdXdXjXdXjXjXzXzXjXhXuXhXuXuXuXyXuXdXuXrX4X;X&XOXOXOXV.V.q.9.a.aXCXZXCXCXAXcXdXkXjXkXhXCXzXuXhXxX9.u u i i p p p p p p p p s s i i i i i u u u u u u u a a u u u u u u u u u i i u u i i i p p p p >.p >.p :.:.:.>.>.>.:.:.:.>.:.p p :.:.p p :.:.p >.,.,.g.XXXX<X<X7XuXuXuXyXrX0XpXpXpXqXqX0X0X0XqX5X3X=X3X1X*X*X+X[.]._._._._.].].]._._._._.[.@X*X=X-X-X:X;X;X:X:X;X;X;X;X:X:X:X:X:X:X:X:X:X3X9X0X0X9X9X9X0XaXaXaXjX0XaXBXaXfXgXpX=XV.v.B.R.!.!.).`.`._.oX_._.OXOX_.OXOX+X&X=X:X3X9X9X9X9XyXyXyXuXuXuXyXuXuXyXyXaXdXdXdXdXdXdXdXaXdXhXhXdXdXkXCXkXkXNXdXkXNXdXkXdXjXSXCXkXkXdXgXhXfXkXfXfXjXMXMXkXkXfX",
"zXlXlXlXlXlXlXlXlXkXjXcXNXkXkXkXuX:XD.N.a.q.z.^.oX&X;X:X:X4X9X9XtXyXaXdXdXdXdXaXjXNXdXzXhXhXhXhXhXhXhXhXhXhXhXhXdXdXuXiXrX9X4X4X:X:X:X;X;X=X=X@X`.!.A.V.0.8.a.A._.@X*X3X1X3X4X5X3X5X0X0X0X9XuXyXaXdXdXuXaXkXkXaXuXaXdXhXkXNXNXNXCXSXCXCXCXCXkXjXkXCXMXSXSXCXMXkXkXMXkXkXfXkXkXkXfXdXfXfXkXfXdXdXdXdXfXfXdXdXdXfXdXdXdXkXkXfXkXaXyXtXtX0X0X0X0X0X4X0X4X&X+X_.`.).R.Z.B.b.z.a.p.l.qXsXgXpXaXaXdXdXkXdXNXFXFXZX{.| | } 6.p.R._.*X3X0X0XpXaXaXaXaXdXdXjXkXMXkXjXjXkXMXNXjXCXCXCXSXNXkXkXSXCXCXCXCXMXkXkXkXCXCXjXMXCXSXCXCXNXMXCXCXCXCXCXCXcXkXkXkXzXjXkXjXkXkXjXzXkXhXuXiXuXuXuXyXiXuXuXtXrX&X@XoXOX^.V.N.q.9.a.:XNXCXCXCXCXkXdXjXdXzXhXkXzXxXhXxXf.z s p p p p p p p p i i s i i i i i i u u u u u u u u u u u u u u u u u u i i i i i i i p p p p p p >.p :.:.>.>.>.>.:.:.:.>.:.p p p p p p :.:.p >.,.,.g.H.XX<X7X7XuXiXyXyXtXyXpXpX0XqXqXqX0X0XqX5X3X=X3X3X*X*X+X].]._.).'.'.].].].]._._._.[.+X*X=X=X1X1X;X;X:X:X:X:X:X:X:X:X:X:X:X:X:X:X3X:X9X0X0X9X9X9X0XyXaXaXMX0XpXaXsXgXgX0X#Xa.z.Z.A.R.)._.`.`.`.`.^.^._._._.OXoX&X=X:X3X3X9X9X9XtXyXyXyXaXaXyXyXaXaXyXyXaXdXdXdXdXdXaXjXaXaXhXjXdXdXjXCXNXkXNXhXkXNXhXjXdXdXMXCXkXkXjXdXdXfXkXkXfXjXNXSXkXkXfX",
"lXlXlXlXlXlXkXkXlXkXkXkXlXkXkXkXkXdXrX&XD.N.0.w.N.OX;X9X:X:X:X4X9XtXyXaXaXdXaXdXdXdXkXdXdXdXdXdXhXhXhXhXhXhXhXhXdXdXuXyXtX9X4X3X;X=X=X=X&X&X@X+X!.A.V.z.0.0.S.)._.@X*X=X1X1X3X3X3X5X0XyXyXyXyX9X9XyXyX9XtXdXdXyXyXaXdXhXjXkXNXNXNXCXSXCXCXNXkXjXkXCXkXCXZXZXSXMXkXMXkXfXdXkXkXkXjXfXdXfXkXfXfXdXdXdXdXdXfXfXdXfXdXaXaXjXkXfXkXaXyXyXtX0X9X9X4X3X4X9X3X&X-X+X`.A.A.V.V.z.l.z.p.z.wXgXgXaXsXaXdXdXjXjXNXDXDXGX~.| [ } 6.d.T._.#X3XqXqX0XyXaXaXuXaXdXjXkXkXkXjXjXkXNXNXjXMXMXNXNXkXjXkXZXZXAXAXCXCXMXkXkXCXCXjXNXMXNXCXCXCXMXSXMXCXCXcXcXcXcXcXCXcXkXkXkXkXkXkXkXkXdXuXiXdXuXiXrXrXyXuXtXrX:X&XOX^.D.V.a.q.9.a.:XNXAXCXcXzXdXdXkXSXhXhXkXhXuXlXzXC.4.,.s p p p p p p p i i i i i i i i i u u u u u u u u u u u u u u u u u u p i i i i i i p p p p p >.>.>.:.:.>.>.>.:.:.:.:.:.:.p p p p p :.:.:.p >.>.h.H.XXXX%X%X7XiXtXtXyXyXpXpX0X9XqX0XqXqXqXqX5X3X=X3X5X1X*X#X]._._._.'.'._.].]._._._._.[.+X@X-X=X3X1X;X;X:X:X;X;X;X;X:X:X:X:X:X:X:X:X3X3X9X0X0X9X9X4X9XqXtXaXaX0X4X0XpXaXpXqX].a.a.B.B.A.!.).`.).`.!.^.^._._.OXoX&X=X:X3X3X9X9X9XtXyXyXyXyXaXaXyXyXaXaXyXyXaXdXdXdXhXjXdXhXdXdXhXjXjXjXdXkXNXNXkXjXjXkXlXdXjXkXdXjXMXkXjXdXdXfXkXkXkXfXkXMXMXkXfX",
"lXlXkXkXlXlXkXkXkXlXcXkXkXkXkXkXkXjXdXiX9X&XS.q.0.V.oX;X:X:X:X:X4X9X0XtXtXyXaXdXdXuXjXdXdXhXhXhXhXhXhXhXhXhXhXhXdXdXdXyXtX9X4X:X=X&X&X&X&X@X+X`.!.S.z.0.| p.!._.`.].@X*X&X=X:X:X3X5X0XyXyXuXyX9X9XtXtX9XtXyXyXyXuXdXhXkXkXkXNXNXkXkXCXSXCXNXkXjXNXCXNXCXAXZXSXMXkXMXkXdXdXjXkXkXkXjXdXdXfXfXkXfXdXdXfXfXfXfXjXkXfXdXdXjXfXdXjXyXaXaXaXaX4X4X4X9X9X3X-X:X=X#X_.A.Z.B.V.z.l.l.p.z.wXgXgXaXsXaXdXdXdXdXkXAXZXmXn.| [ } } p.B.~.+X=X3X9XqX0XaXaXaXdXdXdXjXkXkXjXjXkXMXkXdXNXkXNXNXkXkXkXAXZXSXMXkXkXkXjXjXkXNXjXNXNXNXNXCXCXkXNXkXNXcXkXkXkXjXdXdXkXkXkXdXdXdXkXkXkXdXiXuXdXdXuXiXiXuXuXtXrX:X&XOX^.S.N.a.q.q.z.>XCXAXZXcXjXzXzXcXAXhXhXkXhXtXNXxXH.h.,.s s p p p p p p i i i i i i i i i i u u u u u u u u u u u u u u u u i i i i i i p p p p p p :.>.>.>.:.:.>.>.>.>.:.:.:.:.:.:.:.p :.:.:.:.:.:.>.>.g.8XXXXX%X%X7X4XtXrXtXyXpX0XqX0X0XqXqXqXqXqX5X3X-X*X*X*X[.].[.].).!.~.'._.].]._._._.].[.+X@X-X=X-X:X;X;X:X:X;X;X;X;X:X:X:X:X:X:X:X:X3X9X0X0X0X0X9X9XqXqX0XpXpXpX5XqX0XpX0X5X~.a.a.b.b.V.A.!.!.!.!.!.!.`._._.oX&X=X;X3X9X9X9X9XtXyXuXaXyXyXaXaXyXyXdXdXyXyXuXdXdXdXdXjXhXdXdXdXhXkXjXjXjXdXjXkXjXhXdXdXNXjXkXjXdXjXMXkXjXjXdXfXkXkXkXjXdXjXkXkXfX",
"cXlXkXkXkXkXkXkXkXlXcXkXkXkXkXkXkXjXdXdXdXdXrXOXN.q.V.^.OX&X;X:X4X4X9X4X4X0XyXaXdXjXdXkXkXkXkXjXhXhXhXdXhXhXhXhXdXdXdXuXtX9X9X:X&X=X&X&X@X+X_.!.!.V.a.8.8.0.!.).`._.+X@X&X=X&X=X:X3X0XaXuXuX9X9XtXuXuXyXyXyXuXuXdXdXjXkXkXkXlXkXkXkXMXNXCXNXkXjXNXZXSXCXCXCXMXkXkXkXkXdXdXjXkXkXkXjXdXaXdXfXjXdXdXdXdXfXfXfXkXkXfXdXfXkXfXdXdXaXaXaXaXyXtX0X0X0X9X:X=X:X@X+X`.A.Z.B.b.z.l.l.p.z.qXsXaX0XaXgXaXdXdXaXkXAXBXgXc.| [ } } d.n.E.+X=XqXqX0X0XpXaXuXaXdXdXdXjXkXjXfXkXkXjXdXCXCXCXCXCXCXCXAXZXSXCXNXkXkXkXjXkXMXkXNXNXNXMXNXNXkXNXkXNXcXkXkXkXkXjXkXCXcXjXdXuXdXdXhXhXdXyXdXhXkXhXdXdXuXyXtXrX@X@XOX`.N.z.a.q.q.z.>XNXZXCXCXCXSXkXcXcXhXhXkXhXtXNX7Xg.4.s i s p p p p i i i i s i i i i i i i u u u u u u u u u u u u u u u u i i i i i i p p p p p p p >.>.>.>.p >.>.>.>.:.:.:.:.:.:.:.:.:.:.:.:.>.:.,.,.8XXXXXXX<X<X>X4X4X9XtX0XpX0X0X0XqX5X5X5XqX5X5X=X-X*X1X*X#X[.]._._.).).)._.]._._._._._.].+X@X-X=X-X:X;X;X:X;X;X;X;X;X;X;X:X:X:X:X:X:X3X9X0X9X0XtX0X0X0X0X0XyXaXgX0XpX0X0XqX5X!.a.z.z.z.V.S.A.A.!.!.!.!.`.OX+X&X=X;X:X3X9X9X9XrXiXyXuXaXyXyXuXaXuXtXdXdXaXyXuXuXaXdXaXuXjXaXdXdXhXkXjXjXkXdXdXdXjXdXdXdXjXCXkXjXkXkXkXjXjXjXjXjXkXMXkXfXaXaXkXkXfX",
"CXlXlXkXkXjXkXjXjXkXkXkXkXkXkXkXkXkXkXkXkXjXaXtX&XV.q.q.V.D.oX&X=X:X:X3X4X4XrXyXaXdXdXjXkXkXkXhXdXhXhXdXhXjXjXdXdXdXdXuXtXtX9X4X9X:X&X&X&X_.!.E.V.z.p.0.0.z.!.`._.oX+X+X&X=X&X=X=X:X3X3X:X3X3X9XtXpXaXyXyXyXyXaXdXdXdXkXNXkXkXkXCXCXNXNXCXMXjXkXNXZXCXCXCXNXkXkXkXjXkXdXdXfXkXkXfXfXdXdXdXfXdXdXdXdXdXfXfXdXkXfXfXfXkXkXfXdXaXyXyXaXyXtXtXtX0XqX3X=X*X*X+X_.).R.Z.B.b.z.l.l.i.z.5XgXgX0XaXgXaXdXaXdXkXAXBXGXv.| [ } } y.i.R.[.3X0X0X0XyXpXpXaXaXaXgXhXfXjXjXjXkXkXkXkXCXCXkXSXNXCXCXCXCXCXCXCXCXNXkXkXkXMXkXCXCXNXMXNXCXCXNXkXkXkXkXkXcXCXlXlXlXkXjXhXdXdXdXhXdXdXhXdXhXjXjXdXaXyXtX9X;X$X@XOX^.V.a.a.q.q.N.&XkXAXCXCXCXcXzXcXzXhXhXkXlXlXxXiXC.4.s ,.s p p p p i i i p p p i i i i i i u u u u u u u u u u u u u u u u u i i i i i i p p p p p p :.>.>.>.:.:.>.>.:.:.:.:.:.:.:.:.>.:.:.:.:.:.:.,.h.XXXXXX%X<XiX>X4X4X4X0X0X0X0XqX0X5X5X5X5X5X5X1X*X*X*X*X*X#X[._.).).).'.'.].].].'.)._._._.[.@X-X=X=X=X;X;X;X;X=X=X;X;X;X;X;X;X:X:X:X:X3X5XqX4X0XpX0XtXpXyX9XtXaXgXpXtXpX5X5XqX+Xa.z.b.b.b.B.Z.Z.S.A.R.!.`.oX@X&X-X:X3X9X9X9X9XtXpX0XyXaXpXyXyXaXdXrXdXhXaXyXyXuXaXdXuXyXdXdXdXdXdXjXjXjXjXdXaXdXjXjXjXjXhXNXkXkXkXkXjXjXjXjXjXfXfXNXkXjXdXuXdXjXjX",
"CXcXlXkXkXkXkXkXkXkXkXkXkXkXkXkXkXkXkXkXkXkXhXdXaX&XS.N.q.z.V.^.@X:X4X4X4X4X9XtXyXyXuXdXdXhXkXhXhXhXhXdXdXjXhXdXdXdXhXuXtXyXtX9X3X:X&X@X&X`.A.Z.z.a.0.| 0.S.`._.+X@X+XoX+X*X=X3X4X3X:X:X3X4X4X9X0XyXpXyXtXtXyXaXdXaXdXkXkXkXkXkXNXCXCXCXCXMXNXCXCXCXSXCXCXCXMXkXkXjXMXfXfXjXkXfXdXdXfXfXfXfXdXdXdXdXdXdXdXdXfXdXdXfXkXkXfXdXaXaXyXyX0X9X0X0XqX3X3X-X&X@X+X_.!.R.S.V.b.z.l.l.z.a.qXgXgX0XaXgXaXdXdXdXBXDXFXDXc.[ [ } } y.i.R.[.5X0XqXqX0XpXyXaXaXaXgXfXfXjXjXjXdXjXCXZXCXMXjXCXkXkXkXMXCXCXZXZXZXCXNXNXMXNXkXCXNXCXNXNXCXSXCXNXkXkXkXkXkXlXlXkXkXkXjXhXhXhXhXhXhXdXhXhXdXdXhXdXaXyXtX4X&X$X@XOXD.V.a.a.q.q.N.@XkXAXCXCXcXkXzXcXzXhXzXlXkXkXNXzXF.h.,.,.,.p p p p i i i p p i i i i i i i u u u u u u u u u u u u u u u u u i i i i i i p p p p p p p :.:.>.>.>.:.:.>.>.:.:.:.:.:.:.>.>.:.:.:.:.:.<.h.C.XX%X%X7XiX>X4X5X0X0X0X0X0XwX0X0XqX5X5X1X=X*X@X+X#X*X#X[.]._.).).).'.'.].].].'.)._._._._.+X*X=X=X=X;X;X=X=X=X=X;X=X;X;X;X;X:X:X:X:X3X5X4X5XqXyX0XpXaXaX5X0XpXaXaXpXpX5X5X5X_.a.i.z.z.b.B.B.V.Z.A.E.!.`.oX&X=X:X:X3X9X9X9X0XyXaX9XtXaXaXyXyXaXdXrXuXdXaXyXyXuXaXdXdXaXuXkXdXaXdXdXjXjXhXdXaXdXjXkXkXkXhXdXkXkXkXkXdXdXjXjXkXjXaXfXkXjXfXaXaXdXjX",
"CXCXkXkXlXNXNXkXkXkXkXkXkXkXkXkXkXkXkXkXkXkXkXkXkXuX;X^.V.z.a.z.D.+X=X:X;X;X3X4X9X9X9XrXyXaXdXdXdXhXhXdXdXhXdXdXaXhXhXaXyXpXyX9X3X;X@XoX@X!.Z.b.p.0.8.~ 0.!.!.].@X@X@X@XoX@X;X:X9X9X3X3X9X9X9X9X9XyXyXyXtXtXyXaXdXaXdXkXkXkXkXkXNXCXCXCXCXCXNXCXZXSXNXCXCXCXMXMXMXkXMXkXMXkXdXaXaXdXfXfXfXfXkXfXdXdXdXdXdXfXdXdXdXfXkXkXfXdXaXyXyX0X0X0X0XqX3X3X3X3X#X+X[._.~.R.Z.B.b.z.l.a.z.i.wXsXpXpXaXfXaXdXdXdXBXDXDXBXi.[ } } } y.i.R.[.1XqX3X9X0XyXyXaXaXgXgXhXhXfXkXkXkXkXkXNXCXCXjXCXkXkXkXkXMXNXCXCXCXCXSXCXNXNXCXCXCXCXCXNXCXSXCXMXkXkXkXkXkXkXkXkXkXjXhXhXhXhXhXhXdXdXzXhXdXdXhXdXuXuXyX>X&X$X@XOXD.N.a.a.a.a.N.;XlXCXCXkXkXzXzXcXzXxXhXlXkXkXNXzXC.C.g.h.,.p p p i i i i p i i i i i i i i u u u u u u u u u u u u u u u u u u i i i i i p p p p p p p :.:.>.>.>.>.>.>.>.>.>.:.:.:.:.>.:.:.:.:.:.:.>.h.g.XX<X<X7XyX:X4X5X0X0X0X0XqXqXsXpXqX5X5X1X1X-X#X+X#X*X[.[.].'.'.).).].].].].].'.)._._._._.+X*X=X=X=X;X:X;X=X=X=X=X=X=X=X;X;X;X;X:X:X3X5X5X4X4X0X9XpXaXaX5X0XyXpXdXpXsX0XqX-X!.0.0.p.l.z.b.V.V.Z.A.E.!.`.+X&X=X:X:X9X9X9X9X0XyXpX9XtXyXaXuXyXuXaXuXiXuXuXuXuXuXaXdXhXdXyXdXdXuXaXdXhXjXhXdXaXaXdXkXkXkXjXdXdXdXjXkXdXdXjXjXjXjXdXaXfXkXkXdXuXaXkX",
"ZXSXkXMXNXNXNXlXkXkXjXjXjXjXjXkXlXkXkXkXjXjXNXCXhXdXaX>X&X^.N.0.0.V.`.+X@X@X&X;X;X:X4X4X9XyXuXaXhXhXdXdXdXdXdXaXaXhXhXaXpXaXyX9X:X=X@X].+X!.B.p.p.8.} ~ 0.S.D.`.@X@X@X&X=X@X=X&X3X3X9X0X0X0X0X9X9XtXyXyXtXtXyXuXdXaXdXkXkXkXlXlXMXMXCXCXCXSXCXZXZXCXNXCXSXCXCXCXMXkXMXjXdXfXkXkXfXdXdXdXfXjXkXfXdXdXdXdXdXfXaXfXfXfXkXjXfXdXaXyX0X0X0X0XqX3X:X3XqX3X@X_.[._.~.E.Z.Z.b.z.z.l.z.z.sXsXaXaXaXfXaXdXdXdXBXDXBXsXy.| } } } y.i.R.[.1X5X-X:XqX0XyXaXaXgXaXhXhXhXjXkXfXkXNXNXkXkXjXNXkXkXkXkXkXMXCXSXCXCXCXCXMXNXNXCXCXCXCXCXCXCXNXMXkXkXjXkXjXkXjXjXzXhXhXdXdXdXkXhXdXdXdXdXdXdXhXdXaXyXtX:X&X$X$XOXD.N.a.a.a.a.V.>XNXCXCXkXkXcXzXzXzXxXhXlXkXkXxXiXC.H.g.h.,.p p p i i i i i i i i p i i i i u u u u u u u u u u u u u u u u u u i i i i i p p p p p p p :.>.>.p p >.>.>.>.>.>.>.:.:.:.:.:.:.:.:.:.:.>.h.g.H.<X>X4X4X4X3X4X0X0X0XqXqXqXwX0X5X5X5X1X1X-X*X*X#X#X[.].].].'.).).].].].'.).).).).).`._.oX-X-X-X=X:X:X;X=X=X=X=X=X=X=X;X;X;X;X:X:X3X5X9X4X4X0X3X0XyXtX5X0XaXpXaXaXsXpXqX*XA.8.8.0.a.z.z.V.V.Z.A.E.!.`.oX&X-X:X:X9X9X9X9X9XtXyX9XtXyXaXuXyXyXyXdXyXiXuXiXdXaXaXdXdXdXaXuXdXaXaXuXdXjXjXhXdXaXdXkXkXjXdXdXdXdXkXjXdXdXjXjXjXfXfXaXdXjXkXdXaXuXhX",
"ZXCXCXCXCXCXNXNXkXkXhXhXhXhXdXuXkXkXkXkXjXjXkXkXCXCXkXjXyX4XOXz.0.8.V.`._.&X=X@X@X;X:X=X9X9XyXdXhXdXuXuXdXdXaXaXaXhXhXaXaXaXpXyX3X=X@X].!.Z.z.i.| } ~ M p.S.`.`.oX+X@X@X@X@X=X&X=X:X3X9X9X0X0X9X9XtXyXyXtXtXyXuXaXdXhXkXkXkXNXNXkXkXCXSXSXCXSXCXCXSXCXCXCXCXCXNXMXkXkXdXdXfXkXMXkXdXdXdXfXfXfXfXfXfXaXdXaXdXdXfXfXfXdXdXdXdXaXyX0X0X0X0XqX5X3X3X5X=X+X].[.].).!.A.B.b.v.z.l.z.A.sXsXaXaXaXfXaXdXdXaXkXAXBXwXp.} } } } y.i.B._.*X1X:X-XqX0XpXaXaXgXaXgXgXfXjXkXkXkXMXkXjXjXjXkXkXkXkXkXkXkXCXCXNXMXNXCXNXNXMXMXkXMXCXCXCXCXNXMXMXkXhXkXjXhXhXhXhXhXdXdXdXdXkXdXhXdXdXdXdXdXdXaXyXtX9X3X&XOXOXD.S.z.a.a.a.a.S.>XAXAXCXlXcXcXzXkXdXhXhXzXzXyX4XiXC.H.h.h.,.p p a i p p i i i i i p i i i i i i i i u u u u u u u u u u u u u u i i i i p p p p p p p :.>.>.>.p p >.>.>.>.>.>.>.:.:.:.:.:.:.:.p :.>.,.h.H.H.%X%X;X7X;X4X4X0X0XqX5X5X5XqXqX3X3X3X1X*X*X*X*X#X#X#X#X#X[.'.).).).'.'.).).~.).).~.).`.].&X-X=X=X=X:X:X=X=X=X=X=X;X;X;X;X:X:X:X3X3X4X0XqX9X0X3X4XqX5X4X0XaX5X5XaXsXpX0X*Xa.| | 0.a.l.v.b.B.S.A.A.!.`.@X=X:X3X4X9X9X9X9X9XtXyX0XtXtXyXuXyXtXrXaXyXyXyXyXdXdXaXdXdXaXdXaXaXdXdXuXdXhXjXkXaXaXhXkXjXhXdXdXaXdXkXkXjXhXhXhXhXdXdXaXaXfXkXdXdXaXuX",
"CXCXCXCXCXCXNXNXkXkXjXjXzXhXdXdXjXkXkXkXkXkXkXkXkXCXCXNXjXdX9XoXV.8.0.z.!.@X&X&X@X=X:X=X=X3X4X0XyXrXrXiXaXaXdXdXdXdXdXdXaXaXpXyX4X=X@X_.A.z.p.y.| ! b m l.A.`.`.].].oX@X@X@X&X&X=X;X3X3X9X9X9X9X9XtXyXaXfXjXdXdXdXdXdXjXjXkXNXNXMXkXkXCXCXNXMXNXCXZXZXCXNXCXCXNXMXkXjXfXdXfXjXjXfXdXdXdXdXdXdXdXdXfXaXaXaXdXdXdXfXdXaXaXdXdXaXyXtX0X0X0X0X9X3X3X=X-X@X+X+X[.).!.A.B.b.v.z.l.z.A.pXsXaXaXsXgXyXdXdXdXBXDXBXsXy.} } } } y.d.n.~.#X1X:X-XqX0XpXpXaXgXaXdXdXfXjXjXkXkXkXkXkXkXkXCXCXMXkXkXkXkXCXCXkXkXMXCXNXMXkXkXkXkXkXMXCXNXMXMXkXkXhXkXzXhXzXhXhXdXdXdXdXdXkXhXhXdXhXhXdXaXyXtX9X9X4X:X@XoX`.D.V.a.a.a.a.a.F.@XzXAXCXkXlXkXzXcXkXzXhXzXzXiXuX<XC.C.g.h.>.p :.i p p p i i i i i i i i i i i i i u u u u u u u u u u u u u u u i i i i p p p p p p p :.>.>.>.>.>.>.>.>.>.>.>.>.>.:.:.:.:.:.:.:.:.>.>.h.XXXX,X%X4X7X4X4X4X0X3X5XqXqX5X1X3X3X3X3X-X*X#X+X+X+X[.[.[.[.].).W.W.~.).).).~.~.~.~.!.).).].&X&X&X-X:X:X;X;X=X=X=X=X;X;X:X;X:X:X:X:X3X5X9XqXqX0X3X5X3X&X0X0XyX3X;X0XpXpXqX-Xa.| | 0.d.i.l.v.B.S.A.A.!._.&X:X3X3X9XqX9X9X9X9X0XtXtXtXtXyXyXtXrXuXtXaXuX9XuXuXaXdXuXaXaXuXdXaXaXjXdXdXdXuXkXaXuXdXjXhXdXdXdXdXdXdXlXhXdXdXdXdXdXdXdXdXdXjXaXdXdXyX",
"CXCXCXCXCXCXNXCXNXNXkXkXlXkXjXhXhXhXhXhXjXjXkXkXkXNXkXNXfXkXjX9XoXV.q.0.z.A.`.+X@X;X:X=X&X=X=X:X4X9XrXuXaXaXdXjXdXaXaXdXdXaXpXyX0X:XoX).S.i.0.| ! n d ~ z.A.`.`._._.oX@X@X@X&X&X=X;X3X3X3X9X9X9X9XtXyXpXdXaXaXaXdXhXhXdXhXjXkXNXMXkXkXMXNXMXkXkXMXZXZXkXkXCXCXkXkXMXkXkXfXdXdXdXdXdXdXdXdXdXdXdXdXjXaXdXaXdXdXfXfXfXdXdXdXdXaXyXtX0X0X9X9X9X3X:X=X*X*X#X*X+X!.A.Z.B.b.v.v.l.z.A.wXpXpXpXpXgXyXaXdXdXMXDXDXsXy.} @.} } y.d.v.W.[.*X1X1X5XqXpXpXaXgXgXaXdXfXjXkXkXkXjXkXkXkXkXCXCXMXkXkXjXjXkXkXjXjXkXkXkXkXkXjXjXkXjXkXkXkXkXkXkXkXhXjXdXhXkXkXzXhXdXhXdXdXhXkXdXdXhXhXdXaXyXtXrX9X4X&XOXOXD.S.V.a.a.a.a.a.N.@XdXCXlXzXkXzXkXcXcXhXhXzXzXdXrXxXC.C.C.h.<.p <.p p p p i i i i i i i i i i i i u u u u u u u u u u u u u u u u i i p p p p p p p p :.:.>.>.>.>.>.>.:.:.>.>.>.:.>.>.>.:.:.:.>.<.,.h.,.g.8X8X,X<X7X7XyXtXtX5X3X5XqXqX5X1X3X3X3X3X-X#X+X+X[.[.[.].].].'.).W.E.W.~.~.~.~.~.!.!.!.).).].@X_.].&X=X;X;X;X=X=X=X=X;X:X:X:X:X:X:X:X3X3X5X9XqX0X3X9X0X3XaXaXpXpX0XtX0X0X5X*X0.~ ~ 0.0.p.l.v.B.S.A.!.).oX=X:X9X9XqXqX9X9X9X9X9X0XtXtXtXtXyXtXtXuXtXaXuXrXuXyXaXdXuXuXuXyXaXaXaXaXdXuXaXaXdXuXuXaXdXaXdXdXdXdXdXyXjXhXaXdXaXdXdXdXdXdXaXfXuXdXhXdX",
"CXCXCXCXCXCXNXCXCXCXNXlXNXlXkXjXdXdXdXaXhXjXkXkXkXNXNXkXdXkXkXdXrX;X!.V.0.0.z.!.oX&X:X&X&X&X=X;X:X:X9XuXaXaXdXdXdXuXaXdXdXaXpXyX0X3X].!.b.p.} ! W d d ! z.A.!.D._._.oX+X&X&X&X&X&X=X:X:X3X9X9X3X0XtXyXyXpXaXdXdXjXhXdXdXdXhXjXkXkXkXkXkXMXNXNXkXkXCXCXkXjXNXMXkXMXMXkXkXfXdXaXaXdXfXfXdXaXaXaXaXdXdXaXdXdXdXdXfXkXkXkXfXdXdXaXyXtX0X0X4X4X9X3X=X*X-X=X-X-X+X!.Z.Z.B.b.v.v.l.i.A.0XwXwX0X0XpX0XyXaXaXkXDXZXsX0.| } } } y.y.i.E.].*X-X1X5X0XpXpXaXgXgXaXdXfXjXjXjXjXjXkXjXjXjXkXkXkXkXkXjXjXkXjXdXdXjXjXjXjXkXjXkXkXjXkXkXkXjXjXjXkXjXjXdXdXkXkXkXjXdXdXdXdXhXlXdXuXuXuXdXdXdXuXuX9X4X@X^.^.D.V.N.a.a.a.a.q.N.>XlXCXkXzXkXkXkXkXzXzXzXhXzXdXaXiXH.H.g.h.,.p ,.>.p p p i i i i i i i i i i i i u u u u u u u u u u u u u u u u i i p p p p p p p p p :.>.:.p >.>.:.p :.:.:.:.:.>.>.>.>.:.:.:.<.,.h.h.g.8X8X,X7XiX7XaXpXtX0XqXqX5X5X5X5X5X3X5X=X*X+X[.+X+X[.].].].).'.).W.Q.E.W.W.W.~.~.!.E.!.!.).`.+X_._.@X=X;X;X;X;X=X=X=X;X:X:X:X:X:X:X;X=X:X5X5X9X0X5XqX0X0X0XtX0X0X4X3X0XqX3X@X0.~ ~ 8.0.d.i.z.b.S.A.!.`.@X:X4X9X9XqXqX9X9X9X9X9X0XtXtXtXtXtXtXrXrXuXuXyXuX9XyXdXuXdXuXuXuXuXdXaXtXaXyXyXkXuXyXyXuXuXuXuXdXhXdXaXuXyXaXaXaXuXuXaXdXdXdXaXaXyXaXdXhX",
"CXCXCXCXCXCXCXCXCXCXNXkXNXNXkXjXdXdXaXuXdXdXjXjXkXCXCXkXdXjXjXdXdXaX3X^.z.0.8.0.V.!._.@X@X&X@X@X&X;X3X9X9XaXdXaXaXpXaXfXdXaXpXyX0X9X1XE.z.0.! b d : d | z.A.D.D._._.oX@X-X-X&X#X@X&X-X3X3X3X3X5X9X0X0X0XtXyXdXdXfXdXdXdXdXdXjXkXkXkXkXkXMXMXNXkXMXCXCXkXkXMXMXkXMXMXMXkXkXdXdXdXfXfXdXdXaXaXaXaXsXaXaXgXgXfXaXfXjXjXfXgXaXaXaXyX0X0X9X9X9X5X3X=X=X3X1X-X*X[.!.Z.Z.b.v.z.v.l.p.R.wXpXpXwX0XpXtXyXyXaXkXDXBXmXi.` } } } 0.0.p.R.].+X-X1X5XpXpXyXsXgXfXaXfXfXfXfXdXjXjXjXjXjXjXjXjXjXkXkXkXkXkXjXdXjXjXdXdXjXkXjXkXkXjXkXCXMXjXjXjXkXkXkXhXhXkXkXkXjXdXdXdXdXdXkXdXuXyXyXyXuXuXuXuX9X9XoX^.^.D.V.N.N.z.z.a.a.f.oXlXNXlXkXkXlXlXzXzXzXCXCXzXdXzXzX.XH.C.g.g.h.h.<.>.p p i i i i i i i i i i i i i i i i u u u u u u u u u u i i i i i p p i p p >.p :.:.>.:.p >.,.>.p :.:.:.:.:.:.:.>.>.>.>.:.:.>.h.j.H.H.XXOX%X4X4XdXMXjXpXqXqX5X5X5X4X5X3X=X*X*X#X+X*X*X[.].].].].'.).~.W.W.~.E.E.~.~.~.E.!.~.)._.+XoX+X@X&X=X;X;X;X;X=X=X;X:X:X:X:X:X:X=X=X;X0X4XqXtX0X0X0X0XqX0XqXqX5X5X0X5X1X!.p.~ ~ | 8.0.a.a.z.V.A.!.&X;X3X9X3X9X9X9X9X9X9X9X9X9X0X0XtXtXtXtXtX9XiXyXyXyX9XiXaXyXdXaXaXaXaXaXaXyXpXyXyXkXyXtXyXuXuXyXyXaXdXdXaXuX9XtXaXaXuXyXuXaXdXdXdXuXyXaXdXhX",
"CXCXCXCXCXCXZXCXCXNXNXNXNXNXkXkXhXhXdXaXaXaXaXdXkXCXNXhXjXjXdXdXjXjXaX:XOXV.0.0.8.V.!.@XoX@X@X@X&X=X;X:X3XtXpXyXyXyXaXdXdXaXpXyXyX0X5XE.p.| W n 4 : d 0.b.D.`.`._._.].+X&X-X&X&X&X=X3XqX3X@X@X3X9X9X9X9X9X0XyXaXaXdXdXdXdXdXjXkXkXkXkXkXjXjXkXjXkXkXkXkXkXkXkXMXMXMXMXMXkXfXfXkXjXfXdXdXdXdXdXdXaXaXgXgXfXfXpXaXaXaXaXaXsXaXaXyX0X0X4XqX9X3X-X-X3X3X-X+X#X[.!.Z.Z.b.z.l.v.l.p.!.pXsXpXpXpXpXyXyXyXaXMXFXBXwX} ` } } } y.0.y.B.).#X*X1X5XqXqX0XaXgXdXaXgXgXgXgXgXdXdXdXjXjXjXjXjXjXkXkXkXCXCXNXNXNXMXkXjXkXMXjXkXkXkXkXCXMXkXjXdXjXkXkXhXhXkXkXjXjXdXhXdXaXaXuXaXuXyXyXtX9XtXuXdX9X:X`.`.^.D.V.V.N.N.z.a.f.f.oXlXNXNXlXkXlXlXzXkXzXlXlXhXCXCXxX.XH.H.C.H.H.g.h.>.p p i i i i i i i i i i i i i i i i u u u u u u u u u u i i i i i p p i p >.>.p :.:.>.:.p :.<.>.:.:.:.:.:.:.:.:.:.:.>.>.:.:.,.,.h.XXXXH..X$X;X;XtXpX0X4XqX5X5X5X5X5X5X3X*X*X*X*X*X1X1X*X[.].].).'.).).W.W.~.E.~.~.~.!.!.!.!.!._.+X@X@X&X=X=X;X;X;X;X=X=X;X;X:X:X:X:X:X:X:X3XpX0XqX0X0X5X5X0X0X0XqXqX5X5X0X5X=X!.0.~ ~ | 8.0.p.z.z.Z.!.[.;X4X9X9X3X9X9X9X9X9X9X9X9X9X0X0X0X0XtXtXtXtXrXyXyX9XyX9X0XyX9XyXaXaXaXpXpXpXpXpXaXdXtXyXyXyXyXyXyXuXdXdXaXuXtXtXuXuXuXyXuXaXdXdXdXuXuXdXhXhX",
"CXCXCXCXCXCXZXCXNXNXNXNXNXNXkXkXkXkXhXdXdXaXdXdXhXjXjXhXjXjXdXfXkXjXdXaX0X@XS.a.5.0.V.!._.oX@X@X@X@X@X&X;X0XtX0X0XtXyXaXdXdXpXyXaX0XqX).0.! b : ; : n y.B.).`.`._._.].oX+X@X&X&X&X=X3XqX3X@X+X3X9X9X9X9X0XyXaXaXaXaXuXdXdXdXjXjXjXjXjXjXjXdXjXjXkXkXNXCXSXSXCXSXSXSXSXMXkXkXkXkXjXfXdXdXdXdXdXdXgXaXaXaXaXgXpXpXpXaXaXpXpXsXaXtX0XqX4X9X4X3X:X3X3X=X+X+X#X[.!.Z.B.b.z.l.v.z.z.].pXpXpXpXpXpXyXyXyXaXkXDXZXqX} { } } 0.y.0.0.n.).#X2X1X1X5X5X0XgXpXaXaXaXaXdXaXaXdXdXdXdXjXjXjXjXjXjXkXkXkXCXCXSXCXCXNXkXkXNXjXkXMXCXMXkXkXkXjXdXdXjXjXaXaXhXhXdXdXhXjXdXyXrXyXyXyXyXyXtXrX9XtXtX;X&X`.`.^.D.V.V.N.N.N.N.f.f.oXlXNXNXlXlXlXlXkXkXhXlXlXdXhXzX%XC..XH.H.8XH.g.h.p i i i i i i i i i i i i i i i i i i i i u u u u i i i i i i i i i p p i p >.>.:.:.>.>.:.p p <.>.:.:.:.:.:.p :.:.:.:.>.>.p :.,.,.h.H.XX,X.X$X;X;XyX0X5XqX5X5X5X5XqX5X3X3X1X1X1X1X1X*X*X-X*X[.].).).).).W.E.W.~.).).~.E.!.!.!.!.`.+X@X@X&X&X=X=X=X;X=X=X=X;X;X:X:X:X:X3X3X3X3XyXqX3X4X5X:X3X9XyXyXqXqXqXqX0X5X=X!.| m M | 8.0.p.z.z.A._.=X3X0X9X9X9X9X9X9X9X9X9X9X9X9X9X9X9X9X0XtXtXtX9XtXtX9XyX9X0XyX9XtXyXyXyXpXpXpXyXpXaXdXtXyXuXuXyXyXyXyXaXdXdXaXuXyXuXuXaXaXaXaXdXdXhXdXdXhXhXhX",
"CXCXCXCXCXCXCXCXNXNXNXCXNXlXkXkXkXkXjXjXdXdXdXdXdXdXdXhXjXjXjXjXkXjXfXkXkXqX_.V.a.0.8.a.A._.oX@XOXOXOX_.&X4X9X9X9XtXyXaXdXaXyXpXaXpX0X).| ! d : * ; b i.B.).`.`.`.`._.].+X@X&X&X@X&X=X3X3X-X=X3X9XyXyXyXyXaXdXdXaXaXuXdXdXdXdXjXjXjXjXhXjXjXkXkXMXMXNXNXNXNXSXSXSXSXSXNXkXNXMXkXfXfXdXaXyXaXdXdXsXaXaXpXpXaXyXaXaXpXyXtXpXpXpX0X0X4X4X5X3X3X3X3X-X@X@X*X+X].!.Z.b.z.l.z.a.z.z.+XsXsXyXpXpXpXyXyXuXaXkXDXDXsX0.} } } 0.0.0.0.b.~.[.1X1X1X3X3XqXfX0XpXpXpXpXuXaXuXdXdXdXdXjXjXjXjXjXjXjXjXdXjXkXCXCXCXNXkXkXNXjXkXkXCXkXjXjXkXjXdXdXhXhXuXyXdXdXuXaXhXjXaXtXrX9X9XtXyXyXyXuX9X>X;XoXoX`.^.^.D.V.N.N.N.N.N.f.f.oXNXNXCXCXlXlXlXkXzXuXzXzXaXaXzX>XOXXXH.H.8XXXC.,.,.i i i p i i i i i i i i i i i i i i i u u u u u i i i i i i i i i p p i p >.>.:.:.>.>.:.p p >.:.p :.:.:.:.p :.:.:.>.>.:.p >.:.,.h.C..X%XOX%X4X4XdX0X4XpX5X5X5X5X5X5X5X3X1X1X1X1X-X+X+X*X*X#X[.].).].'.~.E.E.E.).).).!.E.!.~.`._._.+X@X&X=X=X=X=X=X=X=X=X=X;X:X:X:X:X3X:X=X=XqX3X3X3X=X&X=X5XyXpXqX4XqXqX0X5X=X!.| m M | 8.0.a.z.z.!.@X5X4X0X0X9X9X9X9X9X9X9X9X9X9X9X0X9X9X9X9X9XtX0X9XrXrXtX9XtXyXyXaXyXtXyXtXyXpXyXyXyXyXfXyXtXyXyXyXyXuXyXuXaXaXaXdXaXyXyXaXaXaXaXdXdXjXdXdXjXjXjX",
"CXCXCXCXCXCXCXNXNXNXNXNXNXkXkXkXkXkXkXkXjXdXdXdXdXuXuXdXdXjXjXjXkXjXjXfXjXfX0X@X!.z.0.5.0.V.!.`.`.`.^.^.@X3X4X4X9XtXyXaXdXyXyXaXuXpXqX*Xp.b ; * & 6 ` l.A.D.`.`.`.`.`._._.+X*X-X&X&X=X=X:X:X3X:X4XtXyXyXyXaXaXaXaXdXfXdXdXuXuXdXjXjXjXjXjXkXMXCXCXCXCXMXMXMXkXkXMXMXMXkXkXkXkXfXdXfXdXaXpXaXaXaXaXaXsXaXpXaXpXaXaXpXyXtXtXpXpX0X0XqX4X3X3X:X3X3X=X*X#X#X[.).R.B.b.l.z.l.i.l.l.+XaXsXwX0XpXpXaXaXaXyXBXAXDXwXp.} } } } } } y.v.E.[.1X5X1X1X5XqXqX0X0XyXpXaXaXdXdXdXdXdXjXkXjXdXdXjXjXjXjXdXdXjXkXCXCXkXkXkXMXkXjXdXkXkXdXjXkXkXjXjXhXdXaXyXdXdXuXaXdXhXaXyXyXtX9X9XtXrX9X>X4X;XoXOX`.`.^.^.D.V.N.N.N.N.N.f.f.OXNXAXZXCXCXlXkXkXzXhXlXkXdXaXhX>X,X%XXXXX8Xg.g.4.>.s i i p i i i i i i i i i i i i i i i u u u i i i i u u i i i i p p i i p s >.:.>.>.>.>.:.p >.p p :.:.:.:.:.:.:.:.p p :.i p p ,.g.g.XX,X$X;XtXfXaXsXpXpX0X4X3X3X5X5X3X3X3X3X1X1X1X#X#X#X#X#X{.].).].'.).~.E.E.).).).).~.!.!.!.~._.+X*X*X&X&X&X&X=X=X=X=X=X=X=X=X;X:X3X:X=X&X3X5X3X3X&X&X;X5XpX0XpX4X0X3X5X1X].V.| ~ ! ~ } d.z.B.^.&X3X4X5X0X4X9X9X9X9X9X9X9X9X9X9X9XrX9X9X0X0X9X9X9X9X0X0XtX9XtXyXyXdXyXtXtXtXyXpXyXtXtXtXyXyXtXtXyXyXyXyXyXyXuXaXdXdXaXyXuXdXdXaXaXdXhXjXhXjXjXkXkX",
"CXCXCXCXCXCXCXNXNXNXNXkXkXkXkXkXkXkXkXkXkXjXdXhXhXaXyXaXdXdXjXjXkXjXkXkXfXdXpXtX3X!.z.8.5.0.V.D.^.`.`.^.+X;X3X3X4X9XtXyXyXyXyXdXyXyX0X1XZ.n : * ; d | v.A.!.`.`.`.`.`.`.`._.+X&X*X*X=X=X-X-X-X-X:X9X9X9X0XyXyXyXaXfXkXdXdXaXuXdXdXjXjXkXkXNXSXCXSXSXCXNXMXkXkXkXjXjXjXjXfXfXdXaXyXdXfXfXgXgXdXaXpXaXjXjXgXaXaXaXsXfXdX0X0XyXtX0X0X0X9X3X3X;X:X:X=X*X#X+X_.!.A.B.b.l.z.z.z.z.i._.gXsX0X0XpXpXaXaXaX4XaXZXSXsX0.} } } } } y.y.v.R.].*X1X1X5X5XqXqX0X0XtXyXaXdXdXdXdXdXdXjXkXkXjXdXjXjXjXjXjXdXjXMXCXAXjXjXkXNXCXjXdXjXjXdXdXjXjXjXjXjXhXdXaXdXdXdXhXdXaXyXyXaXaX9X4X4X9X>X:X>X;XoXOX`.^.^.^.D.V.N.N.N.N.f.a.f.OXNXZXCXCXCXlXkXkXzXlXCXCXkXaXhX;X,X>X%X,X,XC.H.h.,.4.,.p i i i i i i i i i i i i i i i i u u u i u i i u i i i p i p p i p p p >.>.>.>.>.:.:.>.<.p p p p p p p p p p p p p i p ,.h.g.H.XXXX%X4X7XxXpXpX0X0XpXpX0XqX5X5X3X:X1X1X1X1X1X1X*X#X[.].].).).).).).~.W.E.~.~.~.~.~.!.!.!.!.`.@X-X*X&X&X&X&X=X=X=X=X=X=X=X=X;X;X;X=X=X&X:X4X5X5X3X5X5X3X0X4X0X4X4X;X1X&X_.v.| ~ ! ! | d.V.!.&X3X5X5XqX4X4X4X4X9X9X9X9X9X9X9XrX9X9X9X0XyXyX9X9XtXtX9X9X0X0X0XtXyXpXaXyX4XtXyXyXtXtXyXtX0XtXtXtXuXuXyXyXyXyXyXuXdXdXuXyXuXdXdXdXaXaXdXjXjXjXjXjXjX",
"CXCXCXCXZXZXCXNXNXNXCXlXlXlXlXlXlXlXkXkXkXkXjXjXjXdXuXaXdXdXdXdXdXdXkXMXkXdXaXpXaX:X`.z.8.5.0.z.S.!._.`._.@X&X&X;X:X3X4X9X0XaXaXuXyXpXqX[.! : & : d } m.E.!.`.`._.`.`.`.).`.oX@X&X-X-X=X=X-X:X:X:X4X3X3X9X0X0X0XaXfXkXdXdXdXdXdXdXdXjXMXSXSXCXNXMXMXMXMXMXkXkXfXfXfXfXfXdXdXdXaXdXaXdXfXjXfXsXaXaXaXfXjXgXdXdXaXgXBXjXpXyXyX0X0XyXyX0X9X3X-X:X-X-X@X+X].~.E.Z.V.b.z.l.l.z.z.i.).sXsX0X0XpXaXaXaXyX9XfXBXBX1Xi.} } } } } y.p.c.T.].{.#X1X5X5XqXqXwXwXtXyXyXdXdXdXdXdXjXjXMXCXkXjXjXjXjXjXjXjXdXkXCXZXjXkXkXSXSXkXkXMXjXdXdXdXdXjXjXjXjXdXhXkXkXjXjXdXaXyXaXhXhXdXaXyXyXyX:X9X;XoX_.`.^.^.^.D.V.V.V.V.N.f.f.V.OXhXlXNXCXCXlXlXlXkXkXCXCXkXaXhX>X@X@X$X.XH.g.g.XXg.g.,.p a i i i i i i i i i i i i i i i u u u u u i i i i i i p p p p i p p p >.>.>.>.>.:.:.>.:.:.:.p p p p p p p p i p :.<.>.h.H.H.XXXX%X;X5X7XtXtX0XqXqXpXyX0X9X5X3X-X=X*X*X1X1X1X*X*X*X#X[.'.'.).).).~.~.~.~.E.E.W.W.W.!.!.!.!.`.@X-X*X&X&X&X&X=X=X=X=X;X=X=X=X=X=X;X:X=X&X3X0X0X4X0X0X0X3XqX5X5X5X=X=X*X+X!.a.` ! m ! ~ d.Z.+X3X4X4X3X4X4X4X4X3X3X:X3X9X9X9X9XtXtX9X4X9XyXyX9X9XtXtX9X9X9X0X9X9XtXyXpXyX4XtXyXyXtXtXuXyXtXrXtXtXuXuXyXyXyXyXyXuXaXaXyXyXaXdXdXdXaXaXdXhXjXjXjXjXjX",
"CXCXCXCXCXCXNXCXCXNXCXlXkXkXkXlXlXlXkXkXkXkXkXkXjXdXaXaXuXyXyXyXyXdXkXCXkXfXdXdXaXaX3X`.V.8.~ 8.a.S.!._.!.].@X@X&X=X:X:X:X0XaXyXyXyXyX0X-Xv.b : : d } b.E.!.).`.`.`.`.).).`.+X*X=X=X-X*X-X-X3X3X9X9X3X3X3X9X9XtXaXfXkXdXdXkXkXdXdXdXkXCXCXNXkXjXjXjXjXjXkXkXkXfXfXfXfXdXdXdXaXaXaXyXdXMXBXfXaXdXaXaXaXaXgXgXgXfXfXBXfXsXpXyX0XtXyXyX0X9X3X-X:X-X*X+X].`.!.A.B.b.z.z.l.l.a.a.l.+XpXsX0X0XpXpXaXaXyXdXZXBXgXqX0.} } } } } p.p.a.B.].].#X2X5X5XqX0XpX0X0XpXyXaXaXdXdXdXjXjXCXMXkXkXjXjXkXkXjXdXdXjXNXCXMXNXCXCXCXCXCXCXjXdXdXdXdXdXjXhXjXdXjXkXkXjXdXhXdXuXyXaXaXdXdXyX9X9X4X>X;XoX`.`.`.^.`.D.V.V.V.V.z.z.f.V.OXaXuXzXCXCXlXlXlXkXdXkXkXdXaXhX;X@X:X>XOXC.H.H.XXXXXXh.s u i i i i i i i i u u u i i i i u u u u u i i i i i i p p p p i p p p :.>.>.>.>.>.>.:.p <.:.:.:.p p p p p i p p >.,.>.h.H.H.8X%X%X4X5X4X7X0X5X5X5XqX4X3X3X3X=X=X=X*X*X*X*X#X[.[.[.[.'.).~.~.W.~.W.W.~.~.E.E.E.E.E.!.!.!.!.`.+X*X*X&X&X&X&X&X&X=X=X;X=X=X=X=X=X;X3X3X3X5XpXaX0XaXtX0X3X3X5X3X5X@X=X+X].E.p.! W m W ~ p.R.=X4X4X3X3X4X4X4X:X:X:X:X:X9X9X9X9XtXtX4X3X4X9X9X4X9X9X9X0X0X9X9X9X9X9XtXtXtXyXtXtXtXrXtXuXaXyXtXtXyXtXtXyXyXyXyXyXuXaXuXyXyXuXdXhXhXdXaXdXjXkXkXkXkXkX",
"CXCXCXCXZXCXCXCXCXcXcXkXkXkXlXlXlXlXkXkXkXkXkXkXkXdXdXaXuXyXtXtXtXuXhXNXkXjXdXuXdXaX0XqX).z.0.| ~ 0.V.A.).).].+X@X&X=X=X:X9XyXtXtXyXpXsXsX1Xp.: : l } b.A.!.).`._._._.`.`.`.].*X:X=X=X&X&X:X3XqX9X4X3X9X9X3X3XyXdXdXfXdXfXSXSXjXfXkXMXSXNXMXkXkXkXkXkXkXkXkXfXfXfXfXfXgXaXfXaXaXaXaXgXBXBXfXgXaXaXaXaXaXaXgXaXaXgXfXgXaXpXyX0X0X0XqXqX3X3X=X-X=X*X+X`.).E.A.V.v.v.z.l.l.p.a.z.#XpXsXpXwXyXpXyXuXyXaXMXZXDX1X} } } } } 0.y.p.i.n.'.].{.2X5X5XqX0XpX0X0XaXtXpXaXaXdXdXfXkXMXjXjXkXjXjXCXCXZXdXdXkXkXCXCXCXCXCXCXCXCXkXjXdXdXdXdXdXjXhXkXhXdXjXjXdXuXdXjXuXyXyXuXuXyXyX9X9X4X:X&XoX`.^.`.`.`.R.S.V.V.V.N.z.z.V.OXyXdXjXNXCXlXkXlXkXuXdXzXhXzXlX9X>X;X4X%XH.C.C.H.XXH.h.s i i i i i i i i u i u u u i i i u u i i i i i i i p p p p p p p p p :.:.>.>.>.>.:.:.:.p <.>.>.:.:.:.p p p p p p >.,.,.h.8X8X8X<X%X3X4XyXaX4X3X3X3XaX0X3X=X=X=X=X*X*X*X*X*X#X[.].[.[.'.).W.W.W.).W.W.~.~.W.E.E.E.E.!.!.!.!.`.@X*X*X*X*X*X*X=X=X=X=X=X=X=X=X=X-X-X3XqXqXqXsXfXpXsXpX0XqX3XqXqX5X3X=X[.].A.i.m b m m | Z.@X=X4X4X4X4X4X4X4X3X:X:X;X:X:X9X9X9X0X9X4X:X:X4X9X4X4X4X4X9X9X4X3X4X4X9X0X9X0XtXrXrXrXrXtXyXuXyXtXtXyXtXyXyXyXyXyXuXuXdXaXaXuXuXdXjXjXdXdXdXkXNXCXNXkXkX",
"CXCXZXCXCXCXCXCXCXcXcXkXkXkXlXlXlXlXkXkXkXkXkXkXkXhXdXdXdXaXyXtXtXtXyXdXjXdXuXyXaXaX0XqX=X).z.0.~ ~ 0.B.A.).).].+X@X&X=X=X3X9X9X0XtXaXaXsXqXA.m l f } b.A.!.).`._.oX+X@X@X_._.@X-X=X-X&X&X3X3X5X3X3X3XtXyX9X3X0XyXyXaXdXjXSXSXkXMXCXkXkXkXkXMXNXMXMXMXNXMXdXaXdXfXfXfXfXjXjXaXaXaXaXgXgXfXfXgXdXaXaXaXaXsXaXpXyXaXaXsXpXpXyX0X0XqX5X3X-X=X=X=X-X#X+X`.!.E.Z.V.b.v.z.v.v.a.a.z.+XwXsXpX0X0XyXyXaXyXaXMXZXBX{.| } } } } 0.y.y.i.n.~.].{.1X1X5XqXqX0X0XtXpXyXyXpXaXdXdXfXkXkXdXdXkXkXjXCXMXZXjXjXkXMXCXNXCXCXNXCXCXMXjXMXjXjXjXjXjXkXhXkXdXaXuXuXyX9XuXdXaXuXuXuXuXyXrX9X4X3X:X&XoX`.`.`.`.^.D.S.V.V.V.N.z.N.V.OX9X9XyXjXCXCXkXlXkXkXlXCXNXkXkX4X4X4X4X;X.X.X.XH.XXC.h.,.s i i i p i i i u u u u u u u i u u i i i i i i i p p p p p p p p p p :.:.:.p :.p :.:.:.>.>.>.>.:.:.p p p p p >.>.p >.,.H.8X8X%X.X3X4X0XyX4X3X3X3XyX0X5X3X=X=X=X*X*X*X*X*X#X[.[.[.[.[.'.).~.W.).W.E.E.W.W.W.W.E.E.!.!.!.!.).+X*X*X&X&X*X*X*X*X=X=X=X=X=X=X=X-X3X3XqXqXqX0XpX0X0X0X0X0X5XqXqX5X3X=X-X+XE.i.b d b } B.#X5X3X4X4X4X4X4X4X4X3X:X:X;X;X;X:X:X:X4X3X3X:X:X3X4X4X4X3X3X4X4X4X3X4X9XrXtXtXtX0XrXrXrXrXtXtXyXtXtXyXyXyXyXyXyXyXuXaXaXdXdXdXaXuXaXhXjXjXhXdXkXCXCXkXkXkX",
"ZXAXZXCXCXCXCXCXCXCXcXcXlXkXkXlXlXlXkXkXkXkXkXkXkXjXdXdXdXdXaXyXyXrXrXyXuXuXyXyXyXyXyX0XqX=X).z.0.~ | 0.b.E.).)._.[.+X@X*X:X3X5X0XpXaXaXsXsX*X0.f m } v.A.!.).`._._.@X*X*X+X_.oX@X&X*X*X=X3X3X:X:X3X4XyXdXyX9X9X0XaXaXdXkXMXMXMXCXCXkXkXkXkXMXNXMXMXMXkXkXNXSXkXfXdXdXdXgXaXjXfXfXgXdXaXdXaXdXaXaXaXaXaXpX0XqXqX0XtXpXaXpX0X0XqX5X3X=X-X-X-X-X-X#X+X`.!.E.Z.V.b.v.v.v.v.a.a.z.+X0XsXwX0X0X0XuXdXyXaXMXZXSX[.y.0.$.$.0.y.y.p.i.n.W.'.[.*X1X5X5X5X0XpXpXpXtXyXpXaXdXdXdXkXkXdXdXMXCXkXCXkXkXkXNXNXMXCXkXCXCXNXCXCXCXjXSXNXkXkXkXMXkXjXkXdXuXuXuXyXtXyXaXaXaXuXuXuXtX9X>X:X:X:X&X+XOX`.^.!.D.S.S.V.V.V.N.z.V.V.!.:XyXpXuXdXCXlXlXkXlXCXCXCXNXhX:XrXtX4X4X;X$X.X.XH.C.g.,.,.p i i i i i i i i u u u i i i i i i i i i i p p p p p p p p p p p p :.:.:.p p :.:.>.>.:.p p p p p p p :.>.>.<.,.>.>.>.h.C.8XXX.X3X3X5X4X4X3X3X3X9XqX4X5X5X3X*X*X#X#X#X#X{.[.[.].{.[.'.'.'.W.}.Q.Q.E.E.E.W.W.E.E.!.!.!.!.).+X*X*X&X&X*X*X*X*X=X=X=X=X=X=X=X-X3X3XqX0XqX3X5X5X5XqXqX0X5X5XqX5X1X=X-X[.A.0.b d ! v.*X5X5X3X4X4X4X4X4X4X4X3X:X:X;X;X;X;X;X:X:X4X4X4X:X:X4X4X4X4X4X4X4X4X4X4X4X9X9X0X0XtXrXrXrXrXrXrXrXrXrXiXyXyXuXuXuXuXdXdXdXdXdXhXdXdXaXdXjXkXkXhXkXNXNXkXkXkX",
"AXZXCXCXCXCXCXCXCXCXcXcXlXkXkXkXlXlXkXkXkXlXkXjXjXhXdXdXdXdXdXuXiXiXrXrXyXyXyXyXyXuXaXpX0XqX=X).a.0.| ! 0.b.E.).)._.].+X#X-X-X3X4XtXaXaXpXsXqXE.m ~ } z.A.!.).).`.`.].@X&X+XoX@X+X@X*X-X3X3XqX3X3X3X4XtXaXaX0X9X0XaXfXkXMXMXkXkXkXkXkXMXNXMXkXkXkXkXkXjXjXfXdXdXdXdXdXdXfXaXgXaXdXgXsXaXaXaXaXaXaXaXaXpXtX0XqXqX0X0X0XaXpX0X0XqX3X-X-X-X=X=X=X-X@X[.).~.E.Z.V.b.v.v.v.z.i.a.l.#XqXsX0XwX0X0XuXdXyXaXMXZXmXW.} } $.$.$.y.y.y.i.n.R.~.'.#X*X1X5X5X4XpXpXpXpXyXpXaXaXaXdXkXjXdXdXMXCXkXCXjXjXkXkXkXkXSXjXNXNXNXCXSXCXkXCXCXMXkXkXNXNXkXjXdXdXdXdXdXdXaXuXuXuXuXuXyXtX4X>X;X;X;X&X@XOXOX^.D.S.V.S.V.V.V.N.z.V.V.!.&X9XaXdXNXCXlXlXkXkXlXCXCXCXdX:XtXaX4X4X>X%X.XH.C.g.g.4.,.s i p p i i i i i u i i i i i i i i i i i i p p p p p p p p p p p p p p p p p p :.>.>.p p p p p p p p p p p p p p i p 4.h.XXXX%X3X3X;X=X3X3X3X3X3X9XqX9X5X3X*X#X#X#X#X+X[.[.'.'.'.{.'.{.'.W.W.Q.R.Q.E.E.E.E.E.E.!.!.!.!.`.+X*X#X&X&X*X*X*X*X=X=X=X=X=X=X=X-X3X3X5XqX5X=X=X5X*X3X5X0XqXqXqX5X1X=X+X).z.| f v | ).1X3X3X4X4X4X4X4X4X4X3X3X:X:X:X:X:X:X9X:X:X:X4X9X4X:X4X4X4X9X4X4X4X9X4X:X:X3X4X9X9X0XrXrXrXrXrXrXrXrXyXiXyXyXuXuXaXaXdXdXhXdXdXjXjXhXdXdXhXkXkXjXjXlXlXkXkXkX",
"ZXCXSXCXCXCXCXCXCXCXcXcXkXkXlXlXlXkXkXkXkXNXkXjXhXhXdXdXdXjXjXaXuXuXiXyXtXtXtXyXyXdXdXaXyX0X5X*XA.a.| M | p.b.E.A.E.).`.`.[.*X-X3XqXpXpXpXpXqX5Xb.0.} v.A.!.!.).!.!.`.[.+X[.+X[.[.[.*X3XqX5XqXqX4X5X4XqX0XaXtX9X0XyXdXkXkXkXkXkXjXdXfXMXMXkXkXjXjXjXdXfXfXfXdXfXdXdXdXjXjXaXaXsXaXgXaXaXsXgXgXsXaXgXaXaXaXpXtX0X0X0X0XpXyX0XpX0X3X-X=X-X1X1X-X*X[.].).!.E.Z.B.V.v.v.v.z.a.a.l.*X0XpX0X0X0X0XtXaXyXaXMXZXmX].y.} 0.0.0.y.y.y.p.i.Z.W.).[.*X1X3X5X3X5X0XpXpXpXpXpXyXyXaXyXdXdXdXdXdXjXkXkXkXkXNXkXkXCXkXkXMXMXCXCXSXNXNXNXNXkXkXjXkXkXkXjXjXdXdXhXhXuXtXyXyXtXyXdXtX>X4X;X=X=X@X+XOXOX`.!.S.S.S.V.V.V.V.V.V.V.!.@X4XkXZXZXCXCXCXlXlXCXCXCXCXzX>XhXiXiXiXiX%X.X.XH.H.g.h.,.,.i i i i i i i i i i i i i i i i i i i i i p p p p p p p p p p p :.:.:.:.:.:.p :.>.>.:.p p p p p p >.p p p p ,.,.<.,.4.g.XX%X%X3X3X3X3X5X5X3X3XqX5XqXqX5X3X*X#X#X#X{.[.[.].'.).'.'.'.'.'.W.}.T.E.Q.E.E.E.E.E.E.!.!.E.E.).+X*X#X&X&X*X*X*X*X-X-X=X=X-X-X=X1X3X3X3X3X3X=X-X5X@X=X5XqX0X0XqX3X*X+X`.b.| f : ! n.*X5X3X3X;X4X3X3X3X3X3X:X:X:X:X:X:X3X3X3X3X:X:X4X4X4X:X4X4X4X9X4X4X4X4X4X4X3X3X4X4X9XtXrX9X9XtXrXrXtXtXyXyXuXuXaXaXdXdXdXdXhXdXhXjXjXhXhXdXhXkXkXjXkXkXkXkXkXkX",
"CXSXSXCXCXCXCXcXCXCXcXkXkXkXlXlXlXkXkXkXkXkXkXjXhXdXdXaXdXhXhXaXuXuXuXuXyXtXtXtXyXdXdXyXyXyX0X5X@XA.p.| ~ ~ y.v.Z.E.!.!.!.`.+X-X=X3XqXpXpXpX0XqX).i.0.c.Z.!.!.).).!.!._.]._._._.].[.#X1X5X5XqX5XqX4X3X3XqXtX0X9X9X0XyXaXdXkXkXkXkXdXdXkXkXkXkXfXdXdXaXdXfXfXdXdXdXfXjXkXjXdXpXsXaXfXaXpXsXfXBXsXsXaXaXsXaXaXaXpX0X0X0XyX0XqX0X9X3X3X3X3X1X-X*X@X[._.).!.E.Z.B.V.v.v.v.l.z.l.z.-XqXpX0X0X0X0X0XyXyXaXfXBXGXR.y.} 0.0.y.y.y.y.p.p.n.Q.).].#X2X1X3X1X1X4XtXpXpXtXpXtXtXpXyXyXyXyXaXdXjXkXkXCXSXCXSXCXCXCXMXkXkXkXNXNXMXkXkXkXkXkXdXdXjXkXkXkXaXuXdXaXtX9XtXrX9XtXdX9X>X9X4X&X&X@XoXOXOX`.!.D.S.S.S.V.V.V.V.V.V.!.@XrXCXAXjXCXlXlXkXlXCXCXCXCXaX>XaXuXuXiXuX7X%X%XXXH.g.g.h.,.p i a i i i i i i i i i i i i i i i i i i i p p p p p p p p p p :.:.:.:.:.:.:.:.:.>.:.>.>.p p >.s >.>.p p p >.h.h.h.g.C.XX%X4X4X5X4X4X4XqX5X5X3X3X3X3X5X3X*X#X#X#X#X{.[.].'.).'.[.).'.'.W.W.T.E.Q.Q.Q.Q.Q.E.E.E.E.E.E.).+X#X#X&X&X*X*X*X*X-X=X=X=X=X=X=X1X3X:X3X=X;X=X=XqX*X=X5X5X5X3X1X-X+X[.!.z.~ d d n.5XqX5X3X;X;X:X:X;X;X;X;X;X;X;X;X:X:X:X:X:X:X:X:X:X4X4X9X:X3X4X9X4X9X9X:X3X9X9X9X9X9X9X0XrX9X9XtXrXtXtXtXyXyXuXuXaXdXdXdXdXdXdXdXhXhXhXhXhXdXjXkXkXjXkXkXlXNXNXNX",
"CXCXSXCXZXCXCXCXcXlXkXkXkXkXlXlXkXkXkXkXkXjXhXhXhXdXdXdXdXaXaXaXuXuXuXuXuXyXyXtXtXuXaXtXyXaXpX0X:X+XA.0.~ ! ! 0.v.Z.A.Z.A.!.].*X-X=X5XqX0XpX0X0X5Xc.| l.Z.A.!.!.).D.!.).`.).`.`._.+X[.+X+X*X&X=X9XqX3X3X3X0X0X9X9X0XyXyXaXdXfXjXjXfXfXkXkXkXjXfXdXaXdXfXkXjXdXpXaXaXdXfXjXaXpXaXgXfXaXaXgXBXBXgXsXaXaXaXgXaXpXyX0X0X0XtX0XqXqX3X-X:X:X:X=X*X#X+X]._.).!.E.Z.B.V.b.v.v.v.b.v.b.1XwXaXpX0X0X0X0XyX0XgXgXmXgX{.y.| y.y.y.y.y.y.y.p.c.R.).].].#X=X1X1X1X3X5XtXpXtXpXtXyXpXyX9XyXuXdXjXjXkXkXMXCXCXCXCXCXCXMXjXjXjXjXjXjXkXkXlXkXkXdXaXdXkXNXkXaXyXaXaXyXyXuXuX9X9X9X9X9X>X9X@X@X@XoXOXOX`.!.D.S.D.S.V.V.V.V.V.V.!.@XdXfXkXNXcXCXlXkXlXCXCXCXCXrX4XtXiXuXuXuX7X7X%XXXXXg.g.g.,.p i a i i i i i i i i i i i i i i i i i i p p p p p p p p p p :.:.:.:.:.:.:.:.p p >.>.>.>.>.>.>.>.>.p p :.>.>.,.h.h.H.H.XX<X7XtXtXrXrX9X9XqXqX-X-X:X3X5X3X*X#X+X#X#X#X{.[.{.{.{.{.}.).).Q.W.T.R.Q.Q.Q.Q.Q.E.E.E.E.E.E.~.[.@X@X@X@X*X*X*X*X-X=X=X=X=X=X1X1X3X3X3X3X3X3X5XqX5X=X5XpXqX=X-X*X+X[.A.z.M n c.2X5X-X5X3X;X;X;X;X=X=X;X;X;X:X;X;X:X=X=X=X=X=X:X:X:X:X4X9X:X:X:X4X4X9X9X9X4X4X4X9XtX9X9XtXrX9X9XrXtXtXtXtXyXyXuXaXdXdXdXdXdXdXdXjXdXdXdXjXhXhXjXkXkXkXkXkXkXNXNXNX",
"CXCXSXCXCXSXCXcXcXkXkXkXkXkXlXlXkXkXkXkXkXdXdXhXhXdXdXdXdXuXyXuXuXuXuXuXaXuXyXtXrXyXyX0X0XyXpXyXqX=X].S.0.! W ~ y.l.b.B.b.E.).[.*X-X1X5XqXqXqX0X1XR.0.p.v.B.Z.A.!.!.!.!.).).).).`.[._._.[.*X@X3XqX9X3X:X3X5X9X9X0X0XyXyX0XtXdXdXfXfXfXkXkXkXjXfXfXfXkXkXMXkXdXpXyXaXaXdXdXaXaXaXaXaXaXaXfXBXBXfXaXaXpXaXdXaXaXpXtX0X0X0XqX5X5X-X&X&X&X*X#X@X+X]._._.).!.R.Z.B.V.b.v.v.v.b.b.B.5XpXgXpXpXyX0XtXyX0XjXfXgXBXW.y.} y.y.y.y.y.y.y.p.c.T.~.].].#X*X*X1X1X1X3X4XtXtXpXyXyXpXpXyXuXdXjXjXjXdXdXdXjXdXjXkXCXNXjXdXdXdXdXdXdXjXkXkXkXkXhXaXaXdXjXkXdXuXdXdXdXdXjXhXtX9X9XrXrX;X;X@X@X@XoXOXOX`.!.D.S.D.D.V.V.V.V.V.V.!.@XtXfXNXCXCXcXlXkXkXCXCXCXNX4X4XrXiXiXpXaXiX7X%X.XXXH.H.H.,.i p i i i i i i i i i i i i i i i i i i i p p p p p p p p p >.:.:.:.:.:.:.:.p p p :.>.>.>.>.>.:.:.>.>.i >.>.p ,.h.j.g.H.XX7XiXuXyXyXtX9X9X9XqX=X-X=X;X3X3X*X#X+X#X#X#X#X{.{.[.{.{.W.W.W.Q.E.T.R.E.E.Q.Q.Q.E.E.E.E.E.E.~.].+X@X@X@X*X*X*X*X-X-X=X=X=X-X-X=X3X3X5X5X5X5X5XqXqX-X*X5X1X*X*X#X+X].V.p.~ | #X1X1X5X5X3X;X;X;X;X&X&X;X;X;X;X;X;X;X=X&X=X=X=X;X:X:X:X3X:X4X:X=X:X:X4X9X9X9X3X:X4XtXtXtX0X9X9X9X9XtXtXtXtXyXyXyXuXdXdXdXdXdXdXdXjXdXdXdXhXjXdXhXkXkXkXkXkXkXkXkXkX",
"CXCXCXCXCXCXCXcXkXkXkXkXkXkXkXkXkXzXzXkXkXhXhXhXhXdXdXdXdXaXaXaXaXaXaXaXaXuXuXyXtXtXyXrX0XtXyXtXtX5X#X!.v.} ! m | 0.l.l.B.A.E.).`.`.].+X*X5XwXwX5X~.p.p.l.b.B.Z.E.E.E.E.!.).).).`.[._.).`.+X+X-X3X3X3X3X3X3XqXqX9X0X0X0X0X9XaXdXdXdXdXdXkXjXfXfXkXkXkXkXkXjXgXfXdXaXaXaXsXsXaXpXyXyXyXpXsXgXfXfXgXaXpXaXaXaXaXaXpXtX0X0X4X5X5X3X*X*X-X=X@X+X]._._._.).E.A.Z.B.b.v.v.v.v.v.b.A.5XpXaXwX0X0XyXyXyXyXMXZXGXgXn.$.{ y.y.y.y.y.y.p.p.c.Z.W.'.].#X#X*X*X1X3X3X4X0XpXpXyXyXaXaXdXdXdXjXjXdXdXdXdXdXaXjXkXMXkXjXhXdXdXdXdXdXhXhXhXhXdXdXdXaXaXdXdXdXdXdXjXjXjXjXdXyX9XrXtX9X;X&X@X@X@XoXOX_.`.!.D.D.D.S.V.V.V.V.V.S.!.+X4XtXuXuXNXCXNXhXzXlXCXCXyX;X4XzX4XtXaXxXxXxX%X.X.XH.XXH.4.p ,.>.i i i i i i i i i i i i i i p p p p p p p p p p p >.>.>.>.:.:.:.>.>.>.:.p p >.>.>.s s s >.>.>.>.:.>.<.,.,.h.g.g.C.XX<XxXuXpX0X0X9XqXqXqXqX3X-X1X1X-X#X#X#X#X*X#X{.{.[.[.'.'.W.W.W.W.W.W.R.R.T.R.Q.Q.Q.Q.E.E.E.E.).].+X#X#X#X*X*X*X*X*X*X-X-X-X*X@X*X;X5X5XqX5X1X3X5XqX1X#X*X*X+X[.#X+X_.Z.0.8.B.*X2X1X1X3X3X;X;X&X&X&X&X=X=X=X;X;X;X=X=X&X&X=X=X&X;X;X:X:X;X:X;X=X;X:X:X4X9X9X3X:X9XtXtXtX0X0X0X9XrXrXtXtXtXyXyXyXaXdXfXjXdXdXaXdXkXdXdXdXdXjXdXdXjXkXkXkXkXkXjXjXkX",
"CXCXCXCXSXCXCXcXcXkXkXkXkXkXlXkXkXzXzXkXkXzXzXhXhXdXdXdXaXdXdXdXdXdXaXaXaXuXuXyXyXyXtX9X0XtXtXtX0XqX1X+XB.d.~ ! ! ~ 0.l.z.b.Z.E.!.!.`._.[.-XqXwX5X_.p.0.l.b.B.Z.A.E.E.A.!.!.).).`.[.].).!.!.).`.oX&X3X5X5X3X3X:X3X9X0X0X0X0XaXaXdXdXdXdXfXfXfXfXfXdXdXaXaXfXfXBXjXaXaXdXgXgXsXpXpXyX0X0XpXsXdXfXgXaXaXpXaXsXaXaXpXtX0X4X3X3X3X3X3X=X=X=X*X*X+X]._._.).E.Z.B.b.b.v.v.v.v.v.v.!.qXpXpX0X0X9X0XpXgX0XMXDXDXBXR.y.$.y.y.y.y.y.y.y.y.c.T.W.'.[.#X#X*X*X1X3X3X4X0XaXaXyXyXaXdXdXdXdXdXjXjXjXdXdX0XjXkXkXkXjXjXkXkXjXkXjXdXdXdXaXaXdXdXaXuXuXyXyXyXaXdXkXjXdXaXuXdXdXyXtX9X:X&X@X@X@XoX_.`.^.!.D.D.D.S.S.V.V.V.V.S.D.oX;X3XyXCXNXCXNXdXzXlXCXlX4X>XtXhXyXuXaXxX7X7X4X%X.XH.XXH.g.h.h.,.i i i i i i i i i i i i i p p p p p p i p p p i p >.>.p :.:.:.:.>.>.>.>.>.p p p p s s s >.>.>.>.>.>.,.>.4.h.g.C.H..X<XiXtX4X4X5XqXqXqX5X3X5X1X=X*X#X#X#X#X#X#X{.[.[.[.'.'.W.W.W.~.W.W.W.W.Q.T.R.Q.Q.Q.Q.E.E.E.E.)._.[.#X#X#X*X*X*X*X*X*X-X-X-X#X@X@X=X3XqXqX5X#X1X3XqX5X1X3X=X*X[.+X+X!.V.0.z.].1X1X1X1X1X1X;X=X;X&X&X&X=X=X=X=X=X;X=X=X&X&X=X;X;X&X;X:X;X;X=X=X;X;X:X:X:X4X9X4X4X0XtXtX0X9X0X0X9X9XrXtXtXtXyXyXaXaXdXdXdXdXaXuXaXkXdXdXdXiXhXjXhXdXhXkXkXkXkXjXjXkX",
"CXCXCXCXCXCXCXCXcXkXkXkXlXlXlXkXkXzXkXzXkXjXjXhXdXdXdXdXaXjXkXdXaXaXaXaXaXuXuXyXyXuXyXrX9XtXtX9X4X5X5X*XE.a.} ~ ! m ` 0.i.l.v.b.Z.A.!.)._.+X1X5X1X].i.0.l.b.B.A.A.E.E.A.E.!.!.).).].[.`.!.!.E.!.).oX=X3X3X3X=X=X:X3X9X0X0X0X0XaXdXjXdXdXjXfXfXfXdXdXaXaXfXfXaXaXdXaXyXaXdXdXaXaXaXaXpXtXyXpXaXdXgXaXpXyXyXyXyXtXyXtX0X5X3X1X;X3X5X3X-X*X*X*X+X]._._.).E.Z.B.b.v.v.v.v.v.z.a._.qXsXwX0XqX9X9X0XaX9XkXZXDXmXZ.y.y.} y.y.y.y.y.y.y.v.T.W.).].#X#X*X=X1X3X3X4X0XpXaXyXaXaXdXdXdXdXdXdXjXjXjXjXjXuXdXdXdXdXjXkXkXdXdXjXjXdXaXyXyXuXuXaXaXaXuXuXuXuXdXdXdXdXaXuXdXdXyXtX4X:X&X+XoXOXOX`.^.!.D.D.D.D.S.S.V.V.V.S.S.D.OX&X:XuXZXNXCXNXdXkXNXCXiX;X4XuXhXjXxXxXxX7X4X%X<XXXH.XXH.g.h.h.s i i i i i i i i i p i p i i p p p p p i p p p i i >.>.p p :.:.:.>.>.>.>.>.p p p p s s s p p >.>.>.>.h.h.h.g.H.XX.XXX%X7X4X4X5X5XqXqX5X3X3X5X1X-X#X+X#X#X*X#X#X{.[.].'.'.'.'.W.}.).'.W.W.~.Q.R.Q.Q.R.E.E.E.E.E.E.!.).[.+X#X#X#X#X#X#X*X*X=X=X-X*X&X*X*X*X+X1X5X5X1X5X5XqX5XqX5X3X[.+X_.A.a.8.!.5X1X1X1X1X1X=X;X=X=X&X&X&X&X=X=X=X=X;X=X=X&X&X=X;X;X&X&X&X&X&X&X=X;X:X:X:X:X:X4X4X4X0XtX9X9X0X0X0X0X9XrXrXtXtXyXuXaXaXaXaXdXaXuXtXuXjXhXkXdXyXhXkXkXdXdXjXkXkXjXjXjXkX",
"CXCXCXCXSXCXCXkXkXkXkXkXlXlXlXlXlXkXkXzXzXzXhXhXdXdXdXdXjXNXkXaXaXdXaXaXaXuXuXyXyXuXuXtXtXtXtX9X4X3X3X=X_.b.d.| ! m ! | 0.p.l.M.b.Z.E.E.).].[.*X]._.v.i.l.b.B.Z.A.E.A.A.A.A.E.!.)._.[._.`.).!.!.!._.@X&X*X=X-X-X:X3X3XqX0X0X0XyXdXjXjXjXkXjXjXfXfXfXdXdXaXaXdXfXgXaXtXpXpXaXpXpXpXpXaXpXtXtXpXaXaXaXpXyXtXtXtXtXpXtX0X5X3X=X=X3X3X3X*X+X+X]._.).)._.).A.B.b.b.z.v.v.v.v.z.p.[.qXpXwX0X0X0XqX0X9XtXfXBXmXqXc.y.y.{ $.y.p.p.y.y.y.v.Z.E.).].#X#X*X=X1X3X3X3X0XyXaXaXaXaXdXdXdXdXdXdXdXdXjXjXjXjXjXdXdXdXdXjXdXuXuXdXjXdXdXuXyXaXaXaXdXaXdXjXhXdXuXaXaXaXaXaXtX9XtX0X4X;X&XOXOXOX`.^.!.D.D.D.!.D.D.S.V.V.V.S.S.D.OX@X9XdXkXNXCXNXdXlXlXzX9X@XrXdXaXNXjXxXaXuX4X%X>X%X.XXXH.h.g.,.,.i u i i i i i i i i p i i i p p p p p i p p p i p p p p :.:.:.:.>.>.>.:.p p p >.s s s p p p p s p p ,.g.g.C.XXXX.X$X%X7X5X5X3X5XqX5X3X3X3X5X1X-X*X#X#X*X#X{.[.[.[.[.[.{.'.W.W.W.'.'.~.~.).W.Q.Q.Q.R.R.R.R.R.E.E.E.).].+X+X+X+X+X@X#X*X-X-X=X*X*X*X*X*X@X#X1X5X=X5XqX1XqXqX0X5X5X[.[.`.B.0.a.[.5X1X1X1X1X1X=X;X=X&X&X&X*X&X&X&X&X=X=X=X=X&X&X=X=X&X&X&X&X&X&X&X=X;X:X:X:X:X:X:X4X9X0X0X9X9X9X9X9X9X9X9XrXrXrXtXuXdXdXaXpXaXaXyXtXyXdXhXkXhXiXdXkXkXjXhXhXjXkXjXhXjXjX",
"CXCXCXCXCXcXcXkXkXkXkXkXlXkXkXkXkXkXkXjXjXhXhXhXhXdXhXhXkXlXdXuXaXdXaXuXuXuXuXyXyXuXuXyXtXtXrX9X4X3X3X1X*XE.i.} ! m ! | | @.p.i.l.m.Z.Q.E.~.'.].[.R.b.} i.v.b.Z.Z.Z.E.E.E.E.E.E.)._.[.[.[.].).).`._.+X@X*X-X-X:X-X3X3X3X9XqX0X0XyXdXkXkXkXkXjXfXfXfXdXaXaXsXdXfXgXaXtX0X0XyXtXyXpXpXpXpX0X0X0X0XyXaXaXyXtXpXpXpXpX0X0X4X3X=X=X=X1X*X#X+X]._.).~.~.~.Z.Z.B.b.b.v.v.v.v.v.v.V.+XqXpXwXpXpXyX0XyXqX0XfXBXmX5Xp.y.y.} $.y.p.p.p.p.p.m.T.W.~.].#X#X*X=X=X1X3X3XtX0XpXaXaXyXdXfXfXdXdXdXdXdXdXjXMXjXdXdXdXjXjXjXjXdXaXdXkXhXjXjXhXhXhXdXdXdXjXkXjXhXyXyXyXuXuXyX9X9X9X4X3X;X&X`.`.`.^.^.^.D.!.!.!.D.D.S.V.V.V.S.D.!.`.+X4X4XdXNXkXCXkXlXAXaX>X>XpXzXNXjXxXaXuX7XiX7X%X%X.X.XH.g.g.4.,.i u u i i i i i i i i i p p p p p p p p p p p p p p p p :.:.:.:.>.>.>.:.>.p >.>.s s s p p s p a p s 4.g.g.H.XX.X$X%X4X4XtXtX0X0X5X5X3X5X3X1X1X1X*X*X*X*X#X{.{.[.[.{.[.{.'.W.W.W.~.W.W.W.W.W.R.Q.R.R.R.R.R.R.E.R.E.~.].#X+X+X+X+X#X#X*X-X-X*X*X*X=X_._.*X*X1X5X0X5XqX=X5X5X=X5X#X1X[.R.d.8.V.*X5X5X1X=X*X&X&X&X&X&X*X*X*X&X&X&X&X&X&X&X&X&X&X&X&X&X&X&X&X&X@X&X&X;X:X:X:X:X3X4X4X9X9X9X9X9X9X9X9X9X9X9X9X0XtXtXyXdXfXaXyXyXaXuXtXyXdXdXjXhXaXaXjXkXkXjXhXjXkXjXhXhXjX",
"CXCXCXCXCXcXkXkXkXjXkXkXlXkXkXkXkXkXjXhXhXhXhXdXhXdXdXhXkXdXuXaXaXaXuXuXuXuXuXyXuXuXuXiXyXtXrX9X4X4X3X1X2X).v.0.! m ! ! | | 0.p.i.c.m.Z.R.E.E.~.E.i.~ } i.c.b.B.Z.Z.A.E.E.E.!.E.E.).[.*X*X#X+X[.+X+X@X*X-X=X3X-X=X3X3X3X9X9XqXqX9XyXdXkXkXkXdXdXdXdXaXyXpXpXaXaXaXpX0X0X0XyXyXyXpXtX0X0X0X0X0XqX0XtXaXpXyXtX0X0X0XqX4X5X3X=X=X=X*X*X@X+X[._.).).~.~.Z.Z.B.b.v.v.v.v.v.v.z.b.+XwXwXwX0XpXaX0XaX0XaXjXBXgX5Xp.y.y.$.$.y.p.p.p.p.p.m.T.E.~.'.[.#X*X*X=X=X3X3XtX0X0X0XaXyXfXkXkXjXfXdXdXjXjXjXjXdXdXdXdXdXjXkXjXjXdXdXkXjXkXNXlXjXhXhXdXdXkXkXdXdXyXrXtXyXyXtX9XtX9X4X:X;X&X_._.`.^.^.^.!.!.^.!.D.D.S.V.V.V.S.D.D.`.OX&X4XpXrXkXNXNXNXNX>XOXrXxXzXNXjXxXaXuXiXuX7X%X%X.X.XH.g.g.4.,.p i u i i i i i i i i i p p p p p p p p p p p p p p p p :.:.:.p :.>.>.:.>.>.>.>.s s p p >.i i p ,.<.4.g.XXXXXX$X%X4X7X4XsXsXpXpX5X3X5X5X1X1X-X-X-X*X#X#X{.[.[.[.[.[.{.'.W.W.W.W.W.W.W.W.W.R.T.R.R.R.R.R.R.R.R.R.E.~.].[.+X+X[.+X+X#X*X*X*X*X*X*X5X#X#X5X*X=X5X5X5X5X1X5X5X*X=X@X#X~.b.8.0.R.=X5X1X1X*X&X@X&X&X&X&X&X@X@X&X&X&X&X@X@X@X@X&X&X&X&X&X&X&X&X&X&X&X=X:X:X3X3X3X4X4X4X4X4X4X4X4X4X4X9XtXtX4X4X4X0XtXtXaXdXdXyXtXaXaXuXuXuXdXdXhXdXuXdXjXkXhXdXdXjXjXhXhXhX",
"CXCXCXCXCXcXkXkXkXkXkXkXlXkXzXdXdXhXhXhXhXhXhXdXdXdXdXdXaXuXaXdXaXuXiXiXyXuXyXuXuXuXuXuXyXtXrX9X9X4X3X;X1X].B.y.! ! m ! ! | } 0.p.i.l.m.n.Z.Q.Q.B.} b } i.l.v.Z.Z.Z.Z.E.E.~.!.E.E.!.].+X*X*X*X@X@X#X-X=X=X*X=X=X-X3X3X3X9X9X9XqX4X9X0XaXdXaXyXaXpXyXyXyXtXyXpXpXpX0X0XqX0XpXaXaXpXtX0X0X0X0XtX0X0XqXtXpX0XqXqXqX5X5X5X5X3X=X-X-X*X#X@X+X+X+X]._.).!.A.Z.B.b.b.v.v.v.v.v.a.v.#XsXwXqX0X0XpX0XgX0XtXfXAXSXqXi.p.y.y.y.y.p.u.u.p.p.m.T.E.).'.[.#X*X*X-X=X1X3X0XqX0XtXaXyXfXkXjXjXjXjXkXCXCXkXdXjXdXdXkXkXdXdXjXjXjXjXhXkXNXNXkXjXhXdXaXaXjXkXjXuXyXtXyXyXyXrXtX9X>X:X:X;X@X+XoXOX`.`.`.^.^.^.^.!.D.S.V.V.V.S.D.!.`.^.S.^.=XoX&XtXyX4X@Xq.8.xXjXzXzXjXxXpXuXuXaXtX>X>X.X.X.XH.C.h.,.s p i p i i i i i i i i p p p p p p p p p p p p p p p p :.:.:.p p :.p p >.>.>.>.s s p p >.p p <.,.>.,.h.XXXXXX;X4X4X4X4XtXtXtX0X3X5X5X1X*X*X*X*X*X*X#X[.{.].].].'.'.).}.W.W.W.W.W.R.R.W.W.R.Z.R.R.R.R.R.R.R.R.E.E.~.).].[.+X+X+X#X+X+X+X#X#X#X*X1X1X1X3X=X=X=X1X1X=X1X=X5X*X*X+X_.R.a.| 0.].3X=X=X*X@X@X+X@X@X@X@X@X@X@X@X@X@X@X@X@X@X@X@X@X&X&X&X&X&X&X&X&X;X;X:X:X4X4X4X4X4X4X4X4X4X4X4X4X4X9XtX0X9X4X4X9X0XtXyXdXdXpXyXyXaXdXaXyXaXdXhXjXaXaXdXjXhXdXdXhXkXjXhXhX",
"CXCXCXCXcXkXkXkXkXjXjXkXkXkXdXdXdXdXdXhXhXhXhXdXdXdXuXuXyXuXdXdXaXyXtXyXyXuXuXyXyXyXuXyXyXtX9X9X4X4X3X3X*X#XE.i.| ! ! ! ! ` } } y.p.i.l.c.n.n.T.v.! W } i.l.v.b.Z.n.Z.Z.R.E.E.E.E.!.)._.[.[.+X+X+X@X*X-X-X*X@X@X-X3X3X:X:X3X9X9X3X:X3X9X9X9X0X0X0XyXaXyX0X0X0X0XyXyX0X0X0XpXsXsXaXaXyXtX0XtXyXtX0X9X0X0XqXqXqXqX5X5X5X5X3X=X=X-X*X&X+X+X+X+X[._.).!.A.Z.B.b.b.v.v.v.v.v.a.v.#XgXpXwX0X0X0XqXaX0XaXkXZXBXwXi.p.p.y.y.y.u.u.p.p.p.m.T.W.).'.[.#X*X*X-X=X1X3X0XqX0XaXaXyXaXdXdXdXuXuXdXdXjXjXjXSXjXdXdXjXdXhXkXkXkXjXdXNXkXkXjXkXkXdXyXtXdXkXkXaXuXyXyXyXyXtX9X>X:X:X:X=X@XoXoXoXOX`.^.^.^.^.^.!.D.S.V.V.V.S.D.!.`.D.0.D.aX;XD.4X4X+XS.M M kXkXkXaXzXaXpXuXaXxXiX>X>XOXXX.XXXXXH.4.s s p p p i i i i i i i p p p p i i i i p p p p p p p p >.>.:.p p p p p p p >.>.p p p p p >.,.<.,.,.h.g.XXXX%X%X4X4X4X5X4X5X3X3X3X3X1X=X*X#X*X#X+X#X#X[.[.].].'.'.).W.W.W.W.Q.Q.R.Q.Q.(.Q.R.Z.R.R.R.R.R.R.R.R.E.~.)._.].].[.[.+X+X+X[.[.+X+X+X@X*X1X1X1X=X*X*X*X1X*X1X*X5X#X#X[.].R.l.| a.[.3X*X*X@X+X+X+X+X+X+X@X@X@X@X+X+X+X+X+X+X+X+X+X@X@X&X&X&X&X&X=X=X;X:X:X:X4X4X4X4X4X4X3X3X3X3X4X4X4X4X9X9X9X9X9X9XtXtXtXyXdXyXyXyXaXdXdXuXaXaXdXdXdXuXuXhXjXdXdXdXjXjXjXhX",
"CXCXCXCXlXkXlXkXkXhXkXlXkXzXhXhXdXdXuXhXjXhXhXdXdXaXuXyXyXaXdXaXuXyXtXyXyXyXyXyXuXuXuXyXtX0X9X9X9X9X5X3X*X#X~.m.{ ! ! ! / ` { { } y.y.p.i.c.c.i.} K ! } i.i.l.v.b.b.n.Z.Z.R.E.E.Q.W.).).).].+X+X[.+X+X*X*X*X*X*X=X1X3X-X-X=X3XqX3X:X:X:X:X3X9X4X0XaXdXpX0X0X0XpXpXpXtX0XtXtXpXaXaXaXpXyXpXpXaXaXyXqXqX0XqXqXqXqXqXqXqX5X5X5XqXwX1X*X+X[.[.[.[.].).E.R.Z.B.n.b.v.v.z.z.z.a.v.#X5XpXwX0X0XqXqX3X9X:XMXBXsX*Xi.p.p.y.y.u.u.u.u.p.p.m.T.E.).).[.#X#X*X-X=X-X5XqXqXpXaXpX0XaXdXaXaXyXtXyXdXdXjXjXCXkXjXhXdXdXjXlXNXkXkXkXCXNXkXdXkXkXjXaXyXaXdXdXuXyXtXyXuXyXyX9X9X4X4X;X@X+XOXOXOXOX`.^.^.^.^.^.!.R.D.V.V.V.A.R.!.`.z.8.z.z.OXS.a.R.a.8.n m NXjXaXjXhXaXuXzXuXaXtX>X>X%XXX.X.X.Xg.h.h.,.i p i p i i i i i i i i i i i i p p p p p p p p p p >.:.:.p p p p :.:.:.:.p s p p p p >.>.<.,.h.g.XXXX%X3X3X3X4X4X4XtX0X5X3X3X:X=X-X*X1X*X+X+X#X#X[.].{.[.'.).W.E.Q.W.W.Q.Q.Q.Q.Q.R.R.T.T.T.R.T.R.R.R.R.R.R.E.).].].].].[.[.+X+X[.[.+X+X+X+X#X*X1X1X1X=X*X*X1X*X-X#X+X+X[.].~.R.d.) a.~.-X#X@X+X[.[.[.+X+X+X+X+X+X+X+XoXoXoXoXoXoXoX+X+X@X@X@X&X&X&X;X;X:X:X:X:X3X3X4X4X4X4X3X3X3X3X3X4X4X4X4X4X9X9X9X0XtXtXtX0XaXyXtXtXyXaXaXaXuXaXaXaXaXuXuXhXjXdXdXdXdXhXdXdX",
"CXCXCXcXlXkXkXkXkXzXkXkXkXhXhXhXhXhXdXhXhXdXdXdXdXaXaXuXaXaXuXuXyXyXuXyXyXyXyXyXuXuXyXyXtX0X9X9X9X9X5X3X=X#X).b.} ! ! ! / ` ` ` [ } $.y.u.l.i.y.! K ! } p.i.i.l.m.B.n.Z.Z.Z.R.E.Q.E.).).).].*X*X+X+X].].+X*X3X3X1X-X3X-X-X-X3X3X3X:X3X:X:X4X0X9X0XpXaXyXqX9X0XpXpXpX0X0X0X0X0XyXyXyXyXpXdXfXjXMXpX0XyX0X0XqXqX0X0X0XpX0XqX5XqXqX1X#X+X[.].].].].).E.R.Z.B.B.b.v.z.l.l.l.z.v.*XmXpXwX0X0X9XqX3X9X4XMXBXgX~.p.i.y.u.u.u.y.u.u.p.p.c.B.Q.~.'.].[.#X*X-X=X-X5XqXqX0XpX0X0XaXdXaXaXaXaXdXdXdXdXdXhXjXjXjXdXaXdXzXkXNXCXCXCXSXCXkXNXkXkXkXdXaXuXyXyXrXrXyXuXyXyX9XtXtX4X;X@XoXOXOXOXOX`.^.^.^.^.^.!.R.D.S.V.S.S.R.^.`.V.~ V.0.!.D.v.V.a.d.m m NXaXaXkXhXuXuXhXuXuXrX;X;X%XOXXXXXH.g.h.h.,.p p p p p i i i i i i i i i i i i i p p p p p p p p p p p p p p :.:.:.:.p p p p p p p >.>.,.,.h.g.XXXX%X4X4X4X4X7XtX0X5X3X1X=X-X*X*X*X1X*X+X+X*X+X[.].{.{.].).W.W.E.W.W.Q.Q.R.R.R.T.T.R.T.T.T.R.R.R.R.R.R.R.E.)._.]._.].[.[.[.[.+X+X+X+X+X+X#X&X*X5X5X5X1X1X1X-X*X*X+X].'.).E.B.0.~ a.~.*X@X@X+X[.[.[.+X+X+X+X+X+X+XoXoXoXoXoXoXoXoXoX+X+X@X@X@X&X&X&X;X;X:X:X;X:X3X4X4X4X4X3X:X:X3X3X3X4X4X4X9X9X4X:X4XtXyXtX9XyXyXtXtXtXyXpXyXyXuXyXyXuXyXuXdXdXdXdXdXdXdXdXaX",
"CXcXCXcXlXkXlXkXjXkXkXkXkXjXhXhXhXhXkXdXdXdXdXaXaXaXaXaXdXaXaXuXyXyXuXyXyXyXyXyXyXyXtXyXyXyX0X0X0X9X9X4X1X#X).b.} ! ! ! ! ^ ` ` ` [ { $.$.y.$.[ b b ! } y.y.i.i.l.B.n.B.Z.Z.Z.R.Q.E.E.~.).).+X*X+X[._._.].+X-X=X-X=X-X5X5X3X3X3X3X3X3X3X3X0X0X0XqXqX0XtX0X0X0X0XtX0X0XqX9X0X0X0X0X0X0X0XpXaXgXdXpX0X0X0X0XqXqXqXqXqXqXqX5X5X5X1X-X#X+X[.].].].).~.E.R.Z.B.B.b.v.v.l.l.l.z.v.*XmXpX0X0X0X9XqX3X3XtXMXBXBX5Xi.y.i.u.u.u.u.u.u.p.p.l.n.R.W.'.[.[.#X*X-X-X1X5XqXqX0X0X0X0X0XyXaXaXdXdXdXdXdXaXaXdXhXkXkXhXdXdXhXkXNXCXNXNXCXSXNXCXjXdXkXkXdXuXtXtX9X9XyXyXrX4X;X:X4X4X=X@XoXOXOXOXOXOXOX`.^.^.^.!.^.D.S.S.S.A.^.`.OXS.V.a.0.R.Z.a.V.a.d.b m NXaXaXjXaXrXiXuXiXiXrX;X;X%X%X%XXXH.g.g.g.h.s i i p p p i i i i i i i i i i i i p p p p p p p p p p p p p :.:.p :.:.:.:.p p p p p >.>.,.,.4.g.XX.X%X4X5X5X5XtXtX0X3X;X=X*X*X*X*X*X1X*X+X[.*X+X[.[.#X*X[.'.).W.E.W.W.W.W.W.W.R.T.T.R.T.R.R.Q.R.R.R.R.R.R.E.~.)._._.].[.[.[.[.+X+X+X+X+X[.+X+X&X1X5X5X1X=X*X*X1X1X]._.~.~.R.a.| ! l.).*X#X#X+X[.[.[.+X+X+X+XoX+X+XoXoXoXoXoXoXoXOXoX+X@X@X@X@X&X&X;X;X;X;X:X:X;X:X4X4X4X4X3X3X:X3X3X3X3X3X4X9X4X4X3X:X9XtXtX0XtXtXtXtX0XyXyXyXyXyXyXyXyXyXyXyXaXdXdXdXdXdXdXdX",
"cXkXcXCXlXkXkXzXzXkXlXzXhXhXhXhXhXhXkXdXuXdXdXuXyXyXuXuXaXuXuXuXuXuXyXyXyXyXyXuXyXrX9XyXyXyXtX0X0X9X9XqX-X*X).b.} ` ! ! ! ! ^ ` ` ` [ { ` ` ^ K b P / [ y.y.p.i.l.m.n.n.B.Z.Z.Z.R.E.Q.E.).).].)._.`._.[.[.+X#X#X#X-X-X5X5X5X5XqX3X3X3X3X5X0X0X0XqX5X9XpXaX0X5X5XqX0X0X4X3X3X5X9XqX0X0X4X3X3XqX9X5X3X5X9XqXqXqXqXqXqXqXqXqX5X-X*X*X*X+X_._.).).E.~.E.R.Z.B.B.b.v.v.l.l.l.a.b.#X5XsX0X0XqX9X9X3X3XaXMXBXSX].i.p.p.u.u.u.u.u.u.p.p.i.n.T.Q.'.[.#X#X*X*X-X1XqXqX0X0X0XqXqX0XyXyXaXdXdXaXyXyXuXaXdXdXkXkXkXjXkXNXNXNXkXjXdXjXkXkXkXuXyXdXjXdXyXrX9XrXrXtXyX9X4X9X4X>X:X;X@XoXOXOXOXOXOX+XOX`.^.!.!.^.D.S.S.S.A.^.`.OX`.`.a.a.!.V.d.B.a.0.k m MXaXaXdXyX9X9XiXiXiXrX;X@X%X%X%XXXH.C.H.H.h.,.i i p p p i i i i i i i i i i i i p p p p p p p p p :.>.>.:.:.:.p :.:.p p p p p p p >.>.,.,.h.XXXXC.$X4XtXtX4X0XtX0X3X;X*X#X*X#X*X*X1X*X+X[.#X+X[.#X*X*X{.'.).W.W.W.W.W.W.W.T.T.T.T.T.R.R.T.T.R.T.T.R.R.R.R.E.).)._.].].[.[.[.+X+X+X+X+X[.+X+X#X*X=X1X*X*X#X*X1X1X].).~.W.T.i.! ! c.).*X#X#X+X[.[.[.+X+X+X_._.+X+X+XoXoXoXOX_.oXoXOX+X+X@X@X@X&X&X&X;X;X;X;X:X:X:X:X3X4X4X:X:X:X:X:X:X3X:X3X4X9X9X4X;X:X9X0XtX9XtXtX0X0XtXtXtXyXyXyXtXtXyXyXyXyXaXdXdXaXdXaXdX",
"kXjXkXCXcXkXkXhXhXkXkXhXdXhXhXhXhXjXjXaXuXjXjXuXtXtXyXyXyXyXyXyXyXyXyXyXyXtXtXyXyX9X9XyXyX0X9X0X0XqX9X9X1X=X[.n.0.| / K ! ! ! ^ ^ ^ ^ ^ ! K b b J P ^ [ $.y.p.i.l.c.n.n.n.n.Z.T.R.R.E.E.W.).).).)._.].[.[.[.#X[.+X#X-X1X5X5X5X5X5X5X5X5XqX0X0X0X0XqX5XpXaXpXqXqX0X0X0X9X5X3X5XqX9XqXqX3X:X3X3X9X0XqXqX5XqXqXqXqX5X5X5XwX5X1X#X].).E.!.).).).~.E.W.E.T.B.B.n.v.v.c.c.c.c.i.z.#XsXgXpX0X0XqX9X3X3XjXBXfXsX].i.i.y.u.u.u.u.u.u.p.p.i.n.T.R.'.{.#X*X*X*X1X5XqXqXqX0X0XqXqX0XyXpXyXaXaXaXyXuXuXdXdXdXhXkXkXkXlXCXNXkXkXdXdXdXdXdXdX0XrXaXdXaXyX9X9XyXyXtXtX9X9XtX9X4X3X;X&X@X+X+XOXOX+X+XoX`.^.!.!.^.D.D.S.S.D.!.`.oX`.Z.z.8.E.V.i.V.a.7.f f jXkXNXNXhXdXuXyX4X4X9X4X@X@X%X%X%X,X.X.XH.C.h.s u u i p i i i i i i p p i i i i p p p p p p p p p :.>.>.:.:.:.:.p :.:.:.>.>.>.>.>.p ,.,.4.H.XXH..XXX4XtX3X5X0XtX0X5X3X=X3X3X1X1X*X#X#X#X#X#X#X#X{.{.{.{.'.~.W.W.W.W.W.W.W.T.T.T.T.T.R.R.T.T.R.T.T.T.R.R.R.E.~.)._.].].].[.[.+X+X+X+X#X#X+X+X#X#X#X*X+X#X#X*X].*X[.].W.W.B.i.! ! v.).#X#X*X+X[.[.[.].].]._._._._._._.OXOXOXOXOXOXOXoX+X@X@X@X&X&X=X=X;X;X;X;X:X:X:X:X:X:X:X:X:X:X:X:X:X:X:X4X4X4X4X:X:X4X9X0X4X0X0X9X9X9X9X0XtXyXtXtXtXyXiXyXyXaXaXaXuXuXuXuX",
"kXjXkXcXlXkXkXhXhXkXkXdXdXhXhXhXhXdXaXaXaXhXdXyXtXtXyXyXrXrXrXtXyXyXtXtXtXtXtXyXtX9X0XyXyX9X9X0X0XqX9XqX3X3X*XE.} ~ ! W P P L ! ! ! ! P b c v v K P ^ [ y.y.u.i.l.c.m.n.n.B.Z.Z.R.R.E.E.E.).).)._.].].].].[.+X[.*X-X-X*X-X5XqXqX5X5X5X5XqX0XyXpXyX0X3X0XaXaXaXsXaXpX0X9XqX0X0X5X3XqXqX3X5X0XyXpXsXpXqX5X5X5X5X3X1X5XqX1X1X*X#X].].+X[.).E.E.).).W.R.Z.B.B.b.v.v.c.c.c.c.d.R.qXsXmXgXpX0XqXqX3X9XyXfXsX0X~.i.i.p.u.u.u.u.u.u.p.p.i.n.T.W.).[.#X*X*X#X*X5XqX5X5XqX0XqXqX0XtXyXyXyXyXdXdXuXuXdXdXaXdXkXkXdXhXkXkXkXkXjXdXyXtX9X9X9XtXyXuXuXyX9X9XyXuXtXtX9X9XtXrX4X3X:X;X@X@X@X+X+X+X+X_.`.^.!.^.^.R.R.D.A.D.!.`.OX~.z.a.0.Z.B.a.v.a.7.k n jXkXzXjXdXdXuXyX4X4X4X4X:X;X;X>X%X%X.X.XH.H.h.,.u i i p i i i i i i p p i i i i p p p p p p p p :.:.:.:.:.:.:.:.p p p p :.>.:.>.,.p >.h.g.XXXXXX.X$X4X7X5X4X4X4X0X4X5X3X=X=X-X-X*X*X*X*X*X*X*X#X[.'.'.'.'.~.W.W.W.W.W.W.W.T.T.T.T.T.T.T.T.B.R.T.T.T.T.T.R.E.~.)._._.].].].[.[.[.[.[.+X+X#X#X#X+X#X*X].#X#X#X).).[.'.W.R.v.p.! ! v.).+X+X+X[.[.].]._._._.+X_.`.).`.`._._.`._.OXOXoXoX+X@X@X&X;X=X=X=X;X;X;X;X:X:X:X:X:X:X:X:X:X:X:X:X:X:X:X:X3X4X4X3X:X3X4X9X9X9X9X9X9X4X9X9XtXtXtXtXtXyXyXiXiXyXuXyXyXyXyXyX",
"jXkXcXkXkXkXkXkXhXkXkXdXdXhXhXhXdXaXaXdXdXaXyXyXiXiXyXtXtXrXrXtXyXyXtX9X0XtXtX0X9X9X0XyX0X3X3X9X0XqXqXqX3X5X1X[.} ! b b b J J P ! P J c v j j j K ! ^ [ y.u.p.i.i.l.c.M.n.B.Z.T.R.R.E.R.Q.E.W.).).).].[.].].+X[.#X*X#X+X#X1XqX5X5X5X5X5X5X5XqXqXqXqX3X0XaXaXaXaXaXtX9X5X3X3X:X3X3XqXqX3X5X0X0X0XpXpXqX5X5X5X5X3X1X5X1X*X#X+X[.].[.#X].!.E.E.).).W.T.B.n.b.v.c.c.v.c.c.c.v.v.*XmXmXgXpX0X5X3X:X0XtXaXgXsXB.i.i.u.u.u.u.u.u.p.p.p.i.n.T.W.~.'.[.*X*X+X+X-X5X1X1X5XqX3X5X0XyXyXyXyXyXdXdXuXuXdXhXaXaXhXhXaXuXuXdXjXjXjXdXuX0X9X9X9XyXrXtXyXyXdXdXyXtXyXtX9X9XtXrX4X3X3X:X&X@X@X@X@X&X$XOX_.`.`.^.^.D.D.D.D.R.!.`.OX!.8.0.0.B.R.c.a.a.7.m m NXkXaXpXhXdXuXyX4X4X4X4X0X:X:X>X;X>X%X.X.XH.g.,.z s p i i i i i i i p p i i p p p p p p p p p p :.:.:.:.:.:.:.p p p p p p p p p >.>.>.h.XXXX.X.XXX$X4X4X7X4X4X3X3X3X5X3X;X=X*X*X#X*X*X#X+X].].].'.).'.'.'.W.W.W.Q.W.W.W.W.T.T.T.T.T.T.T.T.B.R.R.T.T.T.T.R.E.~.)._._.].].].].].].[.[.[.+X+X#X#X+X+X#X_.#X#X[.].).~.~.E.T.c.d.! | c.~.[.[.[.]._._._.).~._._._.!.!.!.`.`.`.`._.OXOXoXoX+X@X&X;X;X;X=X=X=X=X;X;X;X;X;X;X;X;X:X:X:X:X:X:X:X:X:X;X:X3X:X:X:X:X4X9X9X9X4X4X4X4X4X9X0XtXtXtXtXtXyXiXyXyXyXtXtXtXyXtX",
"kXCXCXkXhXjXkXkXzXkXkXdXdXhXhXdXdXaXaXaXdXuXyXiXyXyXyXyXtXtXrXtXyXiXtX9X9XtXtX9X9X0XtX0X9X3X3X9XqXqXqXqX3XqX1X*Xp.W j d g v c J ! K c j j j v v K ! ^ [ $.u.p.p.i.i.l.m.n.B.Z.T.R.R.E.R.E.E.E.R.A.E.).].].].+X]._.].[.[.+X-X-X*X1X5X5X5X=X=X3X-X=X3X3XpXaXpX0XqX3X3X5X3X3X0XyX5X4X0X0X9X5X5X3X3XqXqXqXqX5XqX5X5X5X*X#X*X[.].].].[.).!.E.).~.E.E.R.T.B.b.v.v.c.c.c.c.c.c.l.i.[.gXgXsXqXqX3X:X:X0XyXfXmXmXB.i.i.u.u.u.u.u.u.p.p.p.i.m.T.W.W.).].#X*X[.[.+X1X-X-X3XqX3X3X0XyXyXyXyXaXyXyXuXaXdXhXaXuXdXdXaXuXuXyXuXdXhXdXdXuXyX9XyXyX9XrXyXaXdXdXuXyXyXtX9X9XtX9X4X4X4X:X=X&X&X*X&X=X@X+X+XoX_.^.^.D.R.R.D.^.!.`._.!.~ 0.0.V.R.b.a.a.6.m M NXjXpXpXzXhXaXuXrXrX9X9XyX9X4X4X>X4X;X.X.X.Xg.4.z s p i i i i i i i p p i i p p p p p p p p p p :.:.:.:.:.:.:.p p p p p p p p p p ,.,.h.C.XX.XC.$X$X5X5X7X0X4X3X=X;X5X3X=X*X*X#X#X*X-X*X#X[.[.].'.'.'.'.'.~.W.W.W.W.W.W.W.Q.T.T.T.T.T.T.T.B.Q.R.T.T.T.R.R.E.E.)._._.].].].].].].].].[.[.+X+X@X+X+X#X).#X*X[.1X#X).~.R.B.i.p.! | l.W._._.]._.).).~.~.~.~.`.).!.!.!.!.^.^.`.`._._.oXoX+X&X&X=X=X;X;X=X=X=X;X;X;X=X;X;X;X;X;X;X:X:X;X;X:X:X:X;X:X:X:X:X:X:X:X4X9X9X9X9X4X4X9X9X0XtX0XtXtXyXyXyXyXyXyXyXtXtXiXyX",
"CXCXlXkXhXjXkXkXzXkXhXdXdXhXhXdXuXuXaXaXaXuXuXyXyXyXyXyXtXtXtXtXtXtXtX0X9X0X0X9X4X9X9X9XqX9X9XqXqXqX9X9XqXqX5X5Xn.W : ; < 4 4 P ! K v g g j v c K ! ^ [ $.u.u.u.p.p.i.c.n.n.B.Z.R.Z.Z.T.E.R.Z.Z.Z.A.E.)._.].[.]._.].[.[.[.+X+X#X=X5X5X5X3X=X3X3X5X3X3XqX0XpX0X9XqXqXqXqXqXqX5X5X5XqXqX5X5X3X3X=X1X5XqXqX5X5X5X1X1X#X*X+X[.[._._.].~.~.~.).!.E.E.E.A.b.v.v.c.c.c.c.c.c.c.c.n.[.wXgXsX0XqX=X=X3X0XaXfXmXqXB.i.i.u.u.u.i.u.p.p.p.p.i.m.n.Q.W.'.[.{.#X[.[.[.*X-X3XpX0X5X5X0XpXtXyXpXaXyXyXuXdXaXdXaXaXdXdXaXaXaXrXyXdXdXhXhXuXrXyXdXyX9XyXaXdXdXdXdXuXyXyXyXtXtX9X9X4X4X:X&X@X@X&X=X=X@X+X@X+XOX^.^.D.D.D.D.^.!.^.`.!.~ 0.8.v.R.B.a.d.6.m M BXfXaXaXkXlXaXhXuXyXtXtXtX0X0XyX4X7X7XOX.XD.g.h.4.,.i a i i i i p p p i p p p p p p s s p p p p :.>.>.>.s s p p p p p p p :.:.:.,.,.,.g.H.C..X^.$X$XOX$X5X5X5X1X1X1X5X3X1X*X#X+X#X*X1X*X#X{.{.].'.'.'.'.'.).W.W.Q./././.W.W.Q.T.T.T.T.T.T.T.T.T.R.R.R.R.R.R.E.).)._._._._._.].].].].].[.+X+X#X#X#X#X*X*X2X[.*X].W.W.R.n.i.0.W ! i.E.).)._.).).~.!.!.).!.!.!.).).!.!.!.).`._._.oX+X@X@X&X=X=X=X=X=X=X=X=X=X=X=X=X=X=X=X=X;X;X;X;X;X;X:X;X;X;X;X:X;X;X:X;X:X4X9X9X9X9X9X9X9X9X9X0X0X0X0XyXyXyXtXtXyXtXtXtXyXyX",
"CXCXlXkXjXzXkXkXzXhXdXdXdXhXhXdXuXuXaXuXuXyXyXyXiXiXyXtXtX0XtX9XtX9X9X9X9X4X3X3X3X3X3X3XqXqX5X5XqXqXqXqXqXqX0XqX[.! 4 * $ & 6 [ ^ K j g j v v c K ! ^ [ @.u.u.u.p.p.i.m.n.n.n.Z.R.R.T.T.E.R.R.Z.Z.A.E.E.)._.+X[.+X+X*X*X+X[.+X*X=X3X5X5X3X3X3X3X3X3X3X3X5X0XpX0X0X0X0X0XqX5X5X3X3X5X5X3X3X3X;X=X-X-X5X5X1X5X5X1X-X*X#X+X+X[._._.).).).).~.E.E.~.E.Z.b.v.c.v.v.c.c.c.c.c.l.n.[.wXmXgXpXqX&X=X4XtX0XgXmXqXB.i.i.u.u.u.i.u.p.p.p.p.p.s.n.T.W.'.[.{.#X#X#X*X-X=X5XpXpXqXqX0XtXtXyXaXaXaXuXuXaXyXdXaXaXyXyXdXdXdXtXdXjXuXdXjXhXdXdXdXyXyXdXdXdXdXaXuXuXyXyXuXuXuXtXrX4X:X&X@X@X@X&X=X=X@X@X$XoXOX^.!.!.D.!.!.!.!.^.`.A.0.a.| v.Z.B.a.a.8.m M BXfXjXhXkXNXaXjXpXuXtXtXrX9X9XtX5X0X7X%XOX.XC.g.h.4.p i i i i i i p p p p p p p p p s s p p p p p :.>.>.p p p p p p p p p p :.:.,.>.4.C.C..X^..X$X$X$X$X;X3X1X1X1X1XqX3X=X*X#X#X#X1X1X*X#X{.[.'.'.'.'.'.'.).W.W.W./.W./.W.W.T.T.T.T.T.T.T.T.T.T.R.R.R.R.R.R.E.~.)._.].].].].].].].].[.[.[.[.#X#X#X#X*X*X#X{.{.'.W.W.R.n.i.} b ! i.R.~.~.).).~.E.!.!.).!.!.!.).).!.!.!.!.`._.oX+X@X&X=X;X&X&X&X&X=X=X=X=X=X=X=X&X=X=X=X=X;X;X;X;X;X;X;X;X;X;X;X;X;X;X;X:X:X:X4X9X9X9X9X9X9X9X9X9X9X9X9XtXyXtXtXtXtXtXtXtXyXyX",
"kXlXkXkXjXjXkXkXzXhXdXdXdXhXhXdXuXuXaXyXyXyXtXyXyXyXtXtXtXtX0X9X9X4X4X4X4X3X:X:X:X:X:X:X3X3X3X3X3X3X3X3X5XqXqXqX1Xn.: & $ & P u.^ J v g v c c c P ! ! ` @.u.i.u.p.i.i.c.m.M.n.n.Z.Z.Z.Z.Z.R.E.Q.E.E.A.E.E.).)._.].].+X+X[.[.+X#X*X=X3X5X3X3X3X3X3X;X-X=X:X5X0XpXpX0X0XqXqX5X5X;X=X5X5X=X*X=X=X*X*X-X-X1X1X5X5X1X*X*X+X[.[.[._._.).).).).~.!.E.E.E.Z.m.v.c.v.v.c.c.c.c.c.l.b.[.wXBXmXsXpX&X3X0XaXqXfXfX1XB.i.i.u.u.u.i.u.p.p.p.p.p.i.c.n.W.'.].[.[.[.+X+X3X=X=X5X0X0X0X0X0XtXyXaXaXaXaXdXdXuXdXdXdXaXaXdXdXdXuXkXkXaXuXhXkXkXjXdXdXdXuXyXyXyXyXyXyXyXuXyXuXyXtX9X:X&X@X@X@X@X&X&X=X&X@X+XOX`.^.^.!.D.!.!.!.!.!.~.A.a.z.| v.R.B.a.a.8.m M BXBXkXkXhXkXpXaXyXtXrXrX4X4X4X0XrX0XrX:X$X.X.XC.g.h.s s p i i i p i i i p p p p s p s s p p p p p p p :.s p p p p p p p p p :.:.,.4.g.g..X.X.XOX&X&X$X$X=X1X3X3X3X5X5X5X1X#X*X*X1X1X1X#X{.{.[.].'.'.'.'.).).W.W.W.W.W.W.(.(.T.T.T.T.T.T.T.T.T.T.Q.R.R.R.R.R.R.E.).).].].].].].].].].].[.[.+X#X#X#X#X#X{.{.{.).'.W.W.T.v.p.} b W 0.B.E.E.~.E.E.E.!.!.!.!.!.!.).!.!.!.!.!.`._.@X@X&X=X=X=X&X=X&X&X&X&X&X&X=X=X=X=X=X=X=X=X;X;X;X;X;X;X;X;X;X;X;X;X;X;X;X;X:X:X4X9X9X9X4X4X9X9X9X9X9X9X9XtXtXtX9X9XtXtXtXtXyXyX",
"kXkXkXhXhXhXhXhXhXdXdXdXdXdXdXuXaXaXuXyXtXtXtXrXtXtXtXtXtXtX0X9X4X4X4X:X:X:X:X:X:X:X:X:X3X3X3X3X:X:X:X:X5X5X3X5X1X].^ 4 ; 5 ` s.^ J v g v c c J P ! ^ ` @.u.i.u.p.i.i.c.m.m.m.m.M.n.n.n.Z.Z.E.E.E.E.R.Z.Z.A.E.E.!.).)._.[.+X+X+X#X*X=X3X3X3X=X=X=X-X-X-X*X=X5X0X0XqX0XqXqX5X3X=X-X3X3X*X*X=X-X*X*X*X*X*X-X5X5X-X*X#X[.].].]._.)._.).)._.~.!.E.E.A.B.v.v.m.m.m.v.c.c.c.c.a.b.].wXBXBXgXsX=X5XtXdXyXBXsX_.n.i.i.u.u.u.i.u.p.p.p.p.p.p.c.n.W.).'.[.[.[.#X#X*X@X+X=XqX0X0X0X0XpXyXpXaXdXdXdXfXfXkXfXjXkXjXfXdXdXaXkXkXhXdXdXzXkXhXiXtXuXtXyXyXyXyXyXuXyXyXtXtXrX9X:X=X&X@X@X@X@X@X&X=X;X&X+X`.^.^.^.!.!.!.!.!.!.!.!.!.a.a.8.v.R.B.a.a.8.m M BXMXNXhXdXjXyXyXrXrX4X4X4X:X4X4XtXtX4X:X%XOX.XH.H.r.,.,.,.p i i i i p p p i p p p p s s s s p p p p p :.p p p p p p p p p p :.:.,.h.g.XXXX.X$XOX;X;X;X;X1X5X0X5X3X1X5X=X*X*X1X1X1X1X2X#X[.[.[.].'.'.'.'.W.W.W.W.W.W.W.W.(.Q.T.T.n.T.T.B.n.T.T.T.T.T.T.T.Z.Z.R.Q.~.)._.].].].].].].].[.].[.+X+X+X[.[.[.[.].[.W.~.W.R.T.c.p.} b W } v.Q.W.~.E.E.E.!.!.!.!.!.!.!.!.!.!.!.`.`.oX@X&X&X=X&X=X&X&X&X&X&X&X&X&X=X=X=X=X=X=X=X=X;X;X;X;X=X=X;X;X;X;X;X;X;X;X;X;X;X:X:X4X9X4X4X4X9X9X9X9X9X9X9XtX0X9X9X9X0XtXtXtXtXyX",
"jXkXjXhXhXhXhXdXhXdXdXuXaXdXaXaXaXaXuXyXrXrXrX9X9XtXyXtXtXtX9X9X4X4X4X:X3X3X3X3X3X3X3X3X:X-X-X-X-X-X-X-X-X1X3X:XqX1Xn.! j K u.u.^ J c v v c c K P ^ ! ` { $.u.i.i.i.s.x.c.c.c.c.c.m.n.n.Z.R.E.Q.E.E.E.Z.Z.Z.Z.R.E.R.E.).].[.#X[.[.).).].[.+X*X*X*X*X*X*X#X#X@X-X5X5X5X5X5X3X=X*X*X=X=X=X*X1X1X1X1X=X*X*X*X-X-X*X#X#X[.]._._.).)._._._._.~.!.E.E.Z.B.m.v.b.n.n.v.c.c.c.c.a.v.~.5XBXBXgX3X=X3XtXtXjXfX0X#Xv.i.i.u.u.u.u.p.p.u.u.u.p.p.i.n.Q.~.'.'.].[.[.#X#X#X#X=X5X0X0X0XpXpXyXyXaXfXfXdXfXfXCXkXjXjXjXdXdXdXyXjXkXjXhXhXjXjXdXuXtXyXyXaXaXuXyXuXuXyXrXtXtX9X9X;X&X@X@X@X@X@X@X&X;X;X@X+X_.`.^.!.!.!.!.!.!.^.`.`.~.a.a.| v.R.A.a.a.8.m M sXMXkXaXpXaXpXrX0X4X5X3X3X:X:X:XrXtX5X$XOXD.C.C.H.e.h.h.,.i p i i p s p p p p p p p p p s s s s p p p p p p p s p p p p p s >.>.,.4.H.XXXX.X$X$X3X5X5X5X5X5X5X5X3X1X1X&X*X*X*X1X1X1X*X#X[.[.[.{.'.'.'.W.W.W.W.W.W.Q.Q.Q.(.T.T.T.T.T.T.B.n.T.T.T.T.T.T.T.R.R.R.Q.~.)._.].].].].].].[.[.].].[.[.[.[.[.[.].'.'.W.W.W.T.c.s.p.| b m | i.n.R.W.Q.Q.E.E.E.E.!.!.!.!.!.!.!.!.`.oX@X&X*X&X&X&X&X&X&X*X*X&X&X&X&X&X&X&X&X&X&X=X=X=X=X=X=X;X;X;X;X;X;X;X;X:X:X:X:X:X3X4X4X9X9X4X4X9X9X9X9X9X9X9X9X9X9X9X0XtXtXtXtXtXtX",
"kXkXzXhXdXdXdXdXdXdXdXdXaXaXaXuXuXuXaXaXyXtXtXrX9XyXyXtXtX0X9X4X4X4X4X3X3X3X3X3X3X3X3X:X:X-X-X-X=X=X-X-X-X-X-X-XqX1XW.} b +.Q.@.^ J c v v c b P P ^ ! ^ [ { $.u.u.u.u.u.i.c.c.c.c.m.B.R.Q.R.Z.B.B.R.R.R.R.R.Z.Z.R.Z.R.E.~.).[.[._.E.E.).].[.+X#X*X*X*X*X#X@X@X#X*X*X=X=X=X*X@X*X*X*X*X1X5X5X5X3X5X1X1X-X*X-X-X*X*X#X[.]._._._._._._.).).~.!.E.E.A.Z.n.b.n.v.c.c.c.c.c.c.a.c.~.1XgXBXgX5X&X3X0XtXfXgXqX~.l.i.i.u.u.u.u.p.p.u.u.u.p.u.c.m.Q.W.'.'.].].[.#X2X2X*X3X5XqX0XsXsXsXaXaXaXdXaXyXyXyXkXkXjXdXaXpXaXdXyXdXjXhXhXjXkXjXdXuXaXkXkXjXdXdXaXaXuXtXtXuXyX4X9X:X;X&X&X&X&X&X&X&X;X=X@XoXOX`.^.!.D.D.^.^.^.`._.[.~.a.a.| v.R.A.a.d.8.m M MXMXjXtXpXaXpXrX4X4X5X3X:X:X:X:X0XrX4X@XOX^.C.C.H.g.g.h.,.i i s s s p p p i p p p p p p s s s s p p p p p p p s p p p s p p s s ,.h.H.XX.X^..XOX3X5X0X0X0X0X5X3X3X1X=X&X*X*X*X*X*X#X{.{.[.[.[.[.{.'.'./.W./.Q.W.W.W.Q.Q.Q.Q.T.T.T.T.T.B.T.T.T.T.T.T.T.T.T.T.R.R.~.)._.]._._.].).].[.[.].].].].].].].].].'.~.W.W.R.B.c.i.p.| W b ) p.m.R.W.R.Q.W.E.E.E.!.!.E.A.E.D.!.`.].@X&X-X-X&X&X*X&X&X&X*X*X&X&X&X&X&X&X&X&X&X=X=X=X=X=X=X=X;X;X;X;X;X;X;X;X:X:X:X:X:X3X4X4X9X9X4X4X9X9X9X9X9X9X9X9X9X9XtXtXtXtXtXtXtXtX",
"kXkXzXhXhXdXdXdXdXdXdXdXdXdXdXaXuXuXaXaXuXyXyXyXyXuXuXtX9X9X4X3X4X4X4X3X3X3X3X3X:X;X-X-X-X-X-X-X-X-X-X-X-X-X-X-X1X1X{.u.b n.U.@.^ J c c c c J K L ^ ^ ^ ` ` { $.u.u.u.u.p.i.c.c.c.m.n.n.B.B.Z.R.R.Q.W.W.Q.R.Z.R.R.Z.E.E.E.E.).].).E.E.).[.[.].[.#X*X*X*X#X+X[.[.@X*X*X*X*X@X*X*X#X#X-X1X5X5X5X5X1X1X5X1X1X1X1X-X*X#X[.[.].]._._.).~.~.~.~.E.E.E.R.R.Z.Z.m.c.c.l.c.c.c.c.c.c.R.#XsXBXfX0X3X0XyXaXyXfX5Xn.i.i.i.i.i.u.u.u.u.y.u.u.p.u.c.m.T.W.'.'.].].[.#X1X1X1X5X5X5XqXwXpXsXaXaXaXdXyX0XyXyXdXdXdXfXdXaXaXjXuXdXdXhXhXjXkXjXdXuXdXkXNXkXaXyXtXyXyXtXtXyXtX4X9X>X;X&X&X&X=X=X;X;X;X&X+XOXOX`.^.!.D.D.^.^.`._.+X+X~.a.a.| z.R.(.a.0.6.m ~ NXNXjXiXaXdXaXrXrX4X4X:X:X:X:X:X4X0X4X;X@X^.^..X.XC.g.g.h.i p >.s p p p i i p p p p p s s s s s p p p p s p p p p p p i s z ,.,.g.XXXXg..X^..XOX3X5XsXtX0X5X3X3X3X5X*X&X*X*X*X*X#X#X{.[.[.[.[.[.{.'.'.}.}.'.Q.W.W.(.Q.Q.(.Q.T.n.n.T.T.B.T.T.T.T.T.T.Z.Z.T.T.R.R.~.)._.]._._.).).].[.[._.).).).).'.'.'.'.'.~.W.W.B.m.c.i.y.} ! b ! y.l.n.R.T.R.Q.E.E.E.E.A.A.A.A.A.!._.+X#X#X&X&X&X&X&X&X*X*X*X*X&X&X&X&X&X&X&X&X&X&X=X=X=X=X=X=X;X;X;X;X;X;X;X;X:X:X:X:X:X3X4X4X9X9X9X9X9X9X9X9X9X9X9X9X9X9XrXtXtXrXtXtXtXtX",
"kXkXjXhXhXdXdXdXdXdXdXdXdXdXdXdXdXdXaXuXyXyXuXuXuXuXyXtX9X9X4X3X4X4X4X4X4X3X;X=X=X=X=X:X:X=X-X-X-X-X-X-X-X*X-X-X-X-X[.m.! y.m.{ ! J c c c c J K L ^ ^ ^ ` ` ` { @.$.y.y.u.p.i.i.i.i.c.m.m.n.n.n.n.n.Z.R.Q.Q.E.R.E.R.E.W.E.Z.R.)._.).)._.].]._.).*X*X*X*X#X].].].@X@X*X*X@X*X*X@X*X*X1X1X5X5X5X5X1X1X5X1X1X5X1X=X*X#X+X[.[.]._._.~.~.~.!.E.E.E.E.E.E.R.Z.n.v.c.c.c.c.c.i.c.i.T.].pXjXfXtXaXdXfXNXfXqX[.B.i.i.i.i.i.u.u.u.u.y.y.u.p.u.c.m.T.W.).'.].].[.#X5X1X1X5X5X3X3X5XqX0XpXyXaXdXaX0X0XyXfXkXkXMXkXfXaXfXaXaXdXdXdXhXjXhXaXuXuXuXdXhXdXuXuXaXdXyX9X9X9X4X9X4X;X&X@X&X&X;X;X;X;X@X+XOX`.`.^.!.!.!.^.^._.oX+X#X).a.a.| z.R.A.a.0.6.m ~ jXMXNXaXaXdXpXrXrX4X4X:X:X:X:X:X:X4X4X3X;XOX.X.X.X.XC.g.h.,.,.p p i p p i i p p p p p s p p s s p p p p p p p p p p p p i ,.4.h.XX8X%X.XXX.X$X$X3XtXsX5X5X5X3X3X3X5X*X#X*X*X*X#X#X#X[.[.{.[.[.].'.'.'.}.'.'.Q.(.(.Q.T.Q.(.(.T.n.n.T.T.n.n.n.B.n.T.B.Z.Z.Z.Z.R.R.E.).)._._.).).).].].].).).).).).'.).).'.'.'.~.W.n.v.s.i.y.} ! b W } i.m.n.U.T.R.Z.A.A.A.A.A.A.A.!.`.+X@X#X@X#X#X&X&X&X&X&X&X*X*X&X&X&X&X&X&X&X&X&X&X=X=X;X;X=X=X;X;X;X;X;X;X;X;X;X;X:X:X:X3X4X4X9X9X9X9X9X9X9X9X9X9X0X9X9X9XrXtXtXrXtXtXtXtX",
"kXkXzXhXhXhXhXdXdXdXdXdXdXdXdXdXdXdXdXuXyXyXuXuXyXtXtXtX0X9X9X9X9X9X9X9X9X3X=X&X&X-X-X3X3X=X=X;X-X-X-X-X-X*X*X=X=X-X*X).} Z.n.{ ! K c c c c J P L ^ ^ ` ` ` ` [ { @.$.u.u.u.i.i.i.i.l.c.c.m.m.c.m.n.n.T.R.R.R.R.R.R.Z.E.R.Z.Z.E.).).).).).]._.~.).[.+X*X)._._._.+X*X*X*X*X*X*X*X*X-X-X-X1X1X1X1X-X1X1X1X1X1X=X*X*X#X+X[.[.[.[._.).~.E.E.E.E.E.E.Q.R.Z.n.n.m.c.c.v.c.c.i.p.i.n.~.-XaXgX5X3XsXfXBXsX+X).B.i.i.i.i.i.i.u.u.u.u.y.y.u.i.c.n.T.W.~.'.'.].[.#X#X*X*X3X5X1X3X5X4XqXpX0XtXdXaX9X9XuXdXdXkXNXkXjXdXdXaXaXaXdXdXdXdXaXuXuXuXyXuXdXdXuXyXaXdXyXrX9X9X4X9X>X:X&X@X&X&X;X:X:X;X&X@XoX_.`.^.^.!.!.!.`._.+X@X@X_.a.i.| z.R.Z.i.0.8.M ~ jXkXSXaXuXaXyXrXtXtX4X;X;X;X;X;X;X4X4X4X:X%XOX.X^.D.C.g.g.g.,.s s s s p i i p p p p p p p p p p p p p p p p p p p p p p p ,.,.h.g.XXXX.X.XOX$X;X5XtXsXsX0X5X3X5X5X3X-X*X*X*X*X@X#X[.[.[.[.[.'.'.'.'.'.W.W.W.Q.Q.W.Q.T.T.Q.Q.T.n.n.n.B.n.n.n.n.n.B.B.B.T.T.T.T.R.W.~.).].).).).].].].].).).).).).].).).).).).W.W.n.m.s.d.y.} ! n b [ p.i.M.n.B.n.Z.B.Z.A.S.S.S.A.^.oX@X@X@X@X&X&X&X&X&X&X&X&X&X&X&X&X&X&X&X&X&X&X&X&X&X=X&X&X&X&X=X=X;X;X;X;X;X:X:X:X:X:X:X4X4X4X9X9X9X9X9X9X9X0X9X9X9X0X0X0XtXtXtXtXtXtXtXtX",
"kXkXzXhXhXhXhXdXdXdXdXdXdXdXdXdXaXdXhXaXyXyXyXyXyXrXrXrX0X9X9X0X9X0X9X3X3X3X:X=X-X-X=X:X1X*X*X*X-X*X#X*X*X#X#X=X=X*X*X[.l.~.Q.p.! b b b c c J P L ^ ^ ` ` ` ` [ { @.u.u.u.u.p.i.c.c.c.M.m.m.m.m.m.n.n.n.Z.Z.Z.Z.Z.Z.Z.Z.Z.Z.Z.E.).).).E.).]._.~.E.).)._._._._._._.].*X1X1X=X1X-X*X*X*X*X#X#X#X*X*X*X*X-X-X-X*X#X#X+X[.[.].[.].).~.~.E.E.E.E.Q.R.R.Z.b.v.c.c.c.c.v.c.l.i.i.i.c.Z.[.3XqX:X*X@X*X1X-X].~.b.i.l.i.i.i.i.u.u.u.u.y.y.u.i.c.n.T.R.W.).'.'.].[.#X#X*X1X5X3X3X5XqXqXtX5X3X0XyX0XyXdXdXdXhXkXdXdXdXdXdXuXuXjXjXyXtXyXaXaXaXdXdXdXuXyXyXyXtXrXtXtX9X:X:X;X;X&X@X@X&X=X:X:X=X&X@X+XOX`.^.^.!.^.^.`._.+X@X@X_.a.i.~ a.R.Z.i.d.0.M ~ BXMXkXaXaXuXyXtXyXaXyX4X;X;X;X;X3X4X4X4X>X%XOX.X.X.XC.C.C.C.h.,.s s s i i i i i p p p p p p p p p p p p i i i i i i i i s s ,.g.H.XXXXH.XX$X;X4XtX0XsXsX0X5X3X3X1X1X1X1X*X*X#X+X[.[.[.[.[.[.'.'.'.'.'.W.W.Q.Q.Q.Q.T.T.T.T.T.B.m.m.m.n.m.n.n.n.n.n.n.B.B.B.T.T.T.R.~.).).).).).].].].).).).).)._.].'.~.W.W.R.T.B.m.c.c.s.y.} ! n b ! } y.i.c.m.m.b.n.B.Z.S.S.A.!.oX@X@X@X@X@X@X&X&X&X&X&X&X&X*X&X&X&X&X&X&X&X&X&X&X&X&X&X&X&X&X&X=X=X;X;X;X;X;X:X:X:X:X:X:X4X4X4X9X9X9X9X9X9X9X0X9X9X9X0X0X0XtXtXtXtXtXtXtXtX",
"kXkXkXzXhXhXhXhXhXhXdXdXdXdXdXdXdXdXdXaXyXyXyXyXtXyXyXrX9X0X9X9X9X9X3X3X:X:X3X3X:X=X-X=X-X@X@X@X*X@X+X*X*X+X+X*X-X*X[.[.Z.'.W.i.! P b b c b J P L ^ ! ^ ` ` [ [ { $.u.u.y.u.u.i.i.c.M.m.M.M.m.n.n.n.n.n.n.n.B.n.n.n.B.B.n.Z.E.Q.E.E.E.E.).]._.!.E.E.).).].].].].].+X#X*X=X1X5X5X#X#X*X#X#X*X*X*X*X*X*X*X*X*X@X+X+X[.].].].].~.E.E.~.E.E.W.W.R.R.Z.b.c.l.c.c.c.c.m.m.l.i.i.l.i.c.b.A.)._.#X).].A.].E.l.p.l.l.l.i.i.i.u.u.u.y.y.y.u.i.c.n.B.R.~.).~.~.'.].#X#X*X1X3X3X3X5X5X5X0X3X3X9X0X0X0X0XuXuXuXaXtXaXdXdXdXdXaXjXjXyXtXyXaXaXuXuXuXyXyXyXyX9X4X9XrXtX9X:X:X;X;X&X@X@X&X=X:X:X:X&X@X@XoX_.`.^.^.`.`.`._.+X@X*X].a.i.~ a.R.Z.a.d.8.W ( BXMXdXdXdXuXiXyXtXuXyX9X;X;X;X:X4X4X4X3X>X%XOX.X.X.X.XC.C.C.g.4.z s s p i i i i p p p p p p p p p p p p p p i i i i i i ,.,.h.C.XXXXXX.X%X;X7X7X5XtXsX0XqX5X5X1X1X1X1X-X*X#X+X+X[.[.[.[.[.[.).).W.).W.W.W.Q.Q.R.T.T.T.n.T.T.n.n.n.m.n.n.n.n.n.n.n.n.B.n.B.B.Z.T.R.~.).).).).).].]._.).).).).).).).~.W.Q.Q.T.B.n.n.v.c.s.y.} ! b j K [ @.u.i.l.c.m.n.B.Z.V.S.D._.@X@X@X@X@X@X&X&X&X&X&X&X&X&X*X*X&X&X&X&X&X&X&X&X&X&X&X&X&X&X;X;X;X;X;X;X;X;X:X:X:X3X:X:X:X4X4X4X9X9X9X9X9X9X9X0X9X9X0X0XtXtXtXtXtXtXyXtXtXtX",
"kXkXkXzXhXhXhXhXhXdXdXdXdXdXdXdXdXdXdXuXyXyXyXtXrXyXyX9X9X0X9X9X9X4X3X3X3X3X:X-X=X=X*X*X*X+X@X@X+X+X+X+X+X[.].#X#X+X[.].E.'.Q.i.^ b b b c b J P P L ^ ^ ` ` [ [ { $.u.u.y.y.u.u.u.u.i.c.c.m.m.n.n.n.m.M.n.n.n.n.n.n.B.n.n.Z.Q.E.Q.E.E.E.~.].].).~.~.).].+X#X+X#X*X*X*X#X#X*X5X5X#X#X*X*X*X*X2X*X*X*X*X*X*X+X+X[.[.]._._._.~.A.E.~.~.E.E.~.W.R.Z.b.v.l.l.c.c.c.m.v.c.l.i.i.c.i.i.} 0.l.B.b.).wX[.~.l.| } l.c.l.i.i.i.u.u.u.y.y.y.u.i.x.n.B.R.W.'.W.~.~.].+X*X*X1X5X5X3X5X5X3X0X9X0X0X9X9X4X9X9X9X9XyX9XyXdXhXhXdXdXdXdXdXdXuXuXyX9X9XrX9X9XyXyX9X4X9X9X9X9X9X4X:X:X&X@X@X@X=X:X:X:X&X@X@XoX_.`.`.`.`.`.`._.+X@X*X[.a.i.~ a.E.Z.i.0.8.W ( fXMXaXaXaXiXiXrX4XrXrX4X;X;X;X:X4X4X3X:X;X%XOX.X$XOX.X.X.XC.H.r.,.,.,.s s p p i p p p p p p p p p p p p s s s s p p p p ,.4.C.H.H.XXXX%X%X7X7X4X5X0X0XqXqX5X5X5X5X1X*X*X#X+X+X[.[.#X[.#X[.'.).W.W.W.W.W.Q.T.T.T.Q.T.T.n.B.n.n.m.m.m.n.n.m.m.n.n.n.n.B.B.B.B.B.Z.E.~.).).).).).).].).).).).).).).~.W.E.Q.Q.Q.Q.T.T.m.s.p.@.{ ! b f K ! ` $.$.u.i.c.b.B.V.V.S.!.@X&X@X@X@X@X@X&X&X&X&X&X&X&X&X&X&X&X&X&X&X&X&X&X&X&X&X&X&X&X&X;X;X;X;X;X;X;X;X:X:X:X:X:X:X:X4X4X4X4X9X9X9X9X9X9X9X9X9X0X0XtXtXtXtXtXtXyXtXtXtX",
"kXkXkXjXjXjXjXjXjXjXhXdXfXdXdXdXaXdXaXuXyXyXyXtXtXyXyXrX0X0X9X9X9X4X3X3X3X3X:X:X=X=X-X*X*X@X@X@X+X+X+X[.[._._.).).].].).E.'.Q.i.` ! b b b b P P P L ! ^ ^ ` [ [ { +.$.u.$.$.%.$.%.$.u.u.x.c.c.m.m.m.n.n.n.B.n.n.n.n.Z.T.R.T.R.R.R.E.E.E.W.[.#X'.).~.).{.#X#X#X#X*X*X*X#X+X#X+X*X#X#X*X*X1X1X2X*X*X*X*X*X#X+X+X+X[.].).).).E.Z.E.~.!.E.~.~.W.R.Z.n.m.l.i.c.c.m.m.m.c.i.i.i.p.p.p.| f m i.c.#X'.v.0.} ! } l.c.l.i.s.i.u.u.u.u.u.u.u.p.x.n.n.T.W.'.~.).~.].#X*X*X1X5X5X5X5X3X3X9X0XpXpX0X0X0X0X9X9X9XyXtXuXaXdXdXdXdXdXdXjXjXaXdXyX9X4XrX9X9XaXaX9X9X9X9XrXtX9X4X:X;X;X&X@X@X&X:X4X:X;X&X@XoX_.`.`.`.`.`.`._.+X@X*X+Xa.a.! d.!.R.i.y.6.! ( sXkXdXaXuXyXrX4X4X4X9X4X;X;X:X4X5X4X3X;X;X@XOXOXOXOXOX.X.XH.H.H.h.4.,.p >.s p i p p p p p p p p p p p p s s s s s p s s 4.g.XXXXXXXXXX%X%X7XsXsX4X5X5X5X5X5X1X1X1X*X*X#X+X+X+X[.[.*X[.#X{.'.W.W.W.W.W.W.Q.T.U.Q.Q.T.T.T.n.n.n.n.m.m.m.m.m.n.n.n.n.n.B.B.B.B.B.T.E.~.~.).).).).'.].).).].'.).).W.W.Q.Q.Q.T.T.W.n.m.c.i.y.@.{ ! b d j K ! ` { y.i.i.i.a.l.V.!.OX@X@X@X@X@X@X@X@X@X@X@X&X*X&X&X&X&X&X&X=X=X=X=X&X&X;X;X=X=X;X;X=X=X;X;X;X;X;X;X;X3X3X3X3X3X3X3X4X4X9X9X9X9X9X9X9X9XrXrXtXtXtXtXtXtXyXyXyXyXyXyX",
"lXkXkXjXkXkXkXkXjXjXjXhXjXjXfXdXdXdXaXuXuXuXuXuXuXrXrXyXyX0X9X9X9X9X3X3X3X3X3X=X-X-X-X*X*X*X*X@X+X+X[.[.[._.).).).).).).Q.'.W.l.{ ! P b b b K K P P L ! ^ ` ` [ ' { { $.$.$.$.$.u.u.$.u.i.i.c.m.n.T.T.T.T.T.T.n.n.n.Z.R.Q.R.Z.T.R.R.E.E.E.~.].'.).W.).{.*X#X{.[.#X#X#X#X[.].[.+X#X#X*X*X*X*X*X#X#X#X#X#X#X+X+X+X[.]._.).E.A.E.).).~.E.~.W.Q.Z.n.m.m.c.i.l.l.c.c.c.c.c.c.p.u.u.u.} d b y.T.{.m.` ` ` ! y.c.c.x.i.s.i.u.u.u.u.u.u.y.u.i.m.n.T.W.'.'.'.'.].[.#X*X1X3X5X5X5X3X3X3X9X0X0X0XyXaXdXyXyXaXdXaXuXuXaXdXdXaXaXdXhXfXaXdXaXyXrXuXtXyXdXdXyXtXyXyXyXyX9X>X;X&X&X&X&X&X&X;X:X3X3X&X@XoXOX_.`._._._._.[.+X*X*X#Xa.d.W d.E.R.i.7.6.! ( sXBXfXaXuXyX9X4X4X4X4X4X;X;X:X4X4X4X:X;X;X@XOXOXoXoXOX^..X.XH.H.g.h.h.s >.s p i p p p p p p p p p p p p p p i i p p s s ,.h.g.XXXX.X.X%X%X7X7XtX5X5X5X5X5X5X1X1X=X*X#X#X+X+X[.[.[.#X].#X[.'.'.'.'.'.W.W.Q.B.B.T.T.T.n.n.n.n.m.n.m.m.m.m.n.n.n.n.n.n.B.B.B.B.B.T.R.~.~.~.~.~.~.'.'.~.~.'.'.).W.Q.R.R.R.R.n.T.R.n.c.s.p.p.+.[ ! b d d j b L ^ [ $.0.8.0.V.!.oX+X+X@X@X@X@X@X@X@X@X@X@X*X*X&X&X&X&X&X&X=X=X=X=X&X&X;X;X;X;X;X;X=X;X;X;X;X;X;X;X;X3X3X3X4X4X4X4X4X4X4X9X9X9X0X0X0X0XtXtXtXtXtXtXtXyXyXyXyXyXyXyX",
"CXlXkXkXkXlXlXlXkXkXkXkXkXkXjXjXdXdXdXdXaXaXaXdXaXyXyXuXyX0X9X9X9X9X3X3X3X3X:X=X=X=X-X*X*X*X*X@X+X[.].[.[._.).~.~.~.W.W.Q.].'.n.y.` ! b K K J P P P ! ^ ^ ` ` ` ' [ { { @.$.$.u.u.u.u.u.i.i.c.m.m.n.n.n.n.n.B.B.n.n.n.n.T.T.Z.Z.Z.Z.R.R.R.R.Q.~.).W.).[.#X{.].'.).].[.#X*X2X-X-X*X*X*X*X#X[.#X#X#X#X#X#X+X#X+X+X[._._.).E.Z.).).~.~.E.~.W.R.Z.m.c.c.c.l.c.l.c.c.c.c.c.c.p.p.p.p.{ d b } c.Q.i.{ ! c.n.l.c.c.x.x.s.i.u.u.u.u.u.u.y.p.x.m.n.B.W.'.'.'.].[.[.#X*X1X1X5X5XqX5X3X3X3X3X5X9X0X0XaXdXfXdXdXaXuXyXuXaXaXuXuXaXdXdXdXpXdXaXrXuXuXaXaXaXuXyXyXuXyXyX9X>X;X&X@X&X&X&X&X:X:X3X3X;X&XoXOX_._._._.OXOX+X+X*X=X#Xa.d.M 0.E.R.i.7.6.! | sXjXfXaXuXyX9X4X4X4X4X:X:X:X4X4X5X4X:X;X&X@X$XoX+XoXOX^..X.X.XH.H.C.g.,.s s p i p p p p p p p p p p p i p i i i i s >.,.,.h.g.XXXX.XOX$X3X7X4X4X5X5X5X5X5X1X-X*X*X*X*X+X].].].[.[.].].].[.'.'.).'.W.W.W.T.n.B.T.T.T.n.U.U.n.n.n.n.n.m.m.n.n.n.n.n.n.n.n.B.B.B.T.R.W.~.~.).).~.~.~.W.W.~.).W.E.R.Z.Z.Z.B.n.T.n.v.c.s.u.y.@.[ ! b d 6 4 d v b ! ` ` | i.!.oX+X+X+X+X+X@X@X@X@X@X@X@X@X&X&X&X&X&X&X&X=X=X=X=X=X=X=X;X;X;X;X;X;X;X;X;X;X;X3X3X3X3X3X3X4X4X4X4X4X4X4X4X9X0X0XtXtXtXtXtXtXyXtXtXtXtXyXyXpXaXpXyXyX",
"CXlXkXkXlXNXlXlXNXNXlXkXkXkXjXjXhXdXdXdXdXdXdXaXaXaXaXyXtX0X9X9X9X4X3X3X3X3X:X=X=X=X-X*X*X*X*X@X[.].].[.[._.).~.E.E.E.W.Q.[.'.T.u.` ! P K K K K P P ! ^ ^ ^ ` ` ' ' [ { { @.$.u.u.u.u.u.u.s.c.c.c.x.x.c.c.m.M.n.n.n.M.M.M.n.Z.Z.Z.R.E.E.R.n.Z.~.).~.).].{.{.].'.~.).].[.#X#X#X*X2X1X*X#X].[.#X#X[.[.[.[.[.+X+X[.]._.).~.Z.E.).E.E.~.E.~.E.T.n.m.v.v.c.c.c.c.c.c.c.c.c.c.i.p.p.u.} d c ` n.Q.i.{ ` M.{.M.c.c.x.x.s.i.u.u.u.u.u.u.y.p.x.m.n.B.W.'.'.].].{.#X{.*X*X1X5X5XqX0XqX4X3X3X3X5X9X0XyXaXaXyXyXuXaXyXyXuXyXyXyXaXdXdXfXaXaXaX9XtXyXyXyXyXtXtXrXtXyXtX9X>X;X;X;X;X;X;X:X4X4X4X:X;X&XoXOX_.`._._._.OX+X@X-X=X*Xa.d.m 0.E.R.i.y.} ! | sXjXjXuXaXiX9X>X4X4X>X:X:X:X:X4X4X3X;X;X=X@XoXOX+X+XoXOX^..X.X.XXXXXC.4.s s p i p p p p p p p p p p p p p p i i i s ,.,.4.g.XX.XXX.XOX$X3X4X3X;X5X5X5X3X5X1X*X#X@X*X*X[.]._._.].].'.].).).).).W.W.Q.Q.Q.T.B.T.R.Q.Q.T.T.T.T.n.n.n.n.m.m.m.n.n.n.n.n.n.n.B.B.B.B.T.E.W.~.~.~.~.~.~.W.W.~.W.Q.E.R.Z.Z.Z.B.m.T.v.v.c.i.u.y.@.[ ! b g 4 ; : 4 g b b b 0.Z.].+X+X+X+X+X+X@X@X@X@X@X@X@X@X&X&X&X&X&X&X&X&X=X=X=X=X=X=X;X;X;X;X;X;X;X;X;X;X3X3X3X3X3X3X3X4X4X4X4X4X4X4X9X9XtXtXtXyXyXtXyXyXyXtXtXtXyXyXyXaXaXpXyXyX",
"CXNXkXkXkXNXNXNXNXNXNXNXNXkXkXkXjXdXdXdXdXdXdXdXaXdXaXyX0X0X0X0X9X4X3X:X:X3X:X-X-X=X=X-X*X*X#X+X]._._.].]._.).~.E.E.R.Z.T.}.'.}.M.$.! P K K J J K P ! ^ ^ ^ ' ` ' ' [ [ { +.@.$.$.$.$.$.u.s.x.c.x.i.i.i.i.l.c.M.m.M.M.c.c.c.n.n.Z.Q.W.W.R.B.Z.W.'.'.'.'.].{.].].).'._.].].].[.*X1X1X*X{.].[.+X[.[.+X#X[.[.#X[.]._.).).E.R.W.).E.W.).W.W.E.Z.n.m.m.m.v.v.v.v.c.c.c.c.c.l.i.p.p.u.} d c [ m.W.n.} ! p.|.Q.c.c.x.x.x.i.i.i.u.u.u.u.p.u.c.m.n.T.W.'.'.'.].{.#X#X#X*X*X3X5XqXqX0X0X4X9XqXqX9X0XyXaXtXrXuXdXdXuXrXyXtXtXtXaXaXdXjXjXdXuXtXrXyXtXrXtXtXyXtXyXtXtX9X>X;X;X:X;X:X:X4X9X9X4X:X=X@XoX_.`.`._.OXOX_.[.@X*X1X1Xl.i.W d.E.R.d.| ~ ! 0.sXjXfXuXdXuX9X:X9X4X3X:X3X3X3X3X3X3X1X3X3X=X+XoX+X&X&X$X&X%X%X%X%XXX.Xg.4.,.s s i p p p p p p p p p p p p p i i i s ,.,.H.XXXXXXXXXX%X4X4X4X4X5XtX5X5X5X5X1X*X+X#X#X*X[.].].].[.].'.'.~.W.W.W.W.W.Q.T.Q.T.T.T.T.T.T.T.T.U.n.m.n.n.n.m.m.m.m.n.n.n.n.n.n.B.B.B.B.T.R.W.).).).).W.W.E.E.E.Q.R.R.R.T.T.B.n.m.n.v.v.s.s.y.@.@.[ ^ K d : & : : v ^ ! ` b._._.+X+X+X+X+X+X+X+X+X@X@X@X&X*X*X&X&X&X&X&X=X=X=X=X=X=X;X;X;X;X;X;X;X;X:X;X;X:X4X4X4X3X3X3X4X4X4X4X4X4X4X9X9XtXtXyXyXaXaXyXyXyXyXtXtXtXpXpXpXaXaXaXpXaX",
"CXNXkXkXNXNXNXNXNXNXNXNXNXlXkXkXjXdXaXdXdXdXdXdXdXdXaXyXyXtXtX0X0X9X4X3X:X:X:X-X-X=X=X=X*X#X+X+X_._._.].]._.).E.E.R.Z.Z.W.'.'.}.B.p.` ! P J J K K P ! ^ ^ ^ ^ ' ` ' [ [ { { { { @.@.@.@.$.s.x.x.x.x.c.x.i.i.i.c.M.M.c.c.c.M.m.n.Z.Q.W.Q.R.Z.R.W.W.~.~.W.~.].[.].].].].].]._.].#X*X#X{.#X+X+X[.[.[.#X#X+X[.+X[.].[.[.].~.E.).).W.W.).W.W.E.R.B.b.m.m.v.c.c.c.c.c.c.c.c.l.i.p.u.u.+.d c [ c.W.m.| ! { c.Q.c.c.x.x.i.i.i.i.i.i.u.u.u.u.c.m.n.T.W.'.'.'.'.[.*X#X#X#X*X=X3X5X5X0XaXaXaXaXpX0X0XyXyX0XtXjXkXdXaX9X9XyXyXtXaXaXdXkXMXdXaXyXtXtX9XrXyXyXyXyXyXyXrX9X:X;X;X:X:X:X3X4X9X9X3X=X&XoXoXoX_._._.OXOXOX[.@X-X1X1Xl.i.! d.E.R.d.| ~ W 0.sXkXjXyXdXaX0X:X9X4X:X:X;X3X;X3X4X3X3X5X4X3X*X+X+X*X*X+X+XoXOX.X.X.X.XXXH.h.z i p p p p p p p p p p p p p p i i s ,.h.4.C.XX%X%X%X%X7X7X7X7X7XtXtX3X5X5X1X1X-X+X[.[.*X[.[.[.[.[.{.'.'.W.W.W.W.~.W.Q.T.Q.T.T.T.T.T.T.T.T.U.m.m.n.n.n.m.n.m.m.n.n.n.n.n.n.B.B.B.B.B.R.W.).).).).W.E.E.E.E.Q.R.R.R.T.T.B.n.n.n.v.c.s.s.u.@.@.[ / K d : : 6 4 ^ U.T.Z.!.)._.oX+X+X+X+X+X+X+X+X@X&X@X&X*X&X&X&X&X&X&X=X=X=X=X=X=X;X;X;X:X:X:X:X:X:X:X:X4X9X4X4X4X3X3X4X4X4X0X9X9X9X0XtXyXyXpXaXjXjXaXyXyXpXyXyXpXaXaXaXdXdXaXaXaX",
"CXNXNXlXkXNXkXNXNXNXNXNXNXNXkXkXkXdXdXdXhXdXdXdXdXdXaXuXyXyXyXyX0X0X9X3X:X:X-X-X=X=X=X=X*X+X]._.]._._.].]._.).E.E.Z.B.n.'.{.{.W.Q.l.{ ! L K J J K P ! ^ ^ ^ ^ ' ` ' [ [ [ [ { { { { @.@.$.u.u.s.u.i.x.x.i.i.c.c.M.M.c.l.c.c.M.m.n.T.R.n.m.b.B.Z.T.W.Q.T.R.W.'.].'.'.].].]._.].#X[.].].#X#X[.[.].[.#X#X#X*X*X#X#X#X[.[.).).'.).E.W.).E.W.W.R.B.m.m.v.c.c.l.c.c.c.c.c.c.l.i.i.i.s.+.d k [ i.Q.c.` ! ! i.y.c.c.c.l.i.i.s.s.s.i.u.u.u.i.c.m.n.U.W.'.'.'.].[.*X#X#X#X#X*X3X3X3XqXpXaXaXdXgXdXdXfXfXaXuXaXdXdXdXyX9XaXaXtXaXtXyXdXaXpXyXyXtX9X9X9XyXuXuXuXyXtX9X>X;X;X=X;X:X:X:X4X4X9X:X&X&X@XoXoXoXoXoXoXoXOX[.@X-X1X#Xa.i.~ d.E.R.i.| ~ W 0.sXkXjXyXdXdXyX9X9X4X:X:X3X;X;X3X3X1X3X4X4X5X1X&X+X@X@X+X+XoXOX.X$X.X.X.XH.C.4.,.,.>.p p p p p p p p p p p p i i s ,.h.h.g.XX%X%X%X%X7XsX7X7X7XtX5X1X=X=X-X1X-X#X[.].#X[.[.[.[.{.{.'.'.W.W.W.W.~.W.Q.T.Q.T.T.T.T.T.U.U.n.n.n.m.m.n.n.n.n.n.n.n.n.n.n.B.n.B.B.B.B.B.R.W.).).).).E.E.E.E.E.Q.Q.Q.R.Q.T.B.n.n.m.v.c.s.s.u.@.{ ` / K d : 4 d 6 c y.T.]._.)._.oXoX+X+X+X+X+X@X@X@X&X&X&X*X*X&X&X&X&X=X=X;X=X=X;X;X;X;X:X:X:X:X:X:X:X:X4X4X0X0X9X4X3X3X4X5X0X0XtXtXrXtXtXpXaXaXdXjXjXaXpXaXaXaXaXaXdXdXaXdXdXaXdXdX",
"CXNXNXkXkXkXkXNXNXNXNXNXNXNXkXkXkXhXdXhXhXdXdXdXdXdXaXuXaXaXaXyXtX0X9X3X3X-X3X-X=X=X=X-X@X+X]._.]._._.].].).~.E.Z.Z.b.M.{.|.{.W.T.c.$.` ! P J J P P L ! ! ^ ^ ^ ` ` ' ' [ [ [ [ { { { { { @.$.$.$.y.u.i.c.c.m.n.m.M.c.c.m.m.m.m.m.n.n.m.c.v.m.m.n.T.T.Z.B.T.E.).~.'.].]._.).].#X#X[.].[.[.[.[._.].[.[.].].]._.].].].].).'.[.).W.W.~.W.W.W.R.B.m.c.c.c.l.l.c.c.c.c.c.c.l.i.i.i.s.+.d k [ u.n.l.` ! } x.T.l.c.c.i.i.i.s.s.s.i.u.u.u.i.c.m.n.U.(.W.'.'.].[.#X#X+X#X#X*X1X3X3X5X4X4X0XpXaXfXfXdXdX0XtXuXuXyXuXdXiXaXdXyXyXrXyXdXpXaXuXuXyX9X4X9XyXuXaXuXyXtX9X:X;X&X&X=X;X;X:X4X9X9X:X&X&X@XoXoX@X@X+XoXoXOX[.+X-X1X+Xi.a.~ d.E.E.i.| ~ W 0.sXkXjXyXdXaXyX9X9X4X:X:X3X:X;X;X;X&X&X;X3X3X=X$X+X&X&XOX=X&X@X$X^..X.X.Xg.XXg.4.,.,.p p p p p p p p p p p p i i s ,.h.g.C.XXXXXXXX%X%X7X4X4X4X5X5X=X#X#X*X1X-X#X[._.[.].].[.[.{.{.'.~.W.~.W.W.W.W.Q.T.Q.T.T.T.U.U.m.n.m.m.n.m.m.m.m.m.m.m.m.n.n.n.n.n.B.n.n.n.n.B.Q.W.).).).).W.E.E.E.E.Q.Q.Q.R.Q.T.B.n.m.m.v.c.s.s.u.y.{ [ / P b 4 4 6 4 b x.Q.}.[.+X_.OXoX+X+X+X+X+X@X&X&X&X&X&X*X*X&X&X&X&X=X;X;X=X=X;X;X;X;X:X:X:X:X:X:X:X3X4X9XtXtX9X4X3X3X4X5X0XtXtXtXtXyXyXaXaXpXpXaXaXpXpXaXdXdXdXdXdXdXdXdXdXaXdXfX",
"NXNXNXkXkXhXkXNXNXCXCXNXNXNXkXkXkXjXdXhXhXdXdXdXdXdXaXuXaXaXaXyXtX0X9X3X3X0XqX3X:X=X*X&X+X+X_._._.`.!.E.E.A.Z.B.Z.m.i.R.wX2X'.Z.Z.c.x.` ! P K K P P L L L ! ^ ^ ^ ^ ' ` ` ` ' [ { +.+.+.{ { @.$.@.$.y.u.i.c.c.c.c.c.M.M.m.m.m.m.m.M.n.M.m.n.n.n.n.n.B.B.B.T.R.(.~.~.].'.).~.).#X*X{.[.].].].[.[.[.+X[.].]._.).).~.).'.).'.].).).W.R.E.W.Q.Z.n.v.v.c.l.l.c.c.c.c.m.m.c.l.i.i.i.i.@.d k [ u.n.p.| ` } $.{ i.c.x.i.i.s.i.s.s.s.s.u.u.u.c.m.m.n.Q.W.).'.[.[.#X[.+X*X*X*X1X5X3X3X9XqX0X0XyXaXdXdXaXyXyXuXuXyXuXdXuXaXdXuXyXtXyXaXyXpXuXaXyXrX9X9X9XyXyXyXtX9X4X:X;X&X&X&X=X:X3X9XtX9X3X;X;X&X@X@X&X&X@X+XoXOX+X@X*X1X#Xa.p.~ d.R.(.i.y.) ! 0.pXMXkXaXdXaXyX0XyX4X:X9X4X3X;X;X=X=X$X&X;X1X=X@X$X;X=XoX=X=X=X=XoX.X.X.X.XH.g.h.h.4.,.<.>.s p p i p p p i p i i s ,.4.g.XXXX.X.X%X%X4X7X4X4X4X3X5X=X&X*X*X-X*X+X[.].[.].].].].{.{.'.W.~.~.~.W.W.W.Q.Q.Q.T.T.T.U.m.m.U.m.n.n.m.m.m.m.v.v.m.m.m.m.m.n.n.n.n.n.n.n.B.T.Q.W.~.W.W.W.W.E.Q.Q.W.R.R.R.T.T.B.n.m.m.c.s.s.u.y.y.{ [ / P c 6 4 < 6 [ U.W.).).).`._.oXoXoX+X+X+X@X&X&X&X&X@X*X&X&X&X=X=X;X;X;X;X;X;X;X;X;X:X4X4X4X4X3X4X4X9X0XtXtXrX9X4X4X4X0X0XtXtXtXyXpXpXaXaXpXyXtXyXaXaXaXdXfXdXdXdXdXdXdXaXaXdXfX",
"NXkXkXkXkXhXjXkXkXCXCXkXkXkXkXkXkXjXjXjXjXhXdXdXdXdXaXuXaXaXaXaXyX0X9X9X9X0X0X3X3X:X-X#X@X+X_._.`.`.!.E.A.Z.B.B.m.n.} Q.wX2X'.R.Z.b.m.@.^ ! K K P P L L P L ^ ^ ^ ^ ^ ^ ' ' ' ' [ +.+.@.@.@.@.$.$.$.$.@.$.u.p.p.u.x.M.n.m.c.c.m.m.M.M.n.n.n.n.n.n.B.T.T.T.R.R.R.E.R.~.].'.~.~.].#X#X[.].].].].[.#X].].].].).).E.E.).).).).).).E.Q.Z.Q.R.Z.m.v.l.l.c.c.c.c.c.c.c.m.m.c.l.i.i.i.i.@.d k / u.c.u.| b ! / ! u.x.x.i.s.i.i.s.s.u.u.u.p.u.i.c.m.m.Q.W.'.'.'.[.[.[.+X*X*X-X3X3X3X3XpXaXpX0X0XyXaXdXdXdXdXaXaXaXaXuXyXyXaXaXuXdXdXdXdXaXuXuXyXtXrX9X9X9X9X9X9X4X>X:X;X&X@X@X&X;X9XtX9X3X:X:X:X&X&X&X&X&X&X@XoXOX+X+X*X-X1Xa.y.) y.(.(.d.) m m 0.gXMXkXdXdXaXyXtXyX4X3X9X4X4X;X;X1X;X&X@X&X;X3X;X;X1X=X+X=X-X3X3X&XOX.X.XXX.XC.g.g.g.,.>.>.s p p i i i i i p p i s p ,.h.C..XXXXX%X%X%X;X;X4X4X3X5X=X&X&X*X#X#X+X[.[.[.[.[.].].[.{.'.W.~.W.W.R.Q.Q.Q.T.T.T.T.U.n.m.m.n.m.m.m.m.m.m.m.m.m.m.m.m.m.v.m.n.n.n.n.n.n.n.B.Z.R.W.W.W.Q.Q.Q.R.R.R.R.R.Q.T.T.B.n.m.c.s.s.u.u.y.@.{ ` / L c d 4 < v $.T.W.).).).`.`.OXoXoXoX+X+X@X&X&X&X&X&X&X&X&X&X=X=X;X;X;X;X;X;X;X3X3X:X:X4X4X4X4X0X0X0X0XtXtXrX9X4X4X4X0XtXtXtXyXpXaXaXpXpXpXyXtXyXdXdXdXdXdXdXdXdXdXdXdXdXdXjXjX",
"NXkXkXkXkXkXjXhXjXNXNXkXkXkXkXkXkXkXjXjXjXjXdXdXdXdXaXaXaXaXaXaXaXyXyX0X0XyX0X5X3X3X=X&X@X+X_.`.`.).E.Z.Z.B.b.b.i.y.! n.eX2X{.E.Z.Z.n.$.[ ^ P K P L L L L ! ^ ^ ^ ^ ^ ^ ' ' ` ' [ { @.%.$.$.$.$.$.$.$.@.@.@.y.y.y.u.l.c.m.c.i.c.m.m.n.n.m.m.n.n.n.T.T.R.R.R.W.W.E.Q.E.'.].~.E.).].[.[.]._.].].[.[.].)._.).~.E.E.E.).~.E.E.E.Q.E.R.T.W.R.Z.b.v.c.l.c.c.c.c.c.c.c.m.m.c.l.i.i.i.i.y.j j ` y.x.y.` W ! ` ^ u.x.x.i.i.i.i.s.u.u.u.p.p.i.i.c.m.m.T.W.'.'.'.).[.].+X*X-X-X1X1X3X3XpXpXtXyXpX0X0XyXaXaXuXyXyXyXyXtXrXtXaXdXjXjXjXdXhXyXtXyXuXuXyXrX9X9X9X9X9X4X>X:X;X&X&X&X=X:X4X9X9X:X:X:X:X;X=X&X&X&X&X@X+XoX+X@X*X1X5Xn.i.! | y.} ~ b d m z.mXMXMXjXdXdXyXtXyX9X3X9XrX4X3X3X1X3X;X&X@X&X3X5X3X&X*X@X-X5XqX0X3X&XOX.X$XXX.XH.XXH.h.p s p i i i i i i i i i i i u p ,.g.g.XXXXXX%X%X;X4X4X4X3X5X=X#X#X#X#X#X+X#X#X#X[.[.].].[.].'.~.'.W.Q.Q.T.T.T.T.T.T.n.n.n.m.m.n.m.m.m.c.c.m.m.m.m.m.m.m.m.v.m.n.n.n.n.n.n.n.n.B.Z.R.Q.Q.R.R.R.Z.Z.T.T.T.T.T.B.n.v.c.c.i.p.u.y.@.+.{ ` / W b d 4 4 P x.T.W.).).).`.`.`.OXoXoXoX+X+X+X@X&X&X&X*X&X&X=X;X;X;X;X;X;X;X3X3X4X4X4X4X4X3X3X4X9XtXtXtXtXtXtXtX0X0X9XtXyXyXyXpXaXaXaXaXaXaXdXaXuXdXhXhXdXaXdXdXdXaXaXaXdXjXjXjX",
"kXkXkXkXkXkXkXdXdXkXkXkXjXkXkXkXjXjXjXjXjXhXdXdXdXdXaXaXaXaXaXaXaXyXyX0X0X0X0XqX3X3X=X&X@X+X_.`.`.!.A.Z.Z.n.b.M.$.! b y.6X2X[.~.T.Z.Z.u.@.^ ! P P L L L L L ^ ^ ^ ^ ^ ^ ^ ^ ' ` ' [ +.%.u.u.$.@.@.$.$.$.$.$.$.y.y.y.u.i.i.i.i.i.i.c.m.m.c.c.v.n.B.T.R.R.R.W.W.W.W.~.).).'.~.E.~.).).].].].].].].].].).~.E.E.E.E.~.).~.E.E.E.E.R.Q.E.).Q.Z.Z.n.v.c.c.v.c.c.c.c.c.m.m.c.l.i.i.i.i.y.j g / $.i.y.` b ! ^ ! u.c.c.i.i.i.i.i.u.u.u.u.u.u.i.c.m.n.T.W.'.'.'.).[.].#X*X*X-X1X1X3X3XqX5X9XtX0XqX9X9X9X9XtX9XrXtXtXtXtXyXaXjXjXjXhXdXuXtXtXuXdXdXuXyXtXrXtXtX9X9X>X:X;X;X;X:X3X:X;X4X4X4X:X:X4X3X=X&X@X@X@X+X+XoX+X@X-X1X1XE.m.W d b k : d d ! +XjXkXSXjXdXdXyX0XyX9X3X0XrX0X4X3X3X3X3X=X&X&X3X4X3X=X*X#X-X5XqXsXqX1X&XOX$X$XXXXX8XH.4.s p i i i i i i i i i i i i i p ,.h.g.XX.X.X.X%X7X4X4X4X3X5X=X&X#X+X[.+X#X#X*X#X[.].].].[.'.~.~.'.W.Q.T.T.T.T.T.U.U.m.n.n.m.m.m.m.c.c.c.c.c.c.m.m.m.m.m.m.v.m.m.n.n.n.n.n.n.n.Z.Z.R.R.R.R.T.Z.Z.Z.B.B.B.n.n.n.v.c.s.i.u.u.y.@.} { { ` / W c d 4 : ^ x.T.W.).).).`.`.`.`.OX+XoX+XoXoX+X@X&X&X*X&X&X=X;X;X;X;X;X3X3X3X4X4X4X4X3X3X:X:X4X0XtXtXtXtXtXyXyXtXtX0XtXyXyXaXaXdXaXaXaXaXaXdXdXuXdXhXjXdXdXdXdXdXaXaXaXdXdXfXdX",
"NXkXkXkXkXkXjXdXdXdXjXjXjXjXjXkXjXjXjXhXhXhXdXdXdXdXdXaXaXaXaXaXaXyXyX0X0X0X0X3X3X:X=X&X&X@X_.`.).A.Z.B.n.M.M.x.c ; 4 ! eX2X'.).E.Z.Z.l.u.{ ^ ! W P L L L L ^ ^ ^ ^ ^ ^ ^ ^ ` ` ` [ [ +.$.$.@.{ @.$.$.$.$.$.$.$.$.$.u.u.p.i.i.i.i.i.i.x.x.i.m.m.n.n.T.T.R.Q.W.W.W.W.~.~.).).W.W.).).'.].[.].].].].]._.~.~.~.~.~.).).).).W.E.E.E.Q.W.).E.R.Z.n.v.c.c.v.v.v.c.c.c.c.c.l.i.i.i.i.s.y.j d ` $.i.y.` b ! / ! i.c.c.i.s.x.s.i.u.u.u.u.u.p.i.c.m.n.B.T.'.'.).'.{.].*X*X*X*X5X1X1X5X5X3X5X0X5X5X9X0XqX0XtX0XtXtXtXtXtXyXuXdXdXdXdXyXtXtXtXyXaXaXaXyXyXtXtXrX9X4X>X:X;X&X;X3X3X;X;X:X4X4X3X3X4X:X=X&X@X@X+X@X+X+X+X&X=X5X1X6XT.} l : & * l m a.pXMXjXfXdXaXdXaX0X9X9X9X9X0X0X4X4X3X3X3X=X&X&X3XqX5X1X=X*X=X5X0XsXqX5X3X;X1X$X.X.XXXH.h.,.i i i i i i i i i i i i i p s z h.g.H.XX.X.X%X7X4X3X3X3X$X+X+X#X#X+X[.[.{.*X#X].~.'.].].'.).W.W.Q.T.B.B.U.T.U.U.U.m.n.m.m.m.m.c.c.c.c.c.c.c.c.c.c.c.v.v.v.v.m.m.n.n.n.n.n.n.T.T.T.Q.R.R.R.T.T.B.n.n.v.v.m.v.c.i.i.i.u.y.$.@.{ { [ ` ! P c g 4 4 ` U.Q.}.~.).~.`.`.`.`.OXoXoX+X+X+X+X&X*X&X&X&X=X=X=X;X:X3X:X3X3X:X3X3X3X4X4X4X4X4X4X0XtXtXtXtXtXyXyXyXtXtXtXyXaXdXdXdXdXdXaXuXaXdXdXaXdXdXhXdXdXdXdXdXdXaXdXdXdXdXdX",
"CXNXNXMXkXkXkXkXdXdXdXjXkXjXjXjXjXhXdXdXdXdXdXdXdXdXdXaXaXaXaXaXaXyXyX0X0X0XqX3X3X-X-X*X&XoX`.).!.A.B.b.c.m.*.^ 5 + ; P eXqX2X[.E.Z.B.m.x.$.` ^ ! ! L L L ! ^ ^ ^ ^ ^ ^ ^ ^ ' ' ` ` [ [ { { @.@.$.$.$.$.@.@.$.$.$.$.u.u.u.i.i.i.i.i.i.i.i.i.c.n.n.n.n.n.B.T.T.Q.Q.Q.Q.Q.W.).~.W.W.).).].[.[.[.[.].].].]._.).).).'.].'.).E.E.E.A.R.).~.R.Z.B.b.v.c.c.c.c.c.c.c.c.c.c.l.i.i.i.i.i.y.j d ` $.i.y.` b ! / ! i.c.c.i.s.x.s.i.u.p.u.u.p.p.i.c.m.n.n.T.W.W.).'.[.[.*X*X*X*X5X1X1X5X5X5X5X0X3X9X0XaXaXaXpXtXtXyXyXtXtXtXyXuXuXuXrX4X9XyXyXrXtXyXuXyXtXrX9X9X4X>X:X:X;X&X&X:X:X:X:X4X4X4X4X3X=X&X&X&X@X@X+X+X+X+X@X&X-XqX5XwX#XR.| f l d ~ z.0XaXjXfXdXaXaXdXaX9X9X9X9X9X0X0X4X4X4X3X3X;X&X&X=X5X5X3X;X=X=X1XqXpXqX5X3X=X#XOX^.^.C.g.r.4.s i i i i i i i i i i i p s s ,.h.g.C.H.H..X.X%X%X%X%X;XOX+X#X#X#X#X#X[.{.#X#X'.~.).].].'.).W.W.R.T.B.B.U.T.U.U.m.m.m.m.m.c.c.c.c.c.c.c.c.c.c.c.c.c.c.c.c.c.v.v.v.v.n.n.n.n.B.T.T.T.R.R.Q.T.T.n.n.n.v.m.v.m.c.i.i.i.u.y.$.@.} [ [ ` ! P b v 6 6 ^ I.Q.}.W.~.~.).`.`.`.OXoXoX+X+X+X@X&X*X&X&X&X=X=X=X;X;X:X:X3X3X3X3X4X3X4X4X4X4X4X9X0XtXtXtXtXtXyXyXyXyXyXyXyXaXdXdXdXdXdXaXuXuXaXdXaXaXdXdXdXdXhXhXdXdXdXdXdXdXhXhX",
"SXSXSXSXCXMXMXkXjXdXdXdXdXdXdXdXdXdXdXdXdXdXdXdXdXdXdXdXdXdXaXdXaXyXyX0X0X0X9X3X3X-X-X-X+X].).A.A.Z.b.M.n.m.+.0 + $ $ c 2XeX1X{.).T.Z.n.c.u.{ ^ ! ! L ! L L ^ ^ ^ ^ ^ ^ ^ ^ ' ' ' ` ' ' ` { @.@.%.@.@.@.{ @.$.$.$.$.$.y.u.p.i.i.i.x.i.c.c.s.c.m.m.M.n.n.B.T.n.B.R.R.R.R.E.).).W.W.).).].].[.[.[.[.).W.W.).).).).).).W.E.Q.E.E.E.E.~.W.R.Z.B.b.c.l.l.l.c.l.l.c.l.c.c.c.l.i.i.i.i.u.j d ` $.i.$.` ! ! / ! i.m.M.x.i.l.i.i.i.p.u.p.p.p.i.c.m.n.n.T.Q.W.W.).[.[.2X*X#X*X5X1X5X0XqXqX0XsX0X0XpXaXaXaXyXtXtXyXyX9X9X9XtXyXuXuXiXiXuXdXdXyXrXyXuXuXyX9X9X9X>X:X:X:X;X&X&X&X:X4X0X0X9X9X9X4X;X&X&X&X@X@X+X+X+X+X@X*X3XqXqXsXwXqX#X'.~.~.@XgXgXgXfXdXaXyXaXdXaX9X9X9X9X9X0X0X0X4X4X3X:X:X=X@X*X3X5X3X=X-X=X;X3X0XqX5X3X=X$XOX.X^.C.C.C.h.,.p i p i i i i i i i i i s ,.s ,.h.h.h.g.C..XXX$X$X%X;X$X1X1X1X1X*X#X#X[.[.].).).).'.].'.'.W.W.R.T.B.B.U.U.U.U.m.m.c.m.c.c.c.c.c.c.c.s.s.s.s.s.s.s.c.c.c.c.v.v.v.v.n.n.n.n.n.B.T.T.R.R.Q.T.T.B.n.n.v.m.m.m.c.i.i.i.u.y.$.@.} [ [ ` ! P K c d d ^ m.T.W.W.~.!.).`.`.`.OXoXoXoXoX+X@X&X&X&X=X=X=X=X;X;X;X=X:X3X4X4X3X9X9X9X9X9X9X4X9X9XtXtXtXyXyXyXyXyXuXuXuXuXaXaXdXdXdXdXaXaXuXaXdXdXdXdXdXdXhXjXhXdXdXhXjXjXjXkXkX",
"CXSXCXSXSXCXCXCXkXjXdXdXdXdXdXdXdXdXdXdXdXdXdXdXdXdXdXdXaXaXaXaXaXyXtX0X0X0X9X3X:X=X-X#X].`.!.A.A.Z.M.M.x.] 0 = .   . g {.2X2X'.).E.Z.n.M.u.$.` ^ ! L ! ! L ^ ^ ^ ^ ^ ^ ^ ^ ' ` ' ' ` ` ` [ { { { +.+.{ { { @.@.$.$.$.$.y.p.i.i.c.c.c.m.m.c.c.m.m.m.n.n.T.R.T.B.B.Z.Z.R.Q.W.).W.W.).).).).).).~.E.W.~.W.).).W.E.E.E.Q.R.Z.Z.E.E.W.R.R.R.T.n.m.c.i.i.l.l.l.l.c.l.c.c.c.l.i.i.i.i.y.v d ` $.i.$.` ! ! ` ! i.m.m.x.i.i.i.i.p.u.u.u.p.p.i.c.m.n.n.T.T.Q.Q.W.].[.2X*X*X*X5X1X5X0X0X0X0XsX0X0X0X0X0X0XtXtXtXtXtX9X9X9X9XtXiXuXuXdXdXdXdXdXdXyXyXuXyX9X9X9X>X:X;X;X&X&X&X&X:XtXyXyXtX0X9X4X4X:X=X&X@X@X+X+X+X@X@X-X3XqXpXpX0XsXsXsXsXsXgXaXdXyXdXaXyX0XaXdXaX9X9X0X0X9X0X0X4X4X4X;X;X=X&X@X@X-X;X3X=X-X;X;X3X5XqX5X3X=X1X1X$X.X.XH.XXC.,.s i p i i i i i i i i u p s p s ,.,.4.4.g..XXX$X$X%X;X5X5X0XwX1X*X#X#X[.].].].].'.).'.'.~.W.W.T.T.B.B.U.U.U.n.m.c.c.m.m.c.c.c.c.c.s.i.s.s.s.s.i.i.s.s.c.c.v.v.v.v.v.n.n.m.n.n.B.T.T.Q.R.T.B.B.n.v.v.c.c.c.c.i.i.i.u.y.y.@.} { ` ` ! P K c d d L m.U.W.Q.!.!.).).`.`.OXOXoXoXoX+X@X@X&X&X=X=X;X=X=X=X=X&X;X3X4X4X3X9X9X9X9X9X9X4X9X9XtXtXtXyXyXyXyXyXuXaXaXyXyXaXdXdXdXaXaXuXuXuXaXdXdXdXdXdXhXhXhXdXdXjXkXkXkXkXkX",
"CXCXZXZXCXCXCXSXCXMXkXdXdXaXaXuXuXaXaXaXaXdXdXdXdXdXdXaXaXaXaXaXaXyXtX0X0X0XqX3X:X=X#X+X`.).E.A.B.Q.c.u.{ v 1 ; $     6 /.wX5X*X].E.T.B.m.x.u.@.` / ^ ^ ^ ^ ^ ^ ^ ^ ^ ^ ^ ^ ` ` ' ' ` ` ` ` ' [ { { { { { { { @.@.@.$.$.u.u.u.x.m.m.m.m.m.c.c.c.m.m.n.n.T.Q.Q.T.B.Z.Z.R.Q.E.).~.W.W.).'.'.~.~.E.E.E.).~.).).W.E.E.Q.Q.R.Z.R.Q.E.Q.Z.Z.R.R.n.v.l.l.l.l.l.c.c.c.c.m.c.c.l.i.i.i.i.y.v 6 ` $.s.$.` ! ! ^ ^ i.M.m.c.i.i.i.i.p.u.u.y.u.p.i.c.m.n.n.n.T.Q.Q.W.].].*X*X*X*X5X1X5X0X0X0X0XpX0X0X0X0X0X0XtXtXtXtX0X9XtXyXuXuXuXuXuXdXdXdXdXdXdXuXyXaXyX9X:X>X:X;X;X;X;X&X&X&X:X9XtXaXtXtX9X9X3X;X&X&X@X@X+X+X@X@X&X&X3X5X0XpXsXsXsXaXsXgXaXyXtXyXyXdXdXyXaXaXaXaX4X9X0XyX0X0X9X4X3X;X=X=X&X&X@X@X*X3X3X=X3X1X3X5X0X5X5X5X5X5X3X$X%XXXXXC.h.s i s i i i i i i i i u i i i p s s z ,.f.XXXXOX$X;X5XsXsX5X*X#X#X#X#X#X].].].].'.).~.~.W.W.Q.T.B.n.n.n.n.m.n.m.s.c.m.m.c.x.s.s.i.i.i.s.i.i.i.i.s.s.s.s.c.v.v.m.v.m.m.v.v.m.n.n.T.T.R.Q.T.T.n.m.m.v.c.c.c.c.c.i.i.u.y.$.@.{ [ ` ^ ! ! J c g 6 c x.I.Q.W.W.!.~.).`.`._._._.+X+X+X+X@X*X*X=X=X=X=X=X=X=X&X=X:X3X3X3X9X9X4X9X9X9X9X9X9XrXtXtXyXyXyXyXyXaXdXdXyXtXpXfXaXaXaXaXuXuXuXaXaXdXdXdXdXhXjXhXdXdXhXjXkXkXkXkX",
"SXCXZXAXZXCXCXCXCXCXNXkXhXdXaXuXyXiXyXyXyXaXdXdXdXaXuXuXyXyXaXaXyXyX0X0X0X9X9X3X-X-X#X].).).A.Z.n.B.s.%.c - % 1 X   . & Q.wX2X[.'.).Q.Z.n.c.u.$.[ / ^ ^ ^ ^ ^ ^ ^ ^ ^ ^ ^ ^ ` ` ' ' ` ` ` ` ' [ { { { { { { { { @.@.@.$.$.u.u.i.i.i.x.x.c.c.c.c.c.m.n.m.n.B.T.T.Z.R.R.R.Q.E.).W.W.W.W.).).~.W.E.Q.W.).E.E.).).).E.E.E.E.Q.W.E.Z.R.T.T.R.R.m.v.v.v.v.v.v.v.c.c.c.m.c.c.l.i.i.i.i.y.c 6 ` $.s.$.` ! ! ^ ^ p.M.M.c.i.i.i.p.u.u.u.p.u.p.i.c.m.n.n.T.Q.W.).).).).[.*X*X1X1X1X5XqXqX0XpXpXpXpXtXtXtXtXyXyXpXaXaXdXdXkXkXkXdXdXuXuXuXuXaXdXdXaXuXaXyX9X:X:X;X&X&X;X;X;X:X&X&X;X:XyXtXyX0X4X:X&X&X&X@X@X+X+X@X@X&X&X=X3XsXpX0XqXtXpXaXdXfXdXfXdXdXkXkXdXaXaXaXaX3X4X0X0X0X0XtXtX4X=X=X=X&X&X&X@X*X3X5X3X3X3X3X5X0X5X5X5XtXtX4X%X.XXXXXg.h.s i p i i i i i i i i i i i i i p s s z 4.C.XX.X%X;X=X5X1X2X$X].[.#X#X[.].].].].'.~.~.W.W.R.T.B.n.n.n.m.m.m.m.m.s.c.m.c.x.s.s.i.i.i.i.i.i.i.i.i.i.s.i.s.s.c.c.m.c.v.v.v.v.n.n.n.n.T.T.T.T.B.n.m.v.m.c.c.c.c.i.i.p.y.$.@.{ { ` ` ^ ! ! J c v 6 c %.m.Q.W.W.~.!.~.~.~.`.`._._.[.[.[.+X@X*X*X=X=X=X=X=X&X&X=X:X:X3X3X:X:X3X9X9X4X9X9X9X0XtXtXyXyXyXyXyXaXaXaXyXtXyXpXaXaXpXpXyXyXyXuXaXdXdXdXdXdXdXdXdXhXdXhXkXkXkXkX",
"SXCXZXAXZXCXCXSXSXCXCXNXkXhXdXaXyXyXyXyXyXyXuXuXuXyXyXyXyXyXaXaXyXyX0X0XqXqX3X:X:X=X#X].).E.A.B.v.c.%.L 2 % % < $   . * s.6X2X].{.).~.R.B.m.i.u.@.[ ^ ^ ^ ^ ^ ^ L ^ ^ ^ ^ ^ ^ ^ ^ ^ ` ` ` ` ' [ { { { +.{ { { { { { { @.$.y.u.u.u.u.u.s.i.i.i.i.c.c.m.m.n.n.T.T.T.Z.R.R.R.Q.).W.Q.Q.W.W.W.E.E.E.E.).).E.E.W.).).W.E.E.E.W.W.R.Z.R.T.T.R.Z.m.m.m.m.v.v.v.v.v.c.c.m.m.c.c.i.i.i.i.y.c 4 ` y.i.$.^ ! ! ^ / y.c.c.l.i.i.i.p.u.u.u.u.u.p.i.c.m.n.n.T.Q.W.).).).).).[.*X1X1X2X=X5X5XqX0XpXpXpXpXpXaXpXaXaXaXaXaXaXuXuXaXaXuXuXuXuXuXuXyXuXdXdXaXaXuX9X:X4X:X&X&X;X;X:X:X;X;X:X4XpXyXpXtX4X:X&X&X&X@X@X@X@X@X@X@X@X*X=XtX0X5X4X4XtXyXaXjXkXjXfXdXkXkXdXaXaXaXaX:X3X4X9X0X0XtXtXqX;X=X=X&X&X-X&X=X5XqX5X3X3X4X0X0X0X5X5X5X4X5X$XC.XXH.h.h.z i i i i i i i i i i i i i i i i s s s Q r.C.%X.X.X$X1X1X1X#X+X+X#X+X].).'.'.'.).~.E.W.W.Q.T.B.n.n.n.n.n.m.m.m.c.s.c.x.s.s.s.s.s.i.i.d.i.i.i.i.i.s.s.i.c.c.c.c.c.v.v.v.v.n.n.m.n.n.T.T.n.n.m.v.m.c.c.c.s.c.i.u.p.$.@.{ { ` [ ^ ! ! ! P J c g v ` x.U.Q.R.E.!.!.~.).`.`.`.`._._.+X].+X@X*X*X=X=X=X=X&X=X=X:X:X:X:X;X;X3X0X0X4X9X9X0X0XtXtXyXyXyXyXyXpXpXpXpXyXtXyXpXyXyXyXyXyXyXuXaXdXhXdXdXdXdXdXhXjXhXhXkXkXkXkX",
"CXZXZXAXZXCXCXSXSXCXCXNXkXjXhXdXaXaXuXuXyXyXyXyXyXyXyXyXyXyXyXyXyXyX0X0X9X5X3X=X-X-X+X).E.A.Z.n.m.s.' 0 % 1 5 1 o . . g ` 2X6X*X'.'.~.Q.U.m.i.u.$.[ ` ^ ^ ^ ^ ^ ^ ^ ^ ^ ^ ^ ^ ^ ^ ^ ` ` ` ` ' [ { { { +.{ { { { { { { { @.$.u.u.p.u.u.u.i.i.i.i.i.i.c.c.n.T.Q.Q.R.T.T.T.R.Q.).W.Q.Q.R.Q.E.E.E.E.).).).E.E.E.E.E.E.E.Q.E.Q.Z.n.R.R.Z.R.R.Z.v.m.m.c.l.l.c.c.c.c.c.m.c.c.l.i.i.i.p.y.c : ` y.s.$.^ ! ! ^ ^ y.l.c.i.i.i.i.p.u.u.u.u.u.p.i.c.m.n.n.n.T.Q.Q.~.).'.).).[.1X*X*X*X=X1X5XqXqX0X0X0XtXpXpXaXaXdXdXaXtX9X9XrXuXdXdXuXiXiXyX9XyXdXdXuXyXyXtXtXyX9X:X;X;X;X:X3X:X4XtXpXjXaXyXtX4X;X&X&X&X@X@X@X@X&X&X@X@X*X=X3X3X5XqX0XtXyXaXdXdXdXaXaXdXdXyXyXyXaXyX:X:X3X9XqXqX4X4X5X=X=X;X=X&X=X-X=X5XqX5X3X3X4X0X0X0X5X5X1X;X$X.XC.C.g.h.4.,.p i i i i i i i i i i i i i i i i p s ,.4.r.XXXX.X.XOX$X+X#X#X+X].).).~.~.).~.~.~.E.W.W.Q.T.T.B.B.T.U.n.m.m.m.c.i.i.s.s.s.s.i.i.u.u.u.u.d.d.i.i.i.i.i.s.c.c.c.c.m.m.v.v.m.n.m.m.n.n.n.n.m.v.c.c.c.c.c.s.i.i.p.y.@.{ } { [ ` ^ ! ^ ! P J c g v L s.n.T.R.E.E.!.!.!.!.`.`.`.`.`._._._.+X@X*X*X&X&X&X&X&X=X;X;X;X=X;X;X3X9X9X4X4X4X9X0XtXtXtXtXyXyXyXyXyXyXyXyX0X0XyXtXyXyXyXyXyXuXaXdXdXdXdXdXdXdXjXjXhXhXkXkXkXkX",
"AXAXZXZXCXSXSXCXCXNXCXMXkXjXjXjXhXdXaXuXuXyXyXyXiXtXiXyXyXyXyXyXyXtX0X9XqX3X:X-X&X@X].!.E.B.M.n.s.^ 0 4 7 1 , X .   o v { W.2X*X[.'.).E.T.n.x.u.u.{ ' ` ^ ^ ^ ^ ^ ^ ^ ^ ^ ^ ^ ^ ^ ^ ` ` ` ' ' [ { { { { +.+.{ { { { +.+.@.$.u.u.u.u.i.i.s.i.i.i.i.i.i.c.n.B.T.T.T.T.T.T.R.R.Q.W.E.E.Q.Q.E.W.~.~.).).).~.W.E.E.Q.Q.Q.E.E.A.Z.Z.Z.T.Z.R.Z.n.m.m.v.l.l.l.l.c.c.l.l.c.l.l.l.i.i.p.u.y.W : ` %.x.$.^ ! ! ^ ^ y.x.x.i.i.i.u.u.u.u.u.u.u.p.i.c.m.m.n.n.T.R.Q.W.).].'.'.].[.*X*X*X*X-X=X*X=X3XqX0X0X0XtXyXyXdXaXyX9X9XrXtXuXdXuXiXiXiXrX9XyXuXaXaXyXtXuXuXyX9X:X;X;X;X:X:X4X9XyXaXjXdXyX9X4X;X&X@X@X@X@X@X@X@X@X&X=X;X3X3X3XtXtXtXtXpXdXfXfXaXaXaXdXdXyX0XyXyX0X3X3X4X4XqX5X4X3X3X3X3X3X:X=X3X=X=X5XqXqX5X3X3X5X5X5X3X3X5X5X3X$XC.4.4.,.z i p i i i i i i i i i i i i i i i i i s ,.,.h.XX%X.X%X=X=X#X].[.].).~.~.).~.~.~.~.W.W.W.W.Q.T.T.T.T.T.T.U.m.m.m.c.s.i.i.i.s.u.u.u.u.u.p.p.u.u.u.u.u.i.i.s.c.c.c.c.v.c.c.c.m.m.m.m.n.n.m.m.m.m.c.c.c.c.x.s.s.u.y.@.@.+.{ { [ ` ^ ^ ! P P J c v g c { I.n.T.R.R.R.!.!.!.!.!.`.`.`.`._._.oX+X&X*X*X*X*X&X&X=X=X;X;X;X;X:X3X4X9X4X4X4X4X0XtXtX0X0XrXtXyXtXtXtXyX9X4X4XyXtXtXyXtXyXyXyXuXaXdXdXdXdXdXdXhXhXfXdXjXkXkXkX",
"AXZXZXCXSXCXSXCXCXNXNXkXkXjXjXjXdXdXaXyXyXyXyXyXiXtXyXyXyXyXyXyXyX0X0X9X3X3X-X&X@X_.).E.Z.b.l.u.' H 6 1 1 % $ .     . * 6 m.2XeX{.{.'.W.Q.n.c.i.u.{ { ' ^ ^ ^ ^ ^ ^ ^ ^ ^ ^ ^ ^ ^ ^ ` ` ` ' ' [ { { { { +.{ { { { { +.+.@.$.$.u.u.u.u.i.x.c.c.x.x.x.l.c.c.M.n.n.Z.T.T.T.T.T.T.R.Q.E.W.W.W.W.E.E.W.W.W.W.E.E.E.E.E.E.E.Z.R.E.E.E.Z.Z.T.B.m.m.v.c.l.c.c.c.c.c.c.l.c.c.c.l.i.i.u.p.y.W : ^ u.x.$.^ ! ! ! ^ u.x.c.x.i.i.i.u.u.u.u.u.u.p.i.c.m.m.n.n.T.Q.Q.W.).).].[.].[.#X*X*X=X=X-X*X-X=X3X5X9X9XqX9X4XyXtX9XtXdXjXdXyXyXyXiXuXuXuXyXtXtXaXaXyXyXuXyXrX4X:X;X;X;X:X4X4X9XyXaXdXdXpX0X4X;X&X@X@X@X@X@X@X&X&X=X=X:X4X5X5XpXtXtXyXaXdXfXfXdXaXaXaXgXaXpX0X0X0X9X4X4X4XqX5X4X3X;X;X3X5X5X3XqX3X=X3X5XqX5X3X3X5X5X3X5X1X3X1X&X.XC.4.,.,.s i i i i i i i i i i i i i i u i i i i u ,.,.h.XXXXC..X$X$X$X+X[.].'.~.~.~.).~.~.~.W.E.R.R.T.T.T.T.B.B.U.U.m.m.c.s.i.s.s.s.s.u.p.p.u.u.p.p.u.u.p.p.u.u.s.s.c.c.c.c.c.c.c.c.v.v.v.v.v.v.m.m.m.m.m.c.c.c.s.s.u.u.y.@.+.{ +.{ [ ` ` ^ ! P P J J v g v ! u.n.B.T.R.A.A.!.!.!.!.`.`.`.`._._.oX+X@X&X&X&X&X&X&X&X&X;X;X;X;X:X3X4X4X4X4X4X4X0XrX0X4X4X0XtXyXtXtXtX0X9X4X4XpXyXyXtX0XtXtXyXuXaXdXdXdXaXaXdXdXdXdXdXdXjXkXkX",
"CXCXSXCXCXCXCXCXNXNXNXkXkXjXjXjXdXdXaXyXyXyXyXyXyXtXtXtXyXyXyXyXtX0X9X3X3X:X=X@X].).E.A.Z.m.y.P g 2 ; % o $             ; [ {.6X*X{.[.).W.T.m.x.u.@.{ { ^ ^ ^ ^ ^ ^ ^ ^ ^ ^ ^ ^ ^ ^ ` ` ' ' ' ' ' [ { { [ [ { { { { +.+.@.@.@.$.$.y.u.u.x.c.c.c.c.c.c.c.c.c.M.n.B.Z.Z.Z.Z.Z.Z.T.R.R.Q.E.~.~.W.E.E.E.E.E.W.W.).).).E.E.Q.E.W.E.E.Q.Q.R.m.v.m.v.l.c.c.c.c.c.c.c.c.c.c.c.c.i.u.u.y.y.! : ! u.x.$.^ ! ! ! ! y.c.c.x.i.i.u.u.u.u.u.u.u.p.i.c.m.n.n.T.R.Q.E.}.).).).'.].[.#X*X1X3X3X3X3X3X-X:X3X3X3X3X4X:X0XtXyXaXaXuXyXtXrXrXyXuXuXdXuXtXtXyXuXuXuXyX9X4X:X;X;X;X;X:X4X4X9XyXaXaXaXaXyX9X:X;X&X@X@X@X$X@X&X&X=X=X:X4X5X4XpXtXtXyXaXdXgXdXsXaXaXaXdXfXfXpX0X0X9X4X3X5XqX5X5X5X;X;X3X5X5X3X0X5X1X=X5XqX0X5X3X3X3X5X1X=X&X&X$X^.C.g.,.,.s s p i i i i i i i i i i i i i i i i i i p s h.g.g.g.C..XOX$X#X#X{.].'.~.~.~.~.~.W.E.R.R.T.B.B.B.T.n.n.m.n.m.c.c.s.i.i.s.i.u.p.u.u.u.u.u.u.p.p.p.u.u.u.i.s.s.c.c.c.c.c.c.c.c.c.c.c.c.c.m.m.m.m.m.m.c.c.i.p.u.y.@.@.} { { { [ ` ^ ^ L P P P J c g g c ` m.n.Z.Z.A.A.E.!.!.!.).).`.`._.`._.+X+X&X#X&X&X@X$X&X&X=X;X;X;X:X:X:X4X4X4X4X4X4X0X0X4X4X4X0XtXtXtX9X9XtX9X4XyXyXyX9X4XtXyXyXuXaXdXdXdXaXaXdXdXdXdXaXaXdXjXjX",
"SXCXCXCXCXCXCXMXMXkXkXkXkXjXjXjXdXdXaXyXyXyXyXyXyXtXtXtXtXtX0X0X0X0X9X3X-X-X*X@X_.).E.T.n.x.^ 6 * . . . . .           . * j m.2X2X|.{.).W.T.n.c.u.$.@.{ ` ^ ^ ^ ^ ^ ^ ^ ^ ^ ^ ^ ^ ^ ` ` ` ' ' ' ' ' [ [ [ [ +.{ { { @.@.@.{ @.@.@.$.y.u.u.u.i.i.x.x.c.l.c.M.n.B.Z.T.T.Z.Z.Z.Z.Z.Z.Z.R.Q.E.W.~.W.E.W.).).).).).).).~.E.E.Q.Q.E.E.W.E.Z.m.v.v.c.l.c.c.c.c.c.c.v.v.M.m.m.c.i.u.u.u.u.! : ! %.x.$.^ ! ! ! ! y.c.x.x.i.s.u.u.u.u.u.u.u.p.i.x.m.n.n.T.R.Q.E.}.).).).'.].[.#X*X5X5X5X5X0X0X5X3X3X3X3X3X9X3XyXtXtXpXuXyX9X9X9XrXrXrXrXyXyXuXyX9XrXuXuXrX4X;X;X;X;X;X;X:X4X4X4XyXaXpXpXaXyX9X4X:X&X@X@X@X$X@X@X@X&X=X;X3X3X3X0X9XtXyXaXdXgXaXsXpXpXaXaXfXfXaXpXqX4X5X5X5X5X5X5X5X3X;X3X5X5X3XqXqX5X=X=X5X5X5X3X3X3X1X*X&X$X$XOXD..X.Xg.z s s s i i i i i i i i i i i i i i i i u a i i ,.h.h.9.C.^..X$X#X#X{.[.].).~.~.'.~.R.R.R.T.T.B.B.B.n.m.m.m.c.i.i.i.i.i.i.i.s.s.p.p.p.p.p.u.u.u.u.p.p.p.p.i.s.s.c.c.c.c.c.s.s.c.c.c.c.c.c.c.c.c.c.c.c.s.i.p.y.y.@.@.@.} { { { [ / ^ ^ L P P K J c g g v b y.n.B.Z.Z.A.A.!.!.!.`.).`.`.`.`._.oX+X@X@X@X@X@X+X@X&X&X;X;X;X;X:X:X3X3X4X4X4X4X4X4X3X3X3X4X0X0X9X4X0XtXtX4XtXyXyX4X3X0XtXyXuXaXaXuXdXdXaXaXaXaXaXaXpXaXdXjX",
"CXCXMXMXkXkXMXkXkXkXkXkXkXkXkXjXjXdXaXpXyXyXyXyXtXtXtXtX0X0X9X3X3X5X3X3X=X*X@X+X_.!.R.B.i.[ g + .               . . . . & d ` |.2X|.{.'.W.Q.n.m.i.y.@.@.[ ` ` ` ^ ^ ^ ^ ^ ^ ^ ^ ^ ^ ] ] ` ` ' ' ' ' +.+.+.+.{ { { +.@.$.@.@.@.@.@.@.$.$.y.u.p.i.x.x.x.l.l.M.B.n.n.Q.Q.T.Z.T.T.T.R.R.R.R.R.E.Q.R.E.W.).).W.E.E.E.E.E.E.E.E.R.Q.E.E.R.n.v.v.v.l.l.l.c.c.c.v.v.v.m.M.m.m.c.i.i.i.p.u.! ; ! $.s.$.^ ^ ! ! / @.c.x.i.i.s.s.u.u.u.u.u.p.p.i.c.m.n.n.T.Q.Q.E.).).).).'.].[.[.[.5X5X5XqXqX5X5X3X3X3X5X0X9X4XaXtXtXyXyXtXrX9X9X9X9X9XrXrXtXyXyX9X9XtXtXrX4X;X;X;X;X:X:X>X9X4X4XyXaXaXpXpXtX9X4X:X=X@X@X@X@X@X@X@X@X&X;X;X:X3X4X4X0XpXaXdXfXgXaXaXpXpXaXdXaXyX0X4X5X5X5X3X5X5XqX5X3X3X5X5X5X3X5X5X5X=X-X3X5X5X5X3X1X1X=X=X=X$X$XOX%XXXH.,.s s s i i i i i s s s s ,.i i u u u u u u u i s ,.4.4.g..X^..X=X#X].'.'.'.W.~.].~.R.T.T.B.B.B.B.n.m.c.c.m.c.i.i.i.i.i.i.s.s.u.u.u.u.u.u.u.u.u.u.u.u.p.p.i.i.s.c.c.c.c.c.c.s.c.c.s.s.c.c.c.c.s.s.i.i.s.p.u.y.y.@.@.@.{ { { [ ` ` ^ ! ! P P K J c g g v c { n.v.B.S.A.R.E.!.~.~.~.~._._._._._.].+X+X+X+X+X+X+X@X&X&X&X=X=X;X;X:X3X3X3X3X4X3X3X3X;X:X3X4X4X3X3X4X0X0X9X9XtXtX9X4X9XtXyXyXaXaXtXdXdXaXaXaXaXaXaXpXpXaXdX",
"MXkXkXkXkXkXkXkXkXkXkXkXkXkXkXjXjXdXaXpXpXyXyXyXtX0X9X9X9X9X3X3X3X3X3X=X*X@X+X[.).E.T.m.u.b & .               . . $ X $ ; : c Q.|.|.{.{.'.W.T.n.c.u.$.@.{ [ ` ` ` ^ ^ ^ ^ ^ ^ ^ ^ ^ ] ] ` ` ' ` ` ` [ [ +.+.{ { { +.@.%.$.$.$.$.$.$.$.$.y.u.u.i.i.x.l.i.i.c.n.m.n.T.Q.T.Z.T.R.R.Q.Q.E.E.E.E.R.R.E.E.E.E.E.E.E.E.E.E.E.E.E.Q.E.E.Z.b.c.l.c.c.l.l.l.c.c.c.v.v.v.m.M.m.c.l.i.i.i.i.u.! ; ! $.s.$.` ^ ! ! ` { m.x.i.i.s.s.u.u.u.u.u.p.p.i.c.m.n.n.T.Q.Q.E.).).).'.).).].#X1X5X5X5X5XqX5X3X3X3X4X0XyX0X4XaXtXtXtXtXtXyXyXrX9X9XyXyXiXrXtXtXrX9XrXrXtX9X4X:X:X:X:X>X9X9X4X4XyXdXaXyXtX0X4X4X:X;X&X@X@X@X@X@X@X@X=X:X3X3X4X0X4XqXtXpXaXaXgXfXfXaXyXpXpXyXqX4X3X3X5X5X3X3X5XqX5X5X5X5X5X5X3X3X5X3X=X-X=X3X5X5X3X=X1X1X3X1X;X$XOX.X.XC.4.s s s i i i i i i s s ,.h.s i u u u u u u u u i u s 4.r..X^.^.$X].~.~._.~.E.W.~.~.R.T.T.T.B.n.n.n.m.c.c.c.c.i.i.i.i.i.i.s.s.u.u.u.u.u.u.u.p.y.p.u.u.p.p.d.i.s.s.s.s.s.s.c.s.s.s.s.s.s.s.i.s.i.i.u.u.u.p.y.y.y.@.@.@.{ { [ [ ` ^ ^ ! ! P K J J c v g j c { c.i.v.Z.Z.A.R.E.!.~.~.~.~._._._._.].].oXoXoXoXoX+X+X@X&X&X&X&X&X=X;X;X;X3X3X3X3X:X;X;X;X;X3X4X3X3X4X4X9X9X9X9X9X9X0X0XtXtXyXpXyXtXyXaXaXaXpXyXpXaXpXpXpXaX",
"kXjXjXjXkXkXkXkXkXkXkXkXkXkXkXjXjXdXaXpXpXpXyXtX0X9X4X4X4X3X:X;X=X=X=X*X@X+X]._.W.T.m.c.$.g $ .     .     . . . + # + + & * : u.{.2X|.{.'.).Q.n.m.i.u.$.@.{ ` ` ` ^ ^ ^ ^ ^ ^ ^ ^ ^ ] ] ` ` ` ` ` ' [ [ +.+.+.{ { +.@.%.$.$.$.$.$.$.$.$.y.u.u.i.i.l.l.i.i.c.m.M.n.n.Z.T.T.T.R.R.Q.Q.E.Q.Q.Q.Q.Q.E.E.E.E.E.E.W.E.E.E.E.E.E.E.E.R.B.v.c.l.c.c.l.l.l.l.v.v.v.v.v.v.M.m.c.l.i.i.i.i.u.! ; ! u.x.u.` ^ ! ! ` } m.x.i.i.i.i.i.u.u.u.u.p.p.i.c.m.n.n.T.R.Q.W.).).).).).].[.*X1X5X5X3X5XqX5X5X3X4X0XyX0X9X9XtXtXtXtXtXyXyXuXiXiXuXuXuXyX9X9X9X9XrXtXrXtXyXrX>X>X4X9X9X9X9X9X9XyXaXpXtX9X9X4X4X3X;X=X@X@X&X&X&X&X*X=X3X4XqX0X0X3X5X0XpXaXpXaXaXaXaXyX0XtX0X9X4X5X4X5X5X3X3X5X5X3X3X1X5X5X5X5X5X3X3X3X=X-X1X5X5X3X1X1X5X5X5X=X$X.X.X.XH.h.s s s i i i i i i s s ,.h.4.s i u u u u u a u u s u z 4.C.^.^.^.~.R.E.).'.W.E.E.R.R.W.R.Q.T.n.n.m.c.c.c.c.c.i.i.i.i.i.i.i.u.u.u.u.u.u.u.u.p.y.p.u.u.p.p.p.p.i.i.i.i.i.i.i.i.i.i.i.i.i.i.i.u.u.p.u.u.u.y.y.y.y.@.@.@.{ { [ ` ` ^ ^ ^ L P P J J c v v j c u.c.p.b.B.Z.A.A.R.E.!.!.~.~.)._._._._._.OXOX_._._.oX+X+X@X@X@X@X&X*X&X&X=X=X=X;X;X;X;X;X;X;X3X3X3X3X3X4X4X4X4X4X4X9XtXtX9X9XtXyXyXtX9XyXaXpXyXyXtXyXpXaXaXaX",
"jXjXjXjXjXkXkXjXkXkXkXkXkXkXjXjXjXaXpXyXyXaXpXpX4X4X3X3X3X3X:X=X-X*X*X@X+X]._.).Q.n.x.s.J < .   .   .     . . X @ @ % % . $ * v Q.|.|.{.'.).W.T.n.c.u.$.$.{ [ ' ` ` ^ ^ ^ ^ ^ ^ ^ ^ ] ] ] ` ` ` ' ` ' ' [ +.{ [ { +.+.$.$.$.$.$.$.y.u.u.u.u.p.i.i.l.x.x.c.n.n.n.n.n.n.T.R.R.R.T.R.R.R.R.R.R.E.E.Q.E.E.E.E.E.W.E.E.E.E.E.E.E.E.Z.Z.m.m.c.c.c.l.l.l.l.v.v.v.v.v.v.M.m.c.l.i.i.i.i.u.! ; ! u.x.u.[ ^ ! ! ` { c.x.x.x.i.i.i.u.u.u.u.p.p.i.c.m.n.n.T.R.Q.Q.W.).).).[.#X*X*X-X1X5X3X5XqXqX0X0XtXpX0XqX4X9X9X9X0X0X9X9XyXuXdXdXdXdXuXrX9X4X9X9X9XrXtXtXiXyX9X4X9X9X9X4X4XrXtXtXtXtXtXtX0X4X3X:X;X;X&X&X&X&X&X&X&X=X3X9X0XpX0X3X3XqXyXpXtX0XqXqX0XpX0X0X0XqX9X4X9X4X5X9XqX5X=X=X-X*X-X=X=X5X5X3X3X5X3X-X1X3X5X5X5X5X3X3X=X$X$X.XXXXXH.g.s s p i i i i i u i s ,.,.h.,.s u u u u u u a a u a s 4.g.^.C.^.^.R.E.).].~.E.W.B.R.W.W.W.Q.n.v.m.m.c.c.c.c.i.i.i.i.i.i.i.u.u.u.u.u.u.u.u.p.p.p.u.u.u.u.u.p.i.i.i.i.i.i.i.p.p.p.p.p.p.p.u.u.p.p.u.u.u.u.y.@.@.@.@.} { [ ' ` ^ ^ ^ ^ L P K J J c v c v c { @.` y.m.Z.Z.A.A.R.E.!.!.~.~.~._._._._._._._.`.`._.OXoX+X@X@X@X@X&X*X&X&X=X&X=X;X;X=X&X&X;X;X3X3X3X3X3X:X:X3X3X4X4X0XtX9X9X9XtXyXyX4XtXpXyXyXtXtXtXyXyXpXaX",
"dXdXjXjXAXNXkXjXkXkXkXkXkXkXjXdXaXaXyXtXtXaXpX5X3X3X3X5X5X5X3X=X*X*X@X+X]._.!.R.W.m.%.^ < o .         .   . # @ = # O $ o . $ 5 +.|.|.{.'.'.W.Q.n.m.s.u.$.@.{ [ ` ` ` ` ] ] ] ] ] ] ] ^ ` ^ ` ` ' ' ' ' ' [ { { { { { +.@.$.$.$.$.y.y.y.u.u.u.u.i.x.c.c.n.n.n.n.n.n.Z.R.R.R.R.T.T.T.R.R.E.Q.E.E.Q.Q.E.E.E.E.E.E.E.E.E.Q.Q.E.Z.Z.Z.B.b.v.c.l.l.l.l.l.v.v.v.v.m.m.M.m.c.i.i.i.i.i.u.^ : P { x.u.` ! P ! { { i.c.c.l.i.i.i.p.u.u.u.p.p.i.i.m.n.n.T.T.T.R.Q.E.W.).].#X#X*X1X1X3X3X3X5XqX0XpXpXyX0X9X4X9X4X9X9XyXtXtXuXaXdXhXdXuXiXyXrX9X9X9X9XrXtXtXyXiXrX9X9X9X9X9X9XyXyXtXtXtXtXtX9X4X3X:X;X=X&X&X*X&X&X&X&X=X3X5X0XpX0XqXqX0XpXaXyX0X5X3X9XtX0XqXqX0XqX9XqX0X9X4XqX5X=X-X*X*X-X*X=X=X3X=X3XqXqX=X=X3X5X5X5X5X5X1X=XoX$X.X.XXXg.g.,.s i i i i u u u u s ,.,.h.,.s u u u u u u u u u a u z g.g.^.^.^.(.E.~.'.W.(.T.B.T.R.R.W.Q.n.n.v.v.c.c.c.c.i.i.i.i.i.i.u.u.p.p.u.u.y.y.u.u.u.u.u.u.y.u.p.u.u.u.i.i.i.i.p.p.p.p.p.u.u.u.u.u.u.u.u.u.y.y.y.$.$.%.@.{ [ [ ` ` ^ ^ ! ! L P P K J c c c c c K / W ! i.n.n.Z.A.A.A.A.E.E.~.~.).)._._.`.`._._._._.OXoX+X+X@X@X@X@X@X@X&X*X&X&X&X&X&X&X&X&X;X;X:X:X3X3X:X:X:X:X3X4X4X4X4X9X3X9XtXyX9X0XtXtXtXtXtXtXtXyXyXpX",
"dXdXjXkXNXNXjXjXjXkXkXkXkXjXaXaXpXpXyXtXtXtX0X5X3X3X3X3X5X3X=X=X*X@X+X]._.).E.Z.m.s.K 6 - $     .     X @ @ @ + O $ . . .   . + J }.{.{.{.'.~.R.T.n.c.u.$.@.{ { [ ' ` ` ` ] ] ] ] ] ] ^ ^ ^ ^ ` ^ ' ' ` ' ' [ [ { { { { { @.$.$.$.$.$.$.y.u.u.u.i.i.c.c.n.n.n.n.n.B.T.R.E.R.R.R.R.R.T.R.R.R.E.Q.E.E.W.W.E.E.E.E.E.E.E.Q.E.R.Z.Z.Z.n.b.v.c.c.l.c.c.v.v.v.m.m.m.m.M.m.c.i.i.i.i.i.s.[ ; P ^ $.@.^ c b W ` @.i.c.c.x.i.i.i.p.p.u.u.u.p.u.i.c.m.n.n.Z.Z.R.Q.Q.E.).].[.[.#X*X3X5X=X=X0X0XqX9X0X0X9X4X4X9X9X0XyXdXhXdXdXdXdXdXuXuXiXyXrX9X9X9XrXtXyXyXyXyXrX9X9X9X9X9XrXpXyXyXyXtXrX9X4X3X:X;X&X&X&X&X*X*X&X*X&X*X=X3XqX0X0XtXpXpXaXaXaX0X0X9XqX0X0XqX4XqX0X0X0XtX0X5X5X5X3X=X=X=X=X-X-X=X=X=X3XqXqX3X1X1X3X3X3X3X1X1X1X$X$X.Xg.g.g.H.h.s s i u u u u a u s s ,.4.4.,.u u u u u u u u u a u z h.r.g.C.^.(.E.~.~.R.T.T.T.B.T.T.T.T.n.m.v.c.c.c.c.c.i.i.i.i.i.u.u.u.p.p.u.u.y.y.u.u.u.u.y.y.p.y.y.u.p.u.i.u.i.i.p.p.p.p.p.u.u.y.u.u.u.u.u.u.y.y.$.@.%.@.{ { [ [ ` ^ ^ ^ ! ! P P K K J c c c c c K / ! c / p.T.R.Z.Z.A.A.A.E.E.E.!.~.).).`.`.`.`._._._._.OXOXoX+X+X+X+X+X@X@X&X*X&X&X*X&X&X&X&X=X;X;X:X3X:X:X:X:X:X:X:X:X4X9X:X4X0XtX0X0X0XtXtXtXtXtXtXtXyXyX",
"dXdXjXjXkXjXhXhXhXhXhXhXjXaXaXpXpXpXtX0X0X9X3X5X3X:X:X3X3X-X-X*X@X+X].`.).!.A.B.c.! 4 1 + .       . o < % o . . . .           . ; m.|.|.{.[.).W.Q.U.m.s.u.$.@.{ { [ ' ` ` ` ` ` ] ] ] ] ^ ^ ] ` ' ' ` ` ' ' [ [ { { { { { { @.$.$.$.$.$.$.y.u.u.u.i.i.c.m.M.m.m.n.n.B.T.R.R.T.Z.R.R.T.R.T.R.T.Q.Q.E.W.W.E.E.E.E.E.E.E.Q.E.Z.Z.Z.Z.n.n.m.v.c.c.c.v.m.m.m.m.m.m.m.M.m.c.l.i.i.i.i.x.@.6 c ! ! c 6 : d W ` u.c.c.c.x.x.l.i.p.p.p.p.u.p.p.i.c.m.n.n.T.T.R.E.W.W.).).].[.[.#X*X=X*X*X3XqX5X3X3X3X5X5X9X0XyXyXaXjXkXdXaXaXuXyXrXrXrXrXrX9XrXtXyXyXuXuXyXyXrX9X9X9XrX9XtXaXaXpXtXrX9X4X3X:X;X&X&X&X&X&X&X&X&X&X*X*X=X3X5XqX0XpXaXsXpXaXpXpX0X0X0X0X0XqX3X3XqX0X0XyXtX3X3XqX5X3X=X3X3X=X=X1X3X3X5X5X5X3X1X1X3X5X5X0XpXsX5X1X.X.XC.r.g.H.g.s s i u u u u a u s s ,.,.4.,.i u u u u u u u u u u z g.4.4.g.C.(.(.R.R.T.T.T.T.T.T.T.T.T.m.m.m.c.c.s.i.i.i.i.i.i.u.p.p.p.p.p.u.u.y.y.u.u.u.u.y.p.p.y.y.y.u.u.p.p.p.p.p.p.p.u.u.u.y.y.y.y.u.u.u.u.y.y.$.@.@.@.{ { [ ' ` ^ ^ ^ ! ! P K P K J c c c b b W { { j j / n.T.R.Z.Z.Z.A.A.R.R.E.!.!.!.!.).`.`.`.`._._._._._._._.]._.oX+X+X@X@X&X*X&X&X*X&X&X&X=X=X;X;X:X:X:X:X;X;X;X;X:X4X:X4X4X4X9X9X9X9XtXtXtXtXtXtXtXtX",
"dXdXdXjXhXdXdXdXdXdXdXdXaXaXpXyXpXpXtX0XtX3X3X5X=X=X=X=X-X-X*X+X+X].`.).!.E.Z.n.[ 6 6 ; X .     X , - . $ .                     X ' {.{.{.{.'.W.W.T.m.c.s.u.$.@.{ { [ ' ' ` ` ` ] ] ] ] ^ ^ ] ] ' ' ` ` ' ' [ [ [ [ { { { { { $.$.u.u.y.$.$.y.u.u.u.i.l.m.c.m.m.n.n.n.B.T.Z.Z.Z.R.R.R.Q.Q.Q.Q.Q.E.E.Q.Q.E.E.E.E.E.E.E.Q.A.Z.Z.Z.Z.n.n.m.m.m.m.m.m.m.b.b.m.m.m.m.M.m.c.l.i.i.i.i.x.y.b d 6 6 ; * ; g ! { i.m.M.c.x.x.l.i.p.p.p.p.u.u.p.i.i.m.m.n.T.R.Q.W.).).).).).].].[.@X#X@X@X+X=XqX9X3X5X0X0X0XyXaXaXpXaXdXuXyXyXyX9X9X9X4X>X9X9XtXuXdXdXaXuXyXyXrX9X9X9XtXtXyXdXdXaXyXrX9X4X4X:X&X&X&X&X&X@X&X*X&X&X*X*X*X=X3X5XqX0XaXaXyX0XtXpXyX0X0XpXyXqX3X3X5X4X0XyXtX3X=X5X5X3X3X5X3X3X3X3X5X5X5X3X5X3X1X1X1X1X3X5X0XsX5X5X^..Xg.4.h.g.h.z i u u u u u u u s s ,.4.h.4.i u u u u u u u u u u ,.g.4.4.4.g.A.(.A.(.T.T.T.T.T.T.T.T.T.n.m.m.c.c.i.p.p.i.i.i.p.p.p.p.p.y.u.u.u.y.y.p.p.y.y.y.y.y.y.@.y.y.u.p.p.p.p.u.u.u.u.y.y.y.y.y.y.u.u.u.u.y.y.@.@.@.@.{ { [ ` ` ^ ^ ^ ! ! P K P P J c c c b b ! y.u.P d k p.n.T.Z.R.Z.Z.Z.R.R.R.R.E.!.!.!.!.).`.`._._._._._._._._._._.].+X+X@X@X*X&X&X*X&X*X*X&X&X&X&X;X;X;X;X;X;X&X&X:X3X:X4X3X:X4X4X9X9X9X9X9XtXtXtX0X0X",
"fXdXdXdXfXfXdXdXaXaXaXaXaXpXyXtXpXtX0X5X3X1X1X3X=X1X1X1X1X*X[.]._.).~.E.R.Z.c.i.! d & $ .   . $ @ X . .                         . 6 }.{.|.{.'.'.W.Q.n.m.x.u.u.y.@.{ [ { [ ` ` ` ^ ` ` ^ ^ ^ ^ ^ ^ ^ ' ' ` ` [ [ [ [ { { { { { +.$.$.u.u.y.y.y.y.u.u.u.i.c.m.m.m.v.v.n.n.n.Z.Z.T.R.R.T.Q.Q.Q.E.E.E.Q.E.Q.E.R.E.E.E.E.Q.E.R.Z.Z.Z.Z.n.b.b.m.m.n.n.b.b.b.b.n.n.b.v.v.v.c.l.s.s.s.i.i.p.{ K d * * * l b [ @.m.m.m.c.c.x.l.i.i.p.p.p.y.u.p.i.c.m.n.n.W.Q.Q.W.).).).).).].].].+X+X+X@X3X-XqXqX0XaXpXtXtXyXaXpXtXyXiX9X9X9X9X9X4X4X9X4X9XtXyXdXdXdXuXyXtXyXtXrXtXtXyXyXyXdXdXpXyXyXyXyX9X3X=X=X=X&X&X&X&X=X&X&X*X*X=X=X3X5X5X0XpXsXpXsXpXaXpX0X0XdXaX0X3X3X3X5XqX0X0X:X-X3X5X3X3XqX3X3X3X3X3X3X5X5X5X1X1X=X1X=X1X=X*X=X1X+X^.C.C.f.4.,.,.s u u u u u u u u u s ,.h.h.4.i u u a u u u u u u u s 4.Q z 4.g.(.(.B.R.T.T.B.T.R.R.T.T.T.T.T.n.c.c.i.u.u.p.p.p.p.p.u.y.y.y.y.u.u.y.y.y.y.y.y.y.y.y.y.y.y.y.u.u.p.p.p.u.y.y.y.y.y.y.y.u.u.u.u.y.y.$.$.@.@.@.{ { { [ ` ` ^ ^ ^ ! P K K P P K c c b K K / @.s.P j d W u.T.T.T.Z.Z.Z.Z.R.R.R.A.R.E.!.!.!.).).).`.`.`._._._._._._._._.+X+X@X@X&X&X&X&X&X&X@X@X&X&X&X&X;X;X;X;X;X&X=X:X;X:X:X:X3X3X4X4X4X4X9X0XtX0X9X9X",
"fXdXdXdXfXdXaXpXpXpXpXpXpXyXtXrX0X4X4X3X=X=X*X*X*X*X*X-X*X#X].).).~.!.A.B.b.i.p.b 4 $     $ + X . .                             . & ' /.{.{.].'.W.(.T.n.c.i.u.u.$.@.{ [ [ [ ` ` ^ ` ^ ^ ^ ^ ` ` ^ ^ ' ' ` ` ' ' [ [ { { { { { { { @.$.y.y.y.y.y.u.u.u.i.c.m.m.m.v.v.n.n.n.Z.R.R.R.T.Z.Z.R.E.W.W.E.E.!.E.E.E.E.E.E.E.Q.E.R.R.Z.Z.Z.Z.n.n.n.n.Z.n.b.b.B.B.Z.Z.Z.b.m.v.c.c.i.s.s.s.i.i.i.{ ! b b b ` @.i.s.m.m.m.c.c.i.l.i.i.p.p.p.y.u.p.i.c.m.n.n.W.W.Q.E.W.).).).].].].].+X*X*X=X5X3XyXyXpXdXdXpXyXyXpXyXtXtXrX9X9X4X>X4X9X9X9X9XtXyXdXdXdXaXyXrX9XtXyXaXdXaXyXyXpXaXaXpXyXaXdXdXyX4X:X:X:X=X&X&X=X;X=X=X=X=X=X=X5XqXqX0X0XpXsXgXfXaXaXpXyXdXaX0X4X3X3X4X9X9X9X3X3X3X3X3X3XqX5X1X1X=X=X=X1X1X=X=X=X=X=X=X=X=X*X=X&X=X^.C.C.g.4.,.s i u u u u u u a u a i ,.h.g.h.,.u a u u u u u u u u u z z z 4.g.(.(.(.R.R.T.n.T.(.R.T.T.T.T.I.n.c.s.c.i.i.p.p.p.p.y.y.y.y.y.y.y.y.y.y.y.y.y.y.y.y.y.y.y.y.p.u.p.p.p.y.y.y.y.y.y.y.y.y.y.y.y.y.$.$.@.@.@.@.} { { [ ` ` ^ ^ ^ ! P P K K P P K b b J P P ` u.x.! 6 < 6 W x.n.B.T.Z.Z.R.R.Z.Z.A.A.A.A.!.!.!.!.).).).`.`.`.`.`.`.`._._._.].oXoX+X@X@X@X&X&X@X@X@X@X@X&X&X=X;X;X:X;X=X=X&X&X;X;X:X:X3X3X4X4X4X9X0X9X9X9X",
"fXdXdXdXdXaXpXyXtXyXyXtXtX0X4X4X3X3X;X=X*X*X*X#X#X+X+X+X#X].).E.E.R.Z.B.v.i.0.} & . . . o o $                                   . . 6 m.|.{.'.'.'.W.Q.n.m.c.i.u.u.$.@.{ { { [ ` ` ` ^ ^ ^ ` ` ` ' ^ ' ' ' ` ' ' [ [ { { { { { { { { $.$.$.y.y.y.u.u.u.u.c.m.m.m.m.v.v.n.n.B.Z.R.Q.R.B.B.Z.R.W.W.W.W.!.E.E.E.E.E.Q.E.Q.E.R.R.E.Z.Z.Z.Z.Z.Z.Z.Z.n.n.n.Z.Z.Z.R.T.n.n.v.m.c.c.c.c.c.c.i.i.i.c.u.i.x.i.i.c.c.m.m.c.c.c.i.l.i.p.p.y.y.y.y.p.i.x.m.n.n.W.W.Q.E.W.).).).].].].].@X*X*X=X5X3XyXyXpXdXdXpXtXyXyXpXyXtXrXyXyXyXrXrXrXrXrXrXyXdXdXdXdXuXyXtXtXyXuXaXaXuXyXyXpXyXyXaXaXaXdXdXyX4X4X9X3X;X=X=X=X=X=X;X=X=X=X=X3XqX0X0X0XpXsXgXfXaXaXpXyXpXyX0XqX5X3X3X4X5X4X9X5X5X3X=X:X5XqX=X-X-X=X=X1X=X=X=X=X=X=X=X=X=X*X*X&X=X.XC.C.g.h.,.i i u u u u u a a u a a s 4.g.g.,.u a s u u u u u u a a y s z 4.r.V.(.V.R.R.T.n.T.T.T.T.T.I.n.m.v.c.c.m.c.x.i.i.p.p.y.y.y.y.y.y.y.y.y.y.y.y.y.y.y.y.y.@.@.y.y.y.u.u.u.u.y.y.y.y.y.y.y.y.y.$.$.$.@.@.@.@.@.} { [ [ ` ` ^ ^ ^ ! L P P P P P P K K J K ! ! { s.m./ 4 & * 6 [ s.m.n.B.Z.T.T.Z.Z.Z.Z.A.A.A.E.A.E.!.!.).).).`.`.`.`.`.`.`._._._.oXoX+X+X+X@X@X@X@X@X@X@X@X@X&X&X&X;X;X;X&X=X&X&X;X:X:X:X3X3X3X4X9X0X9X9X9X",
"fXdXdXdXaXpXtXtXtXtXtX0X4X3X;X=X=X=X&X@X@X@X+X[.]._._.]._.~.E.R.Z.Z.V.v.i.y.} ` & $ . $ $ .   . . . . . .                           - P |.{.{.'.'.W.W.U.m.m.c.s.u.u.$.@.{ { [ ` ` ` ` ` ^ ` ` ` ' ^ ' ' ' ' ' ' [ [ [ [ [ { { { { { @.@.$.$.y.y.y.u.u.u.i.c.m.m.m.v.v.n.n.m.n.B.R.R.B.n.B.Z.T.E.Q.E.E.E.E.E.E.E.E.E.Q.R.R.R.R.R.Z.Z.Z.Z.T.Z.Z.n.n.B.Z.R.R.Q.R.n.n.v.m.c.c.c.c.c.l.c.l.x.x.i.m.c.c.s.c.c.m.m.m.c.c.i.l.i.p.p.y.y.u.p.u.u.c.m.m.n.W.W.Q.E.E.W.).).].].].].[.+X+X@X1X-XqXqX0XaXaX0XtXyXyXpXyXtXtXyXyXtX9XrXrXrXrXiXaXdXdXdXaXuXyXyXuXyXyXrX9XrXyXuXyXtXyXaXdXdXdXaXyX9X9XtX9X3X;X=X;X;X:X;X;X=X=X=X=X5XqXqX0XsXpXsXaXpXpXpXpX0X0X0X0X9X3X3X3X5X3X5X5X5X5X3X=X=XqX=X-X*X-X-X1X5X5X5X1X1X=X=X1X1X*X*X1X$X^.C.C.g.h.,.i u u u u u u a a a a a i z h.h.4.s a u u u u u u u a a y s s z 3.r.g.f.R.R.B.B.T.T.T.T.T.I.c.c.c.c.c.m.m.m.c.i.p.p.y.y.y.y.y.y.y.y.y.$.y.y.y.y.y.y.y.@.@.y.y.y.u.u.u.u.u.y.y.y.y.y.y.y.$.@.@.@.@.@.@.@.} { [ [ ` ` ^ ^ ^ L ! P P P P P P P K K K P ! ! %.m.U.[ 4 & * & g y.x.m.n.n.B.T.Z.Z.Z.Z.A.A.A.A.A.A.!.!.!.!.).).`.`.`.`.`.`._._._._._._.oXoX+X+X@X@X@X@X@X@X@X@X@X&X&X&X&X&X;X=X=X;X:X:X:X:X:X:X3X4X9X9X9X4X",
"aXsXpXyXpXpX0X0X4X0X5X5X3X=X=X&X*X&X*X#X+X+X]._.~.~.E.~.W.R.R.T.B.n.v.i.v.} } [ P . $ $   . X X X . . . .                           $ g }.|.{.'.'.).Q.T.U.m.m.c.i.u.y.$.@.{ { { [ ` ` ` ` ` ` ` ' ' ' ' ` ' ' ' [ [ [ [ [ { { @.} { @.@.$.$.y.y.y.u.u.u.i.i.c.c.m.m.m.n.n.n.n.B.T.T.T.n.n.B.T.R.Q.R.T.R.Z.E.E.E.E.E.E.R.R.E.R.R.R.R.R.Z.Z.Z.Z.b.b.Z.Z.Z.R.Z.B.m.v.v.m.c.c.i.l.l.c.c.x.i.i.i.c.c.m.m.m.m.c.c.c.c.c.i.i.i.p.u.u.u.u.p.p.i.s.m.m.n.R.W.Q.Q.E.~.).).].].].].].+X+X@X*X*X&X&X&X=X3X0XtXtXtXyXtXtXtXtXtXtX9XyXyXyXuXaXdXdXdXdXaXaXuXuXyXtX9X4X4XtXuXyXtXrXyXaXdXdXaXuXyXtXrXtXtX9X0X9X5X5X4X3X3X3X3X3X:X3X4X0XtXpXyXpXpXtXtXpXaXtX0XqXqXqX4X3X4X3X3X3X5X5X5X3X=X*X5X=X=X=X=X=X1X5X5X5X1X1X1X1X5X5X1X=X;X$X.X^.C.g.h.4.s u u i i u u u u a a a u s 4.4.z y u s u u a u a a a y y y u u 4.4.3.f.V.R.T.B.T.T.T.T.T.I.v.c.s.s.c.v.v.c.c.i.p.p.y.y.y.y.y.y.y.y.y.y.y.@.@.@.y.y.y.@.@.y.y.p.u.u.u.u.y.y.y.y.y.y.y.$.@.@.@.@.@.@.@.} { { [ ` ` ^ ^ ^ ^ L L P P P K K P P P P P L ^ ` u.m.I.s.g % & & 4 d ! u.c.n.n.B.B.B.Z.Z.Z.Z.Z.Z.A.A.E.E.!.!.!.~.~.~.~.~.`.`.`.`._._._._._.].+X+X+X+X+X+X+X@X@X@X@X@X@X@X&X*X&X&X=X=X;X;X;X:X:X:X:X:X3X3X4X4X",
"gXqX3XyX0X0X0X0X4X4X3X3X3X3X5X1X&X@X+X+X+X]._.~.E.E.E.E.R.T.B.B.n.v.i.p.} ` @.{ L & X . X X X . . . . .                             . ; I.|.{.{.'.'./.Q.T.T.n.m.s.u.u.$.$.@.{ { { { [ ' ' ' ' ' ` ' ' ' [ [ [ [ { { { { { { @.@.@.@.@.@.@.$.y.y.y.u.u.u.u.i.x.x.m.m.m.m.n.B.B.n.B.n.T.T.Z.Z.T.R.E.R.T.R.Z.E.E.R.Z.R.E.E.E.E.R.R.R.R.R.Z.m.m.b.b.B.Z.Z.Z.Z.b.v.c.c.v.m.c.c.i.l.l.c.c.x.x.i.i.c.m.m.m.m.m.c.c.c.c.i.i.i.p.p.u.u.u.u.u.p.i.i.c.m.n.Z.Q.Q.Q.E.E.W.)._.].[.[.+X#X@X*X*X@X@X&X=X3X4X9X0X0XrX0X0XtXtXtXtXyX9XyXaXaXaXaXaXaXdXdXdXdXaXaXyXtX9X9XrXaXdXuXtXrXtXyXaXaXaXuXyXtXtXtXyXtXyXtX0X0X0X0XqXqX0XqXqXqX0X0X0XpXpXaXaXaXaXaXgXaXtX0X9X4X3X3X3X3X3X3X3X3X5X5X5X=X*X*X=X1X1X=X*X*X=X=X1X1X1X1X5X3X1X1X+XoX.XC.C.g.h.4.z s i i i u u u u u a a a u ,.4.z s s z z s u i a a a y y u u u z z Q t.V.(.R.T.T.T.T.T.T.I.n.c.s.s.c.c.c.c.i.i.p.p.u.y.y.y.y.y.y.y.y.y.y.@.y.y.y.y.$.@.@.y.y.p.u.u.u.u.y.y.y.y.y.y.y.$.@.@.@.@.@.@.} { { [ [ ` ^ ^ ^ ^ ^ ! L L P K K K P P P P P ! ^ $.u.m.U.I.J 4 % & 4 ; d ! y.n.T.n.B.B.Z.Z.Z.Z.Z.Z.S.A.A.R.E.E.!.!.!.!.!.!.!.!.`.`._._._._._.].+X+X+X+XoXoX+X+X@X@X@X@X@X@X@X&X&X*X=X&X&X=X=X=X;X;X;X;X:X:X:X:X",
"pX:X=X9X5X4XqX0X5X3X1X=X;X3X1X*X@X+XoX].]._.~.E.R.R.R.R.T.n.n.n.m.i.p.y.| @.%.^ $ . + + X $ . . . .                                   $ L /.2X{.'.'.'.W.W.Q.U.n.x.i.u.y.$.%.@.{ { { { [ [ ' ' ' ' ' { { +.+.+.+.+.+.{ { @.@.@.@.@.@.@.@.@.$.y.y.u.u.u.u.y.u.i.i.c.m.m.m.n.n.B.B.n.B.T.T.T.Z.Z.Z.R.R.T.Z.R.E.E.R.Z.R.Q.E.E.E.R.R.E.E.Z.Z.m.m.b.b.B.Z.Z.Z.Z.b.v.v.c.c.m.c.c.c.c.c.c.c.c.c.c.c.m.m.m.m.m.m.v.c.c.c.i.i.i.p.p.p.u.u.u.u.i.i.i.s.c.m.n.R.Q.Q.Q.E.W.).).].[.#X#X*X*X-X=X;X-X3X4XqX4X4X4X4X0X4X5XtXpXpXaXkXdXdXhXdXuXyXyXyXyXyXuXuXuXuXyXtX9X9XtXaXdXuXyXtXrXtXiXuXyXyXyXtXtXyXyXyXpXyXpXyXpXtXtXtXtXyXyXyXtX0X0XpXpXsXaXaXaXpXaXpX0XqX5X3X3X3X3X3X;X=X=X;X3X3X5X5X*X*X=X=X1X1X=X*X#X&X=X=X=X=X1X1X5X3XoXoX.X^.g.g.r.h.,.s u s i u u u a a a a a u z 4.4.4.,.4.4.z u u a a a y y u u u z z z 3.a.B.R.T.T.T.T.T.I.I.n.v.c.s.c.s.i.i.i.p.u.p.u.y.y.y.y.y.y.y.y.@.y.@.@.@.@.@.@.@.@.@.y.y.u.u.u.u.u.u.y.y.y.y.$.$.@.@.@.@.@.} { [ [ [ ` / ^ ^ ^ ! ^ ! ! L P K P P P P P P L ^ ` x.x.n.Q./.#.j 4 5 < % ; d ! s.T.n.n.n.b.B.B.B.S.B.Z.Z.A.A.A.R.E.E.E.E.E.!.!.!.).`.`.`._._._._._.[.oXoXoXOX+X+X+X@X@X@X@X@X@X@X@X&X&X&X&X&X&X&X;X;X;X;X;X;X;X;X",
"5X3X=X=X3X3X4XqX5X1X=X&X&X*X#X+X+XoX].]._.~.E.R.Z.Z.Z.B.n.m.c.c.i.u.y.} ` [ ^ 4 + + + X . . .                                         . 4 $.{.'.{.'.'.W.Q.W.T.U.m.i.u.u.u.$.%.+.+.{ { { [ [ { [ ' ' { { +.+.+.+.+.+.@.@.@.@.%.$.@.@.@.@.@.$.y.y.u.u.u.u.y.y.u.i.i.c.m.m.n.n.B.B.n.T.T.Q.R.T.Z.Z.Z.R.Z.Z.R.E.E.Z.Z.Z.Q.E.E.E.R.R.E.R.Z.Z.Z.Z.Z.B.Z.Z.Z.Z.Z.B.b.m.v.v.m.c.c.c.c.c.c.c.c.c.c.m.m.n.m.m.m.v.v.c.c.c.i.i.p.u.p.p.u.y.u.p.i.i.i.i.c.m.n.Z.Q.Q.Q.E.W.E.~.).[.*X#X#X@X*XqX0XqX0X0XqX3X3X4X4X4X4X4X0XyXpXaXjXdXdXdXyXtXrXtXrXtXyXyXyXtXtXyXtX9X9XrXyXyXtXyXyX9XrXtXyXyXyXtXtXyXyXaXaXaXaXpXaXaXaXpXpXpXaXaXaXtX0XqXtXyXpXaXaXpX0X0XqX5X3X3X3X:X;X3X;X=X&X*X=X;X3X5X1X1X3X5X5X3X=X1X1X*X*X=X=X1X=X1X1X3X5X&X$XOX.Xg.f.r.h.4.z s s u u u u a a a a y u z z 9.r.4.4.4.z u a a a a y y a u u u z z 4.t.V.(.T.T.T.T.B.I.n.n.m.c.s.s.s.i.u.p.y.y.p.p.y.y.y.y.y.y.y.y.y.y.@.@.@.@.@.@.} } @.@.y.y.u.u.u.u.u.y.$.y.$.$.@.@.+.@.@.} { [ [ [ ` ^ ^ ^ ^ ! ! ^ ! L P P K P K P P L L ^ ^ @.x.m.U./.{.#.j 4 4 & 4 4 4 d } m.c.v.b.b.b.B.B.B.B.B.B.Z.S.A.A.A.R.E.E.!.!.!.!.!.!.~.).`._._._._._.OXOXOXOXoX+X+X+X+X+X+X+X@X@X@X@X&X&X&X&X&X&X&X&X&X&X=X=X;X;X",
"0X0X5X3X1X1X3X3X1X=X&X#X#X+X].].]._.).!.E.E.R.Z.n.b.m.M.m.x.i.u.u.u.{ P K j 6 < % O $ . .                                               $ d U.2X{.'.}.W.W.W.Q.U.n.x.i.u.u.y.$.$.@.{ { { { { [ [ [ [ { { +.+.+.+.+.+.$.$.$.$.$.$.$.$.$.$.$.y.u.u.u.u.u.u.y.p.u.i.i.c.m.n.n.n.n.n.n.B.T.Q.R.R.Z.Z.Z.T.R.R.E.E.Q.R.Z.Z.E.E.E.E.E.E.R.Z.Z.Z.Z.Z.Z.Z.B.b.b.b.n.b.m.v.v.v.v.c.c.c.c.c.c.c.c.c.c.v.v.v.m.v.m.m.v.v.c.c.s.i.p.p.p.p.y.p.p.p.i.i.i.i.c.m.n.T.Q.Q.E.).).).).).].#X#X+X+X@X5X5X5X5XqX5X3X&X;X4X4X4X4XrXyXyXyXpXyXuXuXtX9XyXyXrXtXuXuXyXtXtXtXrX9X9X9XrXrX9XkXdXyX9X9XrXtXtXyXyXuXaXdXdXdXaXyXyXaXdXsXsXaXaXpX0X0XtX4X0XtXpXaXaXtXqX9X9X3X3X:X3X3X3X3X3X=X=X*X=X:X3X5X1X5X5X5X5X5X1X1X5X1X2X=X;X1X1X1X1X5X3X5X$X.X^.g.g.r.h.,.s u y u a u a a a u u s u z 4.9.4.9.f.h.z y y a a a a a a a u u u z Q r.V.V.B.T.T.n.n.n.m.m.m.c.s.s.s.i.i.p.y.y.y.u.y.y.y.y.y.y.y.y.y.@.@.@.@.@.{ } } } @.@.y.y.y.u.u.u.y.y.y.$.$.$.@.@.@.@.} +.{ [ [ [ [ / ^ ^ ! ! ! ^ ! L L P P P P P ! ! ! ^ { $.s.m.U.}.}.` : & ; & & & 4 4 k m.v.n.m.v.v.b.b.b.b.b.B.B.Z.Z.Z.A.A.R.E.!.!.!.!.!.!.!.!.`.`.`.`._._._._._._.oXoXoX+XoXoXoXoX+X@X@X@X@X@X@X@X@X@X@X@X&X&X&X&X=X=X",
"5X5X3X1X1X1X1X1X=X&X+X+X].].).~.~.!.E.R.R.T.B.n.v.c.c.c.l.u.u.$.u.[ P 0 3 ; o $ $ . . . . .                                             . 6 s.|.{.{.).W.W.W.Q.T.n.c.x.i.u.u.y.$.$.$.@.{ +.+.+.{ { { +.+.+.+.+.+.+.+.$.$.%.$.$.$.y.y.y.y.y.u.u.u.u.u.p.u.i.i.i.i.c.m.m.n.n.n.n.n.n.n.B.T.R.R.T.T.R.Q.W.W.E.E.Q.E.E.R.E.E.E.E.E.E.R.Z.Z.n.b.B.Z.B.b.m.v.v.m.m.m.m.v.v.v.c.c.c.c.c.c.c.c.c.c.v.v.v.v.v.m.m.v.v.c.c.s.i.p.p.p.p.y.p.p.p.i.i.i.i.c.m.n.R.Q.W.).].[.].].).).].+X+X+X@X*X*X*X=X;X1X;X&X&X4X3X3X0XaXdXtX9X4X4XrXtXrXtXuXaXuXyXuXuXyXtXrX9X4X>X9X9XrXrXtXtXrX4X4X9X9XtXyXuXaXdXdXfXdXaXyXyXyXaXaXsXsXaXaXtX5X5X0X0X0XtXpXaXpX0XqXqX9X5X3X3X5X9X4X5X5X3X=X-X:X3X3X5X1X1X1X1X5X5X5X1X5X5X1X1X1X1X1X1X1X1X1X5X$X^.^.g.g.r.4.,.i a a a a a a u u s s s z 4.4.r.9.9.r.h.z u y a a a a a a a a u u z z 7.f.V.V.B.B.n.n.m.n.m.m.c.s.i.i.i.i.i.p.y.y.y.y.y.y.y.y.y.y.y.y.y.@.@.@.} } } } } } @.@.$.$.y.y.y.$.$.@.$.$.@.{ } { { { { { [ [ [ [ / ^ ^ ^ ^ ! ^ L L L P P P P ! ! ! ^ ` $.u.u.x.I./.}.@.& < * $ $ $ * 4 6 u.m.n.n.b.b.b.b.b.b.b.B.Z.Z.Z.Z.Z.A.A.R.E.!.!.!.!.!.!.!.!.!.!.`.`.`._._._._.OXoXoXoXoXoXoXoXoX+X@X@X@X@X@X@X@X@X@X@X@X@X&X&X&X&X",
"5X3X1X=X*X*X&X&X#X+X]._.~.!.E.R.R.Z.B.n.n.n.m.c.l.l.l.l.l.y.$.{ ` J 3 % o $ . . . .             . .                                     $ 6 ` }.2X{.'.}.}.W.Q.T.Z.n.c.x.i.i.u.y.$.$.$.$.$.@.@.+.{ { @.@.@.@.@.$.$.$.%.%.$.$.y.y.u.y.u.u.u.u.u.u.u.u.i.i.l.x.x.x.c.m.m.n.n.n.n.n.n.n.n.B.Z.T.R.R.R.Q.W.W.E.E.E.Q.E.E.E.Q.Q.Q.E.E.R.Z.Z.n.b.b.b.b.m.m.v.v.m.m.v.m.v.v.v.c.c.c.c.c.c.c.c.c.c.v.v.v.v.m.m.m.m.v.c.c.c.s.u.p.p.p.p.p.p.i.i.i.i.i.c.m.n.R.Q.E.~.].#X{.[._.)._.+X+X+X@X+X+X+X@X=X=X1X1X;X0X4X4XtXaXaX0X4X3X:X4X9XtXyXuXuXaXyXrXrXtXrX9X4X:X9XrXtXrXrX9X4X:X:X:X9X9XtXtXiXyXuXuXaXaXpXyXaXaXyXyXpXpXpXpXtXyXtXtXtXtXpXpXpXpX0X9X9X9X4X3X3X3X4X5X5X0XqX=X=X5X3X-X1X5X5X1X1X=X5X5X5X5X5X1X1X1X1X=X=X=X=X=X;XOX^.^..X.Xg.4.z i a a a a u a u u s s s 4.4.g.g.r.9.r.9.4.z y y y y y a a a a a u u z 4.r.f.V.B.B.n.v.n.m.m.v.c.c.i.i.i.i.i.i.p.y.p.y.y.y.y.y.y.y.y.y.@.@.@.@.} } } { { } @.@.$.$.$.$.$.@.@.@.$.@.@.{ } { { { { { [ [ ` ` / ^ ^ ^ ^ ^ ^ ! L L P P P P ! ^ ^ ` { u.u.s.x.m.Q.|.s.: < $ . . . $ & & [ T.T.Z.Z.b.B.B.b.b.b.B.Z.Z.Z.Z.Z.Z.A.A.R.E.!.!.!.!.!.!.!.!.!.!.`.`.`.`._._.OXOXoXoXoXoXOXOXoXoX@X@X@X@XoXoXoXoX@X@X@X@X@X@X&X&X",
"5X1X=X&X+X+X+X+X+X_.`.~.!.R.R.B.B.B.n.v.v.v.c.i.i.i.i.l.u.$.@.{ J 2 X . . . . .                                                         . ; 4 ` |.{.'.W.}.W.W.T.Z.n.m.c.x.i.i.u.y.y.$.$.$.%.%.$.$.$.$.%.%.%.%.%.%.%.$.$.$.$.y.u.u.u.u.u.u.u.u.u.u.u.i.x.x.x.x.c.c.c.m.n.n.n.n.n.n.n.n.n.Z.T.R.T.T.R.R.Q.E.E.E.E.R.R.R.E.E.E.E.E.Z.Z.Z.b.b.b.b.v.m.v.v.v.m.m.v.v.v.v.v.c.c.c.c.c.c.c.c.c.c.v.v.v.v.v.m.m.v.v.c.c.c.s.u.p.p.p.u.p.p.u.i.i.i.i.l.m.n.R.Q.W.Z.).].'.#X[._._.[.+X+X@X@X#X@X@X*X=X3X3X5XpXrXtXtXtX9X4X9X4X9X9X9XtXuXuXyXyXrX4X9XrX9X4X:X:X9XrXtXrXrX9X>X:X>X4X9X9XrXtX9X9X9X9X9XtXpXaXdXdXaXyXpXyXpXpXpXjXjXaXpXpXtXtXyXyX0X4X4X5X5X3X=X&X=X:X3X0X0X=X-X5X3X@X#X1X5X3X3X*X*X3X5X1X5X3X1X1X1X=X=X&X&X&X$X.X^.^.%XXXH.4.,.s s i a a u a a a u u s 4.r..Xg.r.r.r.r.4.z y y y y y a a a a a a u z S t.g.V.B.v.v.v.n.n.n.v.c.c.i.i.i.i.i.i.u.p.y.y.y.y.y.y.@.@.y.y.y.@.@.} } } } { { } @.@.@.@.@.@.@.@.@.@.@.@.@.} { { { { { [ ` ` ` / / ^ ^ ^ ^ ^ ^ ! L L P P P L ! ^ ` [ @.u.u.m.m.m.}.6XI.v ; * & & & ; & * ! m.T.R.Z.Z.Z.B.b.b.b.B.S.S.Z.Z.Z.Z.Z.Z.A.R.A.R.!.!.!.!.!.!.!.!.!.).`.`._._._.OXoXoXoXoXoXOXoXoXoX@X@XoXoXoXOXoX@X@X@X@X@X@X@X@X",
"1X-X#X+X[.[.[.]._.~.!.!.E.R.T.T.B.n.m.c.c.c.l.i.i.p.i.i.u.$.{ v 2 X . . . . .                                                             . $ J |.2X{.W.}.}.E.T.T.Z.n.n.M.c.x.i.i.u.y.$.$.$.$.$.$.$.$.$.$.$.$.$.$.$.$.$.$.y.u.u.u.u.u.s.s.i.i.p.u.i.i.i.l.i.x.x.c.c.c.m.n.n.n.n.n.n.n.n.Z.R.R.R.Z.Z.T.R.R.R.R.R.R.Z.E.W.).E.E.E.Z.Z.B.n.n.n.b.m.m.m.m.b.m.m.m.m.v.v.v.v.c.c.c.c.c.c.c.c.c.c.m.m.m.m.m.m.v.c.c.c.c.c.i.p.u.u.u.u.u.p.i.i.i.i.l.c.n.U.T.W.W.E.~.).[.#X].].].].`.).].+X#X*X&X;X3X5X0XyX4X0X0X4X4X9X9X9XrX9X4X9XyXuXyXyXtX9X9X9X9X4X:X4XrXtXtX9X9X9X9X9X9X9X9X9XrXyX:X4X9XtXtXtXiXuXdXdXdXdXaXyXdXpXaXaXaXaXaXpXpXpXyXpXrX5X5X3X4X3X=X*X*X=X1X5X5X=X*X=X=X@X@X=X3X3X=X*X@X*X1X-X3X5X1X1X1X=X&X*X&X&X$X^.^.^..X.Xg.h.z s s a a a u u a u a a s 4.g..X^.r.r.r.r.9.4.u y y u a y y a a u u s z 4.t.g.T.v.v.v.c.m.B.n.v.c.c.i.i.p.p.p.u.p.u.u.y.y.y.@.} @.@.@.@.@.@.@.@.@.} } { { { } @.@.@.@.@.@.@.@.@.@.@.@.} { { { { [ [ ` / ` ` ' ^ ^ ^ ^ ^ ^ ! L L P P L ! ^ ` { { y.u.i.m.m.Q.{.|./.j 4 : 4 4 1 1 < d K s.T.R.Z.Z.S.Z.B.B.B.B.V.B.B.B.S.S.Z.A.R.R.A.A.R.!.!.!.!.!.!.!.!.!.!.`.`._._._.OXoXoXoXoXoXoXoXoXoXoXoXoXOXOXoX+X@X@X@X@X@X@X@X",
"*X#X+X[.[.[.].).~.!.R.R.R.R.T.T.n.n.v.c.c.i.i.p.p.u.u.u.u.%.c 5 % . .                                                                     . . 6 m.6X{.'.'.}.Q.T.T.Z.B.n.n.c.x.i.i.i.u.u.u.u.$.$.$.$.$.$.$.$.$.$.$.$.$.$.$.y.u.u.u.p.u.i.x.s.i.p.u.i.i.i.i.i.x.x.i.i.l.c.m.n.n.n.n.n.n.n.n.T.T.Z.Z.Z.Z.Z.Z.Z.E.E.E.Z.E.).).W.E.E.Z.Z.n.b.n.n.m.v.v.m.m.b.m.m.m.m.v.v.v.c.c.c.c.c.c.c.c.c.c.c.m.m.m.m.m.m.m.c.c.c.c.c.i.p.u.u.u.u.p.u.i.i.i.i.l.c.M.B.T.Q.E.E.E.~.].[.[.]._._.`.`.oX#X*X*X=X3X5X4X5X0X1X3X3X3X0XtXyXtXrX9X>X4X9XtXyXyXyX9X4X9X9X4X9XrX9XrXrX9X9X9X9X9X9X9X9X9XtXyXtXtXyXyXyXyXiXyXyXuXuXaXaXyXjXaXaXaXaXaXpXpXtXtXtXtX0X4X5X3X0X3X1X;X&X&X*X1X1X=X*X*X-X@X@X*X;X=X*X@X@X*X*X*X1X1X1X=X=X=X&X*X*X=X$X^.^.C.g.g.g.4.z i s i a a u u u u a a s 4.g.C..Xg.r.r.g.g.r.z u y y y y y y y u u u z 4.r.g.T.v.v.v.c.v.n.n.m.n.n.c.i.p.p.u.p.u.u.u.u.y.y.@.} @.@.@.@.@.@.@.+.{ { { { { { { @.} @.@.@.@.@.@.@.@.@.} { { [ [ [ [ ` ^ ^ / / ' ^ ^ ^ ^ ^ ! ! L P P L ^ ^ ` [ @.$.y.p.x.m.U.Q.{.6X{ 6 4 : 6 6 6 6 4 g K i.T.R.Z.A.A.A.Z.S.B.B.B.B.Z.Z.S.S.Z.A.R.R.A.A.A.A.!.!.!.!.!.!.!.!.!.).`.`.`.`._._.OXOXOXOXoXoXoXoXoXoXOX_.OXOX+X@X@X@X+X+X@X@X",
"#X[.[.[.[.].).).~.E.R.T.B.B.B.n.n.m.c.i.i.i.u.y.p.u.u.u.%.L < - $                                                                           . & ^ 6X6X{.'.).E.E.T.Z.Z.n.n.n.c.x.i.l.x.i.u.u.y.y.$.$.$.$.$.$.$.$.$.y.y.y.$.y.u.u.i.i.s.i.x.x.i.i.u.i.i.i.i.i.l.c.i.i.i.l.c.n.n.n.B.B.n.n.n.Z.T.Z.Z.Z.Z.Z.Z.E.E.E.Q.E.E.).).E.Q.R.Z.Z.n.b.n.m.c.v.v.b.b.b.m.v.m.v.v.v.c.c.c.c.c.c.c.c.c.c.c.c.m.m.m.m.m.m.m.c.c.c.c.c.i.i.i.p.p.u.p.u.i.i.i.i.i.c.c.n.B.R.E.E.E.E.).[.{.].].[.+X@X#X*X1X1X3X3X0X0XpXsX4X5X3X3X0XtXpXyXyXtXtXtXyXyXtXyXrX4X>X4X4X4X9X9X9XrXrXrXrX9X9X9X9X9X9X9XtXyXyXyXtXtXtXyXyXiXyXyXyXuXaXyXjXaXaXaXaXaXpXpXpXpXpXaXpXtXqX3X0X5X3X1X;X*X&X=X=X&X*X*X*X*X@X@X=X-X*X+X+X@X@X@X*X-X=X=X*X*X&X*X*X=XOX.X^.C.g.C.XXg.,.i s u u u u u u u u a s z r.g..Xg.r.r.g.g.g.z z y y y y y y y y y u z 4.r.g.C.v.v.v.v.v.c.c.v.n.n.c.s.i.i.p.p.p.y.u.y.u.y.y.y.y.y.@.@.@.@.} } { { { { { { { { { { @.@.@.@.@.@.@.} { { { [ [ [ [ ` ^ ^ ' ' ^ ^ ^ ^ ^ ^ ! ! L L ! ^ ^ ` [ { $.u.u.i.c.n.T./.|.6Xx.j 4 6 6 6 0 0 0 v P u.U.R.Z.Z.R.R.A.Z.Z.Z.Z.S.Z.S.S.S.A.A.A.A.A.A.A.!.!.!.!.!.!.!.`.`.!.`.`.`.`.`._._._._.OXOX_._.oXoXoXoX_.`.OXOX+X@X@X@X@X+X@X@X",
"[.[.[.]._.).~.W.W.R.Z.B.n.n.n.m.c.c.i.u.p.p.u.y.u.u.u.s.+.0 - + .                                                                         .   . v /.6X{.{.).E.E.T.Z.Z.n.n.n.M.l.l.l.x.x.x.i.u.p.y.$.$.$.$.$.$.$.$.y.y.$.$.y.u.u.i.s.s.i.x.x.i.i.u.i.i.l.l.l.l.l.i.i.i.i.l.v.n.B.T.T.B.n.n.B.Z.R.T.T.T.R.Z.Q.E.E.E.Q.E.).).E.E.R.Z.Z.n.b.m.m.v.v.m.b.b.b.m.v.v.c.v.c.c.c.c.c.c.c.c.c.c.c.c.c.m.m.m.m.m.m.m.c.m.m.c.c.i.i.i.p.p.u.p.u.i.i.i.i.i.l.c.M.n.R.Z.Z.Z.Z.E.].[.].+X*X5X5X=X=X1X5X3X4X0X0X0XtX3X4X4X4X9X9XtXyXuXuXyXtXtX9XrXtX9X:X:X:X>X4X9X9X9X9XrXrX9X9X9X9X9X9X9X9XrXtXyXrX9X9XrXyXyXyXuXuXyXuXaXpXjXdXaXaXaXaXaXpXtXtXtXtX0X4X5X3X0X5X3X1X3X&X&X=X=X&X*X@X*X*X+X@X*X*X@X+X[.+X@X@X*X*X=X&X*X*X*X=X=X=X$X$XOXC.g.XXXXXX4.i u u u u u u u a a a s z h.g.g.g.r.r.g.g.g.4.z u y y y y y y y y y z 4.r.g.B.a.v.c.c.c.i.i.c.c.c.s.i.i.i.c.p.p.y.y.y.p.y.y.y.y.y.@.@.@.} } } { { { { { { { { { } } { @.@.@.@.} { { { { [ [ [ [ ` ^ / ' ' ' ^ ^ ^ ^ ^ ! ! L L ! ^ ` [ [ +.$.u.p.x.m.n.Q.'.|.6X$.K 6 4 6 6 0 6 v c L u.B.R.Z.A.E.E.E.A.A.A.A.Z.Z.Z.S.S.A.A.A.A.A.A.E.!.!.!.!.!.!.!.`.`.!.!.`.`.`.`.`.`.`.`.`.`._._._.oXoXoX_.`.OXOX+X@X@X@X@X+X@X@X",
"[.].].).~.W.E.R.T.B.n.n.m.v.v.c.s.s.i.p.p.p.u.u.u.u.x.%.J ; . $ .                                                                         .   . * I.6X|.{.'.~.E.T.Z.Z.n.n.n.n.c.c.l.l.l.x.x.i.i.u.y.y.y.y.y.y.y.p.y.y.$.$.y.u.i.i.i.i.x.x.x.i.i.i.i.l.c.x.x.x.i.i.i.i.i.i.l.v.B.T.Q.T.n.n.B.Z.T.R.R.R.R.R.E.E.E.W.E.E.E.E.Q.R.Z.Z.Z.n.n.b.b.m.m.b.b.b.b.n.m.v.v.c.c.c.c.c.c.c.c.c.c.c.c.c.c.c.c.m.m.m.m.m.c.c.c.c.x.i.u.p.p.p.p.u.u.i.i.i.i.i.l.c.c.b.Z.Q.R.Z.Z.R.~._.].+X#X*X=X1X*X*X1X1X3X5X5X5X5X5X4X4X4X4X9X9XtXuXuXyXyXtXrXrXrX9X>X:X:X>X9X9X9X9X9XrXrX9X9X9X9X9X9XrXrX9X9X9XrXrXrXtXyXyXuXdXdXuXaXaXdXjXdXaXaXaXaXaXpXtXrXtX0X5X4X3X3X3X3X1X;X3X&X&X*X*X*X@X@X@X*X+X+X@X@X@X@X+X+X@X@X*X*X&X*X*X&X*X=X1X1X;X$X$X^.g.C.XXH.4.s u u a a u u u a a a s u 4.g.g.g.9.4.9.9.9.4.z u y y y y y y y y y z 4.t.a.a.a.a.s.c.c.i.i.c.c.s.i.i.i.c.c.i.p.p.y.y.y.y.p.y.y.y.@.@.+.} } } { { { { { { { { { { } } @.@.@.@.} { { { { [ [ ` [ ` ` ^ ' ' ^ ^ ^ ^ ^ ^ ^ ! L ^ ^ ` [ [ [ } y.u.u.c.M.B.Q.'.|.eXI.b 6 6 d g 0 0 6 g g $.B.R.R.A.R.E.R.R.E.E.E.A.A.Z.A.A.A.A.A.A.A.A.!.!.!.!.!.!.!.!.`.`.`.`.`.`.`.`.`.`.`.`.`.`._._.OXOXoXoXoXoXOXoXoX+X@X@X@X@X+X+X",
"[.].).E.E.R.R.Z.B.n.v.v.c.c.c.c.s.s.i.p.p.u.u.u.u.s.%.P - X . .                                                                               . $ %.6X|.{.[.).E.E.T.T.Z.B.n.n.M.c.c.c.c.c.x.l.i.i.i.p.u.u.u.u.u.p.u.p.y.y.u.i.i.i.i.i.i.s.x.i.i.x.c.c.M.c.c.x.i.i.l.l.l.i.i.l.n.B.T.T.n.n.B.Z.R.Q.Q.E.Q.Q.R.E.E.E.E.E.Q.Q.E.Z.Z.Z.Z.n.n.b.n.n.m.n.b.b.b.B.n.m.v.c.c.c.c.c.c.c.c.c.c.c.c.c.c.c.c.m.m.m.m.m.c.c.c.c.x.i.u.p.p.p.p.u.u.i.i.u.u.i.x.c.c.M.n.W.W.E.W.E.!.).].].#X*X1X1X#X#X2X=X1X1X3X3X3X4X4X4X4X9X9X4X9XtXyXyXtXrX9X9X4X4X4X4X9X9X9X9X9X9X9X9X9X9X9X9X9X9X9X9X9X9X9XrXtXyXyXyXyXyXuXdXdXuXuXaXaXaXaXaXaXaXaXaXpXtXtXtXrX0X4X5X3X3X1X=X=X3X&X&X&X&X&X@X+X+X@X+X+X@X@X#X-X*X+X+X@X&X*X&X&X&X$X&X&X=X1X$X$X.X^.C.C.g.g.4.s u u a a u u a a a a s u z 4.h.4.4.4.4.4.4.4.z u y y y y y y y y y z S 7.r.a.d.d.i.i.a.a.i.i.s.c.s.i.i.c.c.i.i.p.u.y.} y.y.y.y.y.@.} +.+.} } { { { { { { { { { { } } } } +.{ { { { { { [ ` ` ` ` ` ^ ' ' ^ ^ ^ ^ ^ ^ ! ! L ^ ^ ` [ [ [ } y.u.i.m.n.T.'.'.{.wX/.u.g 4 d d 0 0 6 0 g [ B.R.R.A.A.R.R.E.E.!.E.R.A.A.A.A.A.A.A.A.A.!.!.!.!.!.!.!.!.!.`.`.`.`.`.`.`.`.`.`.`.`._._._._.OXOXOXoXoXoXOXoXoX+X@X@X@X@X@X+X",
"[.].~.E.R.R.Z.B.n.v.c.c.c.c.s.s.s.i.u.u.u.u.u.u.s.%.P 4 % . .                                                                               .   . J |.6X|.{.).~.E.Q.R.T.T.B.n.n.m.M.c.c.c.c.c.x.l.i.i.i.i.i.i.i.i.i.u.u.i.i.i.i.x.i.i.i.i.s.i.i.x.c.c.M.c.c.x.i.c.c.c.l.i.i.i.c.n.B.T.B.B.B.Z.R.Q.E.E.W.E.E.E.Q.E.E.E.E.Q.R.Z.Z.Z.Z.B.n.n.B.n.n.n.n.b.B.Z.Z.n.m.b.v.c.c.c.c.c.c.c.c.c.c.c.c.c.c.m.m.m.m.m.c.c.c.c.c.i.u.p.p.p.p.u.u.i.i.u.u.i.l.l.c.c.m.Q.E.W.).~.E.).+X#X*X1X1X1X#X#X*X=X&X1X1X3X3X4X4X4X4X9X9X4X4X9XtXtX9X9X9X4X4X9X9XrXrX9X9X9X9X9X4X>X>X4X9X9X9X9X9X9X9X9XrXtXtXyXyXyXyXyXuXaXuXyXyXpXpXpXpXpXuXpXpXpXyXrXtXtX0X0X0XqX4X3X3X;X=X3X*X#X#X#X#X@X+X].+X[.+X@X+X@X-X*X+X+X+X@X#X#X#X#X+XoX$X#X$X$X.X^.C.C.C.g.h.4.z u u a a a a a a a a a u s 4.r.h.4.4.Q 4.,.z z u u u u u u u y y y z z 4.t.a.d.d.i.i.i.a.i.i.c.c.s.s.i.p.p.i.s.i.p.u.y.} } } } } } } +.+.+.} { } { { { { { { { { { { } { +.{ { { { { [ [ ` ` ` ` / / ' ^ ^ ^ ^ ^ ^ ^ ^ ^ ^ ^ ^ ` [ [ [ } y.u.c.m.B.R.'.{.{.nX6XmXQ.6 d 6 0 0 g 0 g ` n.R.A.A.A.R.R.E.!.!.!.E.E.E.E.E.R.R.R.R.!.!.!.!.!.!.).!.).).`.`.`.`.`.`.`.`.`.`.`.`._._._._.OXOXoXoXoXoXoXoX@X@X@X@X@X@X@X@X",
"].).E.R.R.Z.B.n.n.v.c.c.c.c.s.s.s.i.i.p.u.s.u.u.u.^ 6 $ $ .                                                                                       1 /.2X2X{.'.).~.E.T.R.T.B.n.n.n.m.M.M.m.c.c.x.x.x.x.l.i.i.i.i.x.l.i.i.i.x.x.i.i.x.i.i.i.i.p.p.i.i.l.c.c.c.x.i.c.m.m.m.c.c.c.i.c.n.n.n.n.n.Z.R.R.R.R.Q.E.Q.E.E.E.E.E.E.E.E.R.R.Z.Z.B.n.n.B.n.n.n.n.n.Z.Z.Z.B.b.n.b.c.c.a.c.c.c.c.c.c.c.c.c.c.c.m.m.m.m.m.c.c.c.c.s.i.i.p.p.p.p.u.u.i.i.u.u.i.x.l.c.c.M.n.T.Q.).).~._.[.#X#X*X*X#X+X$X#X&X&X=X1X3X3X4X4X4X0X9X9X4X4X4X9X9X9X9X9X9X9XyXyXuXyX9X4X>X4X4X>X:X:X4X9X9X4X9X9X4X9XrXtXyXtX9X9XtXyXuXuXyXyX9X0XyXpXyXyXyXtXyXyXtXrXrXtXrXrXrXrX0X0X5X3X;X=X3X=X#XoX+X@X@X+X_._._.[.+X_._.@X+X_._.+X+X+X+X+X+X+XoX].oX$XOX^.^.C.C.g.r.4.4.z s u a a a a a a a a y a u 4.g.h.4.,.z z z s s u u u u u u u u y y s z 4.3.t.t.d.a.a.i.a.i.i.c.c.c.c.i.p.p.i.s.i.i.p.y.y.y.} } } } } } +.+.} } } { { { { { { { { { { { { { { { { { { [ [ ` ` ` ` / ^ ^ ^ ^ ^ ^ ! ^ ^ ^ ^ ^ ^ ^ / [ [ [ } y.u.c.n.U.Q.W.|.2XwXm.u.[ 6 6 6 0 0 g 6 g ` n.R.Z.A.A.R.R.E.!.!.!.!.E.!.!.!.E.R.E.E.!.!.!.!.!.!.).).).).`.`.`.`.`.`.`.`.`.`.`.`._._._._.oXoXoXoXoXoXoXoX@X@X@X@X@X@X@X@X",
"_.~.R.R.Z.B.n.b.v.v.v.c.c.a.a.a.c.i.i.p.i.x.x.x.+.J ; $                                                                         .                 & %.|.2X|.[.'.).W.W.Q.T.T.n.n.n.n.n.n.m.M.M.c.c.c.c.x.l.l.l.l.l.l.l.l.l.l.l.x.x.x.i.i.i.i.i.i.i.i.i.i.c.c.c.c.c.m.n.n.n.v.v.c.c.v.n.n.n.n.R.Q.R.R.R.R.E.E.E.E.E.E.E.E.E.R.R.Z.Z.B.n.n.B.B.n.n.n.n.n.B.Z.Z.n.n.n.v.c.i.l.i.l.l.c.c.c.c.c.c.c.c.m.v.v.v.c.c.c.c.l.i.i.i.p.p.p.p.p.p.p.i.i.i.i.l.c.c.c.m.m.Z.R.W.).'.[.{.#X].#X#X+X[.[.+X@X@X-X1X3X3X3X3X4X9X0X9X3X3X3X9X9X9X9X9X9XyXaXaXyXtX9X4X4X9X4X4X3X4X4X9X9X9X9X9X9X9XtXyXyXtX9X4X9XyXaXyXtX9X9XtXyXyXyXyXtXtXtXtXtXtX9X0X0X0X0X0X0X0X0X3X;X;X3X=X#X+X+X+X+X+X].].].].[.].].].].[.+X+X+X[.+X#X#X*X#XOX].$X$X^.^.C.g.r.r.4.r.4.s a a a a a a a a y y y y z h.4.z s u s u u u u u u u u u u u u u y z z 3.r.r.3.3.t.a.a.s.c.c.c.c.c.s.i.i.i.i.i.i.u.u.p.y.@.@.} } } +.} { { { { { { { { { { { { { { { { { { { { { [ [ [ ` ` / / ^ ^ ^ ^ ^ ^ ! ^ ^ ^ ^ ^ ^ ^ ^ / ` [ [ { y.i.m.n.T.W.'.2X6XeX{ g 6 6 g g g g h c J ' U.Z.B.A.E.A.A.A.E.E.!.!.!.!.!.E.!.!.!.!.!.!.!.!.!.!.`.`.`.`.`.`.`.`.`.`.`.`._._._._._._._._.oXoXoXoXoX@X+X+X@X@X@X@X@X@X@X@X",
").~.E.R.Z.B.n.b.v.v.v.m.c.c.a.a.c.i.i.i.i.x.u.$.^ g ; .                                                                                         . + L }.2X*X[.'.).W.W.Q.T.T.Z.n.n.n.B.B.n.m.M.c.c.c.c.c.c.c.c.c.c.c.c.x.l.l.l.x.x.x.x.x.i.i.i.i.i.i.i.i.c.c.c.c.c.v.n.n.n.m.n.n.n.B.Z.T.R.R.R.Q.E.R.R.R.R.R.E.E.E.E.R.R.R.R.R.Z.Z.n.n.B.B.B.n.n.n.n.B.B.B.B.n.n.n.v.c.i.l.l.l.l.c.c.c.c.c.c.c.c.m.m.v.v.c.c.c.c.l.i.i.i.p.p.p.p.p.p.p.p.i.i.i.l.c.c.c.M.m.n.Z.R.W.).[.#X#X].#X#X#X+X+X+X@X*X-X=X3X3X3X3X3X3X9X9X3X3X3X4X9X9X9X3X9XtXyXtX0X9X9X9X0X0X9X4X4X3X:X:X4X9X9X9X9X9XrXtXyXyX9X9X9XyXyXtX9X9XtXaXaXyXyXyXyXyXyXyXpXyX0X9XqX0X0XqXqX0X4X3X;X=X3X=X*X5X#X+X+X+X[.].].].].].]._._.+X*X*X+X+X#X*X1X5X1X$X].$X$X^.^.V.r.Q 4.h.4.,.s a a a a a a a y y y y y y z z z u u u u s u u u u u u u u u u y y u z 4.r.t.4.1.t.a.a.s.c.c.c.c.c.s.c.s.i.p.i.i.u.u.p.y.@.@.@.} } +.} { { { { { { { { { { { { { { { { { { { { { [ +.[ ` ` / / ^ ^ ^ ^ ^ ^ ^ ^ ^ ^ ^ ^ ^ ^ ^ ^ [ [ { $.y.i.m.n.T.Q.'.*X6X6X$.d 4 6 g g g v g v J ^ m.T.Z.R.E.A.A.A.E.E.!.!.!.!.!.!.!.!.!.!.!.!.~.!.!.!.`.`.`.`.`.`.`.`.`.`.`.`._._._._._._._.OXoXoXoXoX@X@X+X@X@X@X@X@X@X@X@X@X",
").~.E.R.R.B.B.b.v.v.v.m.c.c.a.a.c.s.i.x.i.u.$.` c 6 ; .                                                                         $ O X .         . $ 3 I.6X2X[.'.'.).W.W.Q.Q.T.n.B.n.B.B.n.n.m.M.M.M.M.c.c.c.c.c.c.c.c.x.l.l.l.l.x.x.x.x.l.i.x.i.i.i.i.i.i.m.c.c.c.m.m.m.m.m.n.n.B.T.R.R.R.R.T.T.Z.Z.Z.Z.Z.R.E.E.E.R.R.R.R.R.Z.Z.n.n.n.n.n.n.n.n.n.n.n.n.B.B.B.B.n.m.m.c.c.c.c.c.c.c.c.c.c.c.c.c.c.v.v.v.v.c.c.c.c.i.i.i.p.p.p.p.p.p.i.i.i.i.l.l.c.m.m.n.B.B.Z.Z.Q.W.).].[.).[.[.+X#X+X#X@X#X*X=X:X;X:X;X;X;X3X3X3X:X3X9X0X9X3X:X:X9XtX9X9X4X9X9X3X:X:X4X4X3X:X:X>X9XrXrXrX9XrXrXtXtXtXtXtX9X9X9X9XtXaXaXpXyXyXyXyXpXyXaXaXaXtX0X0X0X0X0X0X0X5X;X=X=X;X=X*X5X#X+X].].+X+X+X[.]._._._.[.#X*X*X#X+X#X*X1X5X1X$X].$X^.^.(.C.g.Q z z ,.z u a a a a a y y y y y y y y u s s u s u u u u u u u u u u u u u y y x z 4.9.4.z z 3.a.a.s.c.c.m.c.c.c.c.s.i.p.u.u.u.y.p.y.@.y.@.@.} } } { { { { { { { { { { { { { { { { { { { [ [ [ [ ` ' ` ` / ^ / ^ ^ ^ ^ ^ ^ ^ ^ ^ ^ ^ ^ ^ ^ ` [ { y.i.m.m.n.Q.Q.'.#X6X6X` d 6 6 g g v v h v v P i.T.E.R.A.A.A.A.E.E.!.!.!.!.!.!.!.!.!.!.!.!.!.!.!.~.`.`.`.`.`.`.`.`._._._._._.OX_._.OXOXoXoXoXoX@X@X@X@X@X@X@X@X@X@X@X@X@X@X",
").).E.R.R.B.B.n.v.v.m.m.c.c.a.a.i.i.x.x.x.u.[ L 6 4 ;         .                                                                 . # X           . . & [ 6X2X{.'.'.).W.W.Q.Q.R.T.T.T.U.U.B.n.n.m.m.m.m.M.M.M.M.M.M.M.c.c.x.x.l.l.x.x.x.x.l.l.x.i.i.i.i.i.c.c.c.c.c.c.c.c.c.m.n.n.T.T.Z.B.n.n.B.Z.Z.Z.Z.Z.Z.R.R.E.E.R.Z.R.R.R.Z.n.n.n.n.n.n.n.n.n.n.n.B.n.b.b.B.n.v.m.m.c.c.c.c.c.c.c.c.c.c.c.c.c.c.v.v.v.c.c.c.c.c.i.i.i.p.p.p.p.p.p.i.i.i.i.l.l.l.m.n.T.R.Q.R.Q.R.Q.R.~.).!._.].+X#X#X#X#X*X-X=X;X=X=X=X=X;X:X:X:X3X3X4X9X9X:X=X;X4X9X4X4X4X9X9X9X4X9XtXtX0X9X9X9X9XtXtXtXrX9X9X9XrXrXtXtX9X4X9XtXpXpXyXyXaXaXaXaXaXaXaXaXyXyXyXtX0XqX9XqXqX5X&X=X=X=X=X*XoX+X+X].[.+X@X@X#X+X]._.[._.+X-X1X*X+X$X+X#X*X*X+X].$X^.(.^.C.g.r.4.x z u u a a a a a y y y y y y a y s u u s u u u s u y y y y y y y u y y y y z 4.7.4.z z 2.a.v.s.c.c.m.m.m.c.s.i.p.p.p.p.y.y.y.@.@.@.@.@.} +.} { } { { { { { { { { [ [ [ [ [ [ [ [ [ [ [ [ ' ` ` ` / / ^ / ^ ^ ^ ^ ^ ^ ^ ^ ^ ^ ^ ^ ^ ^ ` [ @.u.i.n.m.n.T.W.'.{.eX6XP 6 d g g v v v v v g b y.T.~.R.R.A.A.A.A.A.!.!.!.!.!.!.!.!.!.!.!.!.!.!.!.~.`.`.`.`.`.`._._._._._._._._.OXOXoXoXoXoXoXoXoX@X@X@X@X@X@X@X@X@X@X&X@X@X",
").).~.E.R.Z.B.n.b.v.c.c.c.c.c.c.c.c.c.c.s.u.] g 4 & .                                                                           2 2 @ $         . . $ J |.6X2X{.'.).W.W.W.Q.Q.T.T.T.T.T.T.B.n.n.n.m.m.M.M.n.n.n.n.M.m.c.c.c.c.l.l.l.l.l.x.x.x.x.x.x.x.x.c.m.c.c.c.c.c.c.c.c.v.n.n.B.Z.n.m.m.n.B.Z.Z.Z.Z.Z.R.R.E.Q.Z.Z.E.E.R.Z.Z.B.B.n.n.n.n.n.n.n.m.B.b.b.b.b.b.v.v.v.c.c.c.c.c.c.c.c.c.m.m.v.v.v.v.v.v.v.m.m.c.c.i.i.i.i.p.p.p.p.p.i.i.p.i.i.l.l.c.M.n.Q.W.T.R.Q.W.Q.~.~.E.~.].+X#X#X*X*X*X=X=X=X=X=X=X3X4X3X:X3X3X3X3X3X3X:X&X;X4X4X4X4X9X0XtXtX9X0XtXtXtXtXtXrX9XrX9XrXrXrX9X9X9X9XtXtX9X9XrXyXyXtXtXyXaXdXaXaXaXaXaXpXtXtXyXyX0X9X3X5X4X5X=X=X=X=X;X*X_.+X+X].+X+X+X#X*X*X+X].[._.].*X1X*X#X+X+X+X#X*X*X+X#X^.D.^.^.C.g.9.z s u a a y a a a y y y y a a a a a a a a s u a y y y x z z z z u y y y y y x z 4.4.x x m a.a.n.n.v.m.m.c.s.i.i.p.p.p.p.y.y.@.@.@.@.@.@.+.} } { { { { { { { { [ [ [ [ [ [ [ [ [ [ [ [ [ [ [ ` ` ` ` ^ / ^ ^ ^ ^ ^ ^ ^ ^ ^ ^ ^ ^ ^ ^ ^ [ { @.u.x.m.n.n.T.W.'.{.eX6X` 6 v v j v v v v v v v ` B.B.R.R.A.A.A.A.E.E.!.E.!.!.!.!.!.!.!.).!.`.`.!.~.`.`.`.`.`.`.`._._._.OXOXOXOXoXoXoXoXoXoX@X@X+X$X@X@X@X@X@X@X@X@X&X&X&X=X",
").~.~.E.R.T.Z.B.b.b.v.c.c.c.c.c.c.c.c.x.x.{ c ; & .                                                                             H 0 #           .   . 5 Q.eX2X|.{.'.}.W.W.Q.R.R.T.T.T.T.T.n.n.n.n.n.m.M.M.n.n.n.n.n.m.M.c.c.c.c.c.c.c.l.x.x.x.x.x.x.x.c.m.m.c.s.s.c.c.c.c.c.c.m.v.m.m.n.n.n.B.Z.Z.Z.Z.Z.Z.Z.R.R.E.R.R.R.R.R.Z.Z.B.B.b.b.m.n.n.n.m.c.b.v.m.m.b.m.v.v.v.c.c.c.c.c.c.c.c.c.m.m.v.v.v.v.v.v.v.m.m.c.c.i.i.i.i.p.p.p.p.p.i.i.p.i.i.l.c.c.M.m.n.T.B.R.~.[.].#X[.).].+X#X#X#X#X&X*X*X*X&X=X;X3X4XqX4X3X3X3X:X:X:X3X3X:X3X9X9X9X9X0X0XtXtX9X9X9X0XtXtXtXrX9X9X4X9X9XrXrXrX9X9XrXrXtXtXyXyXtX0X0XyXaXaXaXaXpXpXaXyX0X9XtX0X0XqX4X5X5X5X5X1X=X=X1X*X].#X+X+X@X+X].+X=X-X+X].].)._.+X*X*X+X+X#X#X#X5X5X1X=X$X^.^.^.C.g.r.z u u a y y a a a y y a a a a a a a a a a u u a y y x z z Q z z z y y y y y x z z z x x m r.v.n.n.m.m.c.c.i.i.p.p.p.p.u.y.y.@.@.@.@.@.@.} } } { { { { { { [ [ [ [ [ [ [ [ [ [ [ [ [ [ [ / ' ` ` ` / ^ ^ ^ ^ ^ ^ ^ ^ ^ ^ ^ ^ ^ ^ ' ` [ { } $.u.x.m.n.n.Q.W.{.{.eX|.{ v v g j j v v v v v v ` n.B.R.A.A.A.A.A.A.A.E.A.E.!.!.!.!.!.!.).).`.`.!.!.`.`.`.`.`.`.`._._._.OXOXOXOXoXoXoXoX+X+X@X@X+X+X@X@X@X@X@X@X@X@X@X@X&X&X",
"~.E.E.R.R.R.Z.B.B.n.m.v.v.m.m.m.c.c.c.x.u.L 4 $ .                                                                               2 < X           .   . * K 6X6X'.{.'.'.}.W.W.W.Q.Q.T.T.T.T.B.n.n.n.n.n.M.M.n.n.n.n.n.n.m.M.M.M.M.c.c.c.c.c.c.c.c.c.c.c.c.m.m.m.c.c.c.c.c.c.c.c.c.c.v.m.n.B.Z.Z.Z.Z.Z.Z.n.B.Z.Z.Z.E.Q.E.R.Z.Z.Z.Z.B.n.n.b.m.n.n.n.b.v.B.m.m.m.m.m.v.v.v.v.m.m.c.c.c.c.m.m.v.v.v.v.v.v.v.v.v.m.m.m.c.l.i.i.i.i.i.i.p.p.i.i.p.i.i.l.c.M.n.n.n.T.B.R.).{.{.*X#X].+X#X#X#X#X*X*X@X@X*X&X:X5XqX0X5X3X3X3X3X:X:X3X9X0X9X0XtXrXtXtXtXtX0X0X0X9X4X4X9X9X0X9X4X4X4X4X9X9X9X9X9X9X9X9XrXyXyXyXtX0X9XrXyXpXyXyXyXyXyXyX9X4X0X0X9X9X9X5X3X3X5X3X=X=X3X*X+X*X#X#X#X#X].[.*X-X*X[.)._.)._.+X#X+X+X#X#X#X1X5X1X=X=X^.^.C.C.g.f.4.u y y y a a a a a a a a a a a a a a a a y a u u z z z z 4.4.4.z u y y y y y x z z x x z r.V.n.n.m.c.c.c.i.p.p.u.u.u.u.y.y.y.y.@.y.@.@.} { { { { { { { { [ [ [ [ [ [ [ [ [ [ [ [ [ [ ` ` ` ` / / ` ` ^ ^ ^ ^ ^ ^ ^ ^ ^ ^ ^ ` ` ' [ { @.@.y.u.c.n.B.T.Q.}.|.|.qX{.! b v g j j v v v v v v ` n.B.Z.A.A.A.A.A.A.A.A.A.A.!.!.!.!.).).!.!.`.`.!.!.`.`.`.`.`.`.`.`._._._.OXoXoXoXoXoXoX@X@X@X@X+X@X@X@X@X@X@X&X@X@X&X&X&X=X",
"~.E.E.R.R.R.Z.B.B.B.n.m.n.n.m.m.m.c.x.x.` g ; .                                                                                 . . .           .     $ 4 /.wX2X{.{.'.).W.W.W.Q.T.T.T.T.T.B.n.n.n.n.n.n.n.n.n.B.B.B.n.n.b.b.M.M.M.M.M.c.c.c.c.c.c.c.c.c.m.m.m.c.c.c.c.c.c.c.i.i.l.c.v.m.B.B.R.R.Z.Z.b.m.b.Z.Z.Z.E.E.Q.Z.Z.Z.Z.Z.B.n.b.m.m.n.n.Z.Z.Z.Q.Z.n.m.m.m.v.v.v.v.m.m.m.c.m.m.m.m.v.v.v.v.v.v.v.v.v.m.m.m.c.l.i.i.i.i.i.i.p.p.p.p.i.i.i.l.c.n.n.B.R.W.B.Q.W.).W.].[.[.#X#X#X#X*X*X=X=X;X=X;X3XqX0X0X5X3X4X3X3X3X:X3X0XtXyXyXyXyXyXtXtX9X4X4X9X9X4X3X3X4X4X>X>X4X4X4X4X9X9X9X9X9X9X9X9XyXuXyXtX9X4X9XtXyXyXyXyXyXyXtX9X4XtXyX0X4X3X3X3X3X3X3X=X;X3X1X+X*X*X*X*X*X].].#X*X*X+X~._.).).].+X+X#X#X#X#X#X*X*X#X$XD.V.g.C.g.r.4.y y a a a a a a a a a a a a a a y y y y y y u u z z Q Q 4.3.4.z z y y y y y x x x x x z r.a.n.n.c.c.c.i.i.p.p.y.y.y.y.y.u.y.y.y.y.y.@.} { { { { { { { { [ [ [ [ [ [ [ [ [ [ [ [ [ [ ` ` ` ` / / ` ` ^ ^ ^ ^ ^ ^ ^ ^ ^ ^ ` ` [ [ { +.$.$.u.x.n.n.T.Q.W.'.*X*XqX'.d d d v j j v v v v v v ` n.Z.Z.A.A.A.A.A.A.A.A.A.A.E.E.!.!.).).!.!.`.`.`.`.`.`.`.`.`.`.`.`._._._.oXoXoXoXoXoXoX@X@X@X@X+X@X@X@X@X@X@X&X@X@X@X@X9X9X",
"~.E.E.R.R.R.Z.Z.Z.n.n.n.n.n.n.n.n.c.s.$.P ; .                                                                                                   .     . & Q.wX2X{.].'.).).W.E.T.R.R.R.R.T.Z.n.n.m.n.n.n.n.n.Z.T.Z.Z.Z.Z.n.n.n.n.n.n.n.m.m.M.M.m.m.c.c.m.m.m.m.m.c.c.c.c.c.c.l.i.i.i.c.m.b.v.Z.R.Z.b.v.v.m.n.Z.R.E.E.E.Z.B.n.n.b.n.n.n.m.m.n.B.Z.Q.E.W.T.b.b.b.m.n.n.v.v.v.m.m.m.m.m.v.v.v.v.v.v.v.v.v.v.v.c.c.c.c.c.i.i.i.i.i.i.i.i.i.i.i.i.i.i.c.m.n.B.R.Q.Z.R.Q.Q.Q.).[.#X#X*X#X+X#X-X1X5X5X5X3X5XqXqX9X4X5X5X3X3X3X3X3X4X0XyXyXyXtX9X9X9X4X:X:X4X9X9X3X:X:X4X>X4X4X4X>X>X4X9X9X9X9X9X9X9XyXuXyXtX9X4X9XyXuXyXyXyXtXyXyX0X9XtXyX0X4X3X3X3X3X3X3X;X1X3X3X*X#X#X#X#X*X]._.[.+X#X#X)._.).).].+X#X#X#X#X].].#X#X$X$X(.V.V.g.f.9.4.u y a a a a a a a a u u a a y y y y y y y y x z Q Q Q 1.3.3.3.Q z y y y y y y y y y y z t.a.m.c.c.c.c.c.i.i.u.u.p.u.u.u.u.y.y.y.y.$.@.+.{ { { { { { { [ [ [ [ [ [ [ [ [ [ [ [ [ ` ` ` ` ` ` / / ` ` ^ ^ ^ ^ ^ ^ ^ ^ ^ ^ ` ' [ { @.$.u.u.u.m.n.B.T.Q.}.{.2X2XeX'.v v v v v j v v v v v v ` n.Z.Z.A.A.A.A.A.A.A.S.S.A.A.A.A.!.!.).!.!.`.`._._.`.).`.`.`.`.`._._._._.`._.oX+X@X&X=X=X=X;X:X>X>X4X9X9XrXtXtXrXrXrXtXyXdX",
").~.E.E.R.R.Z.Z.Z.n.n.n.B.n.n.n.m.c.u.` 6 $ .                                                                                                     . . . & I.eX2X{.{.'.).).}.W.Q.T.T.Q.T.R.T.B.n.n.n.n.n.B.T.R.Q.T.T.R.R.Z.Z.Z.Z.T.T.B.n.m.m.M.M.n.M.m.m.m.m.m.m.c.c.c.c.m.m.c.c.c.c.c.m.m.c.Z.Z.Z.b.b.m.m.b.B.Z.Z.Z.Z.Z.Z.Z.b.b.b.b.m.m.b.n.Z.Z.Q.W.Q.Z.b.b.b.m.n.n.v.v.v.c.m.m.m.m.v.v.v.v.v.v.v.v.v.v.v.c.c.m.c.c.i.i.i.i.i.i.i.i.i.i.i.i.i.i.l.c.m.n.Z.R.n.R.E.R.Q.).].+X#X#X+X+X+X*X*X=X=X1X3X5X5X3X:X3X3X;X&X&X;X:X;X:X0XyXyX9X4X:X:X3X3X:X:X4X9X9X3X:X:X4X>X4X4X4X>X>X4X4X9X9X9X9X9X9XrXtXtX0X9X9XtXdXdXaXyXyXyXyXyXtXtXtX0X9X3X9X0X0X4X5X3X3X1X3X5X1X#X+X+X+X*X]._.[.[.[.+X]._.).).].+X+X#X#X$X].].$X$XOXOX^.V.g.g.g.r.h.s y a a a a a u u u u a a a y y y y y y x z z m 1.2.3.3.7.3.7.1.z u y y y y y y y y z z r.a.v.c.s.i.s.c.s.i.p.u.p.u.u.u.u.y.@.$.$.@.@.{ { { { { { { { [ [ [ [ [ [ [ [ [ [ [ [ [ ` ` ` ` ` ` / / ` ` ^ ^ ^ ^ ^ ^ ^ ^ ^ ^ ` ' [ { @.$.u.u.u.m.B.B.Z.Q.}.{.|.2XeXQ.v v c c v j v v v v v v ` m.Z.Z.A.A.A.A.A.S.S.Z.Z.S.Z.S.A.!.!.!.!.!.`.`.`.`.`.`.`.`.`.`.`._._.].+X@X&X=X;X3X4X9X9X9X9XrXtXyXuXuXuXaXaXdXaXaXdXdXdXdX",
").).~.E.E.R.Z.Z.Z.n.B.Z.B.B.n.n.m.x.$.c ; .                                                                                                       . .   o x.6X2X*X[.].).).).}.W.E.Q.Q.Q.Q.R.T.n.n.n.n.n.B.T.R.Q.Q.Q.E.T.T.R.R.R.R.R.Z.B.n.n.n.n.n.n.n.n.n.m.m.c.c.c.c.c.n.n.m.c.v.v.v.n.n.c.b.n.n.Z.Z.Z.Z.n.B.Z.B.B.Z.Z.R.Z.B.b.m.b.b.n.b.n.Z.Z.T.Q.Z.n.b.b.b.m.n.n.v.v.v.v.v.v.c.c.v.v.v.v.n.n.v.v.v.v.v.v.m.m.c.c.i.i.i.i.i.i.p.p.i.i.i.i.i.i.i.l.c.M.B.R.B.R.E.A.Q.)._._.].+X+X[.[.#X#X*X*X*X;X3X3X;X=X=X=X=X&X&X;X;X=X;X4X9X4X:X;X:X3X:X:X4X4X4X4X:X:X:X:X4X4X4X4X4X>X>X4X4X9X9X9X9X9X9X9X9X9X9XtXtXyXdXdXaXyXtXiXtXyXtXyXyX0X4X9X9X0X0X0XqX4X3X3X;X5X3X#X+XoX+X&X+X[.+X[.[.+X+X].~.~._.[.+X+X$X].'._.].$X^.^.^.C.f.f.r.9.4.z y y y a a a u u u u u u u u y y x z z Q 1.3.7.3.7.t.t.7.7.t.1.z x y y y y y y x z Q 3.a.a.c.i.i.i.i.i.i.i.p.p.p.u.u.u.u.y.@.@.@.@.@.} { { { { { { { [ [ [ [ [ [ [ [ [ [ [ [ [ [ ` ' ` ` ` ' ' ` ^ ^ ^ ^ ^ ^ ^ ^ ^ ^ ^ ` ` [ { @.$.u.u.u.m.n.U.T.E.).{.{.2XeXn.v v c c v j v v v v v v ` v.R.B.A.A.A.A.A.S.S.Z.Z.Z.Z.Z.A.A.!.!.!.!.!.`.`.`._._._._._._.].+X@X&X=X:X3X3X4X0XtXyXpXaXaXaXaXaXdXdXdXdXdXdXdXdXhXhXjXjX",
").).).E.R.R.Z.Z.Z.B.B.Z.T.T.n.n.x.u.` 4 O .                                                                                                         .   o s.6XeX*X{.].'.).).).W.W.W.Q.E.W.Q.T.Z.n.n.n.n.B.T.R.Q.Q.Q.E.E.Q.Q.Q.Q.Q.T.R.Z.n.n.n.n.n.n.n.n.n.M.c.c.c.c.c.c.n.n.v.v.v.n.m.n.b.c.m.m.b.Z.Z.Z.Z.Z.Z.Z.Z.Z.Z.E.Q.Z.B.b.b.b.b.n.b.n.B.Z.Z.Z.b.m.b.b.m.m.n.n.v.v.v.v.v.v.c.c.v.v.v.v.n.n.v.v.v.v.v.v.m.m.c.c.i.i.i.i.i.i.p.p.i.i.i.i.i.i.i.i.l.m.n.Z.b.Z.A.R.R.~.).)._._.].+X+X#X*X=X*X*X;X5X5X=X&X=X=X;X:X3X4X9X4X3X:X=X=X;X:X:X:X:X:X4X4X3X:X;X:X:X:X4X4X4X>X>X>X4X4X9X9X9X9X9X9X9X4X>X4X9XyXtXtXyXuXtXrXtXyXyXyXyXyXtX0X9X9X4X4XqX0X0X0X4X3X=X*X1X1X@X+X+X*X*X+X+X+X[.[.+X[.~.!.~._.].$X].]._._.].].^.^.^.(.f.g.f.r.r.z u y y a a a a a a a a u u u u x z Q 1.3.7.t.a.t.t.t.t.t.7.t.2.z z x y y y y y z Q t.a.a.a.i.i.i.i.u.u.i.i.p.u.u.u.p.u.u.y.@.@.@.@.@.+.{ { { { { [ [ [ [ [ [ [ [ [ [ [ [ [ ` ` ` ` ` ' ` ' ^ ^ ` ^ ^ ^ ^ ^ ^ ^ ^ ^ ^ ^ ` ` [ { @.$.u.u.p.m.B.T.R.W.'.{.{.2X6Xc.v v c v v v v v v v v v ` m.R.B.A.A.A.A.A.S.A.S.S.S.S.Z.A.A.A.!.!.!.!.!.`._.+X+X@X#X#X&X*X=X-X3X3X5X5X5X0XtXyXpXdXdXdXdXhXhXhXhXdXdXdXdXdXdXdXdXjXjX",
").).).E.R.R.Z.Z.Z.Z.Z.Z.T.T.n.m.s.$.J 4 $ .                                                                                                         . . $ J 6XeX2X{.{.'.'.'.).W.W.W.E.Q.Q.Q.R.Z.B.n.B.B.B.T.R.Q.Q.Q.Q.Q.E.E.E.E.Q.Q.Q.R.T.n.n.n.n.n.n.n.n.M.m.m.m.c.c.c.v.v.v.v.n.m.m.m.b.v.n.B.n.Z.Z.Z.R.R.R.Z.Z.A.E.E.Z.Z.B.b.n.n.n.n.b.n.n.B.n.v.v.v.m.m.m.m.v.v.v.v.m.m.c.c.c.c.c.v.v.v.v.v.n.n.n.v.v.m.m.m.c.c.i.i.i.i.i.i.i.i.i.i.i.i.i.i.i.i.l.c.m.B.m.B.Z.Z.R.E.!.).).).].#X*X*X-X1X-X*X;X5X5X;X=X=X:X3X3X4X0X0X0XqX3X=X&X;X;X;X;X;X:X4X3X:X:X:X:X:X3X4X4X4X:X:X>X4X9X9X9X9X9X9X9X9X9X9X9X0XaXtX9X0XtX9X9X9XrXtXtXtXyXtX0X0X9XqX5X5X5X0X0X5X3X=X-X=X=X*X@X+X*X*X*X+X#X[.[.+X+X].).!.).].]._._.].].].].].^.^.D.f.g.r.9.9.z u y y y y a a a a a y y u z z Q 1.7.t.t.t.r.d.r.r.r.r.t.7.6.~ Q z x y y x x x Q 7.a.g.a.a.a.s.s.i.i.i.i.i.u.p.y.y.y.y.u.y.@.@.@.@.@.} { { { [ [ [ [ [ [ [ [ [ [ [ [ [ ` ` ` ` ` ` ` ` ` ` ` ` ^ ^ ^ ^ ^ ^ ^ ^ ^ ^ ^ ^ ` [ { @.$.u.u.i.x.m.T.T.Q.W.'.{.|.2X6Xm.b v v v j j v v g g c g c.v.Z.B.Z.A.A.A.A.A.A.A.E.E.E.!.!.!.!.).`.`.`._.oX@X@X-X=X=X:X-X=X3X3X5X5X5X3X4X0XtXyXaXdXjXdXdXdXdXdXdXhXhXhXhXhXjXkXkXjXjX",
").).).E.E.R.R.R.R.T.Z.B.B.B.n.c.u.^ g & .                                                                                                           . . . v 2XwX2X|.{.{.'.'.).W.).W.E.Q.Q.Q.R.T.T.B.B.B.B.T.R.Q.Q.Q.Q.Q.E.E.E.E.Q.Q.Q.R.Q.T.B.n.n.n.n.n.n.n.n.n.v.v.c.c.c.l.c.c.v.v.m.n.m.m.n.B.b.B.Z.Z.Z.Z.Z.Z.Z.Z.Z.Z.Z.n.b.m.n.n.n.n.b.n.n.n.b.v.v.m.m.m.m.m.v.v.m.m.m.m.c.c.l.c.c.v.v.v.b.v.n.n.n.v.v.m.m.m.c.c.i.i.i.i.i.i.i.i.i.i.i.i.i.i.i.i.c.c.m.B.m.B.Z.Z.Z.Z.E.)._._.].#X*X*X*X*X#X#X&X3X3X;X=X;X:X3X3X3X4XqXqX5X3X=X;X;X;X;X;X:X:X:X:X:X:X:X3X3X4X4X>X>X:X:X:X:X4X9X9X9X9X9X9XrX9X9X0XtXaXyXtX0X9X4X9X9X9X9X0X0X9X0X0X0X9X0X5X3X3X3X3X3X3X=X-X-X=X*X*X#X&X*X*X+X#X[.].[.+X#X+X_.).[.$X_._.].].].OXOX~.^.D.g.r.3.4.4.s a y y y y a a y y y y u z z 4.3.3.t.t.a.a.d.d.a.a.a.a.d.6.6.~ Q z x y y y x Q 6.d.a.v.a.a.a.a.s.i.i.i.i.u.u.p.u.y.y.y.u.y.@.@.@.@.@.} { { { [ [ [ [ [ [ [ [ [ [ [ ` ` ` ` ` ` ` ` ` ` ' ^ ^ ^ ^ ^ ^ ^ ^ ^ ^ ^ ^ ^ ^ ` ` ' { +.$.u.u.i.x.m.T.Q.Q.W.'.{.'.2X2X} b j v v j j g g g c c P i.c.Z.Z.Z.A.A.A.A.E.E.!.!.).`._.].[.+X+X@X@X&X&X*X-X*X=X=X=X-X-X=X:X3X3X3X3X3X5X4X0XrXyXaXaXdXdXdXdXdXdXdXdXhXhXhXjXkXkXkXkX",
").).).~.E.E.E.R.R.R.Z.Z.T.n.M.l.` j & . .                                                                                                           . . . 5 '.wX2X2X|.{.'.'.).).~.W.W.Q.Q.Q.Q.T.T.B.B.B.T.T.R.Q.E.E.E.E.E.E.E.E.Q.Q.Q.Q.W.W.Q.T.T.T.T.B.n.n.n.n.n.n.m.c.l.i.i.l.c.v.m.n.m.b.b.n.b.b.Z.Z.Z.Z.Z.Z.Z.Z.Z.Z.Z.b.b.m.m.n.b.b.b.b.n.m.m.v.v.b.m.b.m.b.v.v.v.m.m.m.m.c.c.c.m.v.v.v.v.v.n.n.n.v.v.v.v.c.c.l.i.i.i.i.i.i.i.i.i.i.i.i.i.i.l.l.c.c.m.B.m.B.Z.Z.Z.R.E.!._._.].+X#X+X+X+X[.].+X*X;X=X;X;X=X=X=X;X3X3X3X;X;X:X;X;X;X:X:X:X:X;X&X;X3X4X4X3X:X3X:X:X4X9X4X4X9X9X9XrXrXtXtXtXtXtXtXtXdXyXyXtXrX9XtX9X9X9X9X9X9X9X9X9X9X0X5X3X;X3X1X3X3X=X=X*X=X=X=X#X#X*X*X+X#X+X].[.[.#X*X[._.].]._._.].].'.].].~.^.C.g.r.4.z z u a y a y y y y a y y y u z 4.3.t.t.a.a.a.a.a.a.a.a.a.a.d.6.6.~ Q f x y y x m 7.d.i.s.m.a.a.a.a.s.s.i.i.u.i.i.u.u.u.y.y.u.u.$.@.@.@.@.@.@.{ { { [ [ [ [ [ [ [ [ [ [ ` ` ` ` ` ` ` ` ` ` ' ^ ' ^ ` ^ ` ^ ^ ^ ` ` ^ ^ ^ ` ' [ { @.$.u.i.s.c.n.T.Q.W.).'.{.{.2X2X! b g v g j j g g v v g s.y.i.Z.Z.Z.Z.A.E.E.!.).).`.`.+X+X+X#X*X*X*X-X-X=X=X-X-X-X=X=X=X=X=X=X3X3X3X3X3X4X4X4X0XtXyXaXuXuXuXaXaXdXdXdXdXhXjXjXkXkXkXkX",
").).).~.W.W.E.E.R.R.R.R.T.n.x.y.6 * .                                                                                                               . .   ; Q.wXqX2X*X{.{.'.'.).).W.W.Q.W.Q.Q.R.T.T.T.T.T.T.R.Q.E.E.E.E.E.E.E.E.E.Q.Q.W.W.W.W.Q.T.T.T.T.T.B.B.B.T.n.v.m.m.v.v.c.c.v.m.n.m.b.B.B.b.b.b.b.n.B.Z.Z.Z.Z.Z.Z.B.b.b.m.m.n.n.b.n.b.m.m.m.m.b.b.n.b.m.b.v.v.v.v.m.m.c.c.c.c.m.v.v.v.v.v.m.n.n.v.v.v.v.c.c.l.i.i.i.i.i.i.i.i.i.i.i.i.i.l.l.l.c.c.m.n.m.B.T.Z.Z.R.E.E.~._._.].[.].].[._.).`.+X&X=X;X=X&X&X&X&X;X;X=X:X3X:X&X=X;X:X3X:X=X&X&X;X4X4X4X3X3X3X:X:X9X9XrXtXtXrXrXrXrXtXyXyXyXyXtXyXdXyXyXtXrX9XrXrXrX9X9X9X9X9X9X9X9X9X5X3X;X=X=X3X5X3X;X*X*X=X1X*X#X&X#X+X#X[.[.[.[.[.+X[._._.].~.~.].]._.].].~.^.C.g.f.4.z u u y a a y y y y a y y y z z 4.t.f.a.a.a.a.a.a.s.a.a.a.a.d.6.6.~ Q z x y y M 7.0.d.i.c.c.c.c.a.a.s.s.i.i.i.i.i.u.u.u.y.y.u.u.$.@.@.@.@.@.@.{ { { [ [ [ [ [ [ [ [ [ [ ` ` ` ` ` ` ` ` ` ' ' ^ ' ' ^ ^ ` ` ^ ^ ` ` ^ ^ ` ' [ { +.$.y.u.i.x.c.n.R.W.W.).'.{.2X6X|.! b g v g j j j g j 6 x.@.} p.n.Z.Z.A.A.E.!.!.).`.].[.@X@X#X#X*X@X@X@X&X&X&X&X-X-X=X=X=X=X=X=X3X3X3X5X5X4X4X4X9X0XtXyXyXyXyXyXuXuXaXdXdXhXhXjXjXkXkXkX",
").).).~.E.E.E.E.E.Z.Z.B.B.m.x.c & .                                                                                                                       & /.wXeX2X2X{.{.'.'.'.'.).W.W.W.Q.Q.Q.R.Q.Q.Q.Q.Q.Q.Q.E.E.E.E.W.W.W.W.W.W.W.W.~.W.W.Q.R.R.R.R.R.Z.Z.n.B.B.n.n.n.n.m.c.c.v.m.m.m.m.Z.Z.n.n.n.n.n.n.B.Z.Z.Z.Z.n.n.b.m.m.b.b.m.b.b.b.m.m.m.b.b.b.b.b.b.m.m.v.v.v.v.v.v.c.c.c.v.v.v.v.v.v.v.v.v.v.v.c.m.c.c.l.l.i.i.i.i.i.i.i.i.i.i.i.i.i.i.l.l.v.v.n.n.B.Z.T.R.E.E.E.E.)._.]._._.].]._.~.)._.@X*X=X*X*X*X*X=X=X=X=X3X3X=X&X&X;X:X:X=X&X&X=X3X3X3X3X3X3X3X:X4X9XtXtXyXyXyXrX9X9XrXyXiXiXyXtXyXyXyXtX0X9X9X4X4X9X9X9X9X9X9X0X0X4X4X4X;X=X=X=X=X3X3X3X=X-X=X1X*X#X#X#X+X#X+X[.+X[._._.[.)._.~.~.~._._.~.E.(.$X^.C.r.7.9.z x u a a y y y a a y a y y u 4.9.r.a.a.a.B.b.v.c.a.y.a.a.a.d.6.6.( z z y y z 1.t.a.i.i.c.c.c.c.s.s.a.s.i.i.i.i.i.u.p.u.y.u.u.y.$.@.@.@.@.@.{ { { { { [ [ [ [ ' ` ` ` ` ` ` ` ` ` ` ^ ' ' ' ^ ^ ^ / ^ ' ' ' ^ ^ ^ ^ ^ ` ` [ { { @.y.u.u.i.c.n.T.Q.W.).).'.{.2X2XQ.W c c c c c v v v d U.DX! | y.m.R.A.E.E.E.E.!.).].+X+X+X+X@X@X@X@X@X@X@X@X@X@X*X*X*X*X-X-X=X=X:X:X3X3X4X4X4X4X9XrXtXtXtXtXtXyXuXuXaXaXaXdXdXdXdXjXfXpX",
").).).~.E.!.E.E.R.Z.Z.n.c.x.+.4 .                                                                                                                       . < {.mXqX2X2X|.{.'.'.'.'.'.}.W.W.W.W.E.W.W.W.W.W.W.W.W.~.W.).).).).).).).).).).).).W.E.Q.R.R.R.R.T.Z.n.B.B.B.B.n.B.n.v.c.v.m.v.v.m.n.Z.Z.n.n.n.n.n.B.Z.Z.Z.Z.n.b.b.m.m.b.m.b.b.b.b.m.b.m.b.b.b.b.b.b.m.m.v.v.v.v.v.v.c.c.c.v.v.v.v.v.v.v.v.v.v.v.c.m.c.c.l.l.i.i.i.i.i.i.i.i.i.i.i.i.i.i.l.c.v.n.n.B.T.Z.R.R.W.~.E.E.).)._._._._.[.[._.`._.+X*X*X*X*X*X=X;X:X:X-X3X:X-X=X=X=X=X;X=X&X:X3X9X3X3X3X3X3X3X4X4X9XtXtXyXyXyXtX9XrXrXrXrXrXrXrXrX9X9X9X9X4X9X4X4X4X4X4X4X9X9X0X0X4X4X4X;X;X:X=X&X=X3X5X3X=X=X-X1X*X#X#X+X#X+X[.+X[._._.].!.)._._._._.~.~.E.(.R.V.V.9.3.3.M z u y a y y y a a a u u u z 4.r.f.a.a.b.B.B.n.v.a.i.c.v.a.a.d.7.2.z z z z z 3.d.i.u.x.c.c.c.c.s.s.a.a.i.i.i.i.i.u.p.u.u.y.u.y.@.@.@.@.@.@.{ { { { { { [ [ [ ' ` ` ` ` ` ` ` ` ` ` ' ' ' ' ^ ^ / / ^ ` ' ' ^ ^ ^ ^ ` ` [ [ { { @.y.p.i.i.m.T.W.W.W.).).'.{.2X2Xc.[ b b K J K J J J P LXeX` [ y.v.T.R.E.E.E.E.!.).].[.+X+X+X+X+X+X+X+X+X+X+X+X@X@X&X&X&X&X&X&X=X:X=X;X3X4X4X4X4X9X0XrXtXtXtXtXyXyXuXuXuXaXaXaXaXaXaXtX:X",
").).).~.!.E.E.R.R.Z.Z.n.x.u.c $                                                                                                                         $ 1 6XmXqX2X2X{.{.{.[.'.'.'.'.}.}.W.W.W.W.W.W.W.~.~.).).).).).).).).).).).).).).).).).W.Q.Q.Q.Q.R.T.Z.Z.T.T.T.T.B.T.Z.m.v.v.m.v.v.v.m.b.B.Z.n.n.n.n.B.Z.Z.Z.Z.n.b.b.m.m.v.v.m.m.v.b.b.B.B.B.b.b.n.n.n.m.n.n.v.v.v.v.v.c.c.c.v.v.v.v.v.v.v.v.v.v.v.c.c.c.l.l.l.l.l.l.i.i.i.i.i.i.i.i.l.l.i.l.c.m.n.B.T.T.R.R.E.~.).E.E.).)._._.)._.[.+X[.[._.+X@X*X*X*X=X;X;X:X:X-X-X-X-X:X;X=X&X;X=X;X3X9X4X3X3X3X5X5X4X4X4X9X9XtXtXtXtX9X9XrXrXrXrXrXrXrX9X9X9X9X9X9X9X4X9X9X9X9X9X9X9X4X4X0X4X4X3X;X;X;X=X=X=X1X=X-X*X*X-X*X#X+X+X+X+X[.+X[._._.+X)._.].].].]._.~.^.R.^.(.^.g.f.4.4.x u y a y y y a a a u s z 4.9.r.f.a.v.B.B.B.B.B.v.n.B.b.a.a.t.2.Q z z x 4.3.t.d.i.i.c.c.c.c.c.s.s.s.a.i.i.i.i.i.u.p.p.u.u.u.$.@.@.@.@.@.} { { { { { [ [ [ [ ' ` ` ` ` ` ` ` ` ` ` ^ ^ ' ' ^ ^ / / ^ ^ ` ` ^ ^ ` ` ` ` [ [ { { @.y.u.i.c.m.W.Q.W.'.).).'.{.*X{./ ! K K K J K J J J Q.DX{.! / } c.n.R.E.E.E.E.!.)._.].].].]._._._._._._.].].].oX+X@X@X@X+X@X@X&X=X;X;X;X3X4X4X5X4X0X0XtXtXtXtXyXyXyXyXuXuXuXpXpXpXyX4X@X",
").).).~.!.E.E.R.R.B.T.U.m.^ & .                                                                                                                         . ; 6XwXwX5X2X2X{.{.[.'.'.'.'.).).}.}.}.~.}.}.}.).).).).).).).).).).).).'.'.'.'.'.'.).W.W.W.W.Q.R.Z.Z.Z.T.T.T.T.T.R.Z.n.v.v.v.v.v.c.c.c.b.Z.Z.B.n.n.n.Z.Z.Z.B.n.b.b.b.b.v.v.m.v.v.b.n.Z.Z.B.b.b.m.n.n.m.n.n.v.v.v.v.v.c.c.c.v.v.v.v.v.v.v.v.v.v.v.c.c.c.l.l.l.l.l.l.i.i.i.i.i.i.i.i.i.l.l.l.c.m.B.Z.T.R.R.E.W.).).~.E.~.)._._.)._.[.#X#X@X@X+X@X*X*X=X=X:X:X:X:X-X&X&X=X;X=X=X=X:X;X:X3X3X:X3X3X5X3X3X9X9X9X4X4X4X9X4X4X9X9XrXrXrXrXrXrXtXrX9XtXyXtX9X4X4X9X9X4X9X9X9X4X4X4X4X4X4X3X;X;X;X&X*X@X#X*X@X@X*X*X*X#X#X+X+X+X[.[.]._.+X*X[.[.+X+X+X+X_.~.^.R.^.^..XC.r.4.4.z u u a y y y a y u s z 4.r.r.f.g.a.B.B.n.B.B.B.B.T.R.B.a.r.7.Q z x y x 3.t.r.a.i.c.c.c.c.c.c.s.s.s.s.i.i.i.i.i.u.p.p.p.u.y.@.@.@.@.@.+.} { { { { { [ [ [ [ ' ` ` ` ` ` ` ` ` ` ` ^ ^ ^ ^ ^ ^ ^ / ^ ^ ^ ^ ^ ^ ` ` ` ` [ [ { { $.y.i.x.c.T.W.Q.W.'.'.).'.{.{.{.! W c c c c c v v v mXGXnXK ! } i.m.R.E.E.E.E.!.)._._._._._._._._._._._._._._._.oX+X+X+X+X+X@X&X*X=X;X;X;X3X5X4X4X4X9X0XtXtXtXtXyXyXyXyXyXyXyXyXyXyX9X;X",
").).~.E.E.E.R.R.T.n.T.m.%.6 o $                                                                                                                           < U.wXwX6X2X2X{.{.[.'.'.'.).).).).'.).}.).}.}.).).).).).).).)._._._._.).).).).'.'.).).).~.W.Q.T.Z.Z.Z.T.Z.Z.Z.Z.Z.Z.n.m.m.m.v.v.v.c.c.m.B.Z.n.b.n.n.Z.Z.Z.Z.Z.Z.Z.Z.b.m.m.b.b.n.n.n.Z.Z.Z.b.b.n.n.n.n.n.n.n.v.v.v.v.v.v.v.v.v.b.b.v.v.v.v.v.v.v.c.c.c.c.l.l.l.i.i.i.i.i.l.i.i.i.i.i.l.c.c.v.v.n.B.B.B.T.R.E.~.).~.E.~.).].].).).[.+X#X#X#X#X*X-X=X3X3X3X3X3X3X-X-X-X-X=X=X=X:X:X:X3X3X;X=X:X3X9X3X3XqX9X9X4X4X4X4X:X>X9X9XtXtXrX9XrXrXtXtXrXtXyXtX9X4X9X9X9X9X0X0X0X3X3X3X5X4X4X3X:X:X=X&X@XoX+X@X@X@X*X*X*X#X#X+X+X[.[.]._.].+X*X#X+X+X+X+X].'.].$XOX^.^.C.r.7.4.4.4.s u a y a y y y y z z 4.9.r.a.a.a.B.B.B.B.B.B.B.T.R.B.a.3.Q z x x x z 2.t.d.i.s.c.x.c.c.c.c.c.c.s.s.i.i.i.i.i.p.p.p.p.u.y.@.@.@.@.@.@.} { { { { [ [ [ [ ' ' ` ` ` ` ` ' ^ ^ ' ' ^ ^ ' ' ^ ^ ^ ^ ^ ^ ^ ^ ^ ^ ` ` [ [ [ [ { $.y.u.i.s.m.T.Q.W.~.'.'.).'.{.{.}.K j j j j j v v 4 6XnXnXHX| b b ` l.T.E.Q.Q.E.E.~.).).).).).`.`.`._.`._._._._._._.oXoX+X+X+X@X@X&X&X;X;X;X;X3X4X4X4X9X9X0X0X0XtXtXtXyXyXyXyXyXyXyXyX0X9X",
").~.W.E.E.R.R.R.B.m.T.m.^ 1 o .                                                                                                                           + s.wXeX5X2X2X|.{.[.'.'.'.).).).).).).).).).).).).).).).).).).].].].].].].].'.'.'.).).).).W.Q.R.Z.Z.Z.Z.Z.n.n.B.Z.Z.b.m.m.m.v.v.v.v.v.m.B.Z.n.b.n.n.Z.Z.Z.Z.Z.Z.B.B.B.Z.Z.R.R.Z.B.Z.Z.Z.Z.B.B.Z.B.n.n.n.n.n.n.n.v.v.v.v.v.v.v.b.b.v.v.b.v.v.v.v.c.c.c.c.l.l.l.i.i.i.i.l.l.i.i.l.l.v.v.v.c.v.v.n.n.n.n.B.Z.R.R.~.~.~.~.'.#X[.]._.].[.[.+X@X*X=X3X5X5X5X*X*X-X=X=X=X-X-X:X:X:X:X:X:X:X:X;X;X:X3X5X3X3X4X4X3X4X4X4X4X9X9X9X9XrXrXrXrXrXtXrXrX9X9X9X4X9X9X9X4X9X9X4X0X4X4X3X;X0X4X3X3X:X;X=X*X@XoX+X@X*X*X*X*X*X#X#X+X+X].].+X+X].].+X#X+X+X+X].'._.'.]._.^.D.V.9.3.4.4.4.s u a y a y y y u z z Q 3.t.r.a.a.a.v.b.v.b.v.n.n.n.a.d.2.z x y x z Q 6.d.i.a.c.c.c.c.c.c.c.c.c.s.s.i.i.i.i.p.p.u.u.u.u.y.@.@.@.@.@.@.} { { { [ [ [ [ [ ' ' ` ` ` ` ` ` ^ ^ ' ' ^ ^ ' ' ^ ^ / / ^ ^ ^ ^ ^ ' ` ' ` [ [ [ { y.u.u.s.m.U.T.Q.(.).).).).'.{.|.Q.P b j j j j g d { LX6X|.DXQ.b b ! c.Z.R.R.R.R.E.E.!.~.).).).).).^.^.`.`.`._._._._._._.].oX+X+X@X@X&X&X;X;X;X:X3X4X4X4X4X9X9X9X0X0X0XtXtXtXyXyXyXyXtXtX0X",
"~.E.E.E.R.R.T.B.v.m.I.$.j o $                                                                                                                             o s.wX6X2X2X2X{.{.{.'.'.'.'.'.).).).'.).).).).'.'.).).).'.].].[.[.[.[.[.[.[.[.].).'.).).).~.E.E.R.R.Z.Z.n.n.m.v.b.b.m.m.m.m.v.m.v.v.v.m.B.Z.B.B.n.n.n.B.Z.Z.Z.B.b.B.Z.Z.Q.E.E.Z.Z.Z.Z.Z.Z.Z.Z.Z.Z.Z.n.n.n.n.n.b.b.v.c.c.c.c.c.v.v.v.v.b.v.b.v.v.c.c.c.c.c.c.c.l.l.l.l.l.l.i.i.l.v.m.m.v.c.v.m.n.n.n.B.B.B.B.Z.E.).).~._.{.+X+X+X].]._.`.[.*X-X3X5X3X3X=X*X-X=X=X-X-X;X:X:X:X:X:X:X:X:X:X:X:X:X3X3X3X3X9X9X9X9X9X9X9X9XrXrXrX9XrXrXrXrXrXrX9X9X4X3X4X4X4X4X9X9X9X4X4X9X4X;X4X4X4X3X:X;X=X&X*X&X&X@X+X+X#X*X*X#X#X+X+X[.#X1X1X#X[.[.*X#X+X+X].~.~.~.^.^.A.D.f.3.1.4.4.4.z u a y y y y y s z z 1.7.t.a.a.a.v.B.B.B.B.B.B.v.b.a.t.Q x x y z Q 7.t.i.s.c.c.c.c.c.c.c.c.c.c.c.s.i.i.u.u.p.u.u.p.y.u.y.$.@.@.@.@.@.{ { { [ [ [ [ [ [ ' ' ` ` ` ` ` ` ^ ^ ' ' ^ ^ ^ ' ^ ^ ^ ^ ^ ^ ^ ^ ' ` ' ' [ [ ` ` $.y.u.s.c.m.T.Q.Q.W.'.).).).'.{.|.I.P J j v v v d ` DXGX{.Q.6XmX! b b p.n.Z.Z.Z.A.E.E.E.!.~.).).).).).^.).).`.`.`._._._._._.].oXoX+X@X@X@X&X;X;X;X;X3X4X4X4X3X3X4X9X9X0XtXtXtXtXtXtXtXtXtXtX",
"~.E.E.E.Z.Z.B.B.n.c.s.P < $ .                                                                                                                             2 I.eX6X2X2X2X{.{.{.[.'.'.'.'.).).).).).).).).'.'.).).).'.].].[.[.#X#X{.{.{.{.[.].].].).).~.E.Q.Q.E.R.n.m.m.c.l.l.v.v.v.v.m.v.m.v.v.v.m.n.B.B.B.n.m.n.n.Z.Z.Z.Z.Z.Z.Z.Z.Z.E.R.Z.Z.Z.Z.Z.Z.R.R.R.Z.Z.n.n.n.n.n.n.b.v.v.c.c.c.c.v.v.v.v.v.v.v.v.v.c.c.c.c.c.c.c.l.l.l.l.i.i.i.i.i.l.v.v.v.c.v.m.n.n.n.n.B.B.B.B.Z.~.).~.).].[.[.[.[._.).!.`.+X-X*X*X*X-X=X3X:X:X:X-X-X-X;X=X;X;X;X=X;X:X3X3X:X:X3X5X3X:X3X4X4X4X4X9X9XtXtXrX9X9X9XrXtXtXtXrX9X9X0X9X4X3X4X4X9X9X4X:X3XtX0X3X4X4X4X3X:X=X=X=X-X-X-X@X+X+X@X*X#X+X+X+X+X[.[.[.[.+X+X[.#X#X+X]._.~.~.~.!.!.V.V.r.1.z 4.4.4.z a y y y y y y u y z 3.r.f.g.V.V.(.R.R.B.T.(.T.v.B.a.t.z x z z z 3.t.a.c.c.c.c.c.c.c.c.c.c.c.c.c.s.i.i.u.u.u.u.p.y.y.y.$.@.@.@.@.@.@.{ { [ [ [ [ ` [ [ ' ` ` ` ` ` ` ` ^ ^ ' ' ^ ^ ' ' ^ ^ ^ ^ ^ ^ ^ ' ` ' ' ' [ [ ` [ $.u.u.x.m.T.Q.Q.(.W.~.).).).'.{.2Xc.! K j v v v ! GXGXwX{.T.u.nX{ b v ` n.n.n.Z.Z.E.E.E.E.E.~.~.~.~.~.~.).).`.).`.`.`._._._._._.oXoX+X@X@X@X&X;X;X;X:X3X3X3X3X3X4X4X4X9X9X9X0XtXtXtXtXtXtXtX",
"~.~.E.E.B.B.B.T.U.s.[ 4 $                                                                                                                               . o I.eX2X2X2X2X{.{.[.{.'.'.'.'.).).'.'.'.'.'.'.].].].]._.].[.[.[.+X*X*X*X[.[.[.[.[.].].].).~.E.E.E.Q.R.n.c.n.v.l.l.m.m.v.v.v.m.m.m.v.v.m.n.B.Z.B.n.m.b.n.n.Z.Z.Z.Z.Z.Z.Z.Z.Z.Z.Z.Z.Z.Z.Z.Z.R.Z.T.Z.n.n.n.n.b.n.n.n.m.v.v.c.c.v.v.v.v.v.v.v.n.v.v.v.c.c.c.v.m.m.c.c.c.l.i.i.i.i.i.i.c.v.v.v.v.m.m.n.n.n.B.Z.Z.B.B.E.~.!.!.)._.].[.[.[.[.[._.].]._._.@X*X-X:X:X-X=X=X-X=X=X=X=X;X;X=X=X:X3X3X3X3X5X4X3X=X;X:X4X4X4X3X9XtXtX0X9X9X9X9XtXtXtX9X9X9X9X9X4X4X>X4X4X9X4X;X:X4X5X3X3X3X3X3X:X=X=X=X=X-X=X-X*X+X@X*X*X+X+X+X[.[._._._.+X+X_.[.[.]._.~.~.E.R.Z.S.V.f.r.r.Q z z u y y y y y y y y y y x 3.r.g.g.B.(.R.(.(.B.(.(.B.v.a.a.r.z x z z Q 7.t.a.v.m.c.m.c.c.m.m.m.m.c.c.s.i.i.i.p.y.y.y.y.y.y.y.$.$.@.@.@.@.{ { { [ [ [ ` ` [ ` ` ` ` ` ` ` ` ` / / ` ` ^ ^ ` ` ^ ^ ^ ^ ^ ^ ^ ^ ^ ` [ [ [ [ [ { y.p.i.m.m.T.W.W.W.W.W.W.).).).{.W.` c c g g 6 c nXHXVXwX}.m.$.'.T.c : b n.n.n.E.Z.A.A.A.A.R.E.!.~.~.~.~.!.~.).).).).).`.`._.`._._.oXoX+X@X@X@X&X&X;X;X:X:X3X3X3X3X3X3X3X4X9X9X9X9X9XtXtXtXtX",
").~.!.E.Z.B.B.B.m.+.6 *                                                                                                                                 . % s.wX5X2X2X2X|.{.[.'.'.'.'.'.).).'.'.'.'.'.'.].].].]._.].[.[.[.+X*X*X*X[.{.[.[.{.{.{.].).~.E.E.E.E.Z.n.v.B.m.v.c.Z.n.b.v.v.v.m.m.v.v.m.b.B.B.n.m.m.b.n.n.B.B.B.Z.Z.Z.Z.Z.Z.Z.Z.Z.Z.Z.Z.Z.Z.Z.Z.Z.n.n.n.n.b.b.n.n.b.m.v.v.v.v.b.b.v.v.n.n.n.n.v.v.c.c.c.c.c.c.c.c.c.i.i.i.i.i.i.i.c.c.c.v.v.v.m.n.n.n.B.Z.Z.B.Z.R.E.!.!.).)._.[.+X*X1X*X+X].`._.+X#X-X=X=X=X=X-X*X*X*X=X;X;X=X=X;X;X:X:X:X:X3X5X3X:X=X&X=X:X3X4X3X4X9X9X9X4X4X4X9XrXtXrX9X9X9X9X9X4X4X4X4X4X9X4X;X;X:X3X;X;X;X;X3X3X:X;X;X:X-X3X3X1X*X#X=X-X+X[.+X+X[._._.].+X].~.).~._._.~.~.~.~.E.R.V.g.a.r.9.4.z y y y y y y y y y y y x 1.r.g.g.V.V.(.R.R.(.(.B.a.a.d.a.a.z x z S 2.t.a.a.v.m.m.m.m.m.m.m.m.c.c.c.i.i.i.i.y.y.y.y.y.y.y.y.$.@.@.{ { { { { [ [ [ [ [ [ [ ` ` ` ` ` ` ` ` ` / / ` ` ^ ^ ` ` ^ ^ ^ ^ ^ ^ ^ ^ ^ ` [ [ [ [ { y.p.i.m.m.n.T.W.W.W.W.W.W.~.).).'.c.L v g 6 6 d |.LXGXwXwX{.x.$.@.{.K : d u.n.n.m.Z.Z.Z.Z.Z.R.R.E.E.E.E.E.E.!.!.~.).).).).).`.`.`._._.].oX+X@X@X&X&X&X=X=X;X:X:X:X3X3X3X3X4X4X4X4X9X9X0XtXtXtX",
").~.W.W.R.Z.n.n.s.J & $                                                                                                                                 . $ I.eX2X*X{.{.{.{.[.'.'.'.'.'.'.'.'.'.'.'.'.'.].].[.].].[.[.+X+X+X*X*X*X*X+X[.[.[.[.[.].).).E.Q.E.Z.Z.Z.b.Z.b.v.c.Z.n.b.v.v.v.m.v.v.v.m.n.n.n.m.v.b.n.n.n.n.n.n.Z.Z.Z.Z.Z.Z.Z.Z.Z.Z.Z.Z.Z.Z.Z.R.Z.Z.Z.B.b.b.b.b.b.b.b.m.b.m.m.n.n.m.m.b.n.b.b.v.v.v.v.v.v.v.v.v.m.c.i.i.i.i.i.i.i.l.c.c.m.v.v.m.n.n.Z.Z.R.R.Z.Z.A.E.!.E.~.)._.+X#X-X1X-X*X+X[.+X@X-X=X-X*X&X&X&X&X&X&X&X3X3X&X=X;X;X:X:X:X:X:X3X:X;X=X&X=X:X4X9X4X3X4X4X4X4X4X>X4X9X9X9X9X9X9X9X9X4X9X9X9X9X9X4X;X=X:X:X&X&X&X&X;X3X3X3X3X3X3X3X=X1X*X@X#X-X*X+X+X+X[._._.].+X].~.!.E._._.~.~.$X]._.^.A.V.f.f.g.1.z y y y y y y y y y u u x 3.t.g.a.g.V.T.(.R.(.B.a.a.a.d.a.a.z x z 4.t.a.a.v.v.m.m.m.m.m.m.m.i.i.s.i.i.i.i.p.p.p.u.y.y.y.$.$.$.$.{ { { { { [ [ [ [ [ [ [ [ ` [ ` ` ` / ` ` ` ` / ` ` ^ ^ ` ` ^ ^ ] ^ ^ ^ ^ ^ ^ ' ` ` [ [ @.u.i.c.m.n.n.T.W.W.W.W.W.E.E.E.}.}.` v g 6 6 4 U.HXHXVXnXwX{.Q.{ $.{ u.4 6 { u.m.n.B.Z.Z.B.B.T.R.E.E.E.E.R.E.E.!.!.!.!.).).).).`.`._._._.].+X+X@X@X@X&X*X&X&X=X;X:X:X:X3X3X4X3X4X4X4X4X9X9X9X9X",
"~.~.W.W.Q.T.n.m.{ 4 + .                                                                                                                                 . o x.eX6X2X*X*X{.{.[.'.'.'.'.'.'.'.'.'.'.'.'.'.].].[.].].[.[.+X+X+X#X*X*X*X+X[.[.[.[.[.].).).E.Q.R.Z.Z.Z.b.Z.b.v.l.n.m.v.v.v.v.v.v.v.v.v.b.n.b.m.b.B.B.n.n.n.n.b.b.Z.B.B.B.Z.B.Z.Z.Z.Z.Z.Z.Z.Z.R.T.Z.B.B.b.b.b.b.b.n.b.b.b.b.b.B.n.n.b.n.n.b.b.v.v.v.v.v.v.v.v.v.v.c.i.i.i.i.i.i.i.i.c.l.c.m.v.m.n.n.Z.Z.E.E.R.A.A.E.E.E.E.~.).+X#X#X*X*X*X*X#X@X*X*X-X*X&X&X&X&X&X&X&X&X5X3X&X&X=X;X:X:X;X;X=X&X&X=X;X:X:X4X9X9X4X4X4X:X:X4X9X:X:X4X4X4X4X9X9X9X9X9X9X9X9X9X9X4X:X;X:X:X&X&X&X&X=X:X3X4X3X3X3X=X@X@X@X[.[.#X#X+X[.[.]._._._.+X+X].~.!.~._.~.~.#X#X].OX(.V.g.f.f.4.z y y y u y y y y y y y z 9.9.a.a.B.V.B.(.(.B.a.v.B.a.a.a.t.Q x z 7.a.V.V.B.v.m.m.m.m.m.n.m.i.i.i.i.i.i.i.p.p.p.u.y.y.y.y.y.$.@.{ { { { [ ` [ [ [ [ [ [ [ ` [ ` ` ` / / ` ` / / ` ` ^ ^ ` ` ^ ^ ] ] ^ ^ ^ ^ / [ ` ` [ { $.s.i.c.m.n.n.T.R.W.W.W.E.E.E.E.W.}.b d d g 4 n.HXLXVXnXwXeX2XU.! K P { c 4 b $.m.n.n.n.n.n.n.B.R.R.R.R.R.R.R.E.E.!.!.!.!.).).).).).`.`._.].oXoX+X@X@X@X@X&X&X&X=X=X;X:X:X:X:X:X3X3X4X4X4X4X4X4X",
"~.W.E.Q.T.B.n.i.j & . .                                                                                                                                   o ^ 6XeX2X2X{.{.{.{.'.'.'.'.'.'.'.'.'.].'.[.[.].].[.[.].[.[.+X+X#X*X*X*X*X*X+X[.[.[.[.].).).E.E.Q.R.Z.Z.Z.Z.B.m.v.m.m.m.m.m.v.v.v.v.v.m.m.m.m.b.n.B.B.B.m.n.b.b.n.Z.Z.Z.Z.Z.Z.Z.Z.Z.Z.R.Z.Z.R.R.Z.Z.b.Z.n.b.b.b.B.Z.B.Z.B.Z.Z.B.n.n.n.n.n.n.b.n.b.v.v.v.v.v.v.v.v.c.a.i.i.i.i.i.i.l.c.l.c.m.v.m.n.B.Z.Z.R.E.E.E.E.E.E.E.E.E.!._.[.+X+X#X#X*X*X*X*X&X&X&X&X&X&X&X&X*X-X;X3X3X&X&X&X=X&X=X&X;X=X=X=X:X3X3X4X4X9X9X4X4X4X3X4X9X9X4X;X4X4X4X9X9X9X9XtXrX9X9X9X9X9X9X:X:X:X:X:X&X&X&X&X;X3X5X3X:X:X=X*X@X@X+X+X@X#X+X[.[.[.]._._.[.+X[._.!.~.~.~.~.].#X!.~.^.C.g.f.r.4.z u y y u u y y y y y y z 9.7.r.g.B.a.V.B.B.V.V.V.(.V.a.r.7.2.k Q r.a.V.B.n.v.n.n.n.n.n.n.n.m.c.i.i.i.i.i.i.p.u.u.u.p.u.y.y.$.$.@.{ { { { [ [ [ [ [ [ [ [ [ [ ` ` ` ` ` ` ` ^ ^ ^ ^ ^ ^ ^ ^ ^ ^ ^ ^ ^ ^ ^ ` ` [ [ [ { @.u.x.c.m.m.m.B.Q.R.R.Q.Q.E.E.).W.}.u.v g g 6 u.LXDXGXGXm.: b u.}.+.j ^ 6 ^ K 6 P s.I.m.m.n.n.n.B.T.R.R.R.R.R.R.R.E.E.E.E.E.!.!.).).).`.`.`._._.+X+X+X+X+X@X@X@X&X*X-X-X=X-X:X:X:X:X:X3X3X4X4X4X4X",
"W.E.Q.Q.R.n.i.^ & $ .                                                                                                                                     $ ^ eXeX2X2X{.{.{.{.'.'.'.'.'.'.'.'.'.].'.[.[.].].[.].].[.+X+X#X#X*X*X*X*X+X+X*X*X*X[.].].).).W.E.E.E.Z.Z.Z.B.b.b.m.m.m.m.m.m.v.v.v.v.v.v.m.v.b.n.B.B.n.m.n.b.b.b.B.Z.Z.Z.E.E.Z.Z.Z.Z.R.Z.Z.R.R.R.Z.Z.Z.Z.Z.n.B.Z.Z.Z.Z.Z.Z.Z.B.B.n.n.n.n.n.n.n.b.v.v.v.v.v.v.v.v.c.a.i.i.i.i.i.i.l.c.l.l.c.c.v.n.Z.Z.R.Z.R.E.E.E.E.E.A.A.A.E.~._.].[.+X+X#X#X@X@X@X@X&X-X&X@X&X*X*X-X;X3X:X&X*X&X&X&X@X&X3X5X4X3X3X;X:X3X4X4X4X4X4X4X4X4X9X9X9X:X9X4X>X9X9X9X9XrXrX9X9X9X9X9X9X:X;X:X:X4X;X:X;X=X;X3X3X=X=X3X3X=X=X=X-X-X-X-X*X+X[.+X*X*X[._.].]._.~.~._.~.~.~.~.R.R.C.C.C.g.r.4.z u y y u y y y y u z z z 4.7.f.V.V.a.a.V.V.V.V.B.V.V.a.d.t.~ m 2.g.g.B.B.B.v.n.n.n.n.n.n.n.m.c.i.i.i.i.i.i.p.y.u.u.p.u.y.$.$.$.@.{ { { { [ { [ [ [ [ [ [ [ [ ` ` ` ` ` ` ` ^ ^ ^ ^ ^ ^ ] ] ^ ^ ^ ^ ^ ^ ^ ` [ [ [ { +.u.i.x.c.m.n.n.T.T.Q.Q.Q.Q.Q.Q.}.).U.` c 6 g x.HXHXDXGXwXg ^ ^ 6 $.u.P c 6 g j g 5 [ s.m.m.m.m.m.n.B.R.T.T.T.T.Z.Z.R.E.E.E.E.E.E.!.!.).).).`.`.`._.[.+X+X+X+X+X@X@X@X&X&X*X=X=X;X;X:X:X:X:X3X3X3X3X",
"E.E.R.B.T.m.$.4 . . .                                                                                                                                     . F |.eX6X2X{.{.{.'.'.'.'.'.'.'.'.'.{.[.[.[.[.[.[.[.[.[.{.*X*X*X*X*X*X*X*X*X*X*X*X*X[.[.].).).).~.E.Q.R.Z.Z.B.n.b.b.b.m.m.m.m.m.b.m.m.v.m.v.v.m.b.b.m.m.m.n.n.b.n.b.B.Z.Z.Z.R.Z.Z.Z.Z.R.R.R.E.E.E.E.R.Z.Z.Z.Z.Z.Z.Z.Z.Z.Z.Z.Z.B.n.n.n.n.B.n.n.B.n.n.b.v.n.n.v.v.v.v.c.l.l.l.l.i.i.c.c.c.l.c.c.c.m.Z.Z.R.A.Z.R.E.E.E.E.E.E.E.E.!.~.)._.].[.+X+X+X+X+X+X@X&X=X&X-X=X=X-X=X:X=X@X&X*X*X&X@X&X3X5X4X3X3X;X;X:X:X:X:X:X3X3X4X4X9X9X9X4X9X9X4X9X9X9X9X9X9X9X9X9X9X9X4X;X&X;X:X4X:X3X:X&X=X3X3X&X-X3X3X=X=X=X1X-X-X-X*X*X+X+X[.].).!.)._.`.~.~.~.~.~.~.E.!.A.V.g.g.f.9.9.Q u y y y y y y u u z ,.4.4.t.f.g.a.a.a.a.a.g.V.V.V.B.a.a.d.( ( t.V.V.B.B.B.n.B.n.n.n.m.n.n.m.c.s.i.i.i.i.p.p.p.u.u.u.y.y.$.$.$.@.@.@.{ { { { [ [ [ [ [ [ [ ` ` ` ` ` ` / / ^ ^ ^ ^ ^ ^ ` ` ^ ^ ^ ^ ^ ^ ` ' [ [ { $.y.u.x.c.m.m.m.n.T.Q.R.R.Q.Q.Q.Q.T.}.B.u.` v I.HXHXGXDXeXu.g 6 ^ 6 & c ^ 6 j 6 ; 5 < 6 #.x.x.m.c.c.v.n.B.B.B.B.B.Z.Z.Z.R.A.A.E.E.E.E.E.!.!.).).).`._._.[.+X+X+X+X+X@X@X@X@X&X&X&X=X;X;X:X:X:X:X:X:X:X",
"E.R.T.n.s.u.^ * .                                                                                                                                         . % Q.eX6X2X{.{.{.'.'.'.'.'.'.'.'.'.{.[.[.[.[.[.[.[.[.[.{.*X*X*X*X*X*X*X*X*X*X*X*X*X*X[.].].).).).~.E.R.Z.Z.B.n.b.b.b.m.m.b.b.b.b.b.m.m.m.v.v.m.m.m.m.m.m.n.Z.b.b.n.n.b.b.Z.Z.Z.Z.Z.Z.R.R.E.E.E.E.E.Q.E.Z.Z.Z.Z.Z.Z.Z.Z.Z.Z.Z.B.n.n.n.B.n.n.n.n.n.n.b.n.n.n.v.v.v.v.c.l.l.l.l.i.i.c.c.c.l.c.c.c.v.n.Z.Z.A.R.R.R.A.E.E.!.~.).E.!.!.!.`.`._.].[.+X+XoXoX+X@X&X&X*X-X=X=X&X=X&X@X@X*X&X&X&X&X=X&X&X=X=X=X;X;X:X;X;X;X:X:X4X4X9X9X9X4XtX9X9X9X9X9X9X4X9X9X9X9X9X9X4X;X&X;X;X:X;X4X3X=X=X;X:X&X*X=X=X*X*X*X*X+X[.[.+X*X#X+X_.).~.!.!.~.~.~._._.~.~.+X~.].!.C.g.r.9.9.r.4.y y y y y y u u u z ,.4.r.r.r.a.a.a.a.r.a.V.V.V.V.B.v.a.d.6.0.a.a.n.B.B.B.B.B.T.U.n.m.n.n.m.c.s.i.i.i.i.i.p.u.y.y.y.y.y.$.$.$.$.@.@.{ { { { [ [ [ [ [ [ ` ` ` ` ` ` ` / / ^ ^ ^ ^ ^ ^ ] ] ^ ^ ^ ^ ^ ^ ` [ [ +.$.u.u.s.x.c.m.m.U.T.T.T.R.R.R.R.Q.T.W.W.{ d d }.LXLXGXDXDXVX[ c g j d * $ ; J 1 < 6 % ; < J %.x.c.c.c.v.v.B.B.B.B.B.B.B.Z.Z.Z.Z.A.A.E.E.E.E.!.!.!.).).`._._.[.[.oX+X+X+X@X@X@X@X@X&X&X&X=X;X;X;X:X:X:X:X",
"R.T.n.m.p.u.6 & . .                                                                                                                                       . $ %.6X2X2X{.{.'.'.'.'.'.'.}.'.'.'.{.{.{.[.[.{.{.[.[.[.{.*X*X*X*X*X*X*X*X*X*X*X*X*X*X#X[.]._._.).).).E.Z.B.Z.n.n.m.m.m.m.b.b.b.m.m.m.m.m.m.v.v.m.b.m.m.b.n.n.b.B.Z.Z.Z.Z.Z.Z.Z.Z.A.A.E.E.E.E.E.E.Q.E.E.E.Z.Z.Z.Z.Z.Z.Z.Z.Z.Z.B.B.B.B.b.b.B.B.n.n.n.n.b.b.b.b.v.b.v.c.l.i.i.i.l.l.c.c.c.c.l.c.l.v.m.b.B.Z.R.E.R.R.E.~.)._.).~.!.).!._._._._.]._.]._._._.+X@X&X@X@X&X*X&X&X&X@X@X&X*X&X&X&X&X&X&X&X=X;X;X;X;X;X;X;X:X:X4X9X9X9X9X9X9X9X9X9X9X9X9X4X9X9X9X9X9X9X4X:X=X:X;X;X3X9X5X=X=X-X-X=X-X=X-X*X*X*X@X]._._.+X#X#X+X_.`.`.~.~._._._.]._.~.~.].].].OX^.g.f.g.f.r.4.z y y y y y y y u z Q 4.r.r.r.r.a.a.a.f.a.V.V.V.a.v.a.d.8.6.d.a.v.v.v.B.B.B.B.T.T.n.n.n.n.m.c.l.i.i.i.i.p.p.p.y.y.y.y.y.y.y.y.$.@.@.+.} { { { { [ [ [ ' ` ` ` ` ^ ' ' ^ ^ ^ ^ ^ ^ ^ ^ ^ ^ ^ ^ ^ ^ ^ ^ ` [ { @.u.u.u.s.s.m.m.n.U.U.T.T.T.T.Q.Q.Q.Q.n.` : : |.HXHXHXGXGX|.m.u.@.v ` ! *   6 J & ; & & & ; < J u.m.s.c.c.m.n.n.n.B.B.B.B.B.Z.Z.Z.Z.Z.A.E.E.E.E.E.!.~.!.).`._._._.[.+X+X+X+X+X@X@X@X@X@X&X*X&X&X=X=X=X=X=X",
"R.B.v.c.u.! * $ . .                                                                                                                                         . P 6XeX2X{.{.'.'.}.}.}.}.}.}.'.'.{.[.[.[.[.{.{.[.[.[.{.*X*X*X*X*X*X*X*X*X*X*X*X*X*X*X#X[.].].]._.).~.Z.Z.Z.Z.n.n.m.m.m.b.b.b.m.m.m.m.v.v.v.m.b.n.b.b.b.n.n.B.Z.A.R.R.Z.Z.Z.A.Z.Z.Z.A.A.A.A.E.Q.E.E.E.~.~.E.R.R.R.Z.Z.Z.Z.Z.Z.B.B.B.b.B.B.B.n.n.n.n.b.b.b.b.n.v.v.c.l.i.i.i.l.c.c.c.c.c.c.c.l.v.v.b.b.n.B.R.E.~.)._.].[.].~.!._.~._._.].].].[.[.[.[.[.+X@X&X@X@X&X&X@X@X@X@X+X&X*X&X=X=X=X=X=X=X&X=X;X;X;X;X;X:X4X9X4X9X9X9X9X9X9X9X9X9X9X9X9X9X9X9X9X9XrXtX9X3X:X3X3X3X9X0X4X;X=X=X=X=X-X*X*X*X@X*X@X[._.+X+X+X@X+X].].+X+X+X#X#X+X$X].~.~.~._._._.^.C.g.g.r.9.,.z y y y y y y y u s 4.h.r.r.r.r.9.r.t.f.^.V.B.V.a.v.a.d.d.d.i.c.m.v.v.B.B.T.T.T.T.U.n.n.n.m.c.l.i.i.i.i.i.i.p.y.y.y.y.y.y.y.y.@.@.@.@.} { { { { [ [ [ ' ` ` ` ` ` ' ' ^ ^ ^ ^ ^ ^ ^ ^ ^ ^ ^ ^ ^ ^ / ` [ [ @.y.u.y.u.i.c.m.n.n.U.T.T.T.T.T.T.T.T.T.i.} ` 2XFXDXDXLXwXc j d g m.m.}.s.g . 4 - 6 1 + & & & ; 6 ^ u.s.i.c.c.m.m.n.n.n.n.n.B.B.B.B.B.Z.Z.A.E.E.E.E.E.!.!.!.!.`.`._._._.+X+XoX+X+X+X@X@X@X@X&X*X&X&X=X=X&X&X",
"Z.n.c.i.u.K $ . . .                                                                                                                                           4 }.6X|.{.{.}.'.}.W.W.W.W.W.'.'.[.[.[.[.[.[.[.[.[.{.*X*X*X*X*X*X*X*X*X*X*X*X*X*X*X*X*X#X[.[.].].].).E.R.R.R.Z.B.n.b.m.b.b.m.m.m.m.v.v.v.v.m.b.b.b.b.n.n.n.B.Z.Z.Z.Z.Z.Z.Z.Z.A.A.A.A.Z.Z.Z.R.E.Q.E.E.~.~.E.E.E.E.R.R.R.R.A.A.Z.B.B.B.B.B.B.B.B.B.B.n.n.n.b.n.n.v.c.c.c.c.c.l.c.c.l.c.c.c.c.l.v.v.m.b.b.n.Z.E.)._._.].[.].~.!._.)._.].].[.[.+X+X@X@X@X@X@X@X@X@X@X+X@X+X+X+X@X@X&X&X=X=X=X=X=X=X=X=X;X;X;X;X;X:X4X9X4X4X9X9X9X9X9X9X9X9X9X9X9X9X9X9X9X9XrXtX0X4X3X9X9X3X9X9X5X;X=X=X-X*X&X&X@X@X+X@X*X+X+X@X+X+X+X+X+X+X#X+X+X#X#X+XoX_.~.~.~.~.~.^.C.C.g.f.4.4.z u y y y y y y y y y z 4.9.r.r.3.1.Q t.C.(.V.B.v.v.v.c.a.i.d.s.c.m.m.n.B.T.T.T.T.T.T.n.n.n.m.c.l.i.i.i.i.i.i.i.p.y.y.y.y.y.$.@.@.} @.@.+.{ { { { [ ` ` ` ` ` ` ^ ^ ^ ^ ^ ^ ^ ^ ^ ^ ^ ^ ^ ^ ^ ^ ^ ` ` [ [ +.@.u.u.u.u.c.m.m.n.n.U.T.T.T.T.T.Q.Q.R.R.` $.mXFXGXBXDXnX$.d d d ; J j [ c v & $ 3 5 o $ $ o & & ; g ^ s.u.s.i.s.c.v.v.v.v.v.b.b.n.b.b.b.S.Z.Z.A.E.E.E.!.!.!.!.!.!.`.`._._._.].].oX+X+X+X@X@X&X&X&X&X&X&X&X&X",
"B.n.c.u.[ P & . . .                                                                                                                                     .     ; x.|.|.|.{.}.}.'.W.W.Q.Q.W.'.'.[.[.[.[.[.[.[.[.[.{.*X*X*X*X*X*X*X*X*X*X*X*X*X*X*X*X*X*X#X#X[.[.].).W.E.E.Q.R.Z.B.n.m.m.v.m.m.m.m.m.v.m.v.m.b.b.b.b.b.m.b.b.B.Z.Z.Z.Z.Z.Z.A.A.A.A.Z.Z.Z.Z.Z.R.E.E.R.R.E.E.E.E.E.E.E.R.R.R.R.Z.Z.B.B.B.B.B.B.B.B.B.B.n.n.b.n.n.v.c.c.c.c.c.l.l.l.l.c.c.c.c.l.l.c.v.v.b.n.B.R.E.~.).)._._.~.!._.~._.].].].[.@X@X@X*X*X*X&X@X@X+X_._.oX+X+XoX+X@X&X*X&X@X@X@X&X&X=X=X;X;X;X;X;X;X:X:X>X4X4X9X9X9X9X9X9X9X9X9X9X9X4X9X>X4X4X9X0X4X3X9X3X:X:X:X3X;X-X*X&X#X@X@X@X+X[.@X@X@X@X@X#X#X#X#X#X+X]._.`._._._.]._.~.~.!.!.!.^.V.C.C.r.z z x u y y y y y y y y u s ,.g.9.4.4.z z 1.r.^.V.V.v.c.v.c.v.v.i.a.v.m.m.n.T.T.T.T.T.T.T.n.n.n.m.c.l.i.i.i.i.i.l.i.p.p.y.y.y.y.@.@.} { } +.{ { { [ [ [ ` ` ` ` ` ` ^ ^ ^ ^ ^ ^ ^ ^ ^ ^ ^ ^ ^ ^ ^ ^ ^ ` [ { +.@.y.u.y.u.i.x.m.m.m.n.U.U.T.T.T.T.T.T.T.T.{ DXHXGXmXmXeXeXu.4 6 y.u.6 c ; : 6 & * 4 & - ; $ o & & $ 1 J +.@.u.p.u.s.s.a.a.c.v.v.b.b.b.b.b.B.B.Z.Z.Z.A.E.E.E.R.R.!.!.!.!.`._._._._._.].oX+X+X@X@X@X@X@X&X&X&X&X",
"v.v.u.[ ` ! ; . . .                                                                                                                                           $ P }.{.'.'.'.'.}.}.W.Q.Q.W.}.'.'.{.{.{.{.[.[.[.[.{.*X*X*X*X*X*X*X*X*X*X*X*X*X*X*X*X*X*X#X#X[.[.).~.E.E.E.E.R.R.Z.n.m.v.v.v.v.v.v.v.v.v.v.m.m.n.n.n.m.m.n.b.B.Z.Z.Z.A.R.E.E.E.E.A.A.A.Z.Z.A.A.Z.Z.R.R.R.E.E.E.E.E.E.E.E.E.R.Z.Z.Z.B.B.B.B.B.B.Z.B.B.n.n.n.n.b.v.c.c.c.c.c.l.l.l.i.i.c.c.c.l.l.l.v.v.b.b.n.b.B.Z.R.E.E.~.~.~.).~.).).)._._._.[.@X@X*X*X*X@X+X_.`.`._.oX+XoX+X+X@X@X@X@X&X*X&X=X=X:X:X:X;X;X;X;X;X;X:X>X4X9X9X9X4X4X9X9X9X9X9X9X4X9X4X>X>X4X4X3X:X:X:X=X=X=X&X&X&X&X&X&X@X&X@X+X]._.].+X+X#X#X#X#X+X+X+X`.~.).~.~.~.~.~.~.~.~.B.B.R.V.g.g.f.Q z x y y y y y y y y y y z ,.4.4.z z z z z Q f.a.B.v.m.v.v.v.v.c.a.c.v.n.B.R.R.T.T.T.T.T.B.n.n.n.m.c.i.i.i.i.i.i.i.i.p.y.y.y.y.@.@.+.} } { { { { [ [ ` ` ` ` ` ` ^ ^ ^ ^ ^ ^ ^ ^ ^ ^ ^ ^ ^ ^ ^ ^ ^ ` ' { +.+.@.@.y.u.u.i.m.m.U.n.U.U.U.U.m.m.T.n.T.T.[ s.LXVXeX|.6X6X}.s.: W I.s.g 6 ; * & ;   ; - % + o o + + & ; 6 c ! ` y.p.i.i.i.i.s.c.v.v.v.m.m.m.m.b.n.B.Z.Z.Z.R.R.R.R.R.E.!.!.~.).).`._._._._.[.+X+X+X@X@X@X@X@X@X@X",
"v.i.@.` ^ P ; . .                                                                                                                                             . : @.{.}.}.}.}.}.}.}.W.Q.Q.W.}.'.'.{.{.{.[.[.[.[.[.{.*X*X*X*X*X*X*X*X*X*X*X*X*X*X*X*X*X#X#X[.].E.Q.E.E.E.Q.R.R.Z.n.n.m.v.c.l.v.v.v.v.v.v.m.m.n.n.n.n.n.n.B.Z.Z.A.R.R.R.E.E.E.E.E.E.E.E.E.E.A.Z.Z.Z.R.R.E.E.E.E.E.E.E.E.E.R.R.Z.Z.B.B.Z.Z.Z.Z.R.Z.B.B.n.n.n.n.v.c.c.c.c.c.l.i.i.i.l.c.c.i.i.c.m.c.v.b.b.B.b.v.b.n.B.Z.R.E.!.~.~.!.~.~.~.~.!.!.`.`._._.+X[._.`.).).`.OX+X+XoXoX+X+X@X&X3X3X;X=X=X;X;X;X;X;X;X;X;X;X:X:X>X9X9X9X9X4X9X9X9X9X9X9X>X9X9X9X9X9X9X4X:X:X:X;X=X&X&X@X@X&X&X&X&X&X*X@X[.`.`._._.+X+X+X+X+X+X+X~.~._.+X+X_.~.~.~.~.Z.B.b.B.V.f.g.f.M x x u y y y y y y y y y u z Q z s y y u y Q 7.a.B.c.M.v.v.v.v.c.a.c.m.n.B.T.T.T.T.T.B.B.B.n.n.n.n.m.c.l.l.l.l.l.i.p.p.y.y.y.y.y.@.@.+.{ { { { [ [ ` ` ` ` ` ` ` ^ ^ ^ ^ ^ ^ ^ ^ ^ ^ ^ ^ ^ ^ ^ ^ ` ` [ { } } @.$.u.u.u.s.m.m.U.U.U.U.U.m.I.T.W.Q.U.y.; / DXwX2X/./.Q.|./ & ! m.I.+.; $ $ & & . - % + + + + + + & % 4 j j P / } u.u.u.p.i.s.c.c.v.v.m.m.m.m.b.b.b.B.B.Z.Z.R.E.R.R.!.!.!.~.~.).`._._.[._.].].+X+X+X+X@X@X+X+X",
"c.y.[ ^ ^ P & .                                                                                                                                           .     $ 6 x.|.}.}.}.}.}.}.W.Q.Q.Q.W.}.'.'.{.{.[.[.[.[.[.[.[.*X*X*X*X*X*X*X*X*X*X*X*X*X*X*X*X#X[.[.~.R.Z.E.E.E.R.T.Z.Z.Z.Z.n.m.v.v.v.v.v.v.m.m.m.n.n.n.B.n.B.B.B.Z.Z.R.R.A.Z.Z.R.E.E.E.E.E.E.E.E.E.A.Z.Z.E.E.E.E.E.E.E.E.E.E.E.!.R.A.Z.Z.Z.Z.A.Z.Z.R.Z.Z.B.V.n.b.b.v.c.c.c.c.c.c.l.l.l.c.v.v.i.i.m.m.v.v.v.m.b.b.b.b.b.B.B.Z.R.!.~.!.!.~.~.~.~.!.!.!.!.).`.`.`.`.`.`.`._._._.]._.oXoX+X@X&X3X3X:X=X=X=X&X=X;X;X;X;X;X;X:X:X>X4X4X4X9X9X9X9X9X9X9XrX4X9XtXyXtX9X9X4X3X:X:X:X:X;X&X@XoX@X@X=X&X&X*X@X@X_._._._._.].].].]._.].)._._.!.!._.~.~.~.~.B.A.B.a.f.r.f.r.1.x y u y y y y y y y y y u u z s y y u y y M 7.a.n.M.n.v.b.v.v.v.c.i.v.n.n.Z.T.T.T.T.B.B.B.n.n.B.n.n.m.c.c.c.c.l.i.p.p.u.y.y.y.y.$.@.{ } { { { [ [ [ ` ` ` ` ` ` ` ` ` ^ ^ ^ ^ ^ ^ ^ ^ ^ ^ ^ ^ ` ` [ { { } { +.u.u.s.i.c.m.m.n.n.n.I.m.m.U.U.I.y.[ W * W eX6X{.Q.u.U.Q.P * : ` x.u.* . . . . . % + o $ o + + + & & ; 6 g c K ! } u.p.p.i.i.i.i.c.c.v.m.m.m.m.m.b.b.B.Z.Z.Z.Z.R.R.R.!.!.!.!.!.).`._._._.[.+X+X+X+X+X@X@X@X+X",
"i.} ! ^ ^ U + .                                                                                                                                           .       % P /.}.}.}.}.}.}.W.Q.W.Q.W.W.W.'.'.'.[.[.].].].].].[.*X*X*X*X*X*X*X*X*X*X*X*X*X#X+X+X[._.E.Z.R.E.E.R.Z.Z.n.Z.Z.Z.B.n.B.Z.B.n.b.m.b.m.n.n.n.B.Z.Z.Z.Z.Z.Z.Z.R.A.Z.B.Z.A.E.E.E.E.E.).).!.E.E.Z.Z.A.E.E.E.E.E.E.E.E.E.E.!.E.A.A.Z.Z.Z.A.Z.Z.R.Z.Z.B.V.b.b.b.v.c.c.c.c.c.c.l.l.l.c.v.v.l.c.c.c.v.z.v.m.b.B.B.B.B.Z.Z.R.E.~._.).!.!.~._._.).!.).).!.!.).`.`.`._._._._._.].OXOXoX@X&X&X&X&X=X=X&X&X&X&X&X=X;X;X;X;X:X:X>X9X9X9X9X9X9X9X9X9X9X9X4X9X9X9X9X9X9X3X3X3X3X:X:X;X=X*X#X#X@X-X*X*X*X@X@X+X]._._._._.].].]._.]._._._._._._.~.~.~.~.R.~.E.V.a.r.f.t.9.z y y y y y y y y y y y y y y u a y u y x z 7.a.n.M.n.v.b.b.v.v.c.a.c.v.n.B.Z.T.T.B.B.B.B.n.B.B.B.n.v.m.c.c.c.l.i.p.p.y.y.y.y.y.$.@.{ @.} { { [ [ [ ` ` ` ` ` ` ` ` ` ^ ^ ^ ^ ^ ^ ^ ^ ^ ^ ^ ^ ` ' [ { { { { @.u.u.x.c.c.m.m.n.n.n.m.m.m.n.x.@./ c d $ b U.{.Q.x.u.y.s.x.6 6 4 +.^ $ . $ & $ ; + + $ $ o + + o + & ; 4 g j c K / } y.y.p.i.i.i.i.l.c.v.v.m.m.m.b.b.B.Z.Z.Z.Z.Z.R.R.R.!.!.!.!.!.).`.`._._._.+X+X+X+X+X+X+X+X",
"} } / ^ ^ 0 . .                                                                                                                                                     - s.}./.}./././.W.W.W.W.W.W.W.}.'.'.'.'.].].'.].].[.#X*X*X*X*X*X*X*X*X*X*X*X#X+X+X[.].).E.R.E.Q.R.Z.T.Z.Z.Z.Z.b.n.n.n.B.B.B.n.n.n.n.n.n.B.Z.Z.R.R.R.Z.Z.Z.Z.Z.Z.Z.Z.A.E.E.E.E.E.).).~.!.!.E.E.E.E.E.E.!.!.!.!.!.!.!.!.E.E.A.A.A.E.E.E.R.R.R.Z.B.b.b.b.b.v.c.c.c.c.c.c.c.l.l.l.v.v.v.v.c.l.c.z.v.b.n.Z.Z.Z.Z.E.Q.Q.E.)._.).E.E.)._._.`.).).).!.).`.`._._.+X+X].].oXoXoX].+X#X&X@X@X@X&X&X*X&X&X&X&X;X;X:X:X:X:X4X4X9X9X9X9X9X4X9X9X4X9X9X9X9X9X9X4X4X4X4X4X4X4X:X:X;X=X=X3X=X=X=X=X*X*X*X@X@X+X].]._._.].].].].+X]._._._.].oX^.~.].$X~.~.R.V.f.a.t.7.t.z y y y y y y y y y y y y y y y y y y y x M 3.a.n.n.n.b.b.v.v.v.v.c.l.v.n.B.Z.T.Z.Z.n.n.Z.Z.Z.B.B.n.n.m.m.m.c.x.i.p.u.y.y.y.y.$.$.$.$.@.@.{ { { [ [ ` ` ` ` ` ` ` ^ ^ ^ ^ ^ ^ ^ ^ ^ ^ ^ ` ` ` ` [ [ { { { @.$.u.x.x.c.m.m.m.m.I.m.m.m.c.m.i.[ b 4 . & W i.Q.Q.I.u.` ^ ^ ^ v & 4 & . . ; ; - & + o o + + + + + + % - < 3 6 g c b ! [ { y.u.u.p.p.i.l.c.c.m.c.m.b.n.n.Z.Z.Z.Z.T.Z.R.A.E.E.E.!.!.!.!.).`.`._.].[._.[.+X+X+X+X",
"} ` ^ ^ ^ 0 . .                                                                                                                                                     . v s.}.}./.Q.Q./.W.}.}.}.}.}.).'.'.'.'.].].'.].].].+X*X*X*X*X*X*X*X*X*X*X*X+X+X[.].]._.~.R.E.Q.R.Z.T.T.T.Z.Z.v.n.m.m.m.m.m.m.b.n.n.B.B.Z.Z.Z.Z.R.R.Z.Z.R.R.R.E.E.E.A.E.E.E.A.A.E.E.E.~.).).).).).!.!.!.!.!.!.!.!.!.!.!.!.!.E.E.E.E.E.E.E.E.R.Z.B.B.b.b.v.c.c.c.c.c.c.c.l.l.l.v.m.m.n.b.b.m.v.v.b.b.b.b.Z.Z.E.Q.E.E.E.E.E.Z.A.E.!.).).).).).).`.].[._._.[.+X].oX+X+X@XoX@X&X&X@X&X&X&X&X*X*X&X&X;X;X:X:X:X:X3X4X9X9X9X9X>X:X>X9X9X4X9X9X9X4X>X4X9X9X4X4X4X4X4X:X:X=X&X=X3X3X1X=X=X*X*X*X@X@X#X#X+X+X_._.].].].].]._._.^.`.^.^.^.~.^.^.(.V.f.a.t.t.3.1.z y y y y y y y y y y y y y y y y y y y z Q 2.a.v.n.n.b.b.v.v.b.v.v.c.m.n.Z.T.R.T.Z.n.n.Z.Z.Z.T.B.n.n.n.m.m.c.i.i.p.y.y.y.y.y.$.$.$.$.$.@.{ { { [ [ ` ` ` ` ` ` ^ ` ^ ^ ^ ^ ^ ^ ^ ^ ^ ` ` ` ` ` [ { { } @.$.u.u.s.x.m.m.m.m.m.m.m.m.x.m.y.| | j : $ & v $.I.U.x.@.^ K c c J $ .   . $ < 4 - + + + + + + + + + + % - < 4 6 g c v b ! ' @.y.y.y.u.p.i.i.c.c.c.c.m.m.n.n.B.B.Z.Z.Z.Z.Z.A.E.E.E.!.!.!.!.!.).).`._.`._._._._._.",
"` / ^ ^ L 5 . .                                                                                                                                                       @ H %./././.Q.Q././.}.}.}.).).'.'.'.'.'.'.].].].].[.#X*X*X*X*X*X*X*X*X*X#X+X+X[._._._.~.R.R.R.Z.Z.R.R.T.T.Z.v.B.n.m.v.v.m.m.n.n.Z.B.B.Z.Z.Z.Z.Z.Z.Z.Z.R.R.R.E.E.E.A.E.E.E.E.Z.Z.Z.A.E._._.).).).).).).).).).!.!.!.!.!.!.!.!.!.!.!.E.E.E.E.A.Z.Z.B.n.b.v.v.c.c.c.c.c.c.v.c.c.v.m.m.n.Z.Z.Z.n.m.m.M.m.b.Z.Z.Z.Z.Z.E.E.E.Z.A.E.E.E.!.).).).).).`.].]._.`._._.].].oX+X@XoX+X&X&X@X&X&X&X&X&X&X&X;X;X;X:X:X:X:X4X4X9X9X9X9X>X:X>X9X9X9X9X9XrX9X>X>X9X9X4X3X3X:X:X:X:X;X=X=X=X=X=X=X=X-X=X*X*X@X*X*X#X+X_.~.~.~.`.~._.).`.~.!.!.!.^.(.R.^.V.f.a.t.7.2.2.S z y y y y y y y y y y y y y y y y y x x z 2.7.a.v.n.n.b.b.b.b.b.b.v.v.b.n.Z.R.R.R.T.Z.Z.Z.Z.Z.T.B.n.n.m.n.m.c.x.i.p.p.y.y.y.$.$.$.$.$.$.$.{ { [ [ [ ' ` ` ` ` ` ` ` ` ` ` ` ` ^ ^ ` ` ' ' ' ' [ { { @.@.$.u.u.u.s.x.c.m.m.m.m.I.m.m.x.y.! W / j 6 & : c @.m.m.u.@.L c v v J ; . . $ - 5 4 - + o + + + + + + + + % - < 4 6 g c j v b ! ` { @.y.p.u.p.p.i.i.l.c.v.v.m.n.n.n.B.B.B.Z.Z.Z.E.E.E.!.!.!.!.!.!.).`.`.`.`._._._._.",
"! ! ^ ^ L 3 .                                                                                                                                                     .   $ X , s./././.Q.Q.W.W.W.}.'.'.'.'.'.'.'.'.'.'.].].[.+X*X*X*X*X*X*X*X*X*X*X#X+X[._._._.~.R.Z.Z.Z.Z.R.R.T.Z.Z.m.Z.Z.n.v.m.b.m.n.n.Z.B.B.Z.Z.Z.B.n.Z.Z.Z.Z.Z.Z.Z.Z.Z.Z.A.E.!.!.E.Z.Z.Z.E.E.).).).).).).`.`.`.).).!.!.!.!.!.!.).).!.!.!.!.E.E.E.Z.Z.B.n.b.v.v.c.c.c.c.c.c.c.c.c.v.v.v.b.Z.Z.Z.Z.n.m.M.v.b.b.b.B.Z.Z.E.E.E.E.~.).!.!.!.).).).).!.).`.`.`.`.`.).).`.].oX@XoXoX@X@X&X*X*X=X=X=X=X;X;X;X:X:X:X3X:X4X4X9XrXrXrX9X4X4X9X9X9X9XrXrXrX9X9X>X:X:X:X:X3X3X:X:X;X=X=X&X&X&X*X=X*X*X@X*X@X#X+X+X+X`.!.!.!.!.!.~.).~.!.R.R.E.R.A.V.C.g.a.r.7.3.2.Q z z y y y y y y y y y y y y y y y y x x z 2.t.r.a.v.n.n.b.b.b.b.b.b.m.v.b.n.Z.T.R.R.R.Z.Z.Z.Z.Z.T.B.n.n.n.m.m.c.c.i.i.u.y.y.y.y.$.$.$.$.$.$.{ [ [ [ [ ` ` ` ` ` ` ` ` ` ` ` ` ` ^ ^ ` ` ' [ { +.{ @.$.$.$.%.u.u.u.s.x.c.m.m.m.I.I.m.m.x.P c b ! c d d j ! u.m.s.u.%.^ J c c v c 6 ; ; < 5 < - & + + + + + + + @ % - ; < 5 6 g v j j v b ^ ` [ @.@.y.u.u.p.p.i.i.c.c.m.v.v.v.m.m.n.b.B.B.Z.E.E.E.!.!.!.!.!.).).`.).`.`.`._._.",
"/ ! ! ^ +.- .                                                                                                                                                           $ $ 0 Y.Q.U.U./.Q.Q.W.W.'.'.'.'.'.'.'.'.'.'.].].].[.#X*X*X*X*X*X-X*X*X*X*X#X]._._.].).R.Z.Z.R.E.R.R.R.Z.Z.B.Z.Z.B.b.m.b.m.n.n.Z.B.B.Z.Z.Z.Z.m.Z.Z.Z.Z.Z.Z.Z.Z.Z.Z.A.E.!.!.E.A.A.A.A.E.!.).).).).`.`._.`.).).).).!.!.!.).).).!.!.!.E.E.E.A.A.Z.B.n.b.v.v.v.v.v.v.m.m.c.c.c.v.v.v.v.n.Z.R.Z.Z.b.m.m.b.b.B.B.Z.Z.Z.R.E.E.)._.).).).~.~.).).!.!.).).`._.`.!.).`.`.].oX+X+X+X@X#X-X=X;X:X=X=X;X;X;X3X3X3X3X:X4X9X9XtXyXtXtX9X9X9X9X9X9X9X9X9X9X9X4X:X:X:X:X:X3X3X3X;X3X;X&X&X@X&X*X*X*X@X+X+X+X+X+X_._.~.!.!.!.R.~.~.!.R.A.A.R.R.D.C.^.g.t.3.3.4.4.Q z z y y y y y y y y y y y y y y y x z Q 3.t.a.a.B.v.n.n.m.m.b.b.b.b.B.n.b.n.Z.Z.E.R.T.Z.Z.Z.Z.Z.n.n.n.n.n.n.v.m.c.i.i.p.y.y.y.y.y.$.$.$.@.@.{ { [ [ ' ` ` ` ` ` ` ` ` ` ` ` ` ` ` ` ` ` [ { +.@.$.%.%.%.$.u.u.u.s.x.x.m.m.I.I.x.I.%.! c j c b K c 6 d / +.u.u.y.[ ` ! L c J P L J h 2 & - ; - + + + + + + + o O % - < 3 6 0 6 g g d g g c P ` @.y.u.u.u.u.u.p.i.i.i.c.c.c.m.v.n.n.n.n.B.Z.R.E.E.!.!.~.!.!.~.)._.)._.`.`._._.",
"/ ! ^ L ] +                                                                                                                                                             . . o H Y./.U.U.Q.Q.W.W.W./.'.'.'.'.'.'.'.'.'.'.].[.#X*X*X*X*X*X*X*X*X*X*X[.].].].].).E.Z.Z.E.E.Q.R.R.Z.B.n.n.B.B.B.m.v.n.n.Z.Z.B.B.Z.B.n.R.n.n.B.Z.Z.R.R.E.Q.E.A.E.E.!.E.E.A.A.A.A.!.!.).).).).`.`.`.`.).).).).!.!.!.).).).!.!.!.E.E.E.A.A.Z.B.n.b.b.b.v.v.v.v.v.v.c.c.c.v.v.v.v.v.n.Z.Z.Z.b.M.v.m.Z.Z.Z.Z.Z.Z.Z.E.~.~.).)._.).).).).).).).).)._.+X+X`.).).).`._.oX+X+X+X@X*X-X;X;X=X=X=X;X;X3X:X3X3X3X4X9XrXtXyXyXyXyXyXrX9X9X>X>X4X4X9X9X4X>X4X3X3X3X3X3X3X;X1X;X=X*X&X&X@X@X*X@X[._._._._._._._.~._.~.A.!.!.!.R.A.Z.~.!.R.C.9.4.4.z z z z z u y y y y y y y y y y y y y x x z Q ( 6.r.a.v.v.v.v.n.n.m.m.b.b.b.B.Z.Z.n.b.n.Z.R.R.R.Z.Z.Z.B.B.n.n.n.n.n.n.n.v.m.c.i.i.u.y.y.y.y.$.$.$.{ { { [ [ ` ` ` ` ` ` ` ` ` ` ` ` ` ` ` ' ' ` ` [ { @.%.%.%.%.$.u.u.i.s.x.c.c.m.m.I.U.I.%.^ J c d g j j b d & b $.u.u.+.^ ^ K J c J J J J H v 6 + & - & + + + + o o o o + - 2 5 0 g 0 g g d g g g v c P { @.y.u.u.u.u.p.p.i.i.i.c.m.v.v.v.n.n.B.B.B.R.E.!.!.!.!.!.!.~.).~.).).).`.`.",
"/ ! ! ^ L o                                                                                                                                                                 . o L x./.U.Q.Q.Q.W.W./.'.'.'.'.'.'.'.'.'.'.].[.[.#X*X*X*X*X*X*X*X*X+X[.[.].].].).E.Z.E.E.E.W.R.R.Z.B.b.v.m.v.Z.B.b.n.n.B.B.B.B.B.n.n.R.n.n.B.Z.Z.Z.E.Q.E.E.E.E.E.E.E.E.E.E.!.!.!.).).).).).).).`.).).).).).).).).).`.`.).!.!.E.E.E.A.A.Z.B.n.n.b.b.b.b.m.v.m.v.v.v.v.v.v.v.v.v.v.b.n.Z.Z.b.v.m.Z.Z.R.Z.Z.Z.Z.Z.R.R.!.).).).).).).).).!.).)._.+X+X[.].`.).).`._.oX+X+X+X@X&X&X&X=X;X;X;X3X3X3X3X3X4X9X9XrXtXrX9XtXyXyXtX9X4X>X>X>X>X4X4X9X9X4X4X3X3X3X3X3X;X;X;X;X;X=X*X@X@X*X+X[._.`.`.`.`._._._.+X+X`._.`.!.R.A.Z.R.^.V.a.M z z u x x x y y y y y y y y y y y y y y u z z 2.7.d.d.a.v.v.v.v.v.n.n.b.b.b.V.b.B.Z.Z.Z.n.b.n.Z.E.R.R.Z.Z.B.Z.T.n.n.n.n.n.n.v.m.c.x.i.u.u.u.y.y.$.$.@.{ { { [ [ ` ` ` ` ` ` ` ` ` ` ` ` ` ` ` ' ' ' ' { +.@.%.%.%.%.$.u.i.i.x.c.c.m.m.I.I.x.u.+.c j 4 6 6 4 4 d s.@.d ^ { +.[ ! P c c J c c v h h v 0 - o + % + + + + o o o o o % 4 0 0 0 0 g g g g g d g g c P [ } @.u.u.u.u.p.p.u.i.i.c.v.v.n.n.n.B.B.B.Z.R.R.E.!.!.!.!.~.~.!.~.).).).).",
"^ ! ! ^ P $                                                                                                                                                                   . - L I./.Q.Q.T.Q.'.'.'.'.'.'.'.'.'.'.'.'.].].[.#X*X*X*X*X*X*X+X+X[.].].].[.].).E.E.E.E.E.W.Q.R.R.Z.Z.m.m.c.m.B.Z.n.n.B.B.B.B.B.B.B.Z.m.Z.Z.Z.Z.Z.Z.R.E.R.A.Z.A.E.E.E.!.!.!.!.).).).).).).).!.).).).).).).).).).).`.`.).).).E.E.E.A.Z.Z.B.B.n.b.b.b.b.n.m.m.v.m.v.v.v.v.v.v.v.v.m.b.Z.A.Z.Z.n.n.Z.Z.Z.R.Z.Z.Z.Z.B.Z.E.!.~.!.!.).).!.!.).!.!._._._._._.]._._._._.].+X+X@X#X&X&X;X:X;X;X3X3X3X3X3X4X9X0XtX9X4X4X9X9X9XrXrXrX9X9X9X4X4X4X9X9X4X:X:X3X3X3X3X;X=X=X;X;X=X*X#X+X+X[.+X+X_.`.`.`._.+X+X+X+X`.`.!.!.R.A.Z.v.S.a.2.x x u y y y y y y y y y y y y y y y y y x z Q 2.t.d.a.d.v.c.v.m.v.v.n.n.b.b.b.B.B.B.Z.Z.Z.n.b.b.Z.R.R.R.T.Z.Z.Z.B.n.n.n.n.n.n.v.m.c.x.i.p.u.u.y.y.$.$.@.{ { { ` ` ` ` ` ` ` ` ` ` ` ` ` ` ` ` ` ' ' ' [ { +.@.%.%.$.$.$.u.s.x.c.c.c.m.m.I.m.%.^ ^ g h 4 4 : ; & j s./.^ g P ^ ` L K c v J c v 0 5 6 6 6 ; & $ o + + + + o o X X $ % 3 0 0 0 0 0 g g g g d d g g v P ` { @.u.u.u.p.p.p.p.i.i.c.c.n.n.b.n.B.B.B.Z.Z.R.E.E.E.E.!.!.!.!.!.!.).).",
"^ ! ^ L U $ .                                                                                                                                                                   . 1 c s.U.U.T.W.W.W.'.'.'.'.'.'.'.'.'.'.'.].[.{.{.*X*X*X#X{.[.[.[.[.].].[.].).E.E.Q.W.).W.W.R.R.R.Z.n.m.b.m.B.Z.Z.B.Z.Z.Z.B.n.b.b.b.b.Z.Z.Z.Z.Z.Z.Z.A.A.A.Z.E.!.!.!.!.!.!.!.).`.).).).).!.!.!.).).).).).).).`.`.`.`.`.).!.!.!.A.A.A.Z.B.n.n.n.n.n.n.n.b.n.v.v.v.v.v.v.v.v.v.v.v.n.n.Z.R.Z.Z.n.n.n.Z.R.E.R.R.Z.b.B.Z.Z.R.E.E.E.!.~.~.!.!.!.).`.`.`.`.].oXoX].].oX+X+X@X#X&X&X=X:X:X;X:X3X3X3X>X9X9X9XrX9X4X9X9X9XrXtXtXtXtX0X4X4X3X3X4X3X3X;X;X3X5X5X3X:X=X*X&X&X@X@X@X+X].].[.+X@X_.`.`._.@X+X+X_.`.~.!.R.R.Z.A.a.a.t.9.z y y y y y y y u y y y y y y x z z z z M 1.7.t.a.a.a.a.c.m.M.n.m.n.n.b.b.b.b.b.Z.Z.Z.Z.Z.Z.n.n.Z.R.R.R.R.R.R.Z.Z.B.n.n.n.n.n.m.m.c.c.i.u.p.p.u.y.$.{ } { { [ ` ` ` ` ` ` ` ` ` ` ` ` ` ` ` [ [ [ ` [ [ { { @.@.@.$.y.y.u.u.x.c.c.c.m.m.U.+.j < g & d g 6 ; : : d ^ m.6X^ c P ^ ! K c g 6 6 5 4 1 - & o o . . $ o $ . $ $ . $ $ . $ - 5 0 0 6 6 g g g 6 6 d d d j c P ^ { @.y.u.u.p.p.p.p.i.i.c.v.n.m.n.B.B.B.B.Z.Z.R.R.R.R.!.!.!.!.~.~.~.~.",
"! ! ^ L J $ .                                                                                                                                                                   $ . $ c Q.Q.T.U.T.W.~.'.'.'.'.'.'.'.'.'.'.].[.[.{.[.{.{.{.[.[.{.*X*X{.[.[.'.).Q.R.E.'.'.).Q.Z.Z.Z.B.b.b.Z.Z.Z.Z.B.B.Z.Z.Z.B.n.b.b.n.Z.Z.Z.Z.Z.Z.Z.A.E.A.A.A.!.!.!.).).).).).`.`.`.`.).).).).).).).).).`.`.`.`._._.`.`.).).!.!.E.A.A.Z.B.n.n.n.n.n.n.n.b.v.v.v.v.v.v.v.v.v.v.v.m.m.m.n.Z.Z.B.n.n.n.Z.R.R.Z.E.Z.n.b.b.B.B.Z.Z.A.E.E.~.!.!.!.!.).).).).].+X@X@X@X@X+X@X&X&X@X@X&X=X;X;X:X3X3X4X9X9X9X9XrX9X9X9X9XrXtXtX9X9X0X9X4X:X:X;X;X=X=X@X@X;X3X3X:X=X*X@X+X+X+X+X[.+X[.[.[.#X*X+X[.[._.`.+X`.`.`.!.!.E.R.A.Z.B.V.a.r.4.x y y y y y y y y y y y y z z Q Q 4.~ 9.t.a.a.a.a.c.c.c.m.n.n.m.m.b.b.b.b.b.b.B.Z.Z.Z.Z.Z.Z.Z.T.T.R.R.R.R.T.Z.Z.B.n.m.m.m.m.m.m.c.c.i.i.u.p.y.u.$.{ } { { { ` ` ` ` ` ` ` ` ` ` ` ` ` ` ` [ [ [ ` [ [ { { @.@.@.$.y.y.u.u.i.c.c.c.m.m.+.& * * < . & g g : : : 6 P { x.6X$.v ! L L c g 6 4 < ; < + $ . . + 4 0 $   . . . . . .   . $ - 0 0 6 6 g g g 6 g d d d d j c P ^ { @.u.u.u.p.p.p.p.i.l.c.n.m.n.n.B.B.B.Z.Z.A.R.A.A.E.!.!.!.!.!.~.~.",
"! ! ^ ^ c . .                                                                                                                                                                     . . g 6X}.T.T.T.Q.W.~.'.'.'.'.'.'.'.'.'.'.].[.[.[.[.[.[.[.{.{.*X*X{.[.].).W.Q.R.E.~.W.R.B.n.Z.Z.b.m.m.n.B.Z.Z.Z.Z.Z.Z.Z.n.b.b.Z.Z.Z.Z.Z.Z.Z.Z.Z.Z.E.E.E.!.!.!.).).`.).).!.!.!.!.!.).).).).`.`.`.`._._._.].].]._.`._.`.`.).!.!.A.A.Z.Z.B.B.B.n.n.n.n.b.n.m.m.n.v.v.v.v.v.v.v.m.m.m.v.n.B.B.n.n.n.Z.R.R.Z.E.Q.Z.Z.Z.B.B.Z.Z.A.E.E.!.!.!.!.!.!.!.!.!.`.+X@X+X+XoX+X+X@X#X&X&X=X:X:X:X:X3X4X9XrXrXrX9XrX9X9XrX9X9XrX9X9X4X9X9X4X4X:X;X;X&X@X+X+X@X=X&X&X&X@X+X+X+X+X+X+X+X+X+X+X#X*X+X[.[._.).[.).).`.`.!.!.E.R.R.(.V.f.f.7.z y y y y y y y y y y x z 4.4.9.9.t.t.a.a.V.B.v.c.c.m.m.n.n.n.n.n.n.n.n.n.B.n.B.Z.Z.Z.T.T.R.R.R.R.R.R.T.Z.Z.Z.Z.B.n.m.m.m.m.m.m.c.c.i.i.u.p.u.y.y.@.{ { { { { { { { { [ ` ` ` ` ` ` ` ` [ [ [ [ [ [ { { @.@.@.@.$.y.y.u.u.i.c.c.m.m.m.b $   . 6 $ $ 4 v 6 ; : : g ! { m.6XI.j j c c d 3 < & $ . . . $ ; + - H c < $ . . . . .   . . $ 5 g 0 6 g 6 6 6 g 0 d d d d g v P / [ @.p.u.u.p.p.p.p.i.l.v.m.m.n.B.B.B.B.Z.Z.A.A.A.R.E.E.!.!.!.!.!.",
"! ! ! ^ h . .                                                                                                                                                                       . u.nX6X'.U.B.T.Q.W.W.'.'.'.'.'.'.'.'.'.'.[.].[.[.[.[.[.{.{.[.[.].).).).W.Q.Q.R.T.Z.n.n.Z.Z.B.v.v.m.m.n.n.B.n.n.n.n.B.n.n.n.Z.Z.Z.Z.Z.Z.Z.Z.Z.A.E.E.!.!.!.).).).`._._.`.).).).).).).).`._._._._.].].].].].].].`.`.`.`.).).!.A.A.A.Z.B.B.B.b.n.n.n.b.n.m.m.n.v.v.v.v.v.v.v.m.m.m.v.m.n.b.B.n.n.B.Z.Z.Z.R.Q.Q.E.E.R.R.A.A.E.E.!.E.E.E.!.!.!.!.!.!.).].oXoXoXoX].oX+X#X=X:X3X3X:X:X:X4X9X0XrX9X9X9X9XrX9X9X9X9X9X9X>X4X4X4X4X9X4X4X4X:X@XOXOX+X@X&X*X@X+X+X+X+X+X+X+X@X*X*X@X@X@X+X_._._.+X`.`._.`.`.~.~.~.E.R.B.V.a.r.3.z y y y y y y x x x z z 4.9.7.f.f.f.g.V.V.a.c.c.m.m.m.v.m.v.n.v.n.n.n.n.n.B.b.B.Z.Z.Z.T.R.R.Q.R.R.R.Z.Z.Z.Z.Z.B.B.m.m.m.m.m.m.m.c.c.i.i.u.u.y.y.y.$.@.{ { { { { { { { { [ [ ` ` ` ` ` ` ` [ [ [ [ [ { { @.@.@.$.$.y.y.u.u.i.c.c.m.m.m.+.. . $ $ . . & c j ; : & 6 J ^ %.U.6X6XJ 6 g g 4 ; $ . . $ - c < O . $ 0 h 2 &         . $ . $ ; 0 0 g 6 6 6 6 0 0 d d d d g g c P ^ [ @.p.u.p.p.p.p.i.i.c.v.m.b.n.n.B.B.B.Z.Z.Z.A.A.R.E.E.!.!.!.!.",
"! ! ! ^ 0 . .                                                                                                                                                                       $ |.VXmX6X{.W.T.T.Q.W.~.'.'.'.'.'.'.'.'.'.].[.[.[.{.[.[.{.[.[.].).).).).W.W.E.Q.Z.B.n.Z.Z.n.m.v.m.n.n.n.n.n.n.n.n.n.n.Z.Z.Z.Z.Z.Z.B.Z.E.E.A.Z.A.E.E.~.~.).).).).`.`.`.`.`.`.`.`.`.).`._.].+X+X+X+X+X+X+XoXoX[.]._._.`.).).!.E.A.A.Z.Z.B.B.b.b.b.b.b.n.n.n.b.n.v.v.v.v.v.v.n.m.m.m.v.m.m.n.n.n.n.Z.Z.R.R.R.R.E.~.~.E.E.R.E.E.E.E.E.E.E.E.E.E.!.!.`._.].oXoX]._.oX@X&X=X:X3X3X:X:X:X4X9X0X9X9X9X9X9X9X9X9X9X9X4X:X:X>X4X4X4X4X4X9X9X3X&X@X+X+X&X=X=X@XoXOX+X+X+X+X+X+X*X#X@X+X+X+X_._._.]._._._.~._._._.~.E.R.V.a.a.9.7.z y y y y y x z z Q Q 2.7.r.a.f.f.a.a.a.v.v.v.c.c.c.c.m.m.m.m.n.m.n.n.n.n.n.n.B.Z.Z.Z.T.R.R.R.R.R.T.Z.Z.Z.Z.Z.Z.B.m.m.v.v.v.m.c.c.i.i.i.i.u.y.y.y.y.y.$.$.@.{ } { { { { [ ` ` ` ` ` ` ` ` [ [ [ [ [ { } @.$.y.y.y.p.y.i.s.c.i.n.` b {.s.& . . . . . $ L L 6 & ; : 6 c ' @.I.}.nX|.L h 1 ; - 1 h ^ #.H < o . . $ < 3 < + $ . . $ < . $ 4 0 g 6 6 6 6 6 0 0 0 g g g g d j v J W [ @.y.u.u.p.u.i.i.c.v.v.n.n.B.n.V.B.B.Z.Z.Z.R.R.R.E.E.E.E.E.",
"! ! ! ^ 6 . .                                                                                                                                                                       o eXmXnXwX2X'.W.R.W.W.W.~.'.'.'.'.'.'.'.'.'.'.[.[.[.[.[.[.[.[.].).).).).).).).~.E.R.Z.T.T.n.m.m.n.n.Z.B.n.b.b.b.b.m.m.n.Z.Z.Z.Z.Z.B.Z.E.~.R.Z.Z.A.E.!.).`._._.`.`.`.`.`._._.].].]._._.].+X@X@X@X@X@X@X@X+X+X[.]._._.`.).).!.E.A.A.A.Z.B.B.n.b.b.b.b.n.n.n.b.n.n.n.n.v.v.v.v.v.v.v.v.v.v.m.m.m.m.n.Z.T.R.T.T.R.E.).).E.R.E.E.E.E.E.E.E.E.E.E.!.).`._.oX].].].].+X@X@X&X=X:X:X:X;X:X4X4X4X9X9X4X>X4X4X9X9X9X9X4X:X:X>X4X:X:X:X3X9X9X4X;X;X;X&X=X=X=X&X+X_._.[.+X+X[.[.+X+X+X+X+X+X+X[._._._.~.!.!.].].].~.!.R.b.a.a.r.9.z y y y y z 4.3.7.7.7.t.r.f.g.f.a.a.a.a.i.c.c.c.m.c.M.m.m.v.v.v.m.n.n.n.n.n.n.B.Z.Z.Z.R.R.R.R.R.R.T.Z.Z.Z.Z.Z.Z.B.n.n.v.v.v.c.c.c.i.i.i.i.p.y.u.p.p.y.y.y.y.$.@.{ { { [ ` ` ` ` ` [ ` ` ` [ [ [ [ [ [ } @.y.u.u.u.u.u.p.n.n.c.0.b : Q.m.j . & . .   $ J L v ; & & & 4 J L ' +.x.U.}./.I.Y.x.x.%.+.J 5 % $ . .   $ < 3 % + $ . + %   . 6 g g 6 6 6 6 6 0 0 6 0 g g g g g j j v ! [ $.u.p.p.u.i.i.c.v.v.v.n.n.n.V.B.B.B.Z.Z.R.R.R.E.E.E.E.E.",
"! ! ! ^ 1 .                                                                                                                                                                         0 VXnXwXeXeX6X2X'.n.Q.R.W.W.'.'.'.'.'.'.'.'.'.'.[.[.[.[.{.[.[.].).).).).).).).W.W.R.R.R.R.Z.n.n.Z.Z.Z.B.n.m.b.b.b.m.m.m.b.Z.Z.Z.Z.Z.Z.E.E.E.A.E.E.~.).`._.].[.].].].].].].].].].].]._.oX@X@X@X@X&X&X&X#X@X+X].].`.`.`.).).!.E.E.E.E.A.Z.B.B.m.b.n.m.n.n.n.n.n.n.m.m.m.v.v.c.v.v.v.v.v.v.c.c.c.v.m.n.Z.T.Z.Z.Z.R.E.E.E.E.~.E.E.E.E.!.).).).!.!.).`._.oX].].].].+X@X@X&X&X=X=X=X=X;X4X4X4X>X>X>X:X>X4X4X9X9X9X4X:X:X>X:X:X:X;X:X4X9X:X;X:X3X3X&X*X&X&X@X`.`.+X+X+X[.[.[.].]._._._.]._.]._.`.~.!.R.]._.~.E.R.R.A.V.V.V.t.4.z y y z 4.r.f.a.a.a.a.g.V.g.a.a.a.i.i.i.c.m.m.n.M.M.m.m.n.m.m.m.n.n.Z.Z.Z.Z.B.Z.Z.R.Q.Q.Q.Q.Q.R.T.Z.Z.Z.Z.Z.Z.n.n.n.n.n.v.c.c.c.c.i.s.s.i.p.p.u.u.y.y.y.y.y.$.{ { { { [ ` ` ` ` ` ` [ ` [ [ [ [ [ [ +.@.y.u.p.p.p.p.n.B.n.v.p.: d Q.s.K   & $ $ . $ g L P : $ $ * + 4 g c L ^ ^ #.s.%.%.O.^ J v 4 ; o . . .     $ < % + $ . % $   $ 0 0 6 6 6 6 6 6 g g 6 6 g g d d d d g j b ! { y.u.p.u.i.i.c.v.v.v.n.b.n.b.B.B.B.Z.Z.R.R.R.E.E.E.E.E.",
"! ! ^ ^ ;                                                                                                                                                                           ^ VX6X2X2XeXeXwX6XW.T.Q.R.W.).'.'.'.'.'.'.'.'.'.'.[.[.[.[.[.[.'.).).).).).~.W.Q.R.T.R.Q.Q.T.B.B.Z.R.T.Z.n.b.m.b.b.m.m.m.b.n.B.Z.Z.Z.Z.R.E.!.~.)._.).).).`._.].[.+XoXoXoX+X+XoX+X+X].oX+X@X&X&X&X*X*X*X&X@X+X].].`.`.`.).).!.E.E.E.E.A.Z.B.b.m.n.n.m.n.n.n.n.n.n.m.m.m.m.v.c.c.l.l.c.c.c.c.l.l.c.m.n.B.Z.Z.B.B.Z.R.E.E.~.)._._.).).).).).).).).`._.].oXoXoXoXoX+X@X@X@X&X&X&X&X&X;X:X:X:X:X:X:X:X>X>X>X>X4X9X:X:X:X:X;X=X=X=X;X:X3X=X*X&X=X;X&X@X&X=X@X`.`.+X@X@X+X+X[.]._.`.).).).`._.).~.~.!.A.!.E.R.B.B.V.a.a.a.g.r.4.z y y 4.r.f.g.f.a.V.v.V.V.a.a.a.a.s.c.c.n.n.n.n.M.M.m.m.n.n.m.m.n.n.Z.Z.Z.B.B.Z.Z.E.E.E.W.Q.Q.T.T.Z.Z.Z.Z.Z.Z.n.n.n.n.n.v.c.c.c.c.c.c.c.i.i.i.u.p.p.y.y.y.y.y.@.{ { { { { ` ` ` ` ` [ [ [ [ [ [ { { @.$.u.u.p.i.i.i.v.i.T.2X5XR.y.T.m./ $ ; : ; $ & 6 K P 6 $ $ . $ & ; 1 0 h h J U J J h 1 2 - o $ $ .   .       $ + $ . . $ . . - 0 0 6 6 6 6 6 6 6 6 6 g g d g g g d g g c K ! { u.u.u.u.i.c.v.v.v.n.n.n.b.B.B.B.B.Z.Z.A.A.R.E.E.E.E.",
"! ! ^ ^ o                                                                                                                                                                         . +.mX6X2X{.{.2XmXqX2XW.Q.Q.Q.W.).'.'.'.'.'.'.'.'.'.'.[.[.[.[.[.].'.'.'.).~.~.W.E.R.R.R.Q.Q.R.Z.B.Z.Z.Z.Z.b.v.m.b.n.b.m.B.B.n.n.B.Z.Z.Z.E.~.).).).`.).`.).`.].].].oXoX+X+X+X+XoX+X+X+X+X@X@X&X&X*X*X*X*X&X@X@X].]._.`.`.).).!.E.E.E.E.Z.Z.B.b.b.n.n.b.n.n.m.m.m.m.b.m.m.m.m.v.c.l.l.c.v.c.l.l.i.l.b.B.B.B.Z.B.b.b.Z.Z.R.E.)._._.).~.!.!.!.!.!.).)._.].oXoX+X+X+X+X@X@X@X@X@X&X&X=X;X&X;X:X3X3X3X3X:X:X3X3X4X:X:X:X4X:X=X&X&X&X&X;X;X&X@X&X&X&X&X@X&X&X@X_.].+X@X@X@X+X[.[.].`.!.!.!.).).~.!.!.E.A.A.Z.B.B.B.v.a.a.a.a.r.9.1.z z 7.r.a.V.v.v.v.v.v.v.a.a.a.a.c.l.v.n.T.B.c.c.m.m.m.m.m.m.m.b.Z.Z.Z.Z.Z.Z.Z.E.E.W.W.E.Q.R.R.R.Z.Z.Z.Z.Z.Z.Z.n.n.n.n.m.v.m.c.c.c.v.m.l.l.i.i.i.p.u.u.y.y.y.$.$.} } } { { { { { { { { { { { { +.@.$.y.u.u.i.i.i.i.l.n.~.qXmXgXwXwX).y.! ! 6 b * * d K j * $ $ $ $ o $ $ $ $ . . . .                 . . .     . . . . . . . . . - g g 6 6 6 6 6 6 6 6 6 6 g g g g d g g j j c P ` @.u.u.p.i.c.c.m.v.n.m.n.B.B.B.B.B.Z.Z.A.A.A.A.A.A.A.",
"! ! ^ ^ o .                                                                                                                                                                         U.nX6X2X2X{.2XeX2XwX2XW.T.T.W.W.).'.).'.'.'.'.'.'.'.].[.[.[.[.].'.'.'.).~.W.W.W.W.E.R.Q.Q.R.Z.B.B.Z.B.b.v.v.v.m.m.m.m.Z.Z.B.n.B.B.B.Z.E.~.).).).).).).`.`.].].].].].oXoXoXoXoXoX+X@X@X@X&X*X*X*X*X*X*X&X@X@X+X]._.`.`.).).!.E.E.E.E.A.Z.Z.B.n.b.n.b.n.n.m.m.v.v.v.v.m.m.m.v.v.c.v.b.m.c.c.l.l.c.v.n.B.n.n.n.b.b.b.b.B.Z.R.R.E.E.E.E.E.E.E.E.!.).`._._._.].].].].oX].oXoX+X@X&X=X&X&X;X3X4X4X:X:X:X:X:X:X:X:X;X:X3X:X;X;X=X=X&X=X=X@X@X@X@X@X&X&X&X@X@X+X+X+XoXoX+X].[._.`.).!.!.!.!.~.!.!.!.E.Z.Z.R.R.E.R.B.B.v.a.a.a.3.Q M ~ d.a.a.v.v.v.v.v.v.a.a.a.a.c.m.R.R.T.n.v.l.c.n.n.m.m.m.m.m.b.n.Z.Z.Z.Z.R.E.E.E.W.W.Q.R.R.R.R.T.Z.Z.Z.Z.Z.Z.n.n.n.n.v.v.m.m.m.m.v.m.c.l.i.i.i.p.u.u.p.y.y.y.$.y.$.$.$.} { { { { { { { { { @.@.y.u.p.u.i.i.p.p.i.B.{.wXgXmXmXmXmXmXwX*XZ.} } b b b K 6 * o $ $ X $ . . . . .                       . . .                 . . . & g 0 6 6 6 6 6 6 6 6 6 6 6 6 g 6 d g g j v b L ^ ` { u.u.i.c.c.m.v.n.m.n.B.B.B.B.B.B.Z.Z.A.A.A.A.A.A.",
"! ! ^ ^ $                                                                                                                                                                         . eXwXeX6X2X|.|.{.'.wXwX{.T.Q.Q.Q.W.).).).'.'.'.'.'.'.'.'.[.[.].'.'.].'.'.).~.W.W.W.E.Q.Q.Q.Q.Z.n.b.b.m.v.v.m.v.v.v.v.c.n.Z.Z.n.B.B.Z.Z.A.E.~.).!.!.!.).).`._._._.].].].].oXoXoXoX+X@X&X&X&X&X&X&X-X-X=X-X&X#X+XoX_._._.`.).!.E.E.E.E.E.Z.Z.Z.B.b.n.n.m.m.m.m.m.m.v.v.v.v.v.v.v.c.v.n.n.m.m.v.v.c.v.m.b.B.n.n.B.b.b.v.b.b.B.B.Z.Z.A.E.A.A.A.A.E.!.).).`.`.`.`._._._._.+X@X&X;X;X=X&X&X=X:X3X3X:X:X;X;X;X:X:X:X:X;X:X3X3X3X3X;X=X=X=X@X@X&X&X&X@X@X@XoX+XoXoXoXoXoX].]._.).).).!.!.).!.!.!.E.E.E.Z.Z.Z.E.W.E.B.B.B.v.a.a.7.2.~ 6.a.a.a.v.v.v.v.v.a.a.a.a.c.c.m.R.T.T.n.m.l.v.B.n.b.b.b.b.b.b.b.b.Z.Z.E.E.E.W.W.W.E.E.Q.Q.E.Q.R.R.R.T.Z.Z.Z.Z.Z.B.n.n.m.v.v.v.v.v.v.c.c.c.i.i.p.p.p.p.y.y.y.y.y.y.y.$.$.{ { { { { { { @.} $.p.u.u.u.p.p.i.p.z.E.1XwXBXmXmXBXBXGXDXGXSXGX5Xb.! n W v & $ $ . . .                                     . .     .               . + g 0 6 6 6 6 6 6 6 6 6 6 6 6 g 6 6 6 g j b L ! L ! ` $.i.i.x.c.m.m.n.m.n.b.b.B.B.B.B.Z.Z.A.A.A.A.A.A.",
"! ! ! L $                                                                                                                                                                         & VXwXwX5X2X2X{.{.Q.2XwX2X'.}.W.Q.Q.W.).).'.'.'.'.'.'.'.'.'.[.].'.'.'.'.'.).~.W.W.W.W.E.Q.Q.R.Z.n.b.v.v.c.v.m.b.m.m.c.c.m.n.n.n.n.n.b.B.Z.E.E.E.E.E.E.!.).`._.`.`.`.`._.].oX+XoXoX@X&X&X&X-X-X-X-X=X-X=X=X&X#X+XoX_.`.`.`.).).!.E.E.E.E.E.Z.Z.B.n.n.n.m.m.m.m.b.b.v.v.m.v.v.v.m.c.v.b.n.n.n.m.m.c.l.l.v.m.n.n.B.Z.B.b.b.b.B.B.Z.R.E.E.E.E.E.A.E.!.!.!.!.!.!.`.`.`._._._.oX@X&X;X=X&X@X@X&X;X;X;X&X&X;X;X;X:X:X:X=X:X4X4X3X3X:X=X=X-X@X@X&X*X*X@X@XoXoXoX+X]._.].]._.`.).!.!.!.!.~.!.!.~.!.E.!.E.Z.Z.Z.R.E.R.Z.b.b.c.a.a.f.r.6.d.a.a.a.v.v.v.c.c.a.c.c.c.c.c.c.v.n.n.n.B.v.c.m.b.m.b.b.b.b.b.b.b.Z.E.E.E.W.W.W.W.E.E.Q.E.W.E.Q.R.R.T.Z.Z.Z.Z.Z.n.n.n.n.v.v.v.v.v.v.m.c.c.i.i.p.p.p.y.y.y.y.y.y.y.y.$.$.@.@.@.@.@.@.@.@.@.y.u.u.p.i.i.p.i.i.R.3XgXaXgXSXjXMXSXZXSXSXDXFXFXSX1X0.n : $ $ . . . .                                       .     .                 o 0 6 6 6 6 6 6 6 6 6 6 6 6 6 g 6 6 6 d g P ^ ^ K b ! [ u.i.x.m.m.m.m.m.n.n.b.b.B.B.B.Z.Z.A.A.A.A.A.A.",
"! ! ! L o .                                                                                                                                                                       L nXwX6X5X6X6X{.'.W.{.2X{.2X{.W.W.Q.W.~.'.'.'.'.'.'.'.'.'.'.].].].'.].'.'.'.W.W.W.~.W.W.Q.R.Z.B.n.m.m.v.v.v.b.b.b.m.c.c.c.m.n.n.n.B.B.B.Z.R.!.!.!.!.!.).`._._.`.`.`.`._.oX+X@X@X@X&X-X=X=X;X:X;X;X;X=X=X-X&X#X+X+X]._.`.`.).).!.E.E.E.E.E.E.Z.Z.B.n.n.b.b.m.m.b.b.v.v.v.m.v.v.m.v.v.b.b.m.n.m.v.c.l.i.i.c.m.m.B.Z.B.B.n.B.Z.R.R.R.E.E.E.E.E.E.!.!.!.!.!.!.).).).`.`.`._._.+X&X=X=X&X@X@X&X&X&X&X&X&X=X=X;X3X3X3X:X3X9X5X:X:X;X&X&X&X@X@X#X&X@X@X@X_._.+X+X[.].].]._.).~.!.!.!.!.~.E.E.).~.~.).).R.B.B.n.Z.R.R.v.c.i.i.a.a.g.a.c.c.c.c.c.c.c.l.i.c.v.n.v.c.c.l.i.c.n.n.n.m.v.m.b.m.m.m.b.b.B.B.Z.Z.E.E.E.E.W.W.E.E.E.Q.Q.Q.Q.Q.R.R.R.T.T.Z.Z.B.B.B.n.b.v.v.v.v.v.v.m.m.c.c.i.i.i.p.p.y.y.y.y.y.y.y.y.y.$.$.@.@.@.@.@.$.y.u.p.u.y.i.i.0.p.A.9XgXgXgXfXkXkXSXZXAXAXAXAXAXDXFXFXMX1X! * $   . . .               .           . .   . . . . $ $ . .               o g 0 6 6 6 6 6 6 6 6 6 6 6 6 6 6 6 6 g g c b b b v b ^ $.u.i.c.m.M.n.n.n.n.n.n.B.B.B.Z.Z.A.A.A.A.E.E.",
"^ ! ! L o .                                                                                                                                                                     . +.nXwXqXwXwX6X|.nXmXeX}.W.2X2X'.W.W.W.W.W.).'.'.].].].'.'.'.'.].'.'.].'.'.'.W.W.W.W.E.R.T.Z.n.n.n.m.n.n.n.n.B.B.n.m.v.c.v.n.n.n.n.B.Z.R.E.!.~.).).`.).).`._.]._.`.`.].].+X#X&X&X&X-X-X:X:X:X3X:X:X:X:X-X=X&X#X+XoX_.`.`.`.).).).!.E.E.E.E.E.Z.Z.Z.B.n.n.b.b.m.b.n.v.v.v.m.v.m.m.v.v.m.b.m.m.v.c.l.i.i.i.c.m.v.b.B.Z.B.n.n.Z.T.T.T.R.R.E.E.E.E.!.!.~.~.).)._._.`.`.`._._.].oX@X&X&X@X@X@X&X&X&X&X*X&X&X&X&X=X3X3X3X3X4X3X;X;X&X@X@X*X*X@X+X+X+X+X+X]._.]._._._.].]._.).~.E.E.~.~.E.E.E.E.E.E.).].).Z.b.v.n.Z.R.v.c.i.i.i.a.V.V.c.c.c.c.c.c.c.c.c.c.n.n.n.m.c.c.c.c.m.n.b.m.m.m.B.B.n.n.n.B.Z.Z.Z.Z.Q.E.E.E.E.E.E.E.E.Q.Q.Q.Q.R.R.R.R.R.R.T.Z.B.n.n.n.b.n.n.m.v.n.v.M.m.m.m.l.i.i.i.p.p.u.u.y.y.y.y.y.y.y.y.$.@.@.@.$.y.u.u.p.i.i.i.p.d.S.-XgXgXfXfXkXkXMXSXCXAXAXAXAXAXAXAXAXFXAXmX'.: .   .               . . . $ o + , 3 , $ $ $ $ $ $ $ . .             . $ 0 0 6 6 6 6 6 6 6 6 6 6 6 6 6 6 6 6 d d g d g j v c P ` $.u.i.c.m.n.n.n.n.n.n.B.B.B.Z.Z.A.A.A.A.E.E.",
"/ / ! L + .                                                                                                                                                                     . H nXmXwX2XwXeXGXDXDXGX2XW.|.6X{.'.W.W.W.W.W.).'.'.[.[.[.'.'.'.'.'.'.'.'.'.'.W.W.W.R.T.Z.Z.n.n.n.n.n.n.n.n.n.B.B.n.m.v.v.m.b.B.B.Z.Z.E.~.~.).).).).`.).).`._.].].].].].oX@X&X-X&X-X-X:X:X3X3X3X:X:X:X:X-X=X*X&X@X+X]._.`.`.).).).!.E.E.E.E.Q.Z.Z.Z.Z.n.b.b.b.m.n.B.b.v.v.m.v.v.m.m.v.m.n.b.v.c.l.l.i.i.i.c.v.c.v.v.B.B.n.b.B.B.B.Z.T.R.R.E.E.E.!.!.!.!.!.!.).`.).).`.].].+X].+X@X@X@X+X@X@X@X@X&X&X=X&X&X&X=X:X;X&X@X&X=X;X;X=X@X@X*X*X@X+X+X+X+XoX]._.`.`._.].].]._.`.~.E.E.~.~.E.E.E.E.E.R.R.E.E.Z.m.v.m.v.m.v.c.l.i.i.a.v.b.m.c.c.c.c.c.c.c.m.m.M.M.m.M.n.n.n.m.m.m.m.b.b.n.B.Z.B.Z.Z.Z.Z.Z.R.R.Q.E.E.E.E.E.E.E.E.Q.Q.R.Q.R.R.R.R.R.R.R.Z.B.B.n.B.B.B.n.n.n.n.n.n.n.n.M.c.c.l.l.i.p.i.u.y.y.y.y.y.y.y.y.y.$.@.$.y.u.p.p.p.p.l.i.a.S.&XuXkXdXkXkXkXkXkXcXCXAXAXAXAXAXAXAXAXAXSXSXDX|.b $ . . . . . . @ < 0 g 0 0 h h 3 & $ & % % % & $ . . .       . . . . $ 0 0 6 6 6 6 6 6 6 6 6 6 6 6 6 6 6 6 6 6 6 6 d d j v c P ` $.u.i.M.n.n.n.B.B.n.Z.Z.Z.Z.R.A.A.A.A.E.E.",
"/ / ! L & .                                                                                                                                                                       $ %.}.{.U.wXLXHXHXLXGXGX6X|.|.{.{.'.W.W.W.).).'.'.[.[.[.'.'.'.'.'.'.'.'.'.'.W.W.E.T.B.B.B.n.n.n.m.m.m.m.v.v.v.v.v.v.v.v.b.B.Z.R.R.E.~.~.~.!.!.!.!.!.!.).`._.].].oX+X+X@X&X-X=X=X-X:X9X3X9X3X4X:X:X:X:X-X=X*X&X@X+X]._.`.`.`.).).!.E.E.E.E.Q.R.Z.Z.Z.B.n.b.m.m.n.n.b.v.v.m.v.v.v.v.v.b.B.b.v.l.l.l.i.i.l.c.v.c.v.v.v.n.b.v.n.B.B.Z.T.R.R.R.E.E.A.A.R.A.A.A.!.!.).).`._.].+X_.].+X@X+X+X+X+X+X+X@X=X=X=X=X:X3X3X3X&X@X&X&X=X=X=X&X&X#X@X#X&X&X&X@XoX]._.`.).`.].+X]._._.~.!.!.!.E.E.E.E.E.E.Z.v.v.B.B.m.m.m.c.c.m.c.l.i.i.a.v.b.m.c.c.c.c.c.c.M.M.M.m.m.m.n.n.n.n.n.m.m.m.m.b.B.Z.Z.Z.Z.Z.Z.R.R.R.R.Q.E.E.E.E.E.E.E.E.E.Q.R.Q.R.Q.R.R.R.R.R.Z.Z.B.n.B.B.B.B.B.n.n.n.n.n.n.n.M.m.c.c.i.i.i.p.y.y.y.y.y.y.y.y.y.y.$.u.u.u.i.u.p.p.i.i.S.&XuXdXkXkXkXkXkXkXkXcXCXAXAXAXAXAXAXAXAXAXFXAXFXGX|.b $ $   . + , c J J G U J h 0 % o o % % & & & $ . . .     . $ $ & o o 6 0 6 6 6 6 6 6 6 6 6 6 6 6 6 6 6 6 6 6 6 g d d d j g c P ` $.p.m.n.n.n.B.B.B.Z.Z.Z.Z.Z.A.A.A.E.E.E.",
"` ^ ! L & .                                                                                                                                                                       . $ o 6 eXKXHXLXLXnXnX6X|.}.}.{.|.|.|.W.W.W.W.).'.[.].'.'.'.).'.'.'.'.'.'.'.W.W.Q.T.Z.Z.Z.n.n.m.m.m.m.m.c.c.l.c.m.m.n.B.Z.Z.R.R.E.E.!.!.!.!.!.!.!.).).).`._.+X@X@X@X@X&X*X=X=X:X3X9X9X0X0X9X0X:X:X:X;X;X=X&X&X@X+X]._.`.`.`.`.).!.E.E.E.E.E.A.Z.Z.B.B.n.n.m.m.b.b.m.v.M.M.M.c.v.v.v.n.n.v.c.l.l.c.i.i.l.c.v.v.v.v.v.v.m.v.v.n.Z.Z.Z.Z.R.R.Q.R.Z.A.A.A.A.A.E.!.).).`._.].].].+X+X+X+X+X+X+X+X+X+X&X=X=X;X:X3X:X=X&X&X@X@X*X-X=X=X*X*X@X*X*X*X#X+XoX]._.].).!.`.+X[.).).).~.E.E.E.E.E.E.E.R.B.B.n.b.m.c.c.m.c.m.m.c.s.i.i.s.v.m.m.c.c.c.c.M.M.M.n.M.M.M.v.n.n.n.n.n.n.n.n.n.n.B.Z.Z.Z.R.R.R.R.R.R.R.E.E.E.E.E.E.E.E.E.Q.Q.R.R.R.R.R.R.R.R.T.Z.Z.n.n.n.B.Z.Z.n.n.m.m.m.n.n.n.v.c.c.c.c.i.i.p.y.y.y.u.u.y.y.y.p.p.y.u.p.u.i.i.p.} z.S.@X0XdXdXjXkXkXkXkXkXkXCXSXAXAXAXAXAXAXDXFXFXDXAXDXDXDX2Xn ; . < h H J J J c c 0 1 & o o & % % & o $ . $ .   . $ o o + ; ; & 6 0 0 6 6 6 6 6 6 6 6 d d d d d 6 6 6 6 d d g g g v v j K / { u.c.m.n.n.B.B.B.B.Z.Z.Z.Z.A.A.R.R.R.R.",
"` ^ ! L & .                                                                                                                                                                         $ > |.KXHXLXnXeX}.Y.s.^ Y #.Y.}.|.6X{.W.W.W.W.).].].].'.'.'.'.'.'.'.'.'.'.W.W.Q.Q.R.T.Z.n.n.b.b.b.b.m.m.v.c.m.n.Z.Z.R.R.R.R.E.E.E.E.!.!.!.!.).).`.`.`._.oX@X@X&X&X&X*X-X=X=X:X3X9X0XyX0X0X4X:X:X;X;X=X=X&X&X@X+X]._.`.`.`.`.).!.E.E.E.E.E.A.Z.Z.Z.B.B.n.m.m.v.v.c.c.c.c.l.c.c.c.c.c.c.l.i.i.i.c.c.i.l.c.c.c.c.c.c.c.v.c.l.m.n.B.B.Z.Z.Z.Z.T.Z.Z.A.E.A.A.E.!.).).`.`._.`._._.OXOXoX+X+X@X@X@X@X@X&X&X=X=X=X=X&X&X@X@X&X&X=X1X=X*X*X@X#X*X*X@XoXoX].]._.).!.!.~.!.E.E.!.E.R.R.R.E.E.R.R.B.n.Z.Z.b.v.l.c.c.c.c.c.c.i.i.i.i.c.m.m.c.l.l.c.M.m.m.n.n.n.n.n.m.n.n.n.n.n.n.n.n.n.B.Z.Z.R.R.R.R.R.Z.R.R.A.A.E.E.Q.E.Q.Q.E.Q.Q.R.R.R.R.R.R.R.T.Z.Z.Z.n.n.n.B.Z.Z.B.n.m.m.m.m.n.v.m.c.c.c.c.i.i.u.u.y.y.u.p.y.y.y.u.u.u.u.u.u.i.i.p.p.z.;XaX0XdXjXjXkXkXkXkXkXkXCXSXAXAXAXAXAXDXAXDXAXAXDXAXAXDXDX{.b & 6 J J c c v 6 4 ; & o o & & & & & o $ $ . . $ $ + + + & < 4 < 3 g 0 6 6 6 6 6 d d d d d d d d d d g g g g g g g j j j b ! ` y.i.m.m.n.n.B.B.B.Z.Z.Z.Z.A.A.R.R.R.R.",
"` / ^ ^ & .                                                                                                                                                                         $ |.KXKXVX6X/.UXT Z h 1 2 h ^ U.|.6X|.{.W.W.E.~.).].[.'.'.'.'.'.'.'.'.'.'.W.E.W.W.W.R.Z.n.b.b.n.n.b.m.m.n.n.B.Z.T.T.R.R.R.R.E.E.E.!.).).`.`.`.`._._._._.+X@X&X&X*X*X-X-X=X=X:X3X9X0X0X9X3X;X;X:X:X=X=X&X&X&X#X@XoX_._.`.`.`.).!.E.E.!.!.E.E.R.Z.Z.B.n.B.b.v.v.l.l.l.c.l.l.l.l.l.i.i.i.i.i.i.i.l.c.l.i.c.c.c.c.c.c.v.m.c.i.l.v.v.n.B.n.n.n.B.B.Z.Z.A.A.A.E.!.).).).).`.).).`.`.`._.OX+X+X@X&X@X@X+X@X*X&X&X*X&X&X@X@X@X@X-X=X*X*X*X@X+X@X+X+XoX]._._.`.`.!.A.A.R.E.E.!.E.E.R.R.R.Z.B.B.B.Z.Z.n.m.c.l.c.c.c.c.c.c.i.i.i.i.c.c.c.c.i.i.c.c.m.m.m.m.M.M.v.v.v.n.n.n.n.n.n.n.n.n.b.B.R.Q.Q.Q.E.R.E.E.Z.Z.Z.R.R.E.E.Q.Q.Q.R.R.R.R.R.R.R.T.T.Z.Z.Z.Z.Z.n.Z.T.T.Z.n.b.b.m.v.m.c.c.c.c.c.c.i.i.i.u.y.y.u.y.y.y.y.u.u.u.u.u.u.i.p.i.Z.@X3XyXdXjXkXkXkXkXkXkXkXMXCXSXAXAXAXAXAXAXAXZXZXZXZXZXSXDXBXBXW.b K c 6 j g 6 ; $ $ $ o & & & & % & $ X $ . . + + + + + & 1 4 4 3 g 0 0 d 6 g g d d g g g g g g g g g g g g g g g v v v b P / } y.s.n.n.n.B.B.B.Z.Z.R.R.A.A.R.R.R.R.",
"` / ^ ^ &                                                                                                                                                                           Y.JXLXnX|.*.U e B 7 9 e B F Z O./.|.2X2X'.W.W.E.).).'.'.'.'.'.'.'.).'.'.'.W.W.W.~.W.R.Z.n.n.n.B.B.n.m.n.n.Z.Z.Z.T.T.R.R.R.E.E.E.E.~.!.`._.`.`.`._._._.].+X&X&X*X-X-X-X-X=X=X3X3X9X0X9X4X=X=X:X:X:X=X=X=X=X&X#X@XoX_._.`.`.`.).!.E.E.!.!.E.E.R.R.Z.B.n.n.m.v.c.l.l.l.l.l.i.i.i.i.i.i.i.i.i.i.i.i.c.l.i.i.l.l.c.c.c.m.m.c.l.i.i.l.m.n.n.m.m.m.b.B.Z.A.R.A.E.!.!.).).).).).).).!.!.!.`.@X@X@X@X&X@X+X+X@X=X&X&X@X@X@X+X+X+X+X@X*X*X@X@X[.[.[.[.[.].[.].!.).~.A.A.E.).).).).E.R.Z.B.b.v.b.B.Z.n.m.m.v.c.c.c.c.c.c.s.i.u.i.i.c.c.c.c.l.l.l.c.c.c.c.c.c.c.c.c.m.v.n.n.n.n.n.n.B.n.m.n.T.Q.E.Q.E.E.R.R.Z.Z.Z.Z.Z.Z.A.R.R.R.R.R.R.R.T.Z.Z.Z.Z.Z.Z.Z.Z.Z.Z.Z.T.R.Z.n.b.b.v.c.c.c.c.c.c.c.c.i.i.u.u.y.y.u.u.y.y.y.u.u.p.u.u.p.i.i.B.#X0XqXyXdXjXkXkXkXkXkXkXkXMXCXSXAXAXAXAXAXAXZXZXSXZXSXSXBXBXBXGXmX/.U.y.b d 4 ; & . $ $ o & & & & % & * X . $ + $ + + + & ; 4 6 4 6 g 0 g 6 d g g g g g g g g g g g g g g g g g g g j j v c b ! | y.p.c.n.B.B.B.Z.Z.Z.R.R.A.A.R.R.R.R.",
"/ / ^ ^ &                                                                                                                                                                     .   O.KXLXnX/.O.e 1 r 9 e F G R R Y U #./.2X{.{.'.).W.W.).).'.'.).).'.'.).'.'.).W.W.W.W.E.R.Z.n.n.n.B.B.b.n.n.Z.T.Z.T.T.Z.R.R.E.~.~.!.E.A.!._._.`.`._.[.[.].+X-X=X;X=X=X=X;X3X3X9X9X9X0X0X3X@X0X:X3X:X:X=X=X=X&X=X&X@X+X]._._.`.`.`.!.E.E.!.E.E.E.R.R.Z.B.n.b.m.v.c.c.l.l.c.l.l.i.i.p.p.p.p.p.i.i.i.i.i.i.c.s.i.i.c.c.v.v.n.m.c.i.i.i.v.n.n.v.v.v.b.B.B.Z.R.R.R.R.E.E.E.E.!.!.).).!.A.R.).+X+X+X+X+X+X_._.+X&X*X+X+X+X]._.@X+X].+X+X@X+X+X].].].].].[.[.].).).~.R.E.R.E.!.).'.'.'.Z.n.v.v.n.n.n.n.n.v.m.m.c.c.m.m.c.s.i.p.i.i.s.c.c.c.c.l.l.c.c.c.c.c.c.c.c.c.c.c.v.n.n.n.n.n.B.T.Z.n.n.T.R.R.R.R.R.R.R.Z.Z.Z.Z.Z.R.R.R.R.R.R.R.T.Z.Z.Z.Z.Z.Z.Z.Z.Z.Z.Z.T.R.R.Z.n.m.m.v.c.v.v.c.c.y.i.c.i.u.y.y.y.y.y.y.y.u.p.p.p.p.p.i.i.c.T.#X5XpXaXdXfXkXkXkXkXjXjXkXkXkXNXSXCXZXZXAXAXZXSXMXmXgXgXSXsXwXsXmXGX'.W.W.Q.i.d * . . $ $ $ * o o o $ . . $ - & - - - - & & ; 4 6 g j j g g g g g g g g g g g g g g g g g g g g g g j j j v c c K ! [ p.s.v.B.B.Z.T.Z.R.A.R.R.R.E.E.E.E.",
"` ` ^ ^ <                                                                                                                                                                       1 LXKXnX|.*.G 9 B G E E R Y E E G F Y x.6X|.{.{.'.~.W.W.W.'.).).).).).).'.~.W.~.W.W.E.Q.R.Z.B.n.n.n.n.n.n.Z.Z.R.R.R.R.R.R.W.).).).).!.!.`._._.`.`.[.+X@X@X-X3X3X3X3X3X3X4X0X0XyXyX0X0X9X;X0X0X9X4X3X:X=X=X=X=X=X&X@X+X]._._.`.`.`.!.E.E.E.E.E.E.R.A.B.b.b.b.m.v.c.c.l.c.c.l.i.p.p.p.p.p.p.p.p.p.p.i.i.i.i.i.c.i.c.c.v.v.v.m.c.i.i.i.c.v.m.c.c.c.v.b.B.B.Z.Z.Z.Z.Z.Z.Z.Z.A.R.!.!.R.A.A.!.~.~.~.)._.`.!.!.~.+X+X].].]._._.[.+X]._.].].]._._.).).)._.]._._.).~.E.R.Z.b.b.B.E.E.W.E.T.n.v.n.n.n.n.n.v.c.c.l.i.x.m.m.c.i.u.p.i.i.s.c.c.c.l.l.i.i.l.l.l.c.c.c.c.c.c.l.c.c.v.n.n.n.B.R.Q.B.m.n.Z.T.Z.Z.Z.Z.Z.Z.Z.Z.Z.Z.R.R.R.R.R.R.T.Z.Z.Z.Z.T.Z.Z.Z.Z.Z.Z.Z.Z.R.R.R.n.m.b.m.v.m.m.c.l.u.i.c.i.y.y.y.y.y.y.y.y.p.p.p.p.p.i.i.a.T.#X5XqXpXaXdXfXjXjXjXjXjXjXjXjXkXkXCXCXCXSXSXSXkXjXgXgXpXgXGXgX5XqXsXmX[.'.*X*X[.Q.! : * $ $ * * $ $ . . . * ; - - & + + & & & & ; 3 g v j j j j j j g g g g g g g g g g g g g d g g g j j j c c b b K / } i.v.B.B.Z.Z.Z.R.R.R.R.R.E.E.E.E.",
"` ` / ' 6                                                                                                                                                               .     . |.LXVX|.UXO.Y R  . . . .E E I U H H U +.|.6X*X{.[.'.~.W.W.'.).).).).).).'.~.~.~.~.~.E.E.R.R.Z.B.n.n.n.n.Z.Z.R.R.Q.Q.Q.E.E.).)._._._.].[.+X].].+X+X@X*X-X-X-X3X9X4X3X3X3X0XtXaXaXaXyX9X3X3XdX0XtX4X3X:X;X=X=X=X&X&X#X+XoX[._.`.`.`.).!.E.E.E.A.A.A.Z.B.b.b.b.m.v.c.c.c.c.c.l.i.p.p.p.p.p.p.p.p.p.p.p.p.p.p.i.i.i.l.c.m.m.m.c.l.i.i.i.l.c.c.l.l.l.c.v.m.n.Z.Z.Z.Z.B.B.B.B.B.Z.Z.A.R.E.R.Z.A.R.R.E.!.!.E.A.E._.+X].[.].).).)._._.).)._._.).).~.~.!.).).).).E.Z.Z.n.m.b.v.v.n.Z.Z.Z.n.v.n.n.n.v.v.v.c.i.p.y.u.p.i.c.c.i.u.p.u.i.i.x.x.i.l.i.i.i.i.i.i.l.l.l.c.c.c.l.l.c.v.n.n.n.n.R.Q.B.m.n.Z.Z.Z.Z.Z.Z.Z.Z.Z.Z.Z.Z.Z.R.R.R.R.Z.Z.Z.Z.Z.T.T.Z.Z.Z.Z.Z.Z.Z.Z.T.Q.Q.Z.B.B.b.M.m.c.c.l.i.p.i.i.p.y.y.y.y.y.u.u.p.p.p.p.i.i.a.T.].1X5X0XpXaXdXfXjXjXjXjXdXdXdXdXhXjXkXCXCXMXkXdXaXyX0X0XqXqXmXsX*X1XeXwX5Xb.*X1XeX1X{.2X{.|.{.W.u.{ P c 6 ; + + $ * + & & & & + & < 6 g c c j g j g g j g g g g g g g g g g g g g g g g j j j c c c c b W [ y.c.n.B.Z.Z.Z.Z.A.A.A.R.E.E.!.E.",
"` ` / ' g                                                                                                                                                               .     R KXVX|.Y.O. .T U  . .E E I I I I I U R ^ /.6X2X|.{.[.).W.W.'.'.).).).).).'.~.~.~.~.W.W.E.Q.Q.R.Z.B.B.n.B.Z.R.E.Q.W.W.W.W.).)._.].].[.@X*X*X[.[.#X*X=X:X:X-X;X:X3X3X3X3X9X0XyXaXdXdXyX9X3X9X0X0X0X9X3X:X;X=X=X&X&X&X@X+X]._._.`.).).!.!.!.E.A.Z.Z.Z.B.b.b.b.b.m.v.c.c.l.l.c.l.i.p.p.p.p.p.p.p.p.p.p.p.p.p.p.p.p.u.i.l.c.c.c.l.i.i.i.l.l.c.l.l.l.l.c.c.v.m.n.n.b.b.n.B.Z.B.B.Z.Z.A.!.~.!.Z.A.R.R.E.!.!.!.R.R.~.[.+X].]._.).).).~.~.).).).).~.!.!.!.~.~.!.).Z.Z.b.m.m.b.b.m.v.m.m.m.n.n.n.n.c.l.l.c.l.i.y.0.y.y.p.i.s.i.u.p.u.i.i.i.i.i.i.i.l.l.l.l.i.i.l.l.l.c.c.c.v.n.n.B.B.n.B.T.Z.n.n.Z.Z.B.Z.Z.Z.Z.Z.Z.Z.Z.Z.Z.Z.Z.R.R.R.Z.Z.Z.Z.Z.T.T.T.T.T.Z.B.B.Z.B.Z.R.Q.Z.Z.Z.n.M.c.l.l.l.i.y.u.i.u.y.y.y.y.y.u.u.p.p.p.p.i.c.T.].1X5XqX0XpXaXdXfXjXjXjXdXdXdXdXdXdXdXkXMXMXkXdXyX0X9X5X3X1X5XsXqX).[.2X6XqXl.0.1XwXsXgX{.~.[.qXmXgXwXeXeX2X}.U.I.s.%.] P P J h 6 4 6 g v c c j g j g g j g g g g g g g g g g g g g g g g j j v v v v j b b ` y.i.n.B.B.Z.Z.Z.A.A.A.R.E.E.E.E.",
"` ` ` ' J                                                                                                                                                               .   . nXLX|.O.I R T T T Y E I I I E E E E Y R Y U.|.6X|.{.{.].).).).).).'.'.).).~.W.W.W.W.W.E.E.W.Q.T.Z.n.B.Z.T.R.E.E.E.W.~.).).).)._.].[.+X-X-X=X@X@X=X-X:X3X3X:X:X:X:X:X:X3X9XyXaXaXaXdXuX9X9X9XyX9X9X9X:X:X;X=X=X&X&X&X@X+X]._.`.).).).!.).!.E.R.Z.Z.B.B.B.n.n.n.m.v.m.c.l.l.i.i.i.i.i.p.p.p.u.p.p.p.u.u.y.y.y.y.y.y.p.i.l.c.l.l.i.i.c.c.l.l.l.c.c.c.c.c.c.c.v.m.n.B.Z.Z.Z.Z.Z.Z.Z.R.E.!.E.R.!.E.E.E.!.!.!.!.!.E._.~.)._.).).).~.~.).).).~.E.E.E.E.E.E.Q.R.Z.n.b.b.m.m.n.Z.B.n.n.n.n.m.v.m.c.s.i.i.i.i.p.y.y.y.y.p.i.i.i.i.i.i.i.i.i.i.i.i.i.l.l.i.i.i.i.l.l.c.c.c.m.n.n.B.T.T.B.T.T.Z.Z.Z.Z.Z.B.B.n.n.Z.Z.Z.Z.Z.B.b.Z.Z.R.R.R.Z.Z.B.n.Z.Z.Z.Z.Z.B.n.n.n.Z.b.n.T.R.B.n.U.n.m.l.l.x.i.i.u.i.p.y.y.y.y.y.y.y.p.p.y.y.i.v.R.#X1X1X5XqX0XpXaXdXdXdXdXdXdXdXdXaXdXdXfXjXkXfXaXyXqXpX1X1X[.[.*X2X{.n.'.'.].5X1X! 0.].qXmXmX'.{ ! ` c.T./.Q.U.x.%.^ ^ ^ L P L L ^ ^ ^ ^ ^ ' P j j g g g g g g g g g g g g g g g d g g g g g g g g g j j j g c P ` y.c.n.Z.Z.Z.Z.Z.A.A.A.E.E.E.E.",
"` ` ` ' J                                                                                                                                                               .   R LX|.O.-.Y R R R Y Y I I I I E E E E Y Y Y s.6XeX|.{.{.[.].).).).).'.'.).).~.W.W.W.W.E.E.Q.Q.R.Z.B.B.B.T.R.Q.E.E.E.W.~.).).).).)._.[.#X-X-X=X&X&X-X=X:X3X3X3X:X:X:X:X3X9XyXuXaXaXaXdXaXyX9X9XyX9X9X:X:X:X;X=X=X&X&X@X@XoX_._._.`.).).!.!.!.E.R.R.Z.B.B.B.n.n.n.n.v.m.c.l.p.p.p.i.i.i.p.p.p.u.u.p.u.y.y.y.y.y.y.y.y.y.y.p.l.c.c.c.l.c.l.l.l.l.c.c.c.c.c.c.c.l.c.m.Z.Z.m.n.R.Z.n.b.Z.Z.R.R.R.R.R.R.R.E.E.E.E.E.Z.!.R.E.!.!.!.!.~.E.~.).E.Z.Z.Z.Z.Z.Z.R.Z.Z.n.n.b.b.b.n.B.Z.n.v.c.c.c.c.l.i.i.i.y.y.i.i.i.u.y.y.y.p.i.i.i.i.i.i.i.i.i.i.i.i.i.i.i.i.i.i.i.l.l.c.c.c.m.m.M.n.n.B.B.B.B.Z.Z.Z.Z.B.B.B.B.n.m.m.Z.Z.B.B.b.Z.Z.T.R.R.R.Z.n.n.n.Z.Z.Z.B.n.n.n.b.Z.m.v.n.n.n.n.n.n.c.l.x.x.i.p.i.i.u.y.y.y.y.y.y.y.y.i.p.p.l.R.[.1X5X1XqX0X0XyXpXdXdXdXdXdXdXaXaXaXgXfXfXgXaX0XqXqXqX5X#X[.W.R.~.W.T.i.Z.Z.Q.#XgX*X} } '.2XmXDXwXx.P : 4 v ! L ^ ' ' ^ J g 4 < ; ; ; 5 6 g g P g j g g g g g g g g g g g g g g d d d g g g g g g g g j g j g v b / @.i.v.n.Z.Z.Z.Z.A.A.A.E.E.R.R.",
"[ [ ` ' L .                                                                                                                                                                 X.Y. . .R E Y Y E U I I I I I I E E E Y Y Y O.|.eX6X{.[.[.[.].).).).'.).).).~.W.W.W.W.E.Q.R.R.T.Z.Z.Z.T.Q.Q.Q.E.E.E.W.~.).).)._.)._.[.#X*X-X&X=X=X&X&X;X:X9X9X9X9X4X3X9XyXyXaXaXaXaXdXdXuXrXyXyX9X9X:X:X:X:X;X=X&X&X@X@XoX].+X[._._.`.).!.E.E.R.R.Z.B.B.B.B.B.n.n.n.m.c.i.p.p.p.p.p.i.i.p.p.y.y.y.y.y.y.y.y.y.y.y.y.y.y.p.i.i.i.i.i.i.i.l.l.x.x.c.x.c.c.c.c.c.c.m.n.n.c.m.T.T.B.n.n.n.B.Z.Z.Z.Z.Z.Z.Z.Z.Z.Z.Z.B.R.Z.Z.R.R.R.R.R.R.Q.Q.R.n.m.b.b.b.b.n.n.Z.Z.n.b.b.b.m.m.c.l.i.i.i.i.i.i.p.i.p.y.y.p.m.m.c.u.y.y.p.i.i.i.i.i.i.i.i.u.p.p.p.i.i.i.i.l.i.i.i.l.c.c.m.c.c.c.M.n.n.n.n.n.n.n.n.n.n.n.B.Z.Z.m.v.b.b.B.Z.Z.T.Z.Z.Z.T.T.Z.B.n.n.n.n.n.n.n.n.n.n.T.m.n.R.Q.T.n.M.c.c.l.l.x.i.u.i.i.y.y.y.y.u.u.y.y.y.i.p.l.Z.#X1X1X1X5X0X0XpXpXpXaXaXaXpXaXaXaXaXaXaX0XpXaXgX5X5X1X1X[.E.R.m.c.v.i.y.y.i.i.B.Q.~.DX#Xm ! Q.{.2XHXGX{.m.! 6 4 6 c P L +.^ J v 5 4 ; ; 4 6 g v P g j g d d g g g g g g g g g g g d d d g g g g g g g g g g g g v b ! { y.c.n.Z.Z.Z.Z.A.A.A.E.E.E.E.",
"[ ` ` ' ^ $                                                                                                                                                               X G U T E E G U U I I I I I I I I E E E E E Y O./.6XeX2X{.[.{.{.[.'.~.~.).).).W.W.W.W.E.E.Q.R.T.Z.Z.Z.T.R.Q.E.E.E.E.E.).).).)._._.)._.+X#X&X#X&X-X-X&X&X:X3X9X9X9X9X9X9XyXuXaXaXaXaXaXdXdXdXyXyXyX9X9X:X:X:X;X;X=X&X&X@XoX].].[.[._._.].`.!.E.E.R.R.Z.B.B.B.B.B.n.n.v.c.l.i.p.p.y.y.p.p.i.p.y.y.y.y.y.y.y.y.y.y.y.y.y.y.y.y.p.y.y.y.y.y.p.i.l.l.l.l.l.c.c.m.m.n.n.n.n.m.c.m.m.m.n.m.m.n.n.n.B.B.B.Z.Z.Z.Z.Z.Z.B.n.Z.B.Z.T.T.T.T.R.T.Z.Z.B.n.m.n.b.m.m.c.n.B.n.n.n.n.b.c.i.p.y.y.p.p.p.p.p.p.p.y.y.y.y.n.n.c.u.y.y.p.i.i.p.p.p.u.i.i.p.p.p.p.i.i.i.l.l.i.i.i.c.c.c.m.M.M.M.n.n.n.n.n.n.b.b.n.n.n.n.B.Z.Z.R.Z.b.m.b.Z.Z.R.R.Z.n.Z.Z.Z.B.n.n.n.n.n.n.n.n.n.b.Z.m.v.n.B.n.n.M.c.c.l.i.i.i.u.u.u.y.y.y.y.u.p.y.y.y.p.i.b.).1X5X1X1X5XqX0XpXpXpXaXaXpXpXpXpXpXaXaXsXpXwX0XqXwX1X#X].W.n.v.p.y.y.} ! } y.} m.W.n.'.BX} b W m.n.{.wXwXQ.u.' ^ g g : 4 6 6 g v c v 0 5 0 v J L P g g g d d g g g g g g g g g g g d d d d g g 0 d d d d g g g g v c P ` } l.M.b.b.Z.A.A.A.A.E.E.E.E.",
"` ` ` ' ' o .                                                                                                                                                         . r E T I Y E I I U U I I I I I I I E E E E E E E T Y.6X6X2X{.[.'.{.2X{.~.W.).).~.W.W.W.W.Q.Q.E.R.Z.Z.Z.Z.R.E.E.E.E.E.E.E._._.]._.]._._.[.+X-X-X@X&X:X:X-X;X9X9X9XrXtXyXdXdXaXdXdXaXaXaXaXdXdXdXuXuXyX9X9X9X:X:X;X=X=X&X@XoXoX]._.]._._._.]._.).E.E.E.A.Z.Z.Z.B.B.B.n.v.v.c.i.i.i.p.p.y.y.u.u.y.y.y.y.y.y.y.y.$.y.y.y.$.$.$.$.y.y.y.$.$.y.y.p.p.i.i.u.u.u.i.c.c.m.m.c.c.m.M.c.x.i.i.c.c.c.m.m.m.n.n.B.B.B.n.n.n.n.n.v.B.B.B.B.T.T.B.n.n.M.M.n.n.n.n.n.m.l.l.l.c.M.n.n.n.M.c.i.y.p.y.y.y.y.p.y.y.y.p.y.y.y.p.p.i.i.i.u.u.y.u.y.p.p.y.i.i.y.y.p.i.i.i.i.i.i.i.i.l.c.m.c.c.n.n.n.m.M.m.m.m.m.m.m.m.m.m.n.B.Z.T.R.R.Z.n.n.Z.R.R.T.n.m.b.B.B.n.n.n.n.n.n.n.n.B.n.n.n.c.l.M.n.m.M.m.c.c.l.i.p.p.u.u.p.y.y.y.y.u.u.y.y.p.i.v.).[.*X-X1X3XqXqX0XpXpXpXaXpXwX0X0X0X0X0X0XqX0X5X5X*X2X'.R.Q.c.c.i.` ! ! ! ! / [ y.m.W.} y.wXGXu.d ! i.c.n.eXeX@.P L P ^ P g < ; & - ; ; ; < 3 0 v J c j g g g g g g g g g g g g g g g g g g g g g g d d 6 d d d g d 6 v ! { u.i.l.m.b.B.A.A.A.E.E.E.E.E.",
"` ` ` ' ' 2 .                                                                                                                                                       X w E Y Y Y E I I U U U I I E E I I I E E E E I E E T =.{.wX2X{.'.'.{.2X*X'.~.W.~.W.W.Q.Q.Q.Q.Q.E.R.Z.Z.Z.R.E.E.E.E.A.E.).)._._._._.]._.[.+X#X-X-X&X&X3X3X-X:X9X9X9XrXyXuXaXdXdXdXdXaXaXaXdXuXuXuXuXuXyXrX9X9X:X:X;X=X=X&X@XoX]._._._.`.`.`.`.`.).E.E.E.A.Z.Z.Z.B.B.n.n.v.c.i.i.l.i.p.p.y.y.u.u.y.y.y.y.y.y.y.$.$.$.$.$.$.$.$.$.$.$.$.$.$.$.y.y.p.u.y.y.y.y.u.i.i.c.c.x.c.m.m.c.c.i.i.i.i.i.i.i.c.c.v.m.n.n.v.v.v.v.v.n.n.n.T.T.T.T.n.v.c.l.l.l.l.c.c.c.l.i.p.p.i.l.l.c.M.m.c.i.i.i.p.y.y.$.y.y.p.p.y.y.y.y.u.u.p.u.p.u.y.y.y.y.y.y.$.y.y.$.y.p.i.i.i.i.l.l.i.i.c.m.m.c.c.m.n.n.m.m.M.M.M.M.v.v.v.m.n.B.Z.R.R.R.R.R.R.Z.n.n.Z.Z.n.m.m.n.b.b.n.n.n.n.v.n.n.n.n.m.m.l.i.l.l.i.i.l.l.i.i.p.p.p.y.y.y.y.y.y.y.u.u.y.y.l.R.Q.).[.*X-X-X3XqXqXpXyXpXpXyX0X0X0XqXqXqX5X5X5X5X*X1X{.'.W.m.y.@.p.! b W W ! W / [ u.m.Q.[ ! s.wXwXu.K c [ { { Q.nXm.J c J c J J h 5 4 ; ; ; ; 4 1 4 6 c j g g d g g g g g g g g g g g g g g g g g d d g g d d d d g d d c ! { $.y.l.M.m.b.A.A.A.E.E.E.E.E.",
"[ ` ` ' ' H .                                                                                                                                                   . 2 F U T Y E E E I I U U I I I E E E E E E E E I I I I Y ^ /.wX6X2X].W.W.{.2X{.[.).E.Q.R.Q.W.Q.Q.Q.R.Z.Z.Z.Z.E.E.E.E.E.E.E.)._.).).).)._._.+X*X-X3X3X-X-X9X9X3X9X0X9X9X9XyXuXuXdXdXdXdXdXdXdXaXuXuXuXuXuXyXrX9X9X9X:X;X=X&X&X@X]._._._._.`.`.`.).).!.E.A.A.A.Z.Z.Z.B.B.n.v.c.l.i.i.i.i.i.p.p.u.u.u.p.y.y.y.y.y.y.y.$.$.$.$.$.$.$.} $.$.$.$.$.$.$.$.y.y.y.y.$.$.y.y.u.p.i.p.i.m.m.c.x.x.i.x.i.i.i.i.l.l.c.c.c.c.m.v.v.c.i.i.c.c.n.n.n.n.v.m.c.l.l.i.i.i.l.l.i.p.y.y.p.p.p.p.i.l.i.p.p.p.u.y.y.$.@.y.y.y.y.y.y.p.u.u.y.y.y.y.y.y.y.y.$.y.p.l.l.p.y.y.y.p.p.i.c.l.l.c.m.m.c.l.l.m.n.n.n.c.c.m.M.M.v.v.m.m.m.n.Z.B.m.m.m.n.Z.Z.b.v.m.n.n.m.m.m.m.m.n.n.n.v.m.m.n.n.m.c.l.l.i.i.l.i.p.i.i.p.p.p.p.y.y.y.y.y.y.y.y.u.u.y.i.M.W.).].[.*X*X1X5XqXwXpX0X0X0X0XqXqXqXqXqX5X1X*X#X#X_.].W.m.i.} ! ! P / ! P P P P / [ u.m.I./ b K +.6XU.P 4 c ! ^ ^ +.}.U.' c v g h 0 6 1 < 4 4 4 4 6 v J c j g g d g g d g g g g g g g g g d g g g g d d g g g g g g d d d b P ` ` { p.l.m.b.Z.A.A.E.E.E.!.!.",
"[ ` ` ' O.R .                                                                                                                                                   q U  .U I Y E G I I U I I I I I E E E E E E E E I I I I F T /.eX6XwX2XZ.T.'.*X#X2X'.Q.Z.W.W.W.Q.R.R.R.Z.B.n.R.E.E.E.E.~.~.).).).~.).).).].[.@X-X-X5X9X-X:X9XqX9X9XyX0X9X9XyXuXaXdXdXdXdXdXdXaXaXiXyXyXiXyXyXtX9X9X9X:X;X=X&X&X@X]._._._.`.`.).).).!.E.A.A.A.A.Z.Z.Z.B.B.n.c.c.l.i.i.i.i.i.p.p.u.u.u.u.y.y.y.y.y.y.$.$.$.{ { { $.{ } } } } $.$.$.$.$.y.y.y.$.$.$.y.y.y.u.u.p.p.i.i.l.i.i.i.i.i.i.i.i.i.i.i.i.l.l.c.c.c.c.i.i.c.i.c.l.c.c.c.m.c.c.l.i.i.i.i.i.i.p.y.y.p.p.y.y.y.y.$.} $.y.y.y.y.$.} } } @.y.y.y.y.p.y.y.@.$.y.$.$.y.y.y.y.p.l.l.p.y.$.y.y.p.i.l.c.l.c.m.M.m.l.l.c.m.T.n.l.l.m.c.c.v.v.v.c.c.c.m.m.m.m.m.m.n.B.n.m.m.m.m.m.m.m.m.m.n.n.n.v.c.c.v.v.m.c.i.p.p.i.l.p.p.p.p.p.p.p.p.p.y.y.y.y.y.u.y.y.u.u.l.n.R.Q.).[.*X*X-X5XqXwX0XpX0XqXqXqX5X5X5X5X5X=X#X].].~.~.T.0./ W P P ! K ! b b b b / [ u.m.x./ j g P / /.` j ; 6 c J c J %.m.` c g 6 6 6 5 4 4 4 4 6 j v c c j g g g g d d g g g g g g g g g d g g g g d g g g g g g g g d d g c W ! ` y.l.m.B.Z.A.A.E.E.E.!.!.",
"' ' ` ' +.' ,                                                                                                                                               t E Y Y Y Y E E E G I E E I I I I I I I E E E E E U I I I I Y R I.eXnXwX'.c.y.l.{.2X#X{.'.W.R.Q.Q.Q.Z.Z.Z.Z.b.Z.).!.!.!.).).)._._.).!.~.)._.[.+X*X-X:X5X3X3X3X9X0X0X0X0X0X0XtXyXuXaXdXdXdXdXdXdXdXuXuXyXtXtXtXtXtXrX9X4X3X:X-X&X@X+X].].].].`.).).).E.E.A.A.A.E.R.Z.Z.Z.Z.n.n.v.c.l.s.s.i.i.p.p.p.u.y.i.i.y.u.y.$.$.$.$.$.{ { { { { { { { { { $.$.$.$.$.$.$.$.$.$.$.y.y.y.y.y.y.y.p.u.u.p.p.p.p.i.i.i.i.i.i.i.i.s.s.c.c.c.c.i.i.i.i.i.i.c.c.c.c.c.c.c.i.i.i.i.i.p.u.y.y.y.y.$.$.$.{ { { } } $.$.@.{ { } } { @.@.$.$.$.$.$.$.$.$.y.y.y.y.y.y.u.i.i.u.y.$.y.y.u.p.i.i.i.i.c.m.n.c.c.c.c.T.U.c.x.c.c.m.m.m.m.c.c.c.c.c.m.c.c.m.n.n.M.M.m.v.v.v.c.m.n.n.n.n.n.v.c.c.c.m.m.c.p.p.p.i.i.i.p.p.p.p.y.y.y.y.y.y.y.y.y.u.p.i.l.y.c.W.}.E.).[.*X=X3X5XqX3X3X3X0XqX5X1X-X-X1X1X#X#X]._.~.E.b.d.! ~ W ! ! P ! ! K P ! ! / @.m.T.+.u.m.! j j ! I.%.g < 6 6 g v c ^ ^ J ; ; < ; ; ; < < 4 6 g g v c v g g g g g d d d g g g g j g g d d d g g g g d d g g g g g g g g d d b ! $.i.m.B.S.A.R.R.E.E.E.E.",
"' ' ' ' +.' w .                                                                                                                                           r Y  .Y Y Y Y E E I I I E E I I I I I I I E E E E E I I I I I U H s.eXmXeX'.m.} ` v.2X#X*X{.'.W.R.E.E.Z.Z.Z.Z.E.].].].).).)._._._._.).).)._.[.+X*X-X-X:X3X3X9X9X9X0XyXyX0X0XyXtXyXuXaXdXdXdXdXdXdXuXuXuXuXuXtXtXtXtXrX9X4X3X:X-X&X@X+X].].].].`.).).!.E.A.A.A.E.E.R.Z.Z.Z.Z.n.n.n.c.c.c.s.i.p.p.p.p.p.u.i.i.u.u.y.$.$.$.$.$.{ { { { { { { { { { { $.$.{ { { { { $.$.$.} y.y.y.y.y.y.u.y.y.y.y.y.y.u.u.u.p.i.i.i.i.i.i.i.i.s.s.i.i.p.p.u.i.c.c.i.i.i.i.i.c.i.i.i.u.u.u.y.y.y.y.$.$.$.{ { { } } { [ { { { { { { } @.@.{ } { } $.$.$.$.$.$.$.$.$.y.y.y.y.y.y.y.y.p.u.p.u.y.u.i.c.m.m.c.i.x.n.U.m.c.c.c.c.c.c.c.c.c.c.m.c.m.m.M.M.m.m.m.m.v.v.v.c.c.c.v.n.v.n.n.c.i.i.i.c.c.i.y.y.p.i.i.i.p.p.y.y.y.y.y.y.y.y.y.y.u.p.y.y.i.y.i.n.W.E.).].-X1X5X5X5X5X3X5XqX5X1X1X*X*X#X#X*X].E.B.B.b.p.} } } ! / [ / / ! P W ! / [ p.m.x.* * j ` J j g J x.' 6 < 1 5 6 g h v J L 5 4 - - ; ; ; ; 4 3 6 g v v g g g d g g d d g g g g g g g d d d g g g g d d g g g g g g d d d d c ! { y.c.B.S.A.R.R.E.E.!.E.",
"' ' ' ' O.' R $                                                                                                                                     . . D I Y Y E E E E E E I I I E E I I I I I I I I I I I I I G I I I I H s.wXmX6XW.n.} b ! R.#X2X*X[.'.W.R.E.E.E.E.E.*XqX*X-X_._.].]._._._.)._._.[.+X*X-X-X-X3X3X3XqX0X0XyXyXyXyXyXyXyXyXuXdXdXdXdXdXdXdXdXuXuXyXiXtXtXtXtXrX9X9X3X:X-X&X@X+XoX].[.].`.).).!.E.A.A.Z.Z.R.R.R.Z.Z.Z.n.n.m.c.c.c.s.i.p.p.p.p.p.i.x.x.i.u.y.$.$.$.@.{ { { { { { { { { { { { { { { { } { } } { } { } y.y.y.y.y.y.y.y.y.y.y.y.y.y.y.y.y.u.u.u.p.p.p.p.p.u.i.i.p.p.p.u.i.i.u.y.y.u.u.u.u.y.y.y.y.y.y.y.y.y.$.$.} { } { { { [ [ | [ [ { { } } { } } [ { { } $.$.$.$.$.$.$.} } { y.y.y.y.y.y.y.y.y.y.y.y.p.u.i.c.x.u.y.i.c.x.x.c.c.c.c.c.c.c.c.c.c.m.m.n.n.m.M.m.c.c.c.c.l.l.l.c.v.v.m.m.n.l.i.i.i.i.i.p.y.y.p.p.p.p.y.y.0.0.0.0.$.0.$.y.y.y.p.y.} } } } p.c.Q.).)._.+X#X-X-X3X5X5X5X3X-X-X*X*X+X_.~._.E.V.a.i.i.i.v.c.c.} } y.y.} ! ! ! / [ y.c.m.[ : $ . ; 6 6 j g ^ s.O.6 5 5 5 0 6 0 g J c 0 4 ; ; ; ; ; ; 4 6 g c g g g g g g g d g g g g d d g d d g g g g g g d d g g g g g g d d d d j b ` } i.b.S.A.A.E.E.E.!.!.",
"' ' ' ' ' ] R @                                                                                                                                     X H R  .Y Y Y E U U E I I I I E E I I I I I I I I I I I G G G G I G I Y I.nXVX2X(.n.} b l ! [.2X2X#X[.'.W.E.E.E.E.E.qXgX1XqX].[.+X+X_._._._._.].+X#X*X=X-X-X-X:X9X0XyXyXaXaXyXyXaXaXyXyXuXdXdXdXdXdXdXdXuXuXuXyXiXtXtXtXtXrX9X4X3X:X&X#X@X+XoX].[.].`.).).!.E.A.A.Z.Z.R.Z.R.Z.Z.Z.n.n.m.c.c.c.s.i.p.p.p.p.p.i.x.x.p.u.y.$.@.@.@.{ { { { { { { { { { { { { { [ { { { { { { { { { @.$.@.@.$.$.$.y.y.y.y.y.y.y.y.$.$.@.y.@.y.@.y.y.y.u.u.i.p.u.u.p.u.u.u.u.u.u.y.y.@.{ { $.$.y.y.y.y.y.$.@.@.} { [ { { { { { { } } { { { { { [ ` [ } { } } $.$.$.} { } } $.y.y.y.y.y.y.y.y.y.y.y.y.y.y.y.p.i.p.u.i.i.i.i.l.c.c.c.c.c.c.c.c.c.M.m.m.n.m.M.m.c.c.l.l.l.l.c.c.v.v.c.v.m.i.p.p.p.i.p.p.y.0.0.0.$.$.0.$.$.$.} } } } $.y.y.y.i.y.} ` b ` i.M.Z.).].`.!.)._.[.5X3X5X3X-X-X*X#X+X].!.R.V.b.v.a.Z.v.v.B.R.B.y.y.u.i.u.! ! / [ [ c.n.s.b j j $ . . $ ; 6 c J +.*.^ J 6 6 4 4 6 6 6 0 h 4 < < < 4 4 6 6 g c g 6 6 g g g g g g g d d 6 d d d d g g g g g g d d g g g g g g g g d d d c ! } p.v.B.Z.A.A.R.R.E.E.",
"[ [ ' +./ ' ^ h   .                                                                                                                               # Y  .Y Y Y Y Y E I I I I I I I I E I I I I I I I I I I I G G G I I I E R U.VXVX6XW.v.y.~ d : ~ ~.*X[.{.[.).E.T.E.E.[.DXBXgXsX-X[.[.@X*X+X`.).`._.+X@X*X-X&X#X*X:XqXaXyXyXaXaXaXaXdXaXyXyXaXdXdXdXdXdXdXaXuXuXyXtXtXtXtXtXrX9X4X4X:X=X&X@X@X+X+X[.[.].).).).E.E.A.Z.Z.Z.Z.Z.Z.T.Z.n.n.m.M.c.c.s.i.i.p.u.i.i.i.u.u.u.y.$.@.@.{ { { { { { { [ [ [ [ { { { [ { [ [ [ { { { { { { @.{ { { { { } { @.$.$.$.$.$.u.u.$.$.@.{ { { } } } @.@.y.u.u.u.y.y.y.u.u.y.y.y.@.@.@.{ { { { @.@.@.@.@.@.$.@.@.{ { { { { { { +.@.@.@.@.} } { { [ ` ` { } { { $.y.$.$.} { } y.y.y.y.y.y.$.y.u.u.y.y.y.y.y.y.y.u.p.p.p.i.i.i.i.i.i.l.l.l.l.l.l.c.m.c.c.v.v.m.c.c.c.l.l.l.l.c.c.m.v.m.c.i.p.y.y.y.p.p.y.y.$.$.$.$.$.$.$.$.$.} } } } } y.p.i.i.} ! n d W } l.b.).-XqX-X`.S.E.[.-X5X5X@X+X+X].].E.Z.R.d.i.V.~.~.~.~.).[.'.M.c.Q.m.i.W | } y.i.s.y.[ v j c g 4 $ . . $ & 4 g h h h 0 6 6 5 1 < < 2 3 5 4 4 4 3 6 g J L c g 0 0 g g g g d d g g d d d d g g g g d d d g g g g g g g g g g g d g d v ! | p.c.B.Z.Z.R.R.R.E.R.",
"[ [ ' +.^ ' ' U $ .                                                                                                                             X O.O. .Y Y Y Y Y E I G I I I I I I E I I I I I I I I I I I G G G I I I E Y I.VXVXeX'.T.y.| b d d | '.*X{.{.[.).E.W.E.*XmXmXmXmXqX-X[.].A.E.!.!.!.`._.+X@X*X@X&X-X3X3XqX0XtXtXtXyXaXaXpXyXaXaXdXdXdXdXdXuXuXyXyXtXtXtXtXtXrX9X4X4X:X;X&X&X@X@X@X+X[.[.]._.).).E.E.A.Z.Z.Z.Z.Z.Z.Z.n.m.m.m.c.i.i.i.i.p.y.u.u.u.u.y.$.{ } { { { { { { { { { [ [ [ [ [ [ [ [ [ [ [ [ [ { { { { { { { { [ [ [ [ [ [ { @.$.$.$.$.$.$.$.$.@.{ { { { { { { } @.y.y.@.@.@.@.@.@.@.} } { { } @.@.@.{ { { } } } @.@.@.@.{ [ [ { { { { { +.@.@.@.} { { { [ | | { { { } @.$.$.$.{ } { $.y.y.y.y.y.{ $.y.u.y.y.y.y.y.y.y.u.u.u.u.i.i.i.i.i.i.i.i.l.l.l.l.c.c.l.l.m.c.c.c.l.l.l.l.i.l.c.v.m.c.i.p.y.y.} } y.y.y.y.y.y.y.$.$.$.$.$.$.$.} } } } u.i.i.c.y.` n d ; : ~ 0.l.).1XqXpX0X+XS.!.[.-X5X]._.).~.R.b.a.l.l.Z.~.~.~.).].].*X*XQ.Q.T.Q.@.` y.y.u.s.u.{ j b g j j g J 6 * . . . . - ; < 4 4 5 3 4 2 ; < < < < < 4 3 6 v J L J v g g 0 g g g d d d g d g g d g g g g d d d g d g g g g g g d g g d d d d b ~ y.c.n.T.T.Z.R.R.A.A.",
"+.+.[ ' ` ' ' ' 6 .                                                                                                                         . @ O.O. .G Y Y Y Y E E I I I I I I I I E I I I I I I I I I I I G I I I I I I Y I.nXGXwX2X'.c.} b d : d i.{.{.{.{.[.'.W.E.5XmXmXmXjXjXgX0X3X`.!.A.A.!.!.`._.oX@X&X=X:X3X-X:X4X9X9X9XtXyXtXtXyXaXaXaXdXdXdXuXuXiXtXtXtXtXtXtXrX9X4X>X:X;X=X&X@X+X+X+X+X+X+X]._.).).E.E.A.A.Z.Z.B.B.B.n.m.c.c.c.l.i.p.p.p.y.$.@.@.@.@.@.} { { { [ [ [ { { { { { [ ` ` ` ` ` ` ` ` ` ` ` [ { { { { { { [ [ [ [ [ [ [ [ [ [ { { @.@.@.@.@.@.@.{ { { { { { { { { @.@.{ { { { { { [ [ [ [ [ { } @.$.@.{ { { { { { { { { [ [ [ { { { { { { { } { { { { { { { [ [ ` ` { { @.$.$.{ } { } $.$.y.u.y.} { y.u.y.u.u.u.u.u.u.u.u.u.u.i.i.i.i.i.i.i.i.l.l.c.c.l.l.i.l.c.c.c.l.l.i.i.i.i.i.i.v.m.i.y.0.} } } { y.y.0.$.$.$.$.$.$.$.$.$.$.$.} } y.p.x.i.i.u.^ b d ; * d m v.b.).1XqX0X0X9X`.E.!.[.1X!.E.R.R.v.i.i.v.R.'.[.].].].{.[.{.*XW.W.T.T.[ @.y.p.s.u.[ c b g c j j c c v g 6 & .   . . . $ $ o + & & ; ; & & & & & & ; < < 1 6 g g g g g g g d d g g g g g g g g 0 g g g g g d d g g g g g d g g d d d g b ! y.s.v.B.Z.Z.A.A.A.A.",
"+.+.[ [ ' ` ' ' J . .                                                                                                                       # R O. .Y E Y Y Y Y E E I I I I I I I I I I I I I I I I I I G I I I G I I I I U Y.nXGXwX2X{.W.y.W n : : ! i.'.|.{.{.[.W.E.qXSXBXgXpXgXjXgX0XgXqX].!.D.!.!.`._.@X-X=X-X-X:X:X3X9X9X9X9X9X9XtXpXaXaXuXaXaXuXyXyXtXrXrXtXtXtXrX9X4X>X:X;X=X&X@X@X@X+X+X+X+X+X]._.).!.E.E.A.Z.Z.n.b.b.b.m.c.c.c.c.l.u.p.y.y.y.{ } { } } { { [ [ ` ` ` ` [ { { [ [ [ ` ` ` ` ` ` ` ` ` ` ` [ { { [ [ [ { [ [ [ ` [ [ ` ` ` ` [ [ [ [ { { { { { { { { { { [ [ [ { { { [ ` ` [ [ [ [ [ ` ` [ [ [ { @.@.{ { { { { [ [ ` ` ` [ [ { { { { { { { { { { { { { { { { ` ` ` ` { @.$.$.{ { } { $.$.y.u.u.{ | $.u.p.i.i.i.u.u.u.u.u.p.p.p.p.p.i.i.i.i.i.i.l.c.c.l.i.i.c.v.l.l.l.i.i.i.p.p.p.p.v.m.y.} } } } } } y.$.$.$.$.$.$.$.$.$.$.$.$.{ } } p.i.i.u.y.@.K j : * * : | E.Z.[.1XqX0X:X:XqX].E.!.[.Z.Z.Z.Z.d.i.B.~.].'.'.#X{.{.{.{.).'.Q.W.T.m.} y.y.$.{ [ c K v d L c g j g v J c v 6 ; . . . .       . . + & o $ . . . . . $ $ $ & 4 g g g g g g g g g g g g g g g g 0 g g g g g d d g g g g g d g g d d d v b ! y.i.v.n.Z.Z.A.A.A.A.",
"+.[ [ ' ` ` ' ` ^ & .                                                                                                                   . >  .*.O.T E E E E E E E E I I G I I I I I I I I I I I I I I G H G I I I I I I I E *.eXnXBXsX2X'.Z.{ b d : d ! p.m.(.'.].[.).wXgXjXSXSXdXfXjXMXSXBXgXqXqX@X!.!._._.@X@X&X&X=X:X=X3X9X9X9X9X9XtXaXdXaXaXaXaXyX9X9X0X9X9X9X9X9X9X9X4X:X:X=X-X#X@X@X@X@X+X+X+X]._.).E.E.Q.A.Z.Z.Z.b.m.m.m.c.i.i.c.c.c.i.u.u.y.$.{ { { { { { { { ` [ [ ' ' [ { { { [ ' ` ` / ^ ^ ^ ^ ^ ^ ` ` ` [ [ [ ` [ ` [ [ ` ` ` ` ` [ ` ` ` ` ` [ [ [ [ { { [ { { { [ [ [ [ [ [ [ ` ` ` ` ` ` [ [ [ ` ` ` ` [ [ { { { { { { [ [ ` ` ` ` [ { { { { { { { { { { { { { { { { [ ` ` ` { { } { { } { $.$.$.$.u.u.{ { $.p.l.i.i.i.p.u.u.u.u.i.i.p.u.p.i.i.i.i.i.i.i.i.l.i.i.i.l.l.i.i.c.b.b.i.i.Z.Z.i.v.i.y.} } } } } y.y.$.$.$.0.0.0.0.y.$.$.$.y.$.y.i.x.s.$.@.[ ! c 6 & * : n 0.z.].[.1XqX-X-X1X1X*X[.W.T.E.B.v.i.c.T.~.W.W.'.'.{.'.'.'.'.'.Q.U.Q.m.y.` +.{ ^ ! K J c c c j v j j g g g g g g g g v 3 $ .   . . . & 6 . .           . . . & 4 g v g g g g g g g g g g g g g g g g g g g g d d d d d d g g g g d d g j b W } i.m.m.B.Z.A.A.A.A.",
"+.[ [ ' ` ` ' ` ^ v .                                                                                                               .   X O.Y.=. .R E E E E E E E I I I G G G G I I I I I I I I I I G H H H I I I I I I I I =.|.wXBXmXqX*X'.B.} b : & d K } s.T.W.).).qXaXpXyXyXaXdXfXjXBXjXBXMXgXaX9X@XoX_._.oXoX@X@X#X-X:X9X9X9X3X9XyXaXaXdXdXaXyX9X9X9X9X9X9X9X9X9X9X4X:X;X=X-X&X@X@X@X@X+X+X].].`.!.E.R.Z.Z.Z.Z.Z.b.m.m.m.v.l.p.p.l.c.i.p.u.u.y.@.} { { { { { { [ ` [ [ [ [ [ [ { { { [ ' ` / ^ ^ ^ ^ ^ ^ ^ ` ` [ [ [ [ [ [ [ ` ^ ` ^ ^ ` ` ` ` [ ` ` ` ` ` [ [ [ [ [ [ [ [ [ ` ` ` [ ` ` ` ` ` ` ` [ [ [ [ ` ` ` ` ` ` [ [ [ ' ' ' ` ` ` ` ` ' [ { { { { { { { { { { { { { { { ` ` ` ` ` [ { { } { { $.$.$.$.y.p.$.} y.u.i.i.u.u.y.y.y.y.u.p.p.i.p.p.p.i.i.p.p.i.i.i.i.i.i.i.i.i.i.l.v.v.v.Z.).*X).i.p.y.} } } } } y.i.i.y.0.0.0.0.0.0.y.0.$.$.$.p.x.c.x.i.@.[ ! b d : ; : : ! l.Z.[.-X1X-X+X+X*X-X*X].W.T.T.n.c.i.m.Q.'./.Q.W./.}.T.T.T.T.Q.m.m.m.u./ ! ! ^ P J c c c c v v v v j j g j j g g g g c v v g 4 < ; & 6 c 3 3 ; & & & & - ; 4 6 v g g g g g g g g g g g g g g g g g g g g g g d d g d d d g g g g d d g j b K [ p.c.c.n.Z.A.A.A.A.",
"@.[ [ ' ` ` ' ' ' ^ .                                                                                                           .     X T Y.*.=.T E E E E E E E E I I I I I G G I I I I I I I I I I G H H H I I I H I I I D -./.eXmXBXsX1X*X'.n.y.b : : d b | y.v.b.R.qXwXwXqX9XyXaXdXdXgXjXMXMXSXpXqX:X_._._._.-X-X#X@X&X&X-X:X3X:X9XtXyX0XyXuXyX0X9X9X9X9X9X9X9X9X9X:X:X-X-X&X&X#X@X+X@X@X+X].`.).E.E.R.Z.Z.Z.Z.Z.n.b.m.m.n.m.l.p.y.i.i.p.y.y.y.$.{ { { { { { { { [ ` ` ` [ [ [ [ [ [ { [ ' ` / ^ ^ ^ ^ ^ ^ ^ ^ ^ ` ` ` ` ` ` ` ` ^ ^ ^ ^ ^ ^ ^ ` ` ` ` ` ` ` ` ` [ [ [ ` ` ` ` ` ` ] ` ` ` ^ ^ ` ` ` [ [ ' ` ` ` ` ` ^ ] ^ ] ` ` ` ` ` ` ` ` ` ' [ { { { { { { { { { { { { { { { [ [ { [ [ ` [ [ { { { { } { $.p.y.$.{ $.y.p.y.y.y.y.y.y.y.y.u.u.i.i.i.i.i.i.p.p.p.p.i.i.i.i.i.i.i.l.v.l.Z.[.+X1XqX*X0.} @.{ } $.$.$.y.i.i.y.y.y.y.y.y.0.y.0.0.0.p.c.M.l.p.y.[ ! b d : : : 6 n i.Z.].*XqXqX*X].[.[.*X{.'.Q.I.m.c.x.c.U.Q.Q.Q.U.U.I.I.U.U.U.U.m.u.u.@.[ J K K K J c v v v v v v v v j g g g j g g g g c v g 6 0 g v c 0 g 0 h v v v v v g g g g v g g g g g g g g g g g g g g g g 0 g g g g g 6 6 g g g g g g g g g d d j k b ! y.s.c.v.B.Z.A.A.A.",
"@.[ [ ' ` ` ` ` ` ^ ;                                                                                                               . T Y.L.*. .R E E E E E E E I I I I I I G G H H G G I I I I I I G H H H I I H H H H H D E Y.|.wXmXBXwX1X+X).n.} b d : f b ! } 0.l.qXwXqX9X:X0XyXaXdXfXgXdXdXyXfXMXjX0XqX9X9X9XqX:X-X@XoX+X-X:X:X9X0X9X3X9X9X9X9X0XyX9X9X9X:X:X;X;X;X=X=X&X@X@X@X+X+X+X+X[.`.!.E.E.Z.Z.Z.Z.Z.R.Z.n.n.n.m.M.n.i.y.y.y.i.p.y.y.$.$.{ { { { { { [ [ [ ` ` ` ' ' ' ' [ [ [ [ ' ` ` ^ ^ ^ ^ ^ ^ ^ ^ ^ ^ ^ ^ ^ ^ ` ` ` ^ ^ ^ ^ ^ ^ ^ ^ ` ` ` ` ` ` ` ` ` ` ` ` ` ` ` ` ] ` ` ` ^ ^ ^ ^ ^ ` ` ` ' ' ` ` ` ` ^ ^ ^ ^ ^ ^ ] ] ` ` ` ` ` ' [ { { { { { { { { { { { { { { { [ { $.$.{ { { { [ [ { { { { $.p.u.$.{ { $.y.y.$.$.$.$.$.y.y.y.u.p.i.i.i.p.p.p.p.p.p.i.i.i.l.l.p.p.l.B.).[.].-X+X1X*X| } @.} 0.y.0.$.$.y.y.0.y.y.y.y.y.y.0.y.0.p.c.n.i.y.} ` ! b d : : : ; b 0.Z.E.*X*XqX1X*X).].[.{.{./.Q.I.s.s.x.x.m.I.I.x.I.x.x.s.s.x.x.s.s.@.+.L J J c J J c v v v v v v v v v j g g g g g g g g g g g g c c c v J 0 0 h h g g g g g g 6 6 g g g g g g g g g g g g g g g g g g g g g g g 6 6 g g g g g g g g d d d g j b W @.i.c.c.b.Z.A.A.A.",
"@.[ [ [ ` ` [ ` ` ' c   .                                                                                                       . .  .Y.Y.*.O.Y Y E E E E E E E E I E I I I I G H H H H G I I I I G H H H G I I H D H H H D D =./.6XwXmXmXwX:X+XE.R.l.` n d d n W ~ i.wXsX-X:X:X-X:X5XqXgXaXpXpXpXaXkXZXMXBXjXaXyX0X:X-X+XoXoX@X&X=X:X3X-X=X:X3X:X9X9X0X9X9X3X:X-X&X&X&X@X].`.].].[.].].].].).).E.R.R.Z.Z.Z.T.R.T.Z.n.b.n.M.c.i.i.u.y.$.{ @.@.@.@.@.@.{ { { { { { [ [ ` ` ` ` ` ` ` ` ` ' [ ` ` ^ ^ ^ ^ / / / ^ ^ ^ ^ ^ ^ ^ ^ ` ^ ^ ^ ^ ^ ^ ^ ^ ^ ^ / ` ^ ^ ^ ^ ^ ^ ^ ^ ^ ^ ^ ^ ^ ^ ^ ^ ` ^ ^ ^ ^ ^ ^ ` ^ ` ' ' ` ` ` ^ ^ ^ ^ ^ ^ ^ ` ` ` ` ` ` ` ' [ [ [ [ { { { { { { { { { { { { { { $.$.$.{ { [ [ ` [ { { { { y.p.$.} } { } $.} $.y.y.y.y.y.y.y.u.i.i.i.u.u.y.p.i.i.p.i.i.p.i.b.E.).*X#X+X[.*X*X5X1X} } y.y.y.y.0.0.$.0.y.$.0.y.y.y.} $.y.p.l.l.c.m.i.$.` ! v d : 6 : : b i.b.!.[.1XqX5X+X).].].{.{.'./.I.s.u.s.s.s.s.s.s.s.*.%.%.+.' +.O.+.' J 6 < & ; 0 J c v c v v v v v v v v v j g g g j j g g g g g g j g j j g g j j g g h g g g g 0 6 6 g g g g g g d d g g g j h h g g h g g g g g g g g g d d g g d g d d g d j v b ` y.c.c.b.Z.A.A.A.",
"@.[ [ [ ` ` [ ` ` ` ^ 6 .                                                                                                 . .   # T Y.Y.L.O.T Y E E E E E E E E E E I I I I I G H H H H G I I I I G H H H G I I D D H H H D D T Y.|.eXwXmXpXqX-X[.).E.Z.p.~ n d n n p.sXwX#X=X&X&X-X:X3X3X3X3XqX0XaXsXfXfXZXMX0XpX0X3X*X@X@X+X+X+X#X&X&X@X#X&X-X3X:X-X-X=X:X3X;X&X&X&X&X+X].`.`.`._.).`._.).).E.E.R.R.Z.Z.Z.T.Z.n.m.M.c.c.l.i.p.u.y.$.} { { { { { { { { { { { [ [ ' ' ` ` ` ` ` ` ` ` ` ` ` ` ^ ^ ^ ^ ^ ^ ! ^ ^ ^ ^ ^ ! ! ! ^ ^ ^ ^ ^ ^ / / ^ / / ^ ^ ^ ^ ! ! ^ ^ ^ ^ ^ ^ ^ ^ ^ ! ! ^ ^ ^ ^ ^ ^ ! ^ ^ ^ ^ ^ ` ` ` ^ ^ ^ ^ ^ ^ ^ ^ ^ ` ` ` ` ` ` ` ` ' ' [ [ [ [ [ [ [ [ { { { { { { { { { { { { { { [ [ [ [ { { { $.$.} { } } $.y.y.y.u.u.p.i.u.y.y.u.i.i.i.p.u.p.p.i.c.c.i.p.i.).[.#X#X#X[.[.]._.[.5XqXy.} y.y.y.y.0.0.y.y.y.y.y.y.y.y.y.p.i.l.l.l.i.i.y.{ ! b v d : : : b i.A.!.[.1X5X1X*X_.!.).'.'.'./.U.s.#.%.O.^ ^ ^ T R R H H G G G v 5 < o .     . . & 3 v v c c v v v v v v v v j g g g j j g g g g g g j j j j g g h h g g g g g g g 0 6 6 g 6 g g g g g d g g g g h h g g g g g g g g g g g g d d g g g g d d d d j j b ! y.i.v.b.Z.A.A.A.",
"@.[ [ [ [ [ [ [ ' ` ^ L 4 .                                                                                                   . U Y.Y.L.=.O. .R E E E E E E E E E E E I I I I I I I I I I I I I I G G H G I I D D D D D D D D H %./.6XwXgXgXyXqX*X[.).Z.Z.l.8.M n n b.wX5X].+XoX].oX@X*XoX@X&X=X3X0XyX0X0XjXsX=X5X5X3X&X@X&X@X@X@X+X_._.oX+X@X-X9X3X&X+X+X@X&X&X&X&X&X&X+X].`.`.).).).).).~.E.E.R.R.Z.Z.B.B.n.M.c.l.l.l.l.p.y.y.y.y.{ { [ [ { { { { { { ` ` [ ` [ ` ` ` ` ` ` ` ` ` ` ^ ^ ` ^ ^ ^ ^ ^ ^ ^ ! ^ ^ ^ ^ ! ! ! ! ^ / / / / ^ ^ / ^ / / ^ ^ ! ! ! ! ! ^ ^ ! ! ^ ! ^ ^ ^ ^ ^ ^ ^ ^ ! L ! ^ ^ ^ ^ ^ ^ ^ ^ ^ ^ ^ ^ ^ ^ ^ ^ ^ ] ` ` ` ` ^ ^ ` ` ` ` ` [ [ ' ' [ [ { { { { { { { { { [ { { $.$.$.$.{ ` { { { $.$.} } $.y.y.u.u.p.p.p.p.i.u.y.y.y.u.p.p.i.i.i.i.l.v.c.v.Z.).-X*X*X#X1X#X).E.)._.1X5Xi.} y.u.y.y.y.0.y.y.y.y.y.y.y.p.m.m.c.c.c.i.p.y.@.! b d d d : d M a.B.A.[.-X5X1X+X_.E.E.).~.}.}./.Y.' U F 0 1 7 9 7 7 7 @ @ , , . . . . .           $ % 0 h v h j v v v v v v v j j j j j g g g g g g g j j g g g j j j h g g g g g g 0 6 6 6 6 g g 6 6 g g g g d d g g 6 6 6 6 g g g g g g g g g g g g g g g d g g g g j ! } p.c.b.Z.A.!.!.",
"@.[ [ [ [ [ [ [ ' ` ^ ^ P +   .                                                                                           . . H Y.Y.*.*.O.O. .T E E E E E E E E E E E E I I I I I I I I I I I I I I G H I H I D D D D D D D D D / I.}.6XwXgXgXpXqX*X).A.b.b.v.p.m ! ).qX1X_._._.`._.oX+X`.oX&X-X-X3XqX9X3X3X*X`._.+X+X@X@X&X@X@XoXoX`.).`.oX+X&X&X@X`.`.`._._.+X@X&X&X#X+X].`.).!.!.!.E.E.E.E.R.R.Z.Z.B.n.m.c.l.i.i.i.i.p.p.y.y.y.$.{ { [ [ { { { { { [ ` ` ` ` [ [ ` ` ` ` ` ` ` ` ^ ^ ^ ^ ^ ^ ^ ^ ^ ! ! ! ! ! ^ ^ ! ! ! ! ! ^ ! / ^ / / / / ^ ^ / ^ ! ! ! ! ! ^ ^ ^ ^ ^ ^ ^ ^ ^ ! ^ ^ ^ ^ L L ! ^ ^ ^ ! ! ^ ^ ^ ^ ^ ^ ^ ^ ^ ^ ^ ^ ] ` ` ` ` ^ ^ ^ ^ ` ` ` ^ ` ` ' [ [ { { { { { { { { [ [ { { $.$.$.u.$.{ { [ { } { } { $.y.y.y.y.y.y.y.y.y.y.y.y.y.u.u.u.x.l.l.l.v.m.R.).].].].[.#X#X)._._.].]._.*X*Xm.0.y.y.y.y.y.0.y.y.p.p.y.y.p.i.T.n.m.c.c.i.y.} } ! n d : d f M a.b.E.+X-X5X1X-X~.E.E.E.W.W.W./.Q.s.R w 2 9 9 1 w w e e e 9 r 1                     . $ % 0 h h j j v g v g v v j j j j g g g g g g g g j j g g g h j j h g g g g g g 0 6 6 6 6 g g 6 6 g g g d d 6 6 6 6 6 6 6 g g g g g g g g g g g g g g g g g g g g j W [ p.c.b.Z.A.!.!.",
"+.{ { [ [ [ [ ` ' ` ' ' ] J . .                                                                                           $ F Y.Y.L.UX=.X. .T T E E E E E E E E E E E E E E E I I I I I I I I I I I I I I I H H H F H D D D D B U *.Q.}.qXgXkXgX0XqX-X[.E.A.B.b.a.8.5XwX-X].`.).).`._.].`._.oX#X-X-X-X-X-X@X+XE.A.!._.+X-X-X&X@X+XoX).`.`._.oX+XoX_.!.!.).`.`.].@X#X#X+X+X].).).!.E.E.E.E.E.E.R.Z.B.b.v.c.l.l.p.p.p.p.p.p.y.y.$.$.$.} { [ [ [ { { [ ` ` ` ` ` ' [ [ ` ` ` ` ` ` ` ` ^ ^ ^ ^ ^ ^ ^ ^ ^ ^ ^ ^ ^ ^ ^ ^ ^ ! L L ^ ^ ^ ^ ^ ^ ^ ^ ^ ^ ^ ^ ! ^ L ! ! ^ ^ ^ ^ ^ ^ ^ ^ ^ L L L ^ ^ ^ ! ! L ! ! ^ ^ ! L L L ! ^ ^ ^ ^ ^ ^ ^ ^ ^ ` ` ` ` ^ ^ ^ ^ ` [ { ` ` ` [ [ { { [ [ [ [ { { { { { { { { $.y.u.y.@.{ { { { $.@.@.@.$.$.y.y.y.y.y.y.y.$.$.y.y.p.p.p.l.m.n.m.B.Q.].+X#X#X#X#X[.[._.)._.).`._.*X1Xn.0.y.$.y.y.y.y.y.y.p.y.y.i.c.c.c.l.l.l.l.y.} / n n f d d m | p.b.S.[.9XqX1X*X).E.E.E.E.Q.Q.Q.Q.s.U H H Z Z Z F F F F D B B q e X                   . . X 3 0 g h h h h g g g g g g g g g g g g g g g g g g g g g g g h g v g g g g 6 6 6 6 g 6 6 6 6 6 g g 6 6 6 6 6 6 6 6 6 6 g g g g g g g g j j j j g g g g g d g g j K ` y.c.b.Z.A.!.!.",
"{ { [ [ [ [ [ ` ' ` ' ' O.T 5 .                                                                                           F Y.Y.UXL.L.=.-.T R Y E E E E E E E E E E E E E E E E I I I I E I I I I I I I I H H H H H H D D D D B w R s.}.2XqXpXgXpXqX1X+X).E.Z.B.b.E.sX1X#X].`.).).).`.`.`._.oX+X#X#X#X#X@X_._.A.S.A.).[.#X-X-X&X&X&X_.@XoX).!.`._._.`.!.).`._.].+X+X].].].`.).E.E.E.E.E.E.E.R.R.B.b.v.l.l.p.p.p.p.p.p.p.p.y.y.$.$.$.} { [ [ [ ` ` ` ` ` ` ` ` ' [ ' ` ` ` ^ ^ ` ` ` ^ ^ ^ ^ ^ ^ ^ ^ ^ ! ^ ^ ^ ^ ! ! ^ ! L ! ^ ^ ^ ^ ^ ^ ^ ! L L ! ! L ! L L L L ^ ! L ^ ^ ^ ^ ^ ^ L L ^ ^ ! ! ! L ! ! ! ! L L L L ! ^ ^ ^ ^ ^ ! ^ ! ^ ` ` [ ` ^ ^ ^ ^ ' $.u.{ { [ [ [ { { [ [ [ [ { { +.{ { { { { { $.u.$.$.{ { { @.$.@.@.@.@.$.y.y.y.y.y.y.y.y.y.y.p.p.p.p.i.B.W.Q.W.[.#X*X*X#X[.]._.).).).).!.)._.#X1XB.0.y.{ y.y.y.y.y.y.p.p.y.c.n.n.l.i.i.p.$.} / b n f d f M | i.b.S._.-XqXqX*X).Z.E.E.E.R.Q.Q.Q.I.^ h B B B B B B D D D D D B w e 1 .                 . . X 2 0 0 g g g g g g g g g g g g g g g g g g g g g g g g g g g g g v g g g g g 6 6 6 g 6 d 6 6 6 g g 6 6 6 6 6 6 6 6 6 6 d g g g g g j g j j j j g g g g g g d g v b ^ y.c.b.Z.A.!.!.",
"{ { [ [ [ [ ' ` ' ' ' ' ] ] ^ 1                                                                                         B Y.Y.Y.*.UX=.O.-.T R Y Y E E E E E E E E E E E E E E E E E E I I I I I I I I I I D H H H H F D V D D B Z U %.I.'.2XwXgXaX0XqX*X).).A.Z.A.+XqX5X_._.).!.!.!.).).`.].+X+X+X+X].].].).).Z.B.A.!._.+X-X:X-X-X-X@X3X3X+X`.`.`.`.`.`.).`._.].].`.).).).`.!.E.E.E.E.E.~.W.R.B.b.v.l.i.p.y.y.y.p.p.p.p.p.y.y.$.$.$.} { ` ` ` ` ` ` ^ ^ ^ ^ ` ` ' ` ` ^ ^ ^ ^ ^ ` ^ ^ ^ ^ ^ ^ ^ ^ ^ ^ ! ^ ^ ^ ^ ! ! ! ! ^ ^ ^ ^ ^ ^ L L L L L L L L L L L L L L L L ! ^ ^ ^ ^ ^ ^ L L L ^ ! ! ^ ^ L ! ! ! L L L L L ! ! ^ ! ^ ! ! ^ ^ ` ` [ [ ^ ! ^ ^ ' { @.` ` ` [ [ { { [ [ [ [ { { +.@.+.+.{ { { $.$.$.$.{ { { @.$.$.@.{ @.$.$.$.y.y.y.$.y.y.y.y.p.i.i.i.i.E.[.'.[.*X*X#X[.]._.).).).).).).!.!.`.+X*XB.0.y.{ y.y.y.y.y.p.p.i.i.n.T.c.i.p.p.p.} ` ! b f n W } } i.z.B.).&XqX0X3X].A.B.A.E.E.E.Q.T.m.^ h w e B B B B B B B D D D B B q r > .               . . $ - 0 0 g g g g g g g g g g g g g g g g g g g g g g g g g g g g g v g g g g g 6 6 0 g 6 6 6 6 6 6 6 6 6 6 6 6 6 6 6 6 6 d g g j v j j j j j j j g g g g g g d d j b ! 0.l.b.Z.A.!.!."
};
