/* XPM */
static char *_5990f59d25a46ffadba26950f20d3e7Mue2Ebqcv6ChxiOw[] = {
/* columns rows colors chars-per-pixel */
"554 739 256 2 ",
"   c #0D0A0B",
".  c #0C0705",
"X  c #140C0B",
"o  c #150B08",
"O  c #1C120D",
"+  c #16110E",
"@  c #0B0D17",
"#  c #0E111C",
"$  c #141214",
"%  c #1C1413",
"&  c #15151B",
"*  c #1C1A1C",
"=  c #1A171A",
"-  c #120E11",
";  c #231915",
":  c #231D1B",
">  c #281A15",
",  c #281811",
"<  c #2B211D",
"1  c #26211D",
"2  c #36251C",
"3  c #0E1322",
"4  c #121623",
"5  c #1B1C23",
"6  c #151B2B",
"7  c #1C1D2B",
"8  c #141824",
"9  c #191F31",
"0  c #221E24",
"q  c #211E33",
"w  c #1E2129",
"e  c #1D2234",
"r  c #1C2537",
"t  c #242224",
"y  c #2B2523",
"u  c #24232B",
"i  c #29262A",
"p  c #2C2A2C",
"a  c #2B2928",
"s  c #332A25",
"d  c #332D2C",
"f  c #392A24",
"g  c #39312D",
"h  c #232533",
"j  c #2C2C33",
"k  c #2B2D3C",
"l  c #252938",
"z  c #322E33",
"x  c #2E303A",
"c  c #343233",
"v  c #3B3534",
"b  c #34343B",
"n  c #3A363A",
"m  c #3C3A3B",
"M  c #3B3938",
"N  c #2E312E",
"B  c #1F201D",
"V  c #492B1C",
"C  c #442D24",
"Z  c #48342A",
"A  c #56392A",
"S  c #4C3C33",
"D  c #423C3C",
"F  c #443935",
"G  c #553D33",
"H  c #512E25",
"J  c #683C2B",
"K  c #67341C",
"L  c #47413D",
"P  c #594438",
"I  c #594330",
"U  c #644A3C",
"Y  c #674838",
"T  c #764B39",
"R  c #714B36",
"E  c #49623C",
"W  c #2B2E41",
"Q  c #2D3244",
"!  c #3D3C43",
"~  c #353747",
"^  c #383C52",
"/  c #322E4F",
"(  c #342E61",
")  c #433E43",
"_  c #563E42",
"`  c #623C42",
"'  c #3D4150",
"]  c #444343",
"[  c #4A4544",
"{  c #44434B",
"}  c #4C4A4B",
"|  c #4B4847",
" . c #524D4C",
".. c #584A44",
"X. c #57524D",
"o. c #494A54",
"O. c #545254",
"+. c #595758",
"@. c #514F54",
"#. c #664D43",
"$. c #695448",
"%. c #7C5C4C",
"&. c #765647",
"*. c #665B56",
"=. c #775E52",
"-. c #754E42",
";. c #69625B",
":. c #7C6254",
">. c #79655A",
",. c #79644E",
"<. c #575967",
"1. c #5A5E72",
"2. c #4D5063",
"3. c #5D6274",
"4. c #5E606C",
"5. c #686667",
"6. c #766B66",
"7. c #646675",
"8. c #797676",
"9. c #77716D",
"0. c #5F615D",
"q. c #3F433B",
"w. c #895338",
"e. c #9D633B",
"r. c #855B49",
"t. c #8D5C4C",
"y. c #88624D",
"u. c #96644B",
"i. c #836454",
"p. c #8B6453",
"a. c #8C6B5B",
"s. c #866859",
"d. c #936C5B",
"f. c #976956",
"g. c #98725D",
"h. c #8C725B",
"j. c #A46C58",
"k. c #A6745C",
"l. c #AB7153",
"z. c #866D62",
"x. c #897467",
"c. c #947463",
"v. c #9A7867",
"b. c #857C76",
"n. c #97776B",
"m. c #A67A66",
"M. c #B57B67",
"N. c #AC796D",
"B. c #B77465",
"V. c #988679",
"C. c #8C8378",
"Z. c #AA826C",
"A. c #B7856B",
"S. c #A98574",
"D. c #B88974",
"F. c #BB9478",
"G. c #AF9471",
"H. c #A98963",
"J. c #C3896D",
"K. c #C58B75",
"L. c #C89578",
"P. c #D39C7C",
"I. c #D5977B",
"U. c #CA9070",
"Y. c #DAA17E",
"T. c #C8A37C",
"R. c #DF9D7D",
"E. c #757888",
"W. c #6D7B9F",
"Q. c #7A869F",
"!. c #898786",
"~. c #958C86",
"^. c #9A9795",
"/. c #95908D",
"(. c #A7988A",
"). c #A59D96",
"_. c #B69688",
"`. c #AAA29A",
"'. c #B8A899",
"]. c #B9A78D",
"[. c #8D97AC",
"{. c #AAA7A5",
"}. c #B5ADA6",
"|. c #B8B2AB",
" X c #BBB7B4",
".X c #AAAEB7",
"XX c #9AA5AD",
"oX c #C99985",
"OX c #D79C84",
"+X c #CD9B8F",
"@X c #DCA483",
"#X c #D9A489",
"$X c #CDAC95",
"%X c #E1A584",
"&X c #E4AB8B",
"*X c #E5A989",
"=X c #E9B18D",
"-X c #E6AB94",
";X c #ECB494",
":X c #EBB698",
">X c #F2BC9A",
",X c #C5B3A4",
"<X c #CCBAAB",
"1X c #C9B6A8",
"2X c #D2BDAC",
"3X c #C5BDB6",
"4X c #D2BEB1",
"5X c #C4AEA2",
"6X c #EFBAA2",
"7X c #E19E83",
"8X c #F5C19D",
"9X c #E5C198",
"0X c #C7C2BC",
"qX c #D5C3B4",
"wX c #D9C6B5",
"eX c #DDCABB",
"rX c #D9C6B9",
"tX c #D4C2AE",
"yX c #F8C4A5",
"uX c #E2CCBD",
"iX c #E5C9B6",
"pX c #ECCEB6",
"aX c #D8E1B3",
"sX c #B0B7C3",
"dX c #CAC7C5",
"fX c #D8CDC5",
"gX c #D7D2CC",
"hX c #DAD8D5",
"jX c #CDCDD2",
"kX c #E3CEC2",
"lX c #E8CFC3",
"zX c #E5D2C4",
"xX c #E9D4C5",
"cX c #EAD6C9",
"vX c #EDDACC",
"bX c #E6D5CA",
"nX c #F1DDCD",
"mX c #F3D8C6",
"MX c #E4DDD6",
"NX c #F1DED1",
"BX c #E2CED3",
"VX c #F2E0CF",
"CX c #F5E2D3",
"ZX c #FCEBDC",
"AX c #F9E6D7",
"SX c #E8E3DB",
"DX c #EBE9E7",
"FX c #F6EEE7",
"GX c #F9F1E8",
"HX c #F1EFF1",
"JX c #F4F2F3",
"KX c #F9F7F8",
"LX c #EEEDF1",
"PX c #DBE0DF",
"IX c #AFD7AD",
"UX c #7B8678",
/* pixels */
"3XrXfXBXMXMXMXDXDXFXFXGXJXJXKXKXKXKXKXKXKXKXKXKXKXJXKXJXKXKXKXKXKXKXKXKXKXKXKXKXKXJXGXFXGXFXZXAXZXAXCXNXmXpXiX6X6X6X6X6X2X-X$X-X$X$X$X$X$X$X+X+XoXoXF.D.D.D.S.S.S._.+X$X2X2X2X2X$X_.S.n.z.=.$.*.X.+.*.*.*.*.+.+.O. . .} [ [ [ [ ] ] ] ] ] ] ] ] L m v z p p p p p d d d d f f g C Z S S S F F F Z g v v g d d a a a a a p p s s a a a y a t a t i i i i t u i p j b ! ] ] { } } @.O.+.O.+.+.+.O.} } { ] ] ! ! m ! ! ! ! ] ] ] ] ] ' m m m ! ! ! m m m m m m ] ] ] ] D m v v M M M D ..#.p.f.j.l.k.k.l.j.j.l.j.k.k.k.l.l.l.l.l.j.l.l.l.l.l.u.u.e.e.w.w.w.T T R Y J J J A A A H V V V V V V V V H A A A A A A K K K J J Y R R T w.w.T R Y I G Z f s s d c D L [ } +. .L M p a t : * * * 5 * t t t t t t i i i i i i i i i i i i i i i t t t t t t t t t t t 5 5 5 5 5 5 * 5 5 5 5 5 5 0 0 q q 0 0 0 0 7 7 7 7 7 7 7 7 7 7 w 7 w 7 7 7 7 7 7 7 7 7 7 7 7 7 7 7 7 7 7 7 7 7 0 0 7 7 7 7 7 7 7 7 7 7 5 5 7 7 7 7 7 7 5 5 5 7 7 7 5 5 5 5 7 7 7 7 w w w w e w w w w w e e e e h u w w w e e e e e h h h h h h h h h h h h h h h h h h h h l l l l j j j j k k k ~ ~ { { ' ~ ~ ~ ~ ~ ~ ~ b x x x x x x x x W W b b b b b b b b b b b b b b ! ! ] { } { { { ",
"|.1X4X4XBXBXMXMXSXDXFXFXGXJXJXJXKXKXKXKXJXJXKXJXGXGXGXGXJXJXJXGXJXJXJXJXGXGXGXGXGXGXGXFXAXAXSXNXNXvXcXxXiX6X6X:X-X-X-X-X$X$X$X$X-X-X$X$X$X$X$X+XoXF.D.Z.m.m.v.c.N.S._.oX+X$X$X2X$X+X_.(.n.z.=.6.5.6.9.9.9.9.5.5.+.X. .} [ [ [ [ ] ] ] ] ] ] ] ] L m v c d d z z z d d d d g f g C Z S S S F F F F g g d s s a a a a a a a a a a a a a y a a a t i i i i i p z v m ' { } O.O.+.+.+.+.+.+.O.O.O.} { ] ] ] ] ! m m ! m ! ! ] ] ] ] ] ' m M m m m m m M M M m m ] ] ] ] D m v v M M D [ $.&.s.d.k.k.k.l.l.j.j.k.k.k.k.k.l.l.l.l.l.l.l.l.l.l.l.u.u.e.e.w.w.w.w.T R Y J J J A A A A H H V V V V H H A A A J J J J J J J Y R R T w.w.w.w.T R R A A C f s d c v L [ }  . .[ m c a t * * * * 5 5 5 t t t t t t t t t t t a i i i i i i i i i t t t t t t t t t 0 5 5 5 5 5 * 5 * 5 5 5 5 5 5 0 0 q 0 0 0 0 0 7 7 7 7 7 7 7 7 7 7 7 7 w w 7 7 7 7 7 7 7 7 7 7 7 7 7 7 7 7 7 7 7 7 0 0 7 7 7 7 7 7 7 7 7 7 5 5 5 5 7 7 7 7 5 5 5 5 7 7 5 5 5 5 7 7 7 7 w w w w e e w w w w w w e e u u w w w w e e e e h h h h h h h h h h h h h h h h h h h h l l l l l j j j j l k x ~ ~ ~ ~ ~ ~ ~ ~ ~ ~ b x x k x x x x x x x x b b b b b b b b b b b b b b ! ! ] { } } { { ",
"'.'.5X1XrXkXbXNXSXSXSXFXFXGXGXGXGXGXGXGXGXGXGXGXGXGXGXGXFXFXFXFXFXFXFXFXFXFXFXFXFXFXAXCXNXvXvXzXzXkXiXiX2X2X-X-X-X-X-X$X$X$X$X$X-X-X$X$X$X$X$X$XoXF.D.Z.m.v.c.d.c.v.N.N.S._.+X$X$X$X$X+X_.n.b.b.!.~.~././.~.!.b.*.+. .[ [ [ [ [ ] ] ] ] ] L L ] L D M c c c c c z c c d g g g Z C Z S S S F F F F F d s s s a a y y y y a a a a a a a y a a a a i i i i c v M ! { } @.O.+.+.+.+.+.+.O.O.} } { { { { ] ' ! ! m m m m ) ) ] ] ] ] ] ' m M M M M M M b b M m m ] ] ] ] D m v v v M D [ $.$.s.a.g.j.k.k.k.k.k.k.k.k.l.l.l.l.l.l.l.l.u.u.l.u.l.u.e.e.e.w.w.w.w.T R R Y J J K J A A A A A A A H A J J J Y Y Y Y Y Y R R T T w.w.w.w.w.w.T R Y A Z f s s c v M [ [  . .[ D c a t : * * 0 0 5 5 5 5 5 5 t 0 0 0 t t t t t t t t t i i i i i t t t t t t t t 5 5 5 5 * * * * * * 5 5 5 5 5 5 0 0 0 0 0 0 0 0 7 7 0 0 7 7 7 7 7 7 7 7 w w 7 7 7 7 7 7 7 7 7 7 7 7 7 7 7 7 7 7 7 7 0 0 0 7 7 7 7 7 7 7 5 5 5 5 5 5 5 5 7 7 5 5 5 5 7 7 7 5 7 7 7 7 7 7 w w w w e e h h u u w w w w u u w w w w e e e e h h h h h h h h h h h h h h h h h h l l l l l l l l l l l l j k k x x x b x Q x x x x k k k x x x x x x x x b b b b b b b b b b b b b b ! ! { { o.} { { ",
"].5X5X1X2XrXzXnXvXNXSXAXFXFXFXFXGXGXGXGXFXGXGXFXFXGXZXZXAXAXAXAXAXAXAXAXAXAXAXAXAXAXNXnXxXxXuXiXiXiX2X2X2X-X-X-X-X$X$X$X$X$X$X$X$X-X-X-X$X$X$X$X+XoXF.D.S.N.N.m.a.a.x.c.v.S._.+X+X+X5X5X'.(.~.~.).).{.{.}.{.^.~.5.*. .[ [ [ [ [ ] ] ] ] ] ] L ] ] L m v c c c c c c c v g g Z Z Z Z F S S F F F F F f f y y y a y y y y a a a a a a a a a a a a i i i i b M ! ] } O.+.+.+.O.O.O.O.O.} } | | { ] ] ] ] ' ! ! m m m ! ) ! ) ) ! ] ] ! m b b b b b b b b b m m ] ] ] ] D m v v M v v D ..$.=.i.s.d.g.g.k.m.k.k.k.l.l.l.l.l.l.l.l.l.u.u.u.u.u.u.e.e.e.w.w.w.w.T R R J J J J J A A A A A A A A J J Y Y Y R R R R R R T w.w.r.w.w.w.w.w.T R Y Z Z f s d c M D ] }  . .D v a : : : : : 0 0 0 5 5 5 5 5 : : 0 0 0 0 0 0 0 0 0 t t i i i u t t t t t t t t 0 5 * * * * * * * * * 5 5 5 5 5 5 0 0 0 0 0 0 0 0 7 7 0 0 7 7 7 7 7 7 7 7 w w 7 7 7 7 7 7 7 7 7 7 7 7 7 7 7 7 7 7 7 7 0 0 0 0 7 7 7 7 7 7 7 5 5 5 5 5 5 5 5 5 5 5 5 7 7 7 7 7 5 7 7 7 7 7 w w u u e e h u u u w w w w u u w w w w e e e e h h h h h h h h h h h h h h h h h h l l l l l l l l h h h l l l l l j j k k k k x k k k k k k k x x x x x W b b b b b b b b b b b b b b ! ! { { o.} { { ",
"5X5X1X1X2X2XiXuXxXxXvXvXCXCXCXCXCXCXCXCXVXVXnXvXvXcXcXxXxXxXxXxXmXmXmXxXxXmXmXmXxXpXiXiXiXiXtX2X2X:X2X-X-X-X-X-X-X-X-X-X$X$X$X$X-X$X$X-X$X$X$X-X$X$X+XoX_.D.D.Z.S.n.c.x.c.n.n.S._._.$X5X5X}.'.`.{.}.|.3X3X X{.~.b.5. .[ [ [ [ [ ] ] ] ] ] L L ] ] L m c c c c c c c c v g g Z Z Z F F S S S F F F g s s y y y y a a a a a a a a a a a a a i i i i i j b ] } } O.+.+.+.+.+.O.O.} } } | { { ] ] ) ) ) ) ) ! ) ) ! ! ! ! ! ! ! ! ! m m M b c c c c v v b b m m ] ] ] ] m m M M M v v v v S P #.=.:.s.d.c.m.m.k.k.k.l.l.l.l.l.l.l.l.u.u.l.u.u.u.e.e.e.w.w.w.w.T R R Y J J J A A A A A A J J J J Y Y R R T T T T T w.w.w.r.r.u.w.w.w.T R Y I Z f s d c v m L X. .[ L v d t : : : * * 0 0 5 5 0 0 0 0 : 0 0 : 0 0 0 0 0 * 0 0 t t i i t t t t t t t 0 t 5 * * * * * * * * * * 5 5 5 5 5 5 0 0 0 0 0 0 0 0 u u 0 0 0 0 w 7 q 0 q q q q 0 0 7 7 7 w 7 7 u w w 7 0 0 0 0 7 7 7 7 u u w 7 7 7 7 7 7 7 5 5 5 5 5 5 5 5 5 5 7 7 7 7 5 5 7 7 5 5 7 7 7 7 w u h h e w h h h h u u u u u u u u h u e e h h h h h h h h h h h h h h h h h h h h h h h l l l l l h h h h l l l l l l j k k k k k k k k k x x k k x x x k x b b b b b b b b b b b b ~ ! ! { { o.o.o.{ ",
"$X$X$X$X$X2X2XiXiXiXiXuXpXxXxXxXpXpXpXpXpXpXpXuXiXiXiXiXiXiXiXiXiXiXiXiXiXiXiXiXiXiXiX2XiX2X:X:X:X-X-X-X-X-X-X-X-X#X$X$X$X#X$X$X$X$X$X$X$X$X-X-X$X$X$X$X+X+XoX_._.S.V.n.z.s.z.c.n.S._.5X'.'.`.).).{.}.|.|.|.`./.8.5. .| [ [ [ [ ] ] ] ] ] ] L ] ] L m c c c z z c c c d g d Z Z Z Z F F S F F F v g s y y y y y a a a a a a a a a a a a a a i p p c m ! } } O.O.+.+.+.+.O.O.} } } { ] ] ] ! ! ! ) ) ) ! ! ) ) ! ! ! ! ! ! m m ! M M v c c c c c c c b M m m ] ] ] ] m m M M M M v v v g F S ..#.&.:.a.g.k.k.k.k.l.l.l.l.l.l.l.l.u.u.u.u.u.u.e.e.e.w.w.w.w.T R R Y J J J K K J K J J J J J Y Y R T T T T T w.w.w.w.w.r.t.u.t.w.w.T R Y A Z f s c v M D [  .} ] D v a t : : : * * 0 0 5 5 0 0 0 0 0 0 0 0 0 0 0 0 0 * 0 0 0 0 t t t t t t t t t t t 5 * * * * & * * * * * 5 5 5 5 5 5 0 0 0 0 0 0 0 u u 0 0 0 q q w w 0 0 q q q q 0 0 7 7 w w 7 q u w w 7 0 0 0 0 7 7 7 7 u w w 7 7 7 7 7 7 7 5 5 5 5 5 5 5 5 5 5 7 7 7 7 5 5 5 7 5 5 7 5 7 7 w h h h e w h h e e u h u u u u u w u u e e h h h h h h h h h h h h h h h h h h h h h h h h l l l l h h h h l l l l l l j k k k k k k k k k x x k k x x x k x x b b b b b b b b b b b ~ ! { { { o.o.o.{ ",
"$X$X-X-X-X$X$X2X2X6XiXiXiXiXiXiXiXiXiXiXiXiXiXiXiXiXiXiXiXiX2X2X6X6X2X2X2X2XiXiX2X2X6X6X2X:X-X-X-X-X$X$X$X$X$X$X#X#X$X$X$X$X+X+X#X+X+XoX+X#X#X#X$X$X-X-X-X#X+XoX]._.(.S.x.s.>.s.s.c.N._.(.(.~.~.!.~.^.^.).)./.!.9.*. . .[ [ [ [ ] ] ] L ] ] ] ] ] L m v c c c c c c c c g g g Z Z Z F F F Z Z g g s s y y y a a a a a a a a a a a a a a p p p p c ! ] | } O.O.O.O.O.O.O.} } } { ] ] ] ' ' ! ! ! ) ) ! ! ! ! ! ! ! ! ! ! ! m m m M b v c c c c c v v b m m m ] ] ] ] m M M M M M v v v v v F F S P #.=.p.f.j.k.k.k.l.l.l.l.l.l.l.u.u.l.u.u.u.e.e.e.w.w.w.w.T T R R Y Y J J J J J Y J Y R R R R R T T T w.w.w.w.w.w.w.e.e.e.e.w.w.T Y A Z C s d g v m L [ [ ] m v c a a t 0 : * * 0 0 t 5 0 0 0 0 0 0 0 0 0 0 0 0 0 0 * * * * t t t t t t t t t t t 5 * = * * & & * * * 5 5 5 0 0 0 0 u 0 0 0 0 0 0 0 0 0 q q 7 7 w w 7 7 0 7 0 0 0 7 7 7 u u u q u u 7 7 7 7 0 0 7 7 7 7 u u 7 7 7 7 7 7 7 7 7 5 5 5 7 7 7 7 7 7 7 7 5 5 5 5 7 7 5 5 5 5 7 7 h h h h h h h u h h e e w w h h h h u h e e h h h h h h h h h h h h h h h e h h h h h h h h l l l l h h h h l l l l l l k k k k k k k k k k x k k k x x k k W x b b b b b b b b b b b ~ ! { { { o.o.o.o.",
"$X$X$X-X-X-X-X-X-X:X6X6X6X6X6X6X6X6X6X6X2X2X2X2X6X2X2X2X2X6X6X6X6X6X6X2X2X2X2X6X6X6X6X6X:X2X-X$X$X$X$X$X$X$X$X$X$X#X#X$X$X+X+X+X+X+XoXoX+X+X+X+X+X+X$X$X+X+X+X+X].].]._.S.n.z.s.i.z.x.n.b.b.x.6.5.9.8.b.!.!.b.9.5.+.} } [ [ [ [ ] ] L L L L ] ] ] L m v c c c c c c c c v v v Z Z Z F F Z Z g f s s y y y y a a y y y y a a a a a a a a z z z z ) ] } } O.O.O.O.O.O.O.} } ] ] ] ] ] ] ] ' ! ! ! ] ] ! ! ! ! ! ! ! m m m m m M M b v v c c c c c c b M m m m ] ] ) D m M v v v v v c v v v v v v F P #.&.r.p.f.j.k.l.l.l.l.l.l.l.u.u.l.u.u.u.e.e.e.w.w.w.w.T T R R Y Y J J J Y Y R R R R R T T T w.w.w.w.w.w.w.w.w.w.e.e.u.e.w.w.R I A C f s g v M m L | [ D v c d a a y t 0 * * 0 0 5 5 0 0 0 0 0 0 0 0 0 0 0 0 0 0 * * * * 5 t t t t t t t t t t 5 * = & * & & * * * 5 5 5 0 0 0 0 u 0 0 0 0 0 0 0 0 0 q q 7 7 w w w 7 7 7 0 7 0 7 7 7 u u 0 q q u 7 7 7 7 7 0 7 7 7 7 q q 7 7 7 7 7 7 7 7 7 5 5 5 7 7 7 7 7 7 7 5 5 5 5 5 7 7 5 5 5 5 7 7 h h h l h h h h h h e e e w h h h h u h e e h h h h h h h h h h h h h h h e h h h h h h h h l l l l l l h h l l l l l l k k k k k k k k k k x x k k x x k k Q x b b b b b b b b b b b ~ ! { { } o.o.o.o.",
"$X$X$X$X$X$X-X$X-X-X-X-X-X2X2X:X:X:X:X:X:X2X2X2X:X-X2X$X2X:X2X2X2X2X2X2X2X:X:X:X:X:X:X:X:X-X$X$X$X$X$X$X$X$X$X$X#X#X$X$X+X+X+X+XoXoXoXoX+X+X+X+X+X+X+X+X+X+X+X+X$X5X5X_._.S.n.z.>.=.*.*.*.*.+.+.O.+.+.*.6.6.6.6.+. .} } [ [ ] L L ] ] L L L ] ] ] L m M c c c c p v ]  .[ D D D G S S S F F f s s s y y y a a y y t t y a i a a a a p p z z b ! { } } } O.O.@.@.@.} o.} { ] ] ! ! ] ] q.! ! ! ] ] ] ! m m ! ! ! m m m M m M M b b c c c c c c c v b m m m m m m m M M b v v v v c c c v c c c c d v D P #.&.y.f.f.j.j.l.l.l.l.l.l.u.u.u.e.e.u.u.e.w.w.w.w.T T R R J J J J J R R R R R T T T T w.w.w.w.w.w.w.w.w.e.e.e.e.e.w.w.w.Y A C C f s g c v v m M M v z d d p i a t : * * 0 0 0 0 0 0 0 0 0 0 0 0 t t t t t 5 * * & * 5 t t t t t t t t t 5 5 5 * * * * * * * 5 5 5 5 0 0 0 0 u u 0 0 0 0 0 0 0 0 0 0 0 0 0 0 w w 7 7 7 7 u q q q 7 7 7 7 q q 7 w u 0 0 0 7 7 7 7 0 0 7 7 7 7 7 7 7 7 5 5 5 7 8 8 8 8 8 5 5 5 5 5 7 7 7 5 5 5 7 7 7 7 w h l l h h h h h h h h h h h h h h h h h e e e e e e e e h h h h h h h h h h h h h h h h h l l l l l l h h l l l l l l j j l k k k k k k k k k k k x k k k x x b b b b b b b b b b b ! ' { { } o.o.o.o.",
"$X$X$X$X+X$X$X$X$X$X$X$X$X$X$X$X$X$X$X$X$X$X-X$X$X$X$X$X$X$X$X$X$X$X$X$X$X$X$X$X$X$X-X-X$X$X$X$X$X$X$X$X$X$X$X$X$X$X#X#X+X+X+X+X+X+X+X+X+X+X+X+X+X+X+X+X+X+X+XoX_.+X5X5X+X_.S.n.>.*.$.X.X.X. .} } }  .X.+.+.+.+.X. .} } [ ] D D D L L D D L ] ] ] ] L M v c c c c L  .+.8.9.5.X._ S S S F F d d s y y y y a y y y y y a i a p p p d d d z c ! { } } } O.@.@.@.} o.} { { ] ] ! ! ! ) L L ! ! ! m ! m m M m ! ! m m m m M M M b b c c c c c c c c v b m m m m m m m M M v c c v v c c c c c c c c z c v F P U &.r.u.f.f.j.l.l.l.l.l.l.u.u.e.e.u.u.e.w.w.w.w.T T R R R J K J R R R R R T T w.w.w.w.w.w.w.w.w.e.w.w.e.e.e.e.e.w.w.T J H V 2 f s d d d d c c z p p p p d p a t : * : 0 0 0 0 0 0 0 0 0 0 0 0 t t t t 0 5 * * & * 5 t t t t t t t t t t t t 5 5 5 5 5 5 5 5 5 5 5 0 0 0 0 u u 0 0 0 0 0 0 0 0 0 0 0 0 0 0 w w 7 7 7 7 w q q 0 7 7 7 7 7 7 7 7 u u 0 0 7 7 7 7 0 0 7 7 7 7 7 7 7 7 5 5 5 7 8 8 8 8 8 8 5 5 5 5 5 5 5 5 5 5 7 5 7 7 w h l l h l h h h h l h h h h h h e h h h h h e e e e e e e h h h h h h h h h h h h h h h h l l l l l l h h l l l l l l j j j j k l k k k k k k k k x k k k x x b b b b b b b b b b b ! ' { { { { { } } ",
"+X+X+X+XoX+X+X$X+X+X+X+X+X+X$X$X+X+X+X+X$X$X$X$X+X+X+X+X+X+X+X+X+X+X+X+X+X+X$X$X$X$X$X$X$X$X$X$X$X$X$X$X$X$X$X$X$X$X#X#X+X+X+X+X+X+X+X+X+X+X+X+X+X+X+X+XoXoXoXoX_._.+X+X+X_._.N.z.;.X.| [ [ ] ] ] [ |  . . . . . .} } [ [ D D m m m m m m L ] ] ] ] ] m v v v v D  .5.9.C././.9.X._ G G F F d d d a y y y a a a a a a a p z c c c c c c v ! { } } O.O.} } } o.o.} { { ] ] ) ! ! ! ! q.L m m L m ! ! ] ] ' ! m m m m m M M M b b b c c c c c c c v b m m m M M M v v v v v v v v v v v v c c c c v c d g Z S P U %.y.f.f.j.j.l.l.u.u.u.u.e.e.u.u.e.w.w.w.w.T T R R R R R R R R T T T T w.w.w.w.w.w.w.w.w.w.w.e.e.e.e.e.e.w.w.T R J H C 2 s y a a a a a a p a a a p z d a t : : : 0 0 0 0 0 0 0 0 0 0 0 0 t t t t t 5 * & = * 5 w u u t t t t u u u t t t t 5 5 5 t t t t u u u u u u u u u 0 u 0 u u u u 0 0 0 0 0 0 w w w w w w 7 7 0 0 7 7 7 7 7 7 7 7 7 7 0 7 7 7 7 7 0 0 0 7 7 7 7 7 7 7 5 5 7 7 8 8 8 8 8 5 8 8 5 5 5 5 5 5 5 7 5 5 7 w e h h l l l l l l l l l l l l h e e h h h h l l h h h h e e h h h h h h h h h h h h h h h h h h l l l l l h l l l l l l j j j j k k k k k k k k k k k k k k x x b b x x b b b b b b ~ ! { { { { { { { { ",
"oXoXoXoXoXoXoXoXoXoXoXoXoXoX+X+X+X+XoXoXoXoX+XoXoXoXoXoXoXoXoXoXoXoXoXoXoXoXoXoX+X+X+X+X$X$X$X$X$X$X$X$X$X$X$X$X$X$X$X+X+X+X+X+X+X+X+XoXoXoXoXoXoXoXoXoXoXoXoX_._._._._._._._.N.x.>.$.| D D D m ] ] | } | | | } } } } [ ] D M M M m m m m L ] ] ] ] ] D v c c c ] +.9.!.^.|.}.!.6.$.....L F g c d a y y y a a a a a s s p c c c v v v M ! { } } O.O.@.} } } { { { { ] ] ] ) ! ! ! ! m m m m L ] ] | } } } { ! ! m m M M M M b b b c c c c c c c v b m m M M M v v v v v v v v v v v v v c c c v v v c s f Z S P -.&.r.p.f.f.j.l.l.u.u.e.e.e.u.u.e.w.w.w.w.T T T R R R R R R T T T T w.w.w.w.w.w.w.w.w.w.w.w.e.e.w.e.e.e.w.w.T R A V 2 2 < y y y y y a a a y a a i p p a t : : : 0 0 0 0 0 0 0 0 0 0 0 0 t t t t t 5 * & & * 5 w u u t t t t u u u u u u t t t t t t t t u u u u u u u u u 0 u u u u u u 0 0 0 0 0 0 w w w w w w 7 7 0 0 7 7 7 7 7 7 7 7 7 7 7 7 7 7 7 7 0 0 0 7 7 7 7 7 7 7 7 7 7 7 8 8 8 8 8 5 8 8 5 5 5 5 5 5 7 5 5 5 6 7 w e h h l l l l k k l l l l l l e e h h l l l l l h h h h e h h h h h h h h h h h h h h h h h h l l l l l h l l l l j j j j j j k k k k k k k k k k k k k k x x b b x x x x b b b b ~ ! { { { { { { { { ",
"oXoX_._._.oXoXoX_._._._.oXoXoXoXoXoXoX_.oXoXoXoXoXoXoXoXoXoXoXoXoXoXoXoXoXoX+X+XoX+X+X+X+X+X$X$X$X$X$X$X$X$X$X$X$X+X+X+XoXoX_._._._.F.F._._.D.S.S.S.S.S._._._.(._.S.n.n.n.N.N.n.x.6.*.| D D m m L ] [ } } } } | [  . .[ [ m c c v M M m m D ] ] ] ] ] L m v v v m O.8.^.{.|.{.~.b.b.9.6.*.*. .D M c d a a a a a a a d d d c c c c b M ! { } } O.O.} } } o.} { ] ] ] ] ] ! ! ' ' ] ' ' m m ! ] ] } O.+.5.5.+.} | m b M M M M b b b b c c c c c c c b b M M v c c c c c c c c c c v v v v c c c c v c c c s s s g Z P $.%.r.u.f.j.u.u.u.e.u.e.u.u.e.w.w.w.w.w.T T R R R R R T T T w.w.w.w.w.w.w.w.w.w.w.w.w.w.e.e.w.w.e.e.w.T Y A H V < , : 1 1 B * : 1 1 1 1 t t y a a y t * : : 0 0 0 0 0 0 0 0 0 0 t t t t t t t t * * & 5 w t u u u t u u u u u u u u u u u u t u u t u u u u u u u u u u u u u u 0 0 0 0 u u u u 0 0 q q u u u u u u u u u u w w u u w u 7 7 u u 7 7 0 0 0 0 7 7 7 7 7 7 5 7 7 5 8 8 8 8 5 5 8 8 5 5 5 5 5 5 7 5 5 5 7 w e h h h h l l l k k k k l l l l r r l l l l l l l l l h h h h h h h h h h h h h h h h h h h h h h h h h h h l l l l l l l l j l l l j j j j j j k k k x b x x x x b x x x x x b ~ ~ ! ! { { { { ' ' ] ] ",
"F.F.F.F.F._.F.F.F.F.F.F.F.F.F.F.F.F.F.F.F.F.F.F._._._._.F.F.F.F._.oXoXoX+X+X+X+XoXoXoX+X+X+X+X+X+X+X$X$X$X$X$X$X+X+XoX_.].]._._._._.S.S.S.S.n.n.n.n.n.n.n.n.~.~.S.n.n.z.z.x.n.n.x.6.*. .D D ] D D ] [ [ [ [  . . .X. .[ [ m c c c v M m m D L ] ] ] ] ] m v c c v } 5.!.{.|.{./.~.~.~.~.)./.b.5.O.] v c c d a a a a d d d d z c b M ! ] } } O.O.} } } } } { ] ) ] ] ) ) ! ! ! ' ' ' ] m m ! ] ] O.+.9.8.!.8.5.+.{ m M b M M b b b b v v c c c c c c v b v c c c c c z z c v v c v v v v c c c c c c c c c d s s g S P #.&.r.u.u.u.u.e.e.e.e.u.u.e.w.w.w.w.w.T T R R R R T T T T w.w.w.w.w.w.w.w.w.w.w.w.w.w.w.w.w.w.w.w.w.T J A H 2 > ; : * * * * * * * * * : : 1 y y 1 * * : : 0 0 0 0 0 0 0 0 0 0 t t t t t t t t * * & 5 w t u u u u u u u u u u u u u u u u u u u t u u u u u u u u u u u u u u 0 0 u 0 u u u u 0 u q q u u u u u u u u u u w w w u w u 7 7 w w 7 7 7 0 0 0 7 7 7 7 7 7 5 7 5 5 8 8 8 8 5 5 8 8 5 5 5 5 5 5 7 7 7 7 w w h l h e e h l l l k l l k k l l l l l l l l l l l l l l h h h h h h h h h h h h h h h h h h h h h h h h h h l l l l l l l l j l l l j j j j j j k k x x b b x x k k x x x x x x ~ ~ ! ! { { { { ] ' ] { ",
"D.D.D.D.D.D.D.D.D.D.D.S.S.S.S.D.D.D.D.D.D.D.F.F.F.F.F.F.F.F.F.F._._.oXoXoXoX+X+XoXoXoXoX+X+X+X+X+X+X$X$X+X+X+X+XoX_._._._._._.S.V.n.n.x.x.z.>.>.=.=.=.=.>.x.b.b.x.z.6.=.*.=.>.6.6.>.*.+.[ ] ] ] ] ] }  . .+.*.*.*.*.+. .[ m c v c c v m m m D ] ] ] ] ] ) M c c c ] +.9.!.~././.).{.}.|.3X3X|.{.!.6.O.[ m c a a a a d d d d z c M ! ] | } } } } o.} } } { ] ) ! ! ) ! ! ! ! ] ] ] ] L L ! ' ] ] O.5.8./.^.^.!.7.+.{ m b M M b b b b b b b b b b b v c c c c c c c z c c c c v v v v v v c c c v c v c c c c c z c v F P Y T w.u.u.e.e.e.e.e.e.e.e.w.w.w.w.w.T R R R R T T T T w.w.w.w.w.w.w.w.w.w.w.w.w.w.w.w.w.w.w.w.w.w.R J H C 2 ; % = = = = = = % % = = * * * 1 1 * * * : : 0 0 0 0 0 0 0 0 0 0 t t t t t t t t w * * 5 w t u u u u u u u u i i i i i i u u u u u u u u u u u u u u u u u u u u u u u u u u u u u u q q q u w u u u u u w w w w u u u u q u w w 7 7 7 7 0 0 7 7 7 7 7 7 5 5 7 5 8 8 8 5 5 5 8 8 8 5 5 5 5 5 5 5 7 7 e h l l l l r r r r l l l l l l l l k l k k k l k k k l l l l h l h h h h h h h h h h h h h h h h h h h h h h h l l l l l l l l j j l l k k k k j j j j x x x x x x k k x b x x x b ~ ~ ! { { o.o.{ { { { { ",
"S.S.S.S.S.S.S.S.S.Z.Z.Z.Z.Z.S.S.S.S.D.S.D.D.D.D.D.D.F.F.F.F.F._.F._._.oXoXoXoXoX+XoXoXoX+X+X+X+X+X+X+X+X+X+X+XoX_._._.S.S.V.V.n.s.>.>.>.$.$.............$.*.6.6.5.*.*.....X.$.*.6.5.*.+.| [ | | }  .O.+.5.9.8.b.8.9.5.+.| m c v c c c v m m m L ] ] ] ] ] m v c v m } 5.5.8.~.^.|.3XfXgXMXhXdX|.}.^.!.6.O.[ v c a a d d d d c c m ] | } } } o.o.} { { { ] ) ! ! m ) ! ! ! ! L ] ] ] L L ! ' ] ] } 5.!.^.{.{.^.!.5.+.{ m M M b b b b b b b b b b b v c c c c z p z z c c c c c c v v v v c c c v v v c c c c c c z c v Z P Y T T u.u.u.u.u.e.e.e.e.w.w.w.w.w.T R R R R T T T T T w.w.w.w.w.w.w.w.w.w.w.w.w.w.w.w.w.w.w.w.T R A V f > ; % $ $ $ $ $ $ $ $ % % % % = * * * * * : : 0 0 0 0 0 0 0 0 0 0 t t t t t t t t w * * 5 w t u u u u i i i i i i i i i i u u u u u u u u u u u u u u u u u u u u u u u u u u u u u u q q q u w u u u u u w w w w u u u u q 0 7 7 7 7 7 7 0 0 7 7 7 7 5 5 5 5 7 7 8 8 5 5 5 5 8 8 5 5 5 5 7 5 5 5 7 w l l k W W k l l l l l r r r r r l l k k k k k l k k k l l l l h l l h h h h h h h h h h h h h h h h h h l h h h l l l l l l l j j j l l k k k k j j j j x x x x x x k k x x x x x b ~ ~ ! { { o.o.} { { { } ",
"Z.Z.Z.Z.m.m.m.m.Z.m.m.m.Z.m.Z.Z.Z.Z.S.S.S.S.S.S.S.S.D.D.D.D.F.F._._._._._._.oXoXoXoXoXoXoXoXoXoXoXoXoXoXoX_._._.S.V.n.n.x.z.z.6.$.$.X...| P L L L [ [ [ .. .X.+.X.X...P ..X.X.+.*.*.*.+.X.X.+.;.5.9.9.8.b.!./.).^./.!.5.| m v v c c c v m m m ) ] ] ] ] ] D M v v M ] O.5.6.8.!.{.3XhXFXKXDXMXgXdX X}.^.!.9.X.[ v c d d z c v M ] ] } } } } } } { { ] ] ! m ! m ! ! ! ! ! ! ! ! ] ] ] ! ! ! ] ] } +.9./.^.{.{.^.!.5.O.} m M b b M M b b b v v v v v c j c c z p p d d z z z c c v v v v v v v v v v v c c c c z c z c v v F P ..T r.y.u.u.e.u.e.w.w.w.w.w.T T T T R R T T w.T w.T w.w.w.w.w.w.w.w.w.w.w.w.w.w.w.w.w.w.w.R J H C 2 ; % % $ $ $ $ $ $ $ $ $ $ % % = * * * * : : 0 0 : t t t t t t t t t t t t t t t t B * * * w t u i i i i i i i i i i i i i i i i i u u u u u u u u u u u u h u u u u u u u u u u u u u u u u u u u u u q q u u u u q q 0 0 0 0 u u 7 7 w w u 7 7 7 7 7 7 7 7 5 8 8 5 5 8 8 8 8 5 5 8 8 8 5 5 5 5 5 7 w h k Q ~ ~ W W k l k k k l r r r r l l l k k k k k k W W k l l l l l l h l l h h h l l k l h h h h h h h h h h h h h h h l l l l l l l l j j j j k k k k k k k k k k k k x x x x b b ~ ~ ! { { } o.} } } o.o.",
"m.m.m.m.m.m.m.m.v.m.m.m.m.m.m.m.Z.Z.Z.Z.S.S.S.Z.S.S.S.S.S.S.S.S.D._._._._._._._._._.oXoX_._.oX_._._._._._._._.(.(.V.x.x.6.>.>.*.X.....P L L D D L [ [ [ [ [ |  . .| [ L [  .X.X.;.;.5.5.6.9.8.C.!.!.!.!.^.{.|.|.{.)./.9.} m v v c c c v m m m ) ] [ ] ] ] D M v v v M ] O.5.9.C.). XgXDXGXFXFXDXSXgXdX3X X)./.8.+.[ M v c c v m ] }  . .} } } { ] ] ] m m m m ! ! ! ! ! ! ! ) ! ] ] ] ' ! ! ] ] { } +.9./.^.^.{.^.8.5.O.} ! M b M M b b b b v v b v c j z c j p p d p p d z z z c v v v M m m v v v v c c c c c c c c c c b n F P -.%.r.r.u.u.u.w.w.w.w.w.T T T R R T T T T T T T w.w.w.w.w.w.w.w.w.w.w.w.w.w.w.w.w.w.T R J V 2 > ; % % % $ $ $ $ $ $ $ $ $ % % = * * * : : 0 : 0 0 t t t t t t t t t t t t t t t t B * * * w t i i i i i i i i i i i i i i i i j i i i u u u u u u u u u u h h u u u u u u u q u u u u u u u u u u u u q q u u u u q q 0 0 0 0 u u 7 7 w w u q 7 7 7 7 7 7 7 7 8 8 5 5 5 8 8 8 5 5 5 8 8 5 5 5 5 5 7 w h k Q ~ ~ ~ Q Q W W Q Q W k r r r r r k k k k k k k W Q W x k l l l l l l l l l l l W W k l l h h h h h h h h h h h l l l l l l j j l l j j j j k k k k k k k k k k k k x x x x b b ~ ~ ! { { } } } o.o.o.o.",
"m.v.v.v.v.v.v.v.v.v.m.m.m.m.m.m.m.m.m.m.m.N.N.S.S.S.S.S.S.S.S.S.S.S._._._._._._._.].].].].].].]._._.].].].]._._.(.(.V.b.x.9.6.6.5.;.;.*.+.+.X. . . . . . .O.X.+.*.;.;.;.;.6.6.9.b.C.!.!././.^.`.{.{.}.|.|.|. X|.{.^.!.5.} m v v c c v v m m m ) ] ] ] ] ] D m M v v v M [ +.5.8.~.}.0XgXhXSXFXFXJXDXSXgXfX0X X`.!.9.X.L v M m ] } }  . .} } } { { ' ! m m m m m ! ! ! ! m m ) ) ] ] ] ] ] ] ] ] ] ] } +.8.!.^.^.^.!.8.5.+.} ! M M M M M b b b b b v c j p z c c d p p p d d p d z c v v M ] ] M v v v v v v c z c c c v v c v v S P U &.w.w.w.w.w.w.w.w.T T R T R R T T T T T T T T w.w.w.w.w.w.w.w.w.w.w.w.w.w.w.w.T T J A V 2 > % % % % $ $ $ $ $ $ $ $ = % % = * : : : 1 t t t t t t t t t t t t t t t t t t t t w w w w t i i i i i i i i i i i i i i i i i j j j j j j j j j j j j j j h h u u u u h h u u u u u u u u u u u u u u q q q q u u u 0 q 0 0 q u u u w w u u 7 7 7 7 7 7 7 5 7 8 8 5 5 5 5 8 8 5 5 8 8 8 8 5 5 5 5 5 7 h k Q ~ ~ ~ ~ ~ Q Q Q Q Q Q W k k l l l k k k k k W W Q ~ ~ W W k k k l l l l l k k Q Q Q W k l h h h h h h h h l l l h l l l l l l l l l j j j k k k k k k k k k k k k x x x x b b ~ ! { { { } o.o.o.o.} } ",
"v.v.v.v.v.v.v.v.v.v.m.v.m.N.m.m.v.v.v.v.n.n.n.n.V.V.V.V.V.V.n.n.V.V.S.(._.'.].'.5X5X5X5X5X5X5X5X5X5X1X1X1X1X5X}.}.`.).).(./.~.~.~.!.C.C.b.b.8.8.8.8.9.9.9.9.9.8.8.b.!.!.!.~././.^.).{.|.|. XdXdXgXgXdXdX X X|.|.{./.b.+.} m v v c c c M m m m D ] ] ] ] ] D M M v v v v D [  .+.8.^.}.3X3XdXgXMXDXFXFXDXMXgXdX X{.^.C.5.} | | }  .} } } } } } { ] ! m M m m m m m m m m m m ) ) ] ] ] ] ] ] ] ] ] ] { } 0.8.!./.^./.!.8.5.+.} ! M M M M b b b b b v c j p p c c d a a p z d p p p z c v M | | M M c v v v v c c c c c v v v v v F S G Y T T w.w.w.w.w.w.T T R T R R T T T T T T T T T w.w.w.w.w.w.w.w.w.w.w.w.w.w.w.T R J A V 2 ; O % + % $ $ $ $ $ $ $ $ = % % * : : : : 1 t t t t t t t t t t t t t t t t t t t t w w w t t i i i i i j j j j i i i i i i i i j j j j j j j j j j j j j j h h u u u u h h u u u u u u u u u u u u u u q q q q u u u 0 q 0 0 q u u u w w w u 7 0 7 7 7 7 7 5 5 8 8 5 5 5 5 8 8 5 5 8 8 8 8 5 5 5 5 7 w h k Q ~ ~ ~ ~ ~ ~ Q Q Q ~ Q Q Q W W W k k l l l l k W W W ~ Q Q W W W k k k k k k W ~ ~ Q Q W k l h h u h h l l l l l l l l l l j l l l l j j j k k k k k k k k k k k k x x x x b b ~ ! { { { } } o.o.o.} o.",
"v.v.v.v.v.v.v.v.v.v.v.v.n.n.n.n.n.n.n.n.n.n.n.n.n.c.x.x.x.x.x.x.x.n.n.V.(.'.5X<X1X1X<X2XqXrXrXeXeXfXfXfXkXfXfXfXfXfXdXdX3X3X X|.}.}.}.{.{.{.`.`.).).^.).).`.`.`.{.{.{.}.|. X X X0XdXfXgXgXhXSXDXSXhXgXdX3X{././.!.9.*.+.} ) m v v v v M M M m m ] ] ] ] ] D m v v v v v M D L L  .*.8./.`.|.0XfXgXhXDXDXFXDXMXfXdX|.^.C.5.+.O. . .} } | } } { ] ! m m M m m m m m m m m m m ! ! ! ! ] ] ] ] ] ] ] ] ] ] } +.9.!.!./.!.Q.Q.9.+.{ ! M b b M b b b M c c p p z z c z i i d d d j p z z c v v v m ) m v v v v c c z c c v v v v v c v F S G Y R T w.w.w.w.w.T T R R R R T R T T T T w.w.w.T w.w.w.w.w.w.w.w.w.w.w.w.w.w.R R J A V 2 ; % % O $ X + + $ $ $ $ $ $ $ % = * : : t t t t t t t t t t t t t t t t t t t t t t t t t t u i p p p p j j j j j j p p p p i i j j j j j j j j j j j j h h j j j j u u u u u u u u u u h h h h u u u u u u u u u u u u u u u u w w w w u u u 7 0 7 7 7 7 5 5 5 8 8 8 5 5 5 5 8 5 5 8 8 8 8 8 5 5 5 7 7 h k Q ~ ~ ~ ~ ~ / / ~ ~ ~ ~ ~ ~ Q Q Q Q W W l l l l k k W W Q Q W W W k k k W W Q Q Q / ~ Q Q k l h h h h l l k l l l l l l l l j j j j l l j j l l l k k k k k k k k k k k k x b b ! ! { { { o.} } } } o.o.",
"c.c.c.c.c.c.c.c.v.n.v.v.n.n.c.c.n.n.c.x.x.x.x.x.z.z.z.z.z.z.z.z.z.x.b.V.`.}.4XrXfXkXbXbXbXbXvXMXNXNXNXMXMXNXMXMXMXMXMXMXhXgXgXfXdXdXdXdXdXdXdX0X0X3X0X0X0X0X0X0XdXdXdXdXfXgXgXgXhXMXSXDXSXDXFXFXDXSXhXgX|./.8.9.5.+.+.O. .] m m v v M M M M m m ] ] ] ] ] D m M v v v v M D L L L |  .*.6.!.).}.3XdXgXhXSXDXDXMXjX X{.^.!.9.+. . .} | [ { { ] m m m M M M M M M M M m m m m m m ! ! ! ! ' ] ] ] ] ] ] ] | } O.5.8.!.!.!.!.8.5.+.} ] m M M M b b M c c z p z z z z p p d d d p j z c c v v v v M m m v v v c c z c c v M v v v v c v F S G Y T T T w.w.T T T R J J R T R T T R R T T w.w.T w.w.w.w.w.w.w.w.w.w.w.w.w.R R J A V 2 ; % % O $ X + - $ $ $ $ $ $ $ % = * : : t t t t t t t t t t t t t t t t t t t t t t t t t t i i p p p p j j j j j j p p p p p i j j j i j j j j j j j j h h j j j j u u u u u u u u u u u u h h u u u u u u u u u u u u u u u u w w w w u u u 7 0 7 7 7 7 5 5 5 8 8 5 5 5 5 5 8 5 5 8 8 8 8 5 5 5 5 7 7 h l W Q ~ ~ ~ ~ / / ~ ~ ~ ~ ~ ~ ~ ~ ~ ~ / Q W W k W W k k k W W W k k k k k W Q ~ Q Q Q Q W k l h h h h l j k k k k j j j l l l l j j j l l j j l l l l k k k k k k k k k k k x b b ~ ! { { { { { } } } o.o.",
"d.d.d.d.c.c.c.c.c.c.c.c.c.z.z.z.z.z.z.s.>.>.>.>.>.>.>.>.6.6.6.6.6.x.b.~.}.1XrXfXMXNXAXAXAXAXFXFXFXFXFXFXFXFXFXDXDXDXDXDXDXDXMXMXMXMXMXMXMXMXMXMXhXhXhXhXMXMXhXhXMXMXSXSXSXSXSXSXDXDXFXFXJXFXFXJXFXDXMXhX X^.b.5.0.*.+.O.O.[ ] m M M m M M M m D L [ ] ] ] ) m M v v v v M D L L L L L | [ +.5.b.^.{.|.3XdXdXgXhXdX0X|.{.^.C.5. . .} | [ ] ] m m M m b b M b M M M m m m m m m m m m ! ! m m m m m ' ] ] ] ] ] O.+.9.!.!.!.!.8.9.<.} ] ! m M M b M c c z p z z z z c c d d d p p z c c v v v v v M D m v v c c c c v M M M v v c c v v F S G U T R T T T R R R J J T T R R R R R R R T T T T w.w.T T T w.w.w.w.w.T R R R J H V > ; O % O $ X X - $ $ $ $ $ $ $ % = * : : t t t t t t t t t t t t t t t t t t t t t t t t t u i p j j j j j j j j j j j j j j j j j j j j j j j j j j j j j j j j j j j j j j j j h h h h h h u u h h u u u u u u u u u u q u u u w w u u u u w 7 7 7 7 7 7 5 5 5 5 5 5 5 5 5 5 5 8 8 8 8 8 8 8 8 8 5 7 7 h k W Q Q ~ / / / / ~ ^ ^ ^ ^ ^ ^ ^ ^ ^ ^ / / Q Q Q Q Q W k k k W k k k l k W Q ~ / / Q W l l h h h h h l k x b x k k k k k k k k l j j l l l l l l l l k k k k k k k k k k k x b ! ! { { { { { { o.} } @.@.",
"a.a.a.a.a.a.a.a.x.x.z.z.z.z.s.s.>.>.>.>.=.=.=.=.=.=.>.>.>.6.6.6.6.x.b.~.{.1X0XfXBXMXNXSXFXFXFXGXGXGXFXFXFXFXFXDXDXDXDXDXDXDXDXDXDXDXDXDXDXDXDXDXDXDXDXDXDXDXDXDXDXDXDXDXFXFXFXFXDXFXJXGXGXGXGXJXJXDXSXhXdX|.^.8.6.5.*.+.O.} ] D m M m M M M m m ] [ ] ] ] ] m M c c c c v D L L L L L L [ [ [ X.9.C./.^.).}. X3X XdXdX X{.!.9.+. .} } ] ] m m b M M M b b b M M b b M M m m m M M M m m M M M M m m m m m m m } ] +.9.Q.!.!.!.!.8.5.O.{ ! m M M M b c z z z z p z v M c d d z z c c c v v v v v v M m M v c c c c v M M M v c c c c c v F S P U Y R R R J R J K J R T R R R R R R R R T T T T T T T T T w.w.w.T R R R J J H V , ; O % % $ X X - $ $ $ $ $ $ $ $ = * : : t t a t t t t t t t t t t t t t t t t t t t t t t u i p j j j j j j j j j j j j j j j j j j j j j j j j j j j j j j j j j j j j j j j j h h h h h h u u h h u u u u u u u u u u q u u u w u u u u u w 7 7 7 7 7 7 5 5 5 5 5 5 5 5 5 5 8 8 8 8 8 8 8 8 8 5 5 7 7 h k W Q Q Q ~ / / / ~ ~ ^ ^ ^ ^ ^ ^ ^ ^ ^ ^ ~ / ~ ~ ~ ~ ~ Q W W k k k k l k W W ~ ~ / Q l h h h h h h h l k b ~ b b x x x x k k k k j j l l l l l l l l k k k k k k k k k k k b b ! ! { { { { { { } } } @.@.",
"i.i.i.s.s.>.>.s.>.>.>.>.>.=.=.=.=.=.*.*.*.*.*.*.*.;.6.6.6.6.6.6.6.b.b.~.`.}.1X3XfXgXMXSXSXFXFXGXFXFXFXFXFXFXJXJXGXGXDXDXDXDXDXDXDXDXDXDXDXDXDXDXDXDXDXDXDXDXDXDXFXFXFXFXFXFXFXFXFXFXHXHXFXFXGXJXJXFXDXMXgX3X`.!.6.5.5.*.+. .[ L m M M F D D D m D ] ] ] ] ] m v c c c c v M m L ] ] L L L L L L  .X.;.5.b.!.^.{.|. X X X|.^.8.5.5.+.} ] ! m M M M M b b b b b M b b b b b b b M M b M b b b M M m m ! ! ! ! ! ! { } +.5.8.8.!.!.8.8.5.+.} ] m M M M v c z z p z c v v v c c c c c c c c v v M M v v M M v z z c v c v m M v v v c c c v v F F P Y Y R Y J J J J J R T T R R R Y Y R R T T T T R T T T T R R T R R R J J A H V , ; % % O $ $ $ $ $ $ $ $ $ $ $ % = : : : t t a t t t a a t t t t t t t t t t t t t t t t u i i p j j j j j j j z z z z z j j j j j j j j j j j j j j j j j j j j j j j j h j j j u u u u h h h h h h h h u u u u u u u u u u u u u u u w u u w 7 0 7 7 7 7 7 5 5 5 5 8 5 5 5 5 5 8 8 8 8 8 8 5 5 5 5 7 7 h k Q Q Q Q Q Q ~ ~ ~ ^ ^ ^ ^ ^ ^ ^ ^ ^ ^ ^ ^ ^ ^ ^ ^ ^ ~ ~ ~ Q W W W W W W W Q Q Q W l l h e 9 h h h h h l k x x x x x x x x x k k l l l l l l k k k k k j j j k k j j j k k x b ! ! { { { } } } o.} } } } ",
":.:.>.>.>.=.=.=.=.=.=.*.*.*.$.$.$.$.$.$.#.$.$.*.*.;.6.6.6.6.6.6.b.b.C.~.).{.|. X0XfXfXhXMXSXSXFXFXFXFXFXFXFXJXJXJXGXGXGXDXDXDXDXDXDXDXDXDXDXDXDXDXDXDXDXDXDXDXDXFXFXFXFXFXFXFXFXFXFXHXHXFXFXFXFXJXJXDXSXhXdX|.^.8.6.5.*.+. .[ L D F F D D D D D D ] ] ] | ] m M c c c c c c M m D L L L L L L L L L L | O.*.9.!.^.{.|.|.|.^./.!.8.5.O.] ! m M M M M M M b b b M b b b b n v n n n n b b b b M M M M m m ! ! ! ! ] ] } O.5.9.8.!.!.8.8.8.5.+.} ] m m M v c c c c c c c c c c c c v v v c v v M M M M M v v c c v v c v m m M M M c c v v v v F L I Y Y Y Y Y J J J R R R R R Y Y R R R T T T R R R R T T R R R R R Y J J A H V 2 ; , O O $ $ $ $ $ $ $ $ $ $ $ % = * : : t p t t t t a a t t t a i i i i i i t t t t t t u i i p i j j j j j z z z z j z j j j j j j j j j j j j j j j j j j j j j j j j h h u h u u u u h h h h h h h h u u u u u u u u u u u u w w u u u u w 7 0 7 7 7 7 5 5 5 8 8 8 8 5 5 5 5 8 8 8 8 5 8 5 5 5 5 7 7 h W Q / Q Q Q Q ~ ~ ~ ^ ^ ^ ^ ^ ^ ^ ^ ^ ^ ^ ^ ^ ^ ^ ^ ^ ^ ~ ~ Q W W W W W W W Q Q W W l h e e e h h h u h h h l k k ~ ~ x x b x W W W k l l k k k k k k j j j j k k j j k k k x b ! ! { { { } } } o.} } } } ",
"=.=.=.*.$.$.$.$.$.$.$.$.X...................X.$.*.*.5.6.6.9.x.x.b.b.!./.).).{.}.3X3XrXfXgXMXMXSXDXFXFXFXFXFXFXJXGXGXGXFXGXFXDXDXDXDXDXDXDXDXDXDXFXFXFXFXDXDXFXFXFXFXFXFXFXFXFXFXFXFXHXHXFXFXJXJXJXJXFXDXDXhXdX{./.b.5.*.X. .[ D D D D D D D D D D D ] [ | [ L M c c c c c c c M m m m L L L L L D D D L ] [  .6.C.^.{.{.}.{.{.{./.8.+.) m M b b b b M M b b M M M M b b v v b b n n M M n n M M M M M M M m m ! ] ] ] ] O.+.5.8.Q.!.8.8.8.5.5.+.} } ] ] ) m M b v v c c v v v v v v v v v v M M M v M M M M M M v v v m m M M M v v v v v v M S G Y Y Y Y Y Y J J J Y R Y Y J J J J R R R R R R R R R R R R R R Y Y J J A V V , ; O O % % % $ $ $ $ $ $ $ $ $ % = : t t i a 0 t t t t t t a a i i i p i i i i i t t u u i i i i i i j j j j j j j j z j z z z z j j j j j j j j j j j j j j j j j j j j j j j j j j j j j j j j h h h h u u u u u u u u u u u u w w w u u u w 7 7 7 7 7 7 7 5 5 8 8 8 8 8 8 5 5 8 8 5 5 5 5 5 5 5 5 7 e h W Q Q / / / / ~ / ^ ^ ^ ^ ^ ^ ^ ^ ^ ^ ^ ^ ^ ^ ^ ^ ^ ^ ~ Q Q W W W W W W Q Q Q Q W k l l l l h h h h u u u h h h l j k k k x x W W Q W x W W W x x k k j j k k j k j j k j x b b ! ' { { { { } } o.} } O.O.",
"$.*.$.$.X.................[ [ L [ L L S L [ .. .X.*.*.5.6.6.9.b.b.C.!./.).).).{.}. X3X0XfXfXgXMXSXFXFXFXFXGXGXGXGXGXGXGXJXGXGXFXFXFXFXFXFXFXFXFXFXFXFXFXFXFXFXFXFXFXFXFXFXFXFXFXFXFXHXHXFXJXJXJXJXJXFXDXFXSXgX X).!.9.*.O.} [ D F D S S D L L L D m L ] | [ L M c c c c c c c c M M M m m m m m D D D L | ] [ +.9.!.^.{.|.0XdX|.{.!.+.m m M b b b b b M b M M M M b b b v v b b n n M M n n M M M M M M M M m m ! ! m ! m ] O.+.9.8.8.8.8.8.8.5.5.5.*.+.+.} ] ) m M v v M M M M b v v v v v M M M M M M M M m m M v v m D m m M m M v v v v v F S G I Y Y Y Y Y J J Y Y Y J J J K J Y R R R Y R R R T R R R R J Y J J J A H V , , O O % % % $ $ $ $ $ $ $ $ $ % * * : i p t t t a a t t t a a i p p p p i i i i t t u u i i i i i i i i i j j j j j j j c c z z j j j j j j j j j j j j j j j j j j j j j j j j j j j j j j j j h h h h u u u u u u u u u u u u w w w u u u w 7 0 7 7 7 7 7 5 5 8 8 8 8 8 8 5 5 5 5 5 5 5 5 5 5 5 5 7 e h k Q Q / Q / / ~ ~ ^ ^ ^ ^ ^ ^ ^ ^ ^ ^ ^ ^ ^ ^ ^ ^ ^ ^ ~ W W k W W W W Q Q Q Q Q Q W k k k l h h h h u u u h h h h l l l j k k k k W W ~ ~ ~ ~ ~ ~ x k k k k k j k j j j x x b b ! ' { { { } } } o.o.} O.O.",
"$.$...P P ....[ ..........[ [ [ [ L [ D D L L |  .X.*.*.5.6.9.8.b.C.!././.^.).`.}.|. X3X0X0XfXgXhXMXDXDXFXGXGXGXGXGXGXGXJXJXJXGXFXFXFXFXFXFXFXFXFXFXFXFXFXFXFXFXFXFXHXHXHXHXFXFXFXFXFXFXFXFXHXFXFXDXDXDXDXMXhXdX{.^.b.*.X.| [ _ S _ _ _ [ L L D m M q.] | [ L M c c c c c c c c c v v M M M M M m L L L ] [ |  .5.9.!.`. X3X X}.{.!.+.) M M b b b M M M b b n n M M b b v v v b n n n n n n n n M M M M b b M M m m ! ! m ' [ O.+.+.9.8.b.b.E.8.8.8.9.5.0.0.+.+.} [ ] c M m m M M M v v M M M M M m m m v v m D m v M D D D D D D D M v v v v F S S G P Y G I Y Y J Y J J J J J J J Y Y Y R Y K R Y J T R R K K J J J J A A V 2 > ; % % % % $ $ $ $ % $ $ $ % * : : : a p t t t i i y y a a a a p p p p i i i i i i i i i i i i i i i i p p j j j j j j j j z z z z j j j j j j j j j j j j j j j j j j j j j j j j j j j j i i j j h h u u u u h h h h u u u u u u w u u u u 0 0 7 7 7 7 5 5 5 8 8 8 5 8 8 8 8 5 5 5 5 5 5 7 7 7 7 7 e l W Q ~ / / / / / / ^ ^ ^ ^ ^ ^ ^ ^ ^ ^ ^ ^ ^ ^ ^ ^ ^ ^ / Q W W k W W W W W Q Q Q Q Q Q W k k l l l h h h h h h h h h h l l k k k k x Q ~ ! ~ ! ! ~ ~ x k k k k k x x k k k x b b ! ' { ] { { } } o.o.} O.O.",
"*.X...[ [ | | | ......| | [ [ [ [ [ [ L L D L L |  . .X.;.6.6.9.b.b.!././.^.).).{.}.|.3X3X3X0X0XfXhXMXSXDXFXFXGXGXGXKXGXJXJXJXJXJXFXFXFXFXFXFXFXFXFXFXFXFXFXFXFXFXFXFXFXFXFXFXFXFXFXFXDXFXDXDXDXDXDXDXSXDXhXhXdX{.^.b.*. .[ [ _ ..` _ _ S D D M M M q.L ] ] L m c c c c c c c c c c c v v v c v m m D D L ] } } 5.9.C.^.{.{.{.{.^.!.O.m M M b M M M M M b b n n M M b b v v v v n n n n n n n n M M M b b b M M M m ! ! m m ' ] } O.+.+.8.8.!.!.!.!.b.b.8.8.8.9.O.O.] ] m m m M M M v v M v M M M M m M v v m D D M M m D D D D D D M v v v v v F S S P I A A Y Y J J J J J J Y J J Y Y Y R Y K Y J R T R J K K J J J J J A H 2 < ; O O % % $ $ $ % % % % % * * : : a a a t t a i i a a a i p p p p p i i i i i i i i i i i i i u u i i i i j j j j j j j j z z z z j j j j j j j j j j j j j j j j j j j j j j j j j j j j u i j j h h u u u u h h h h u u u u u u w w u u u 0 0 7 7 7 7 7 5 5 8 8 8 5 8 8 8 8 5 8 5 5 8 5 7 7 5 7 9 h k Q Q ~ ~ / ~ ~ / / ^ ^ ^ ^ ^ ^ ^ ^ ^ ^ ^ ^ ^ ^ ^ ^ ^ ^ ^ Q Q W W k W W W W Q Q W Q Q Q Q Q W W k k l l l h h h h h h h l j k k k k x W ~ ~ ~ ~ ! ~ ~ x k k k k k x x k j k x b b ! ' { ] { { } } o.o.} O.O.",
"+. .[ [ | | | | ..| ..| [ [ [ [ [ [ [ L L L L L L L [ [ X.;.5.6.b.C.!././.^.^.).`.{.}. X X3X3X3X0XfXhXMXDXDXFXFXFXGXKXKXKXJXGXGXJXJXJXFXJXJXJXHXJXHXFXFXFXFXFXFXFXFXFXFXFXDXDXDXDXDXDXDXDXSXSXSXSXMXMXMXhXgXfX X|./.8.5.+.X. ...#.#._ G F F M M M M m L ] ] L m v c c c c c c c c c c c c c c c v m m m D ] | } +.6.8.8.!./.^.^.^.b.O.] M M M M M M M M b b v v M b b b v M M M n n v n n n n n M b b b b b b b b M m m m m m ' ] | } O.<.5.8.!.~.~.^.^.^./.~.!.b.+.+.O.m m m M M M M M v v v v v v v v v v m D m m m m D D D D D D m v v M M v F Z F S S S G I I G A A J J Y Y J J Y Y Y R Y K Y Y T Y J K K K J K J J J A A C 2 > ; O % % % % % % % % % * * : : : a a t t t t a a a a a a p p p p p i i i i i i i i i i i i i u u u u i i i i i j p p j j j z z z z z j j j z j j j z j j j j j j j j j j j j j j j j j j j j j j j j h h h h h u h h u u u u u u w w u u u 0 7 7 7 7 7 7 7 7 8 8 5 5 5 5 8 5 8 8 8 8 8 8 7 7 5 7 e l W Q Q Q ~ ~ ~ ~ / ^ ^ ^ ^ ^ ^ ' ^ ^ ^ ^ ^ ^ ^ ^ ^ ^ ^ ^ ^ ^ Q Q W W W W Q W Q Q W W Q Q Q ~ ~ Q W W k l l l l h l l l l l l k x k k W W Q ~ ~ ~ ~ ~ b b k k k k x k k j j k b b b ! ' { { { { } } o.} } @.@.",
"X. .[ [ [ | |  ...| | | [ [ [ [ L [ [ L L L L L D m L L | X.;.5.b.C.!././././.).).`.}.|. X X X3X3X0XfXhXMXSXDXDXFXFXFXGXJXJXKXJXGXJXJXJXJXJXJXJXJXJXJXFXFXFXFXFXFXFXFXDXDXDXDXDXSXSXSXSXSXMXhXhXhXhXgXgXdXdX3X}.}.~.9.5.*.*.X.X.#.#.G S F F M M M M m L ] ] L q.v c c c c c c c c c c c c c c c c v v M m L ] } O.5.5.5.5.8.!.!.^.!.+.} M M M M M b M M b M v v M M b b v v M M n n v v n n n n b b b M b b b b b M M m m m m m ' L ] [ | O.5.9.9.8.!.!.^.^.^././.9.O.[ m m m M M M M M v v v v c c v v v v D D m m m m D D m D D D m m M M M M v v F F S S S G G A G A A J Y Y J J J J Y R Y K R T Y K K K K K K K J J J J A Z 2 2 ; ; % % % % % % % % = * * * : a a t t t t t a i a p p p p p p p i i i i i i i i i i i i i i u u u u u u i i i i i i j j z z z z z z j j j j j j j j j j j j j j j j j j j j j j j j j j j j j j j j h h h h h u h h u u u u u u w w u u u 7 7 7 7 7 7 7 7 7 8 8 5 5 5 5 5 5 8 8 8 8 8 8 7 7 5 7 h l W Q Q Q Q Q ~ ~ / / ^ ^ ^ ^ ^ ' ^ ^ ^ ^ ^ ^ ^ ^ ^ ^ ^ ^ ^ ^ / ~ Q Q Q Q Q Q Q Q W k k W W W Q Q Q W k k k k l l l l l l l j k x k k W x Q Q ~ ~ ~ ~ b b k k k k x k j j j j b b ~ ! ' { { { { } } o.} } @.@.",
"X.| [ [ [ [ | | | | | [ [ [ [ [ [ [ [ [ ] L L L D m D D [  .X.;.6.8.b.b.!.~./.).).`.{.|.|.|. X X3X3X0XfXgXgXMXMXDXDXFXFXGXGXGXGXGXGXGXGXJXJXGXGXGXGXFXFXDXDXDXFXFXDXDXSXSXSXSXSXMXMXhXgXgXgXgXgXgXgXfXdXdX3X3X{./.!.8.6.*.*.*.$.#.` _ S F F m M M M m ] ] ] ] m v v c c c c c c z c c c c c c c c c c c M m ] } O.O.O.O.5.8./.^.`.^.5.O.] M M M M M M M m m M M M M M M M M M M M v v v M M M M v v v v v v b b b v v M M m m m m m ! ] ] ] } O.+.5.*.8.8.8.8.8.8.5.O.] m m m M M M M M v v v c c c c c v v L D M M M m m D M D D D D D D M M M M v v F F Z S G P A A G G A Y A J J J J Y Y R J T Y K A K K K K K K J J J J A H C 2 < ; ; % % % % % % % : : : : = z t 0 i i i a y a p p p p p p d d a a a a a a i i i p i i i i i i i i t t u u i i i i i p p j j z c c j j j j j j j j z z z z j j j j j j j j j j j j j j j j j j j j h h j h h h h h h h u u u u u q u 0 0 7 7 7 7 5 5 5 5 5 8 8 8 5 5 5 8 8 8 8 8 8 8 8 8 5 5 7 h l Q Q / / Q Q Q Q Q Q / ^ ^ ^ ^ ) o.^ ^ ^ ^ ^ ^ ^ ^ ^ ^ ^ ^ ^ ^ ~ ~ ~ ~ / ~ / Q Q W k k k k k W W W W W W W k l l l l l l l l k W x W W Q W Q ~ ~ ~ ~ b x k k k k k k j j j x b b ! ! { ] { ] { { o.o.} } O.O.",
"+.[ [ [ [ [ | |  .| [ L [ [ [ [ [ [ [ [ [ ] L L L L D D L L  .X.*.5.9.8.8.C.~./.).).{.}.|.|.|. X X3X3X0XdXdXgXgXMXSXDXDXFXFXGXGXGXGXGXGXJXJXGXGXGXFXFXFXDXDXDXDXDXDXSXMXMXMXMXMXhXhXgXfXfXfXfXgXgXfXfXdXfX0X3X{./.!.b.6.*.6.=.$.#._ _ D D D m M M M m L ] ] ] m v v c c c c c c z z z c c c c c z z c c v m ) ] O.O.O.O.+.8./.^.{.{.8.*.} ] m M M M M M M M M M M M M M M M M M M M v v M M M M v v v v v v b b b v v v b M M m m m m m ) ] ] [ ] [ [ +.*.0.*.*.+. .| m M M M M M M M M v v c c c c c c v m [ m v M M v m ] m D *.X.[ D D M M m M M M F F F F S P S P A G G Y A J J J J J R Y T T J J A K K A K K K K J J J A A Z f 2 < : : = % * * * * : : : : : t : : t i i a s d p p p p p p p d a a a a a a a a p p i i i i i i i i u u u u t u i i u i i p j z z z j j j j j j j j z z z j j j j j j j j j j j j j j j j j j j j j h h j h h h h h h h u u u u u q u 0 0 7 7 7 7 7 5 5 5 5 8 8 8 5 5 5 8 8 8 8 8 8 8 8 8 5 7 7 h l Q Q / / Q Q Q Q Q Q ~ / ^ ^ ^ ^ ^ ^ ^ ^ / ~ / ^ ~ ^ ^ ^ ^ ^ ~ ~ ~ ^ ^ ^ ~ ^ Q Q W k k W k k W W k k W W W k l l l l l l l l k W x x W W Q Q Q Q ~ ~ x x k k k k k k j j j x b n ! ! { ' { ] { { o.o.} } O.O.",
"+.[ [ [ [ [ | | [ [ L L [ [ [ [ [ [ [ [ [ [ [ L L L L D D D L } O.X.*.5.9.8.b.!.^.).`.{.}.|.|.|. X X3X3X3X0XdXfXgXhXMXSXDXDXFXFXGXGXGXGXJXJXGXGXFXFXDXDXDXDXDXDXSXMXMXhXgXgXgXgXgXfXfXfXfXfXfXgXgXfXfXdXdX3X|.).~.C.8.6.;.>.=.$..._ D D D D m M M M m L ] ] ] D M v c c c c c c d d d d c c c c c c c c c m m ] }  . . .+.8.^.).|.|.^.8.5.O. .| | | | | | | ] ] ] ] ] ] ] m m M M M M v M M M M v v v v v v v v v v v v v v b M M m m m m ) ] ] ] M ) ] } } } } ] ] ] m M M M M M M M M v c c c c c c c v D | M v v v v M [ D m *.X.[ D D D D D M M F F F F F S ..*.$.Z P P P A A J J J A Y Y &.T H A A H H H H A A A A A J G A Z C f 2 : : : : : * * * : : : a z a a a a i a d d d p p p p p p p d a a a a a a p p p p p i i i i i i i i i i i t u i i u u u i i j j j j j j j j j j j z z j j z z z j z j j j j j j j j j j j j j j j j j j h j h h h h h h h u u u q u 0 0 7 7 7 7 7 7 5 5 5 8 8 8 8 5 5 5 8 5 5 5 5 8 8 8 8 7 u h k Q Q Q Q Q Q Q Q Q Q Q Q / / ^ ^ ^ ^ ^ / / Q Q Q Q ~ ^ ^ ~ ~ ~ Q ~ ^ ^ ^ ^ ^ ~ Q W k k W k k W W k k W Q W k l l l l l l l l k x x x x W Q Q Q Q Q b ~ b x k k k k j j j k b b n ! ! { ] { ] { } o.o.} } O.O.",
"+.[ L [ [ [ | | [ L L D L L [ [ [ [ [ [ [ [ [ [ L L L D D D D L [ } X.+.;.5.8.b./.).).{.{.}.|.|. X X X X3X3X3X0XdXfXgXhXMXSXDXDXGXJXGXGXGXJXJXJXFXFXDXDXDXDXDXSXMXhXgXgXfXfXfXgXfXfXfXgXfXfXfXgXgXfXfXdX3X|.`.~.!.b.9.6.*.*.*.#._ _ D D D m m M M M m L L L L D m v c c c z z z d d d d c c c c c c c d c M m ] } } } } O.9.^.{.|. X|.^.!.9.5.*.<.<.*.*.*.*.+.*.*.+.+.+.O.} ) m m M M M M M M M M v v v v v v v v v v M v M b b v M M m m m D ) } M ] ] ] ] ] ] m m m M M M M M M M M M v v v v v c c d c D } v v v v v v | ] v M D D D D D D D M D v F F F F S P $.Z G P G G G A A A A H A &.T R H H H H H A H H A A H A A G G A Z C f y y : : : : : : : : : a z : a a a p p d d d d d d p p p p a a a a a p p p p p p p i i i i i i i i i i i u u u u t u u u i i i p p p j j j z j j z z j j z z z j z j j j j j j j j j j j j j j j j j j h j h h h h h h h u u u q u 0 0 7 7 7 7 7 7 5 5 5 8 8 8 8 5 5 5 5 5 5 5 5 8 8 8 8 7 u l k Q Q Q Q Q Q Q W W W Q Q Q Q / / ^ ^ / ~ Q Q Q Q Q Q Q ~ Q Q Q Q ~ / ^ ^ ^ ^ ~ Q W k k k k k W W W W Q Q W W l l l l l l l l k W x x Q Q x x x x b b b b k k k k k j j j k x b n ! ' { ] ! { { { o.} } @.@.@.",
" .[ L [ [ | | [ [ L D D L L L L [ [ [ [ [ [ [ [ L L L L L D D D L L [ } X.+.5.9.8.!./.).}.|.|.|. X|. X X X X3X3X0X0XdXgXhXMXMXDXDXFXFXJXFXFXFXFXFXDXDXDXMXSXMXgXdXfXgXgXgXgXgXgXhXhXgXhXMXMXMXhXgXdX3X|.|.^.!.C.!.8.6.;.*.*.$..._ D D D D D m M M M m D ] ] ] ] m v c c c c c c d d z z N N p p N c c c c M m ] } } } }  .5.!.{. XdXdX X{.)./.!.8.8.8.8.8.b.C.!.!.!.b.8.8.9.5.0.+.} ] ] m M M m M M b b b v v v v v v M m m v c v v M M M m m ) ] m m ] ) m m m m m m M M M m M M m m D M v v v c c c d v D | c v M M v m [ ] v D D D  .) v v D  .L g F F F F S S S S S P Z S G A A A A Y A Y R A H A H H H A H H A A A H A A A A A Z C f y y : : : : 0 y a 0 v y 0 a a p z z v v v v v c d d d d a a a a a p p p p p p p i i i i i i i i i i i i i i i i i i u u u i i i i i j j j j j z j j j z z z z j j z z j j j j j j j j j j j j l l l j j j h h h h h h u u u u u u q 0 q 0 0 7 7 7 7 7 5 5 5 5 5 5 5 5 7 7 5 5 5 5 7 7 7 u l k Q Q Q Q Q Q Q Q W W W W Q / / / Q / Q Q Q Q Q Q Q Q Q Q W W W W Q ~ ^ ^ ^ ~ Q Q k k k W k k W W Q Q ~ Q Q W W k l l l l l l k k x x Q Q x x W W k b b b k k k k k k k k x b b ! ! ! ' ! ! ) ] { o.} } } } @.",
"[ L L [ | | | [ [ L D D L L L L L L [ [ [ [ [ [ L L L L L L D D D L L L [  .X.;.6.8.!./.`.{.|.|.|.|.|. X X X3X3X3X3X0X0XfXgXhXMXSXDXDXFXFXFXFXFXDXDXDXMXMXMXhXgXfXgXgXhXMXMXMXMXMXhXhXMXhXgXgXgXdX0X X{.`.~.C.b.8.6.*.*.*.*.X..._ D D D D m m M M M m m ) ) ) ) m v c z d d d d p p p p N N p p N c c c c M m ] } } } } } +.8.^.|. XdXdXdX X|.{.{.{.{.{.{.{.{.{.}.{.{.{.^./.!.b.8.6.+.} } ] m M M M M M M v v v b v v M m m M v v v v v M M M m m M m D ) m D D D D ) ) m m M M M m D ] c c c c c c d d v | [ M v M M M D m m D v D | D [ v v [  .| g g F F Z F F S S S S Z Z Z A A A A I Y A Y A H H H Z Z H H H H A A H A A A A A Z C g f s y y y y y y y y s s y s d d v v M D m M M M v c d d d a a d d p p p p p p p i i i i i i i i i i i i i i i i i i i u u i i i i i i i i j j j j j j z z z z j j j j z j j j j j j j j j j j l l l j j j h j h h h h u u u u u u q q q q 0 7 7 7 7 7 7 7 5 5 5 5 5 5 7 7 5 5 5 5 7 7 7 u l W Q Q Q Q Q Q Q Q / / Q Q Q Q Q W W W Q Q Q Q / Q Q Q W W W k k k W Q ~ ~ ~ Q W W k k k k k k W W Q Q ~ Q ~ ~ Q W W k k k l l k k k k x x x Q Q W k k k k k k k k k k k k x b b n ! ! ! ! ! ! { { o.@.} @.} } ",
"L L L [ | | [ [ L L D D L L L L L L ] ] [ [ [ [ ] L L L L L L D D L L L L [  .X.;.9.b.!.^.).{.{.|. X|.|. X X X X3X3X3X3X0XdXfXgXhXMXSXDXDXFXFXFXDXSXSXMXhXgXgXgXhXhXMXMXMXMXMXMXhXhXhXhXgXdXdX0X X|.{.^.~.8.9.9.5.*.*.$.*.*.X.[ D D D D m m m M M M M m D D ) ) m v c z d d z d p p p p N N N p p p c c v M ! ] } } } } }  .5.b.^.{.dXdXgXgXdXdXdXdXdXdXdXjXjXjXjXdXdXdX X|.{.{././.b.0.*.X.] m M M M M M v v v v v v M m ] ] ] ) M v v v v M m m v v m D m D D D D ) ) m M v v v M D ] c c c c c c d d v  .L M v M M M D v v D v v [ M L L D L [ | v g F F g g F F F Z Z Z Z Z Z A A A I I A I G H Z H Z Z H H H H A A A A A A A A H Z C g f f s s s y y y d s s s s d v v F D D D D D D m M v c d d d z z z z d p p p p p p p i i i i i i i i i i i i i i i i u u i i i i i i i i i i j j z z j j z z j j j j z z z j j j j j j j j j l l l j j j j j h h u u u u u u u q q q u q 0 0 5 5 5 5 7 7 7 7 5 5 5 5 7 7 7 7 5 5 5 7 w h l W Q Q Q Q Q Q / / / / / / / Q Q Q Q W W W Q Q Q Q Q Q Q W W k k k k W W Q Q W W k k k W W k k W W W Q Q Q Q ~ ~ ~ Q Q x k k k k k k k k k x x b x k k k k k k k k k k k j z b b b b n n b n ! ! ] { o.} } } } ",
"L L [ [ [ [ [ L L L D D L L L L L L L L [ [ [ [ ] L L L L ] L L D L D L L L [  .X.;.6.8.!./.).{.}.|. X|. X X X X X X3X3X3X0XdXdXfXgXhXMXSXDXFXDXDXSXMXMXhXgXfXgXMXMXMXMXMXMXMXhXfXfXfXdXdX0X3X3X}.`.^.!.8.5.;.;.*.*.$.$.$.*.X...[ D D D m m m m M M M m D D m m m v c z p d z d p p p p N N N p p p c c v M m ] } } } }  .} O.5.b.^.|.3XdXgXhXhXhXhXhXhXhXhXhXhXhXhXhXgXhXgXdXdX|.|.{.b.b.5. .] m m M M M v v M b b v v c c v m D D m M b v v M M c c m m m m m m m m M v v v v v v m D m c v v M c d d c L D M v v M M M v v M v v d L v  . .v v [ D F F F v v g Z F Z Z S S Z Z A A A Y A G G A H Z H Z Z H H H H A A H A A A A H H Z C C g f f f s f 0 s v y s d d v v v F D D D L L D D D m v c d c c c c z c c N p p p i i i i i i i i i i i i i i i i i i u u i i i i i i u u i i i p j j j j z z j j j j z z z j j j j j j j j j j j l j j j j j h h u u u u u u u q q q u q 0 0 5 5 5 5 7 7 7 7 7 7 5 5 7 7 7 7 5 5 5 7 w h l W Q Q Q Q / / ~ ~ ^ ^ ^ ^ ^ ^ / / / Q W W W Q Q Q Q Q Q Q W W W k k l k W W k k k k k W W k k W W W W W W W W ~ ~ ~ ~ ~ Q k k k l l l j j k k b x k k k k k k k k j j j j z b b b b b b b b b ! ! { } o.} } o.",
"L L [ [ | [ [ L L L L L L L L L L L L L L L [ ] L L ] ] L L L L L L L L L L L [ } O.+.5.9.C./.^.).`.|. X X X X X3X X X X3X3X3X0X0XdXfXgXMXSXSXSXSXSXMXMXgXfXfXgXMXMXMXMXMXhXgXgXgXfXdX3X|.|.{.`.)./.C.8.5.;.*.*.+.*.*.$.$.*.$...[ L L D m m m m m M m m m m D D m v c z p p p p p p p p p p p p i p p c v m ) [ } } } } }  . . .O.5.!.{.|. XdXgXjXdXdXdXdXdXdXdXdXjXjXgXgXfXhXMXfXdX X/./.b.6.5. .[ D D m M z m M M M v c v v v M M v c v v v v v v v M m m m M v v v c c c c c v v v M m v D [ D v d d d M M D M c M M v v v v M g v [  .X.L g s M D F v v F v g g v F F Z 2 Z C G Z I I A A G U A C Z Z Z C C H H A A Z Z Z Z Z Z Z Z C C C S g g s f f f F y s s ..S v F F D L [ L L L ] m D m v v v M M v c c c c N z p p i p p i i i i i i i i i i i i i i i i i i u u i u u u u i i i i i i j j z c c j j z z z z j j j j j j j j j j j j j j j j j h h h h u u u u u u q u u q 7 7 7 7 7 5 5 5 5 5 7 7 7 7 7 7 7 7 7 7 7 w h l W Q Q ~ ~ ~ / ^ / ^ ^ ^ ^ ^ ^ ^ ^ / / Q W W Q W W W Q Q Q W W W k k k l l k l l l k W W W k W W W W k l l l k x Q ~ ~ ~ ~ x k k l l l j j l k k k k k k k k k k j j j j x b b b b c N j N c b n ! ] } } } } } ",
"L [ [ | | [ L L L L L L L L L L L L L L L L ] ] L ] ] ] L L L L L L L L L L ] L [ |  .+.;.9.b.!./.^.`.}.|. X X X X X X X X3X3X3X0X0X0XdXgXhXMXSXSXMXMXhXgXfXfXgXMXMXMXMXMXhXgXgXfXdX3X|.{.`.)./.!.b.9.5.5.;.*.*.+.*.$.$.$.*.$...[ L L D D m m m m M m m m m m m m v c z p p p p p p p p p i i i i i p c v m ] [ } } } } } } } }  .+.6.8.~.^.`.{.{.{.{.{.`.`.`.`.{.{.|. X0X0XdXhXhXhXgX{.dX{./.!.5.+. .[ ] ) ] v M M M v c c c v M m m v c c c c M M m m M m m M v M M c c v v v c c v v D v D D m v c d c v M D D c M v v v v v v d v D X.| D v g v F v v v F v g g v F F Z f S I S Z P G A A G U A C C Z Z C C V C H C Z C C C Z Z Z Z Z C Z Z Z g f s s Z s s d [ F F v F D D [ [ [ L L ] m L L m m m m m M M b n v v c c N p p p p p p i i i i i i i i i i i i i i i u u u u u u u u u i i u u i i j j c c z z z z z j j j j j j j j j j j j j j j j j h h h h u u u u u u q q q u 7 7 7 7 7 5 5 5 5 7 7 7 7 7 7 7 7 7 7 7 7 u l k W Q Q ~ ~ ~ ~ ^ ^ ^ ^ ^ ^ ^ ^ ^ ^ ^ ^ ^ / / / Q Q W W W W W W k k k k k k k k W W W k W W k k W W W W l l l l l k k b ~ ~ x k l l l h l l l j k k k k k k k k k k j j j x b b b b z j j j z b b ! ] { } } } } ",
"[ [ | | [ [ L L L L L L L L L L L L L L L L L ] L L ] ] L L L L L L L L L L L L [ [ [ } X.*.5.9.b.!.^.).}.|. X X X X X X X3X X3X3X3X0X0XdXgXgXMXMXhXgXgXfXfXfXhXMXMXMXMXMXhXgXgXdX3X}.)./.~.!.b.8.6.5.;.;.;.*.*.X.X.$.$.*.*.X. .[ [ L L D m m m m M m m m m m m m v c z p p p p p p p i i t t t i i p c M m ] | } } } } | } O.O.5.5.5.8.8.8.!.!.C.b.8.8.8.8.8.8.8.C.!./.`.{.|.0XdXgXMX XfXdX X{./.8.5. .| ] ] v M M M v v c c c ] } | ] [ [ [ ] ) m D m m m m m m D D v c d d d c c c c D v D v c v v c v v M M M v M c g v v g g v F L [ L [ D F v g v F F v g g g v F F f Z S S Z P P Z S S Z U A C C C Z Z C C C C C C C C C C Z Z Z Z Z Z C C f f s g S f F D F y F F D D [ [ [ [ L L [ m ] [ L L L ] ] m m M M M v v c c c c j p p p p p i i i i i i i i i i i i i u u u u u u u u u u u u u u u i j j j z z j j j j j j j j j j j j j j j j j j j j u u u h u u u u u u u u u u 0 0 5 7 7 7 7 7 7 7 7 7 7 7 7 7 7 7 7 7 7 h k Q Q Q Q ~ ~ ^ ^ ^ ^ ^ ^ ^ ^ ^ ^ ^ ^ ^ ^ ^ ^ ^ ^ ^ ~ Q Q W W k k k k k k W W W W W W W W W W k W k k W k l l l l h l l k k k j l l h h h h h h h j j j j l k k k k k j j z c b b b b N j j j c b n ! ] { } } } } ",
"[ [ | [ [ L L L L L L L L L L L L L L L L L L L L L L L L L L L L L L L L L L L ] L L ] |  .X.*.5.8.C./.).}.|. X X X X X X X X X3X3X3X3X0X0XfXgXhXgXfXfXfXdXfXhXMXMXMXMXMXhXgXgX0X|.`.~.C.b.8.9.6.6.5.;.;.;.*.*.X.X.$.*.*.*.*. .[ [ L L D m m m m M m m m m m m m v c z p p p i p i p i t t t t t i p c M m ] | } } } }  .O.+.5.9.9.8.8.8.!.!.!.b.8.8.9.6.5.5.5.5.5.5.5.9.8.!.).}.0XfX XMXMXfX|.|.^.8.+.} ] z M M M M v v v c c v m m M v c c v M v m v v M m M m m m M D D D D v v v v v v [ v c M M v v c v v c v D g g D M M v D [ L g [ | L L g g v F F v g d g g F F g F F f S P Z C S S Z P Z Z C C C C C Z C C C C C C C C C C Z Z S Z C C C f 2 S F L ..F Z g F F D L [ [ [ [ L L ] m ] } [ [ ] [ ] ] ] ' m m M M M v c c c c j j p p p p i i i i i i i i i i i u u u u u u u u u u u u u u u u i i i j j j j j j j j j j j j j j j j j j j j j j u u u h u u u u u u u u u u 0 0 5 7 7 7 7 7 7 7 7 7 7 5 5 7 7 7 7 7 u l k Q Q Q Q ~ ~ ^ / ^ ^ ^ ^ ^ ^ ^ ^ ^ ^ ^ ^ ^ ^ ^ ^ ^ ^ ~ Q Q Q W W W k k k k k W Q Q Q W W W W k k k k k k l l l l h h h h l l l l u u h h h h h h h h j j j j k k k j j j z c b b b j j j j j c b n ! ] { } } } | ",
" . . .[ [ [ [ L L L L L L L L L L L L L L L L L L L L L L L L L L L L L L L L L L L L L L [ | X.+.;.9.b./.^.`.{.|.|. X X X X X X X X3X3X3X3X3X3X0X0X0X0X3X0XfXhXMXMXMXMXMXhXgXfX3X|.`./.b.8.9.6.5.5.5.;.;.;.*.*.X.X.$.*.*.*.*.X.} [ L L D D m m m m m m m m m m m v c z p p p p p i i i i t t t t i p c M D ] } } } }  .+.5.9.8.!.!./.^.^.^.^.^.^./.!.!.8.9.6.5.;.;.*.+.+.*.5.8.C.). X{.dXMXMXgXdX|.{.!.+.+.L v M M M M m M v c v m L m m M d a c v M z c c v c v v v v z d c c v v v v v z [ v v v v v v c c c c g D c v L D M g F [ L [ L [  .L v g g v L v d v g v D ..g F F Z L L Z Z S P Z C S Z C f C C C Z C C C C C C C C Z C Z Z Z Z C Z C f s S L P Z C g Z F F F L L [ [ [ [ D D L ] ] | | | [ [ ] ] ] ] ] ] ] ' M M M b c c c j j p p p p i i i i i i i i i i i i i i i i i i i i i i i i u i i i i j j j j j j j j j j j j j j j j i u u u u u u u u u u u u u u u u u u u 0 0 0 0 7 7 7 7 7 7 7 7 7 7 7 5 7 7 q h l k Q ~ Q Q Q / / / ^ ^ ^ ^ ^ ^ ^ ^ ^ ^ ^ ^ ^ ^ ^ ^ ^ ^ ^ ^ ~ Q Q W W W k k k k W W Q Q W W W W k k k k k k l l l h h u u h h h h h u u h h h h h h h h j j l l j k j j j k b b b c z j j j j j c b m ! ] { { } | { ",
"X. . .[ [ [ [ L L L L L L L L L L L L L L L L L L L L L L L L L L L L L L L L L L L L L L L ] [  .X.;.5.8.!./.^.{.}.|.|. X X X X X X3X3X3X3X3X3X X X3X3X X0XfXgXMXMXMXMXMXhXgXgX0X|.`./.!.C.b.8.5.5.;.;.5.*.*.+.X...$.*.*.*.*.X. .| [ L D D m m m m m m m m m m m v c z p a p i i i i i i t t t t i p N m D ] } } }  .O.+.6.!./.{.{.}.|.|.|.|.|.{.{.{.^./.!.8.8.5.5.;.;.X.+.+.*.5.b./.!. X3XgXMXgXdX X).C.+. .v M M M M z m L M p m L L m v c p d m c c c c c c c v v c z d c c v v v v v c ] v v v v v v c d c c v M c c L D M g v [ L D F F D D [ F s g v D d < s F | F g g g g S S S F Z S S F S S Z f f f C C f f C C C C Z C C C P C C Z Z Z Z C f S S S Z C Z F S D S L [ [ [ [ [ L L ] ] ] ] [ } } } [ ] ] ] [ } } ] ] ' ! m b b c c c j j p p p p i i i i i i i i i i i i i u i i i i i i i i i i i i i i i i i i i j j j j j j j j j j i u u u u u u u u u u u u u u u u u u u 0 0 0 0 7 7 7 7 7 7 7 7 7 7 7 5 7 7 u h l k Q ~ Q Q Q / / / ^ ^ ^ ^ ^ ^ ^ ^ ^ / ^ ^ ^ ^ ^ ^ ^ ^ ^ ^ ^ ^ ~ Q Q W W W W W W W W W W W W W k k k k k k k k l h h u u h h h h h h h h h h h h h h h j j l l j j j j j k b b b c j j i i j j c b m ! ] { { { { { ",
"+.X. .[ L [ ] ] [ [ ] L ] ] L ] L L L L L L L L L L L L L L L L L L L L L L L L L L L L L L L L [  .O.+.5.9.C./.^.).`.}.|. X X X X X3X3X3X3X3X3X X|.|.|.|.3XdXgXhXMXMXMXMXMXhXgX0X X`.^./.~.!.C.6.6.;.;.;.*.+.+.X. .#.*.=.*.*.*.X.} [ [ L D D m m m m m m m m m m v c c p a p i i i p i i t t t t i p N m ) ] } }  .O.+.6.8.^.{.|.|. X X X X X X X X|.|.}.`.^.!.8.9.5.5.+.+.X.+.;.;.9.9./.{.3XhXhXgX|. X{.8.+.L M M M M M c v ] D L m p v v c c z D c c c c c c c c v c z d c c v v v v z v D D v c g v g g c d c M v c c M v M F F L L F F v v [ D v v g g F v g v v g d g v g F F F L 6...g S Z S S Z f f f f f C C f g g Z C C f Z S Z Z Z Z Z Z F S S F Z Z F F S S L L [ | [ [ [ [ ] [ } } } [ } +.O.} } | | } } } } } } ] ] ] ! m M b c c c j j p p p p i i i i i i i i i i i i i i i i i i i u u i i i u u u u u u u i i i i i i j j j j i i u u u u u u u u u u u u u u u h h q q 7 7 7 7 7 7 7 7 7 7 7 7 7 7 5 7 q h h l W Q ~ ~ Q / ^ / / ^ ^ ^ ^ ^ ^ ^ ^ / / ~ ^ ^ ^ ^ ^ ^ ^ ^ ^ ^ ^ ^ / ~ Q W W W W Q W W W W W W W W W W W W W W x k l h h h h h h h h h h h h h h h h h h j j j l j j j j j k b b b z j j i i j j c n m ] ] { { { { ] ",
"*.+. .[ L [ ] [ [ [ ] ] ] L L L L L L L L L L L L L L L L L L L L L L L L L L L L L L L L ] ] L L [  .X.X.+.6.8.!./.^.).{.|. X X X X X X3X3X3X3X X|.|.}.}. X0XfXgXgXMXMXMXMXMXhX0X3X}.).).^.~.~.8.9.6.;.*.*.+.X. .....$.=.*.*.*.+. .| | [ L D m m m m m m m m m m v c c p a p i i i p i i t t t t i p N m ] ] } } O.+.5.8./.{.|.{.{.{.{.{.}.}.|. X X X X X X|.{./.!.8.9.;.;.+.+.5.*.;.;.*./.|.3XgX XhX{.|.^.6.O.M M M m m m M v v m M c c c v v v v m c z c c c c v v c d d v c v v d v d d v D v d d d c v g d c D v c c v c M [ F M v F F D D D L D g d g d D v F F g g v F F F F g F F ..L L Z F F g f f f f g C C f f g C C C Z G f Z Z Z C Z Z S S S Z f F F S S G L [ ..| [ [ [ [ [ [ }  .*. .+.5.5.+.O.} } } } } } } } } } { ] ] ! m M b c c c c j p p i i i i i i i i i i i i i i i i i i i t u i i i u u u u u u u i i i i i i i i j j j i i i u u u u u u u u u h h h h h h q q q q 0 7 7 7 7 7 7 7 7 7 7 7 7 7 q h h l k Q ~ ~ ~ / ^ / ^ ^ ^ ^ ^ ^ ^ ^ ^ / Q Q Q ~ ~ / ^ ^ ^ ^ ^ ^ ^ ^ ^ ^ ~ ~ ~ ~ ~ Q Q Q W W W W W W W W W W Q ~ ~ Q k l h h h h h u u h h h h h h h h h h j j j l j j j j j j b b b z j j i j j j c n m ) ] { { { | ] ",
";.+. .[ L [ [ [ [ [ [ [ L L L L L L L L L L L L L L L L L L L L ] ] L L ] [ [ [ ] ] ] ] ] ] ] ] ] ] [ [  . .O.+.9.8.!./.).`.}. X X X X3X3X3X3X3X X|.}.{.{.|.3X0XfXgXhXMXMXMXhXgX0X3X|.`.|.}.`./.~.b.9.5.*.+.X. .......$.*.=.*.*.+.X.X. .| L L D m m M M m m m m M v c N p i i i p i i i i t t t t i p z M ' ] } } O.0.5.8./.^./.8.8.9.9.8.!././.{.}.}.}. X0X X|.{.^.!.8.6.9.5.+.X.;.5.+.*.8./.|.dX{.MXdX{.{./.*.[ M M M M M M M [ D v v v v M m D m M c d d d d d v g c d d v c g v d c d d v [ D g d d v v v d g F v g v g d F L D v v v v g F D D D v g v d D F F D v g g F D D g v F F L L L F F F F Z f s g g g g f f f C C C S Z C C C C C Z F S S g C F F F L ........[ |  .} } } +.L O.5.5.+.5.8.6.0.5.+.O.O.O. . . . . .} } | ] ] ) m m M M v v c c p p p i i i i i i i i i i i i i i i u u t t u u u u u u u u u u i i i i j j j i j i i i u i u u u u u u u u h h l l l h h h h u u u q 0 7 7 7 7 7 7 7 7 7 7 7 h h l l W Q ~ Q Q / ^ ^ ^ ^ ^ ^ ^ ^ ^ ^ ^ ~ Q W W Q Q Q Q / ^ ~ ^ ^ ^ ^ ^ / ~ ^ ^ ~ ~ ~ ~ ~ Q W W W W W W W W W Q ~ ~ ~ Q k l h h h h u u u u h h h h h h h h h u l l j j j j j z b b b b j j i i j j c n m ) ] { { { ] ] ",
"*.+. .[ L [ [ [ [ [ [ [ [ [ L L L L L L L L L L L L L L L L L L ] ] ] ] ] ] [ [ ] ] ] ] ] ] [ [ ] ] ] ] [ [  . . .;.9.!./.^.).{.}.|.3X3X3X3X3X3X X|.}.{.`.{. X3X0XfXfXhXhXgXfXfX0X3X|.{.|.|.{.^./.!.8.5.;.+.X. .| | ..$.*.=.;.;.*.+.X.X. .| L L D m m M m m m m M v c N i i i i p i i i i i i i i a p c M ' ] | } } +.0.;.9.9.5.+.O.} [ }  .+.+.8.~.`.{.|.|. X X X}.)./.b.8.6.;.+.;.*.+.+.9.9./.|.^.MXMXdX|.!.8.X.D M M M M M M  .] v v v v v v v c c d d d d d d c c c c s d c v v d c c d v [ L F d s v v v g v v v v v v c v D D M v v v v D L D D v D D c v F v F v g g v D D g F D L [ L F g F S S S Z g Z g g f f f f f C F F Z C C C C Z F F S S C F F S ....*.*.*.X.X.|  . . . .+. .*.9.9.5.8.8.8.9.8.9.O.O.O. . . . . . .} } } | ] ] ] ) D m m M v c c j p p p i i i i i i i i i i i i u u t u u u u u u u u u u u i i i i i i i i i u u u u u u u u u u u u u h l k W W l l l l l l j h u q 7 7 7 7 7 7 7 7 7 7 h h l l W Q ~ Q ~ ^ / ^ ^ ^ ^ ^ ^ ^ ^ ^ ^ ^ Q Q Q Q W W W Q Q ~ ~ ~ ^ ^ ~ ~ ~ ~ ^ ^ / / / ~ ~ Q Q W W W W W W W Q Q ~ ~ Q k l h h h h h h u u h h h h h h h h h l l l j j j j j z b b b b j j i i j j c n m ) ] { | { { ] ",
"*.+. .[ [ [ [ [ [ [ [ [ [ [ [ [ [ [ [ L L L L L L L L L ] L L L ] ] ] ] [ [ [ [ [ [ [ [ [ [ [ [ [ [ [ [ ] [ [ [ [  .*.9.b.!./.^.).}.|. X3X3X3X3X X|.}.{.).`.|.3X3X3X0XfXfXfXdX0X0X X|.|.3X3X|.`.^./.b.9.9.5.X. .| | ..$.*.=.;.;.;.*.+.X.X. .| ] L D m m m m m m M v c p p i i i p p p p p p p i i p c c M ' ] } } } } O.+.+.O. .| ] M c v M m q.m  .5.8.^.{.{.`.|. X|.{.^.b.9.6.;.5.5.+.+.6.5.9./.).{.3XgXgX3X!.5.[ M m m M M v v D D D L ] [ [ | D v c g v v c c g g d d v d s d v d d d d M L D D v s g g v c g v v v v D g g M D D c d v D | D D F v [  .L D v g F g g v v F F g L F v L [ D F F F S S F g F g g g f f f g g S F C Z Z Z Z Z F S S F F F ..X.5.6.8.b.b.;.5.+.+.X.+.+.+.+.*.9.+.+./.!.9.5.9.6.*.O.O.O. . . . . . . .} } } | [ ] ] ] D m M M v c c j p p p i i i i i i i i i i i t t t u u u u u u u u u u u u u u u u u u u u u u u u u u u u u u h h l k W Q Q W W W l l k k l l h h u 7 7 7 7 7 7 7 q h l l l Q ~ ~ Q ~ ^ ^ ^ ^ ^ ^ ^ ^ ^ ^ ^ ^ ^ / ~ ~ ~ Q Q W W W W Q ~ ~ ~ ~ Q Q ~ ^ ^ / ^ / ~ ~ Q Q W W W W W W W W k k k k j l h h h h h h h h h h h h h h h h l l j j l l j j j z b b b b j j i i j c b m ! ] ] { { { { ] ",
"*.X. .[ [ [ [ [ [ [ [ [ | | [ [ [ [ [ [ L L L L L L L L ] L L L ] ] ] ] [ [ [ [ [ [ [ [ [ ] [ [ [ [ [ [ ] [ [ [ }  . .X.5.9.b.!.^.).{.}. X X X3X X|.}.`.).`.}. X3X3X3XdXdXdX0X3X0X|.}. X0X0X X{.`.^.!.8.b.9.;.+.| | ..$.*.*.;.;.;.*.*.+.X.X. .| ] L q.m m m m m M v c p i i i i p p p p p p p p p N v v M ' ] } } ] ] | } ] M v c v c c v v c c g v M | 5.!.`.|.`.|. X|.}./.b.8.6.9.6.*.+.5.;.5.5./.{.|.^.^./.{.8. .L M m m m v c v v d c v v v c c v m D v v v v v v c d c s d g g a a a c M M v M F g v v v v v v v g v L v a v F F v d g D  .D D M v d L D D v d v g v F v v v v D F F D D F F F F F F Z g g g g g f f f g g F C C C Z Z Z Z S F S Z F S ..*.C.!./.^.).b.!.5.;.;.;.5.5.6.+.+.8.8.{.^.b.8.8.8.5.O.O.O. . . . . . .} } } } } } } } | ] ] m M M b v c j c j p i i i i i i i i i i u t t u u u u u u u t u u u u u u u u u u u 0 0 5 0 u u u u u u u h l l Q / / / / / Q W W W b k k l l h u 7 7 7 7 7 7 q h l l l Q ~ ~ Q ~ ^ ^ ^ ^ ^ ^ ^ ^ ^ ^ ^ ^ ^ ^ ^ ^ ^ / / Q Q W W W W Q Q W W W W ~ / ^ ^ ^ ~ ~ Q Q W W W W W W W W l l l l l l h h h h h h h h h h h h h h h h l l j j h l j j j z b b b z j i i i j c b m ! ] ] { { { ] ] ",
";.X. .[ [ [ [ [ [ [ | | | | | | | [ [ L ] ] ] ] [ [ [ [ ] ] ] ] ] ] ] ] [ ] [ [ [ [ [ [ [ [ [ [ ] ] ] ] ] ] ] [ ] [ [ [ X.+.5.9.~./.).`.}.|.3X3X X X}.`.).`.}.|.3X3X3X0X0X3X3X3X|.|.|.3XgXfX0X|.{.)./.!.C.b.9.;.*.*.$.$.$.*.*.;.;.;.*.*.+.X.X. .| ] L q.q.q.q.m M v c p i i i i i p p p p p N N N c n M m ] } } ] ] m ] m M M M v v v v v v v n c c v v ] O.9./.).^.}.|.3X}.!.C.8.8.8.5.*.*.5.5.+.8./.{.fXgX3X{.!.;.| [ M M M v c d c c c d a c v d c v D v v F v v D v g d d d d d y d d d D L d v D v v v v v v v v v v D g y v v v v v d d L F F v v v g F D F g g d g F g v F D F D D F F F F F v v F F v v g g g g g g g g g g g g Z Z F S S g S F F | *.!.).`.|. X X/.!.!.!.5.8.9.0.6.9.8.!.8.~.8./.8.5.!.9.5.5.+.O.O.O.O.O. .} } } } } } } } } } ] ] ' M M M b c c c z j p p i i i i i i i i u t u u u u u u u t u u u u u u u u t t t t t 5 t 0 u u u u u u h l W / / ( / / / / / / Q ~ Q k k l h u q q 7 7 7 q q h l l k Q ~ ~ / / ^ ^ ^ ^ ^ ^ ^ ^ ^ ^ ^ ^ ^ ^ ^ ^ ^ ^ / ~ Q W W W W W W W W k W Q ~ ^ / ~ ~ Q Q W W W W W W W W W l h h h h h h h h h u u u h h h h h h h h h u u l u h h j j z b b b c j j i i p z z b m ! ] ] ] { ] ] ] ",
";.X. .[ [ | | | [ [ | | | |  . .} | [ [ [ ] ] ] [ [ [ [ ] ] ] ] ] ] ] ] [ [ [ [ [ [ [ [ [ | | | ] ] ] ] ] ] ] ] [ ] [ [ }  . .+.9.b.!.~.).{.}.|.|.|.{.`.`.`.{.|.3X3X3X3X3X3X3X}.}.}.|.3XfXfXdX X|.{.^./.~.!.b.6.5.5.*.$.$.$.*.;.;.;.;.*.+.X.X. .} | ] L L L L L m M c N p i p p p p p p p p N N c c M M ] ] } | ] ] m m m M M b v v v v v v v v v c v v v m | O.8.!.).3X X3X|./.8.!.b.5.5.X.5.;.*.5.~.{.dXgXgXdX`.C.+.D M M M M D M v c c c d v v v g c v v v v F v F g g g d d d d d d d d D X.d v D v v v v v v v v v M v d g v v v v v d d D M v v v v v g D L F d s d F g v D ..g L L D D F v v v F F F v v g g g g g g g g g g g g g Z F S F g L F [ X.6.^.|.3XdXgXhX|.^.|.).b./.~.5.5.~.9.!.9.5.8.!.8.!.8.8.8.5.+.O.O.O.O.O. .} } } } } } } } } } } ] ] ] ! m m M b c c c c p p p i i i i i i i i u u u u u u u u u u u u u u u u t t t t t t t 0 w w t w 7 u h l W / ( ( ( / / / / / / ~ Q W k l h u q q 7 7 q h h h l k W Q ~ ~ / / ^ ^ ^ ^ ^ ^ ^ ^ ^ ^ ^ ^ ^ ^ ^ ^ ^ ^ / ~ Q Q W W W W W W W k k W Q ~ ~ Q W W W W W W W W W W W k l h h h h h h h h h u u u u h h h h h h h h u u l u u h j j z b b b z j j i p p z c b ! ] ] ] ] { ] ] ! ",
";.X.| [ | | } | | | | }  . . . . . .| [ [ [ [ [ [ [ [ [ [ [ [ [ [ [ [ [ [ [ [ [ [ [ } } } | } | | | | [ ] ] ] ] [ [ [ [ | | }  .*.5.9.b.~./.).{.{.{.{.`.`.`.}.|. X3X3X3X3X X|.}.}.}.|.0XfXfXfX3X3X|.`.^.^.^.!.8.8.9.5.$.$.$.*.*.*.*.;.;.*.+.O.X. .} | ] ] ] ] ] ] M M c N p p p p N c c N N c c c v M m ] } } ] ] m M m M M b b v v v v b b b b c v v c c c M L  .8.!.^.{.dX|.}./.b.!.5.5.;.;.*.5.5.b./. XdXgXfX|.).9.L M g g g [ D c c g v v v v F v d d D D g d d F v v g d d v D D F v c D  .d v D v c c g g v v v v v v d v v v v v v v v D F v v v v v y v F v v g g F g v F g v F F F F M g g g v F F v v g v g v v g g g g g g g g Z F F F F | [ X.5.b.|.fXhXSXFXDXhX{.jX X^.}.).5.b.^.9.!.5.+.9.9.!.!.C.b.8.9.*.O.O.O.O.O. .} } } } } } } } } } } } } | ] ] ] m m M b c c c c p p p i p i i i i i i u u u u u u u u u u u u u t t t t t t t t t w w w w w 7 7 q Q / ( ( ( ( / / / / Q Q Q W k l h h 7 7 7 q h h l l k W Q ~ ~ ~ / ^ ^ ^ ^ ^ ^ ^ ^ ^ ^ ^ ^ ^ ^ ^ ^ ^ ^ ^ ^ ~ Q Q W W W W W W W k k k W Q Q W W W W W W W k k k k W W l h h h h u u u u u u u u u h h h h h h h h u u u u u l j j b b b b z j i i j c b b m ! ] ] { { ] ] ! ! ",
"*.X.| [ | | | | | | | }  . .X.X.X. . .| [ [ [ [ [ [ [ [ [ [ [ [ [ [ [ [ [ [ [ [ [ [ } } } } } } } | | [ ] ] ] ] [ [ [ [ | | } }  .+.*.6.b.!.~./.{.{.{.{.`.`.}.|. X X3X3X3X|.}.}.{.}.|.0X0XfXfX0X0X X}.).`.`./.!.!.b.x.;.*.$.X.$.*.*.*.*.*.+.X.O. .} } | [ | | [ ] q.M n c c c N c c c c c c c c c v M q.] } } ] q.M M M b b b n v v v v v v v v v v v c z c v M v } 9.!.^./.3X}. X9.^.9.5.9.X.;.5.6.5.b.{.3XdXfX3X}.~.*.M g g g c c d d c M D M v M v d g v v v g d v d d g d d d v v c c v M v c v D v d d d c g g g v d v v v v g v v v v L | v v v v v v : g F v F g g F v v F v v F F F D F v g g g F F F v v v v v v v F v g g g g g g F F F F  . .*.9./.0XhXSXFXKXDXDX|.DXgX|.3X{.0.^.).8./.*.6.5.5.8./.8.b.!.8.5.O.O.O.O.O. .} } } } } } } } } } } } } } } } } } ] ] ! m M v c c z p p p p i i i i i i i i u u u u u u u u u u t 0 0 0 5 t t t t w w w w t 0 7 9 W / ( ( / / / / / Q Q Q ~ W k l h h 7 7 q h h l l k W Q Q ~ ~ / ^ ^ ^ ^ ^ ^ ^ ^ ^ ^ ^ ^ ^ ^ ^ ^ ^ ^ ^ ^ ^ ~ Q Q W W W W W W W k k k W W W W W W W W W W k k k k W W l h h h u u u u u u u u u u h h h h h h h h u u h u u l j j b b b b j j i i j c b m ! ] ] { { ] ] ] ) ! ",
"+.X.| | |  . . .} | |  . . .O.X.O.X. .} [ [ [ [ [ [ | | [ [ [ [ [ [ [ [ [ [ } | | | }  .} } } } } } } | | | | } | | } } } } } } } } X.+.5.9.b.!././.^.^.`.{.{.|.|. X X3X X|.}.}.`.{.|. X0XdXdX0X3X3X|.`.{.{.`./././.~.b.9.5.$...*.*.*.*.*.+.O. .} } } } | | | | [ ] q.M b v c c c N c c c c c c c b m ] ] } | ] m M M M n v v v v v v v v v v v v v c c c c c c c c | 8.!.}.^.C.gX`.b.b.5.b.X.;.9.9.6.9./.|.0XfX X3X^.9.X.v g F g L v g L v v v M v d d g d v d d d d d d d d s s d v d d d v v v c d v v d d c c c c c d g g d d d M v v D [ D v v v v g v g v g g v g g F v v F v v F F F F F F v v v v M M M M v v M D v L v v v v v v v F F L D  .*.b.!.|.gXhXSXDXJXhXDXdXDXDXgXhX X!.{./.^.^.5.8.8.6.8./.!.!.8.!.9.O.O.O.+.O. . .O. . . .} } } } } } } } } }  .O. .} ] ] ] m M v c c c z j p p p i i i i i i i i u u u u u u u t t 0 5 5 5 5 t t t 0 0 0 0 0 0 q q l W / / / Q W W W W Q Q Q k k l h h h 7 h h h l k W W Q Q Q ~ ~ / / ^ ^ ^ ^ ^ ^ ^ ^ ^ ^ ^ ^ ^ ^ ^ ^ ^ ^ ^ / ~ Q W W W W W W W k k k W W W W W W W W W W k k k W W k l h h h h h h h h h u u u u h h h h h h h h j j u u j j j x x b z z j j j j j c b ! ] ] ] { ] ] ] ] ! m ",
"X. .}  . . . . .}  . . . .O.+.+.O.X. . .} } } } } } } } | | } | } } } } } } } } } }  .} } } } } } } } } } } } } } } } } } } } } } } }  .+.*.5.9.b.!.!./.^.`.{.}.|.|. X3X X|.}.{.`.}.|. X0X0X0X0X3X3X|.`.{.{.`.).).).^.~.C.b.6.*.*.*.*.*.*.X. . .} | } } | | | | [ ] m M b v v c c N c c c c c c c b m ] ] } ] ] m M b n v v c c v v v v v c c c v v c c c c c c c M M L 6.b.!.^.!.|.`.5.6.9.;.5.6.6.5.5.!.). XdXdX|.|.C.X.L g 1 g  .X.X.v d d v v d d d d d F d d d d d g g d s s s v g d d F v v c g g v L L v d d d d d d d d g d g d v D [ F v v g v g g g v g s g d d v g F v v v F F F F F F v v v v v v v M v v M D M L M v v v v v v F F F | *.9.^.^.dXhXDXDXKXKXhXHXjXDXDXhXSXdX).|./.hX{.!.8.8.!.!.!.^./.8.!.8.+.+.+.+.O. . .O.O. . .} } } } } } } } } }  .O.O.} } | | ] ] m M b c c c c p p p i i i i i i i i i u u u u u u t u 0 5 5 5 5 5 t 0 0 0 0 0 0 0 q q h k k k l h h l l k k k l l h h h h 7 q h h l l k W W Q Q Q Q ~ / ^ ^ ^ ^ ^ ^ ^ ^ ^ ^ ^ ^ ^ ^ ^ ^ ^ ^ ^ ^ / ~ Q W W W W k k W k W W W Q W W W W W W W k k k W W k l h h h h h h h h h h h u u h h h h h h h h j h u u j j j x b b c z j i j j j c b ! ] ] ] { ] ] ] ! m m ",
"X. . . .X. .X.X. . .X.X.X.X.+.+.+.X. . . . . . . . . . .} }  . . . . . . . . . . . . . . . . . . . . . .} } } } } } } } } } } } } } } }  .X.+.*.6.9.8.C.!.^.`.{.|.|. X X X|.}.{.`.{.|.|.3X0X0X3X3X X|.`.{.{.{.`.}.}.`././.C.b.6.6.;.*.*.*.X. . .} } } } | | | | [ ] m M v c c v c c c c c c v v v b m ] ] } ] m M M b n v c c c v v v v v c c c v v c c c c c c c M v d [ 8.9.!.{.8./.b.9.5.8.5.5.5.5.;.9./.|.0XfX|.3X^.X.L v g g  .L g d g d s s d d s d d v d d d d g v v d s s s v v g d F v g v v v d a a d g d d d d d d s y s d M v D [ v v g g g g g g g g d g s s g d F v g v D F F D D F v v v v v v v v v M D D D D M v v v v v M F F L ;.5.b. X{.hXDXFXJXKXKXhXKXgXDXhXDXLXjX X).}.FX^.{.^.!.{.!./.|.^./.!.9.5.5.5.+.+. . .O.O.O.O. .} } } } } } } } }  . . . .} } } | ] ] ] ! m b c c c c p p p i i i i i i i i i u t t t t u 0 t 5 t t 5 t t 0 0 0 0 0 0 0 0 q h j l u 7 7 w h h l l h h h h u u 7 u u h l l k k W W W k W Q ~ ^ ^ ^ ^ ^ ^ ^ ^ ^ ^ ^ ^ ^ ^ ^ ^ ^ ^ ^ ^ ^ / Q Q W W W W W W W W W W Q Q Q W W k k k W W W W Q W l l h h h u u u u u h h h h h h h h h h h h j j u u j j x x b b z j i i p p N c b ! ] { { ] ] ] ] m m m ",
"X.X.X.X.X.X.X.X.X.X.X.X.X.+.+.*.+.O.X. . . . . . . . . .}  . . . . . . .O.O.O. . . . . . . . . .O.O.O.O. . . . .} } } } } } } } } } } } } }  .X.*.5.5.9.8.!.^.`.}.|.|. X X|.|.{.`.`.|. X3X3X3X X X X|.`.{.{.{.`.|.|.}.).)./.~.b.b.8.6.5.5.*.*.+.} } } } } | | | [ ] q.M b c c c c c c c c c v v v M m ] ] ] ' m M M b n v c c c v v v c v c c c c c c c v c c c c a c D v | ;.8.6.dX8.!.6.*.b.6.5.;.;.*.6.!.). XfX X3X{.8. .F L g a 1 v s d v d d d s a d d v d d d d g v v s s s s g v g d F g g g v d s d d s d d d d d d d d s d a c v D [ g v c c v g v v v v g v d s g d v v g v D F F D D F v v v D F v v v v M M D D M M v v v v v M F F X.8.6.b.fX|.MXFXFXJXKXKXgXKXgXSXdXKXKXgXDX/. XKX6.jX3X`.jX/. X X{.{.^.9.8.9.5.+.+. . .O.O.O.O.} } } } } } } } } }  .O.O. . . .} } } } | ] ] ! m b b c c c c p p p i i i i i i i t t t t t 0 t t t 5 t t t t u t u 0 5 0 0 0 w u u 7 7 7 w w w u u u u u u u u 7 q q h l l l k k k k k k W Q ~ ~ ^ ^ ^ ^ ^ ^ ^ ^ ^ ^ ^ ^ ^ ^ ^ ^ ^ ^ ^ ^ ^ ~ Q Q W W W W W W W W W W W W W k k k W W W W Q W l l h h u u u u u u h h h h h h h h h h h h j j u u j j x b b b z i i i p p N c b ! ] ] ] ] ] ] ! m m m ",
"X.O.X.O.X.X.X.X.X.X.X.X.+.+.+.+.+.O.X. . . .X. . . . . . . . . . . .X.X.O.O.X. . . . . . . . .X.O.O.O.O.O.O.O. .} } } } } } } }  .}  . . . . . . .X.+.5.9.b.!./.^.{.}.|.|.|.}.{.`.{.|.|. X3X X X X X}.{.{.}.}.`.}.3X3X X|.{.).)./.!.b.b.9.6.5.*.+. .} } } | | | ] L m m v v v c c c c c c c c v M M m ] ] ] ' m M M b n c c c c v v c c c c c c c c c c v c c z d d d c M D } ;./.8.{.5. .8.9.8.5.*.*.*.6.8.~.`.0XgX{. X/.*...g d s d s v d g s d d s s d d v s s s d d g d d s s s d v v d v v g d v d a s s s d d d d d d d d s d s d v D  .v v d d v v v v v v g v d s g g v v g v F F v F D F v v v M F v v v v M M D D v D D v v v ) [ [  .6././.8.fXdXDXFXKXJXJXDXLXJXDXdXSXKXJXhXJX!.dXhX8.KXdX{.hX0XgXgX X X^.8.!.!.5.9.+.+.*.+.+.O. .} } } } } } } } } }  .+. . . . .} } } }  .} } { ] ! ! M M b v c c p p i i i i i i u u t t t t t 5 5 5 5 t u u i i u u t 0 0 0 w w 7 5 5 5 5 5 5 5 7 u w w w 7 7 7 7 u u u h l l l l l l k k W Q ~ ~ ~ ^ ^ ^ ^ ^ ^ ^ ^ ^ ^ ^ ^ ^ ^ ^ ^ ^ ^ ^ ^ / ~ Q W W k W W W W W W W W W W W W W W W W W W k l l h u u u u u u u u u h h h h h h h u u j j j u j k x b b b j i j j p p N c b ! ] ] ] ] ] ] ! m m m ",
"X.X.X.O.X.X.+.+.+.+.+.+.+.+.+.+.+.O.X. . . .X. . . . . . . . . . . .X.X.X.X.X. . . . . . . . .X.O.O.O.O.O.O.O. .} } } } } } } }  .}  . . . . . . .}  .O.+.6.8.!./.^.{.}.{.{.}.}.{.}.|. X3X X X|.|.|.}.{.{.}.|.}.|.3X0X3X3X X}.{.).)./.!.C.8.9.5.5.+.O. .} } | | [ ] D m M v v v v v v v n n n n M m ] ] ] ] ] m M b n v v c c c c c c c c c c c c c c c c c z z d c d d g M D } 8.!.8.8.5.8.*.9.5.*.*.*.X.*.6.!.).}./.C.C.+...s d g d d c c c y s v v d d d g d s s d d d s d d d d d d g d g g s s v F s s s s d d d d s d d d s s d c v M L M v d d c a M D v v s g d s d g g g v v g g g g v F v g g v v v g v v v v m D v D D v v v [ ) [ +.8.^.}.8.dX XDXKXJXJXKXhXHXSXdX|. XjXgXdXDX5.dX{. XKXhX XgXhXgXdXdX X{.8.8.^.8.5.5.5.5.+.O.O.} } }  . . .} } } } }  .+. .} } } } } }  .O.O. . .} } { ] ] ! m b c c j p i i i i i u t t t t t 5 5 5 5 5 t j j z c j i u u u 0 w 5 5 5 5 5 5 5 5 5 5 5 5 5 5 5 5 5 7 7 u u u u h l l j j j l k k W Q ~ ~ ! ^ ^ ^ ^ ^ ^ ^ ^ ^ ^ ^ ^ ^ ^ ^ ^ ^ ^ ^ ^ Q W W k W W W W k k W W W W W W W W W W W W W k j l u u u u u u u u u u h h h h h h u u j j i h j z x b b b j j j j p j N c b ! ] ] ] ] ] ! ! m m m ",
"+.+.+.X.+.+.+.+.+.+.+.+.+.+.+.+.+.O.O.X. .X.X. . . . . . . . . .X.X.X.X. . . . . . . . . .X.X.O.O.O.O.O.O.O.O.O.O. .O. . .} } } } }  . .} }  .}  .} } } } +.6.8.b.!.^.`.`.{.{.{.{.{.|. X X X X|.|.}.{.).`.{.}.}.|.3XrXdX0X0X3X3X|.}.`.)./.~.C.8.9.5.;.+. . .} } | ] L m m M M M M M M M M M M M m ' ] ] ] ] q.m M b v c v c c c c c c c c c c c c c c c z c c c c d c d g g M D O.8.b.6.5.5.5.X.5.*.*.5.*.*.6.C.`.dXfXC.|.C.X.L g g d d d M d y y g v d d d d d s s d d s s s d d d d d d d d s s d g D s s s s d d d d s d d d s s d d F v v L d d d s y v D v v s g g d d g d d g v g g g g v v v v g g g v v v v v v M D M D D D D m [ D [ 5.!.|.dX}. XfXFXKXJXJXDXdXDXHXDX0XhXJXDXdXhX8.{.C.DXKX X{.SXKXDXSXdXDXhX!.b.{.9.!.5.b.6.9.+.+.O. .O.O.O. . .} } } } O.} | [ | | | } }  .O.O.O.O.O.O.} } { ] ] ! m b c c j j i i i u u t t t t 5 5 5 5 t i j c b b b c j i u t w 5 5 5 5 5 5 5 5 5 5 5 5 5 5 5 5 5 5 5 5 w 7 7 u u h h j j l l j k k W Q ~ ~ ~ ^ ^ ^ ^ ^ ^ ^ ^ ^ ^ ^ ^ ^ ^ ^ ^ ^ ^ ~ W W W W W W W W k W W W W W W W W Q Q Q Q Q x j j l u l u u u u u u u h h h h h h u u j j j j j k x b c c j i j j p p N c b ! ] ] ] ] ' ! ! m m m ",
"+.+.+.+.+.+.+.+.+.+.+.+.+.+.+.+.+.O.O.O.X.X.X. . . . . . . . . .X.X.O.X. . . . . . . . . . .X.O.O.O.O.O.O.O.O.O.O.O.O.O. . .} } } }  . .} }  .} } } } } }  .+.;.6.8.!./.^.^.`.`.`.`.{.|. X X X X}.{.`.).).).`.`. X3X0XfXfXfXrX0X3X3X|.}.`.)./.!.!.9.5.;.+.O. .} } | ] L m m m m m m m m m m m m ] ] [ [ ] ] q.M b v v c c c c c c c c c c c c c c d c c z z c c v c c c c d v M  .+.8.9.| 6.{.9.*.5.5.5.*.*.;.8.6.~.0X`.6.`.+.L g g g s a D d y s y s d d d d d s s d d s s s d d d d d d s s s s v s g s a s s d d d d s s d d s s d d v v s L d d d y y d v D F s d g d d v d s d g v g g g v F v g g c c v v v v v v m D M m v v v v [ [  .5./.dXdXDX5.gXFXhXDXhXDXhXJXLXhX3XhXDXDXhXDX{.8.^.DXgX!.8.hXFXJXJXgXhXjX X8.~./.^.5.8.^.!.5.5.*.+.+.O.O.O.O. .} } } O.| [ ] [ [ [ } }  .O.O.O.O.O.O.O.O.} } } { ] m M b c c j j i i u t t t t 5 5 5 5 t u j v m ! ! b b z i u t w 5 * * * * * * * * * * * 5 5 5 5 5 5 5 5 5 7 w w u u l l l l j j k k k b Q ~ ~ ~ ^ ^ ^ ^ ^ ^ ^ ^ ^ ^ ^ ^ ^ ^ ^ ^ ~ Q W W W W W W W W W W W W W W W W Q Q Q Q ~ x x k j l l u u u u u u u h h h h h h u u j j j j j j x x c z j i i i p N c c b ! ] ] ] ' ] ! m m m m ",
"+.+.+.+.+.+.+.+.+.+.+.+.+.+.+.O.+.O.O.O.O.O.O. . . . . . . . .@.O.O.O.O.O. . . . . . . . . . .O.O.O.O.O.O.O.O.O.O.O.O.O.O. .} } } } } } } } } } } } } } } } } O.+.5.9.b.b.!./.^.).{.}.|. X X X X|.{.{.).^.).`.`.|. X0XfXdXfXfXfXfXdX0X3X X}.`.).^.~.!.8.6.5.+.X. .} [ [ ] ] ] ] ] ] ] ] ] ] ] | } } | [ ] ] D m M v v c c c c c c c c c c c c c v c c z z z c c c c d d d d d d c  .5.b.X.6.*.9.*.*.5.*.*.5.*.9.C.9.C.`.;.;.9.X.g s y < d F g s y y s s d d d s s d g d d s s s g g g g d d d s s d s s s s s s d d d s s y s s s s d d c D M D d d d y s s s s L d y g s s v L d d g v g d v v v v v g c c M v v v v v m D m v v v v v | [ [ 8.~.{.3XDX9.3XFXhXFXKXDXhXJXDXDX XdXDXDXdXKX|.!.b.3XDXhX/.hXhXhXJXDXDXFXDX8.8.!.9.!.{. X).!.!.6.5.*.X.+. .X. . .} }  .} | } } } } } }  . . . .O.O.O.O.O.O.O.O. .} { ] m M c c c z i i u t u t t t t 5 t t j b m ] ] ! M c j u t t w 5 5 5 * * * * * * * * * * * * 5 5 5 5 5 5 w w u u u u h l l l l l l k W W ~ ~ / / / / ^ ^ ^ ^ ^ ^ ^ ^ ^ ^ ~ ~ Q Q W W W W W k k k k k W W W W Q Q Q Q Q W Q Q x x k j h h h h h h h h h h h l l l l l i i i j j j b c c j j i i j p j c b m ] ] ] ] ' ! m m m ! ! ",
"+.+.+.+.+.+.+.+.+.+.+.+.+.+.+.O.+.O.O.O.O.O.O. . . . . . . . . . . .O. .O. . . . . . . . . .O.O.O.O.O.O.O.O.O.O.O.O.O.O.O. .} } } } } } } } } } } } } } } } } }  .O.+.5.9.8.C.!./.^.{.|. X X|.|.|.}.{.).^.^.).).{.|.3X0XdXdXgXgXgXfXfXdX0X3X X}.{.)././.!.8.6.5.+.O. .} [ [ | | } } } } } } } }  .} | ] ] ] D m M v v c c c c c c c c c c c c d c m c c z z c z c c c c c d d d c ] *.X.[ 5.!.!.5.*.X.6.*.;.*.;.9.C.C.C.b.*.*.*.g g d s d v g d s s s s d d d d y < d D g d s s s F F d d d d s s s s s s s s s d s d s s s s s s s d d s M M c d d d a a s s s D v y d d d v F v d d g d d v v v F v g g g v v v v v v m D D v M m m m } D m 6./.{.dXMXb.{.JXhXJXKXDXMXJXhXDX`.DXdXKXdXgXdX9.}. XDX0X|.dXFXhXJXdX XDXJX!.b.^.8.{.DXgX^.^.!./.8.8.5.6.+.X.X. . .} } } } } } } } } }  . . . .O.@.@.O.O.O.+.O.O.O. .} | ] ) m b c c j p i u u t t t t t t i c n ! ] ] ! b j i u t w 5 5 * * * * * * * * 5 * * * * 5 5 5 5 5 5 w w w w w w e u h h l l l l l k W W Q Q Q Q ~ ^ ^ ^ ^ ^ ^ ^ ^ ~ ~ Q W W W W W W x k k k k k W W W W Q Q Q Q Q Q Q Q b k j j h h h h h h h h h h u u l l l l i i l j j b c c j j j i i i p c v M ! ] ] ] ] ! ! m m m ! ! ",
"+.+.+.+.+.+.+.+.+.+.+.+.+.+.O.O.O.O.O.O.O.O.O. . . . . .} } } }  . . . . . . . .O.O. . . .O.O.O.O.O.O.O.O.O.O.O.O.O.+.O.O. . .} } } } } } } } } } } } } } } } } | | }  .*.5.6.8.b.!.^.{.|.|. X|.|.}.{.)././.).).`.|. X3X3X0XfXgXgXgXgXgXfXdX0X3X|.{.`.^.^./.!.8.6.5.+.O. . .}  . . . . . . . . . .} | ] ] ] m m M v v v c c c c c c c c c z c z c c m c d c c c c c c c c c c c v M  .} [ 9.*./.~.*.+.X.*.*.;.*.b.~.(.^.^.5.| X.L F v g g g g g d d g g d d d s s g g s g g d s s F F d d d d s s s s d d d d d d s s s s d d s s s s d y v v y c d s a s s s s v D s s d d s d F d d g d d v v v F v c g v c v v v v v v D D D D D D D [ D v +.!.|.gX X3Xb.KXDXJXJXMXDXDXDXMX}.DXDXDXgXJX8.8.dXdXgX|.dXhX XDXDXKX|. X3X^.{.^./.).JXgX).dX{.|.!./.8.8.5.+.X.X. .}  . .} } } } } } }  . . . . .@.@.O.O.O.+.+.+.+.+.+.O. .} ] ! m b c c j j i i t t t t t u j c c b m m b j u u t w 5 * * * * * * 5 5 * * 5 5 5 5 5 5 5 5 5 5 5 5 5 5 w w w w e e h l l l l l k k W W W W Q ~ ^ ^ ^ ^ ^ ^ ~ ~ Q W x k W W x x x k k k k k W W W W b b Q Q W Q b x x k j h l l h l h h h h h h u u u u j j i i j j j b b c j j i i i i c c b m ] ] ] ] ' ! m m m m ! ! ",
"+.+.+.+.+.+.+.+.+.+.+.+.+.+.O.O.O.O.O.O.O.O.O. . . . . .} } } } } } } } } }  . .O.O. . .O.O.O.O.O.O.O.O.O.O.O.O.O.O.+.O.O. . .} } } } } } } } } } } } } } } } | | [ [ [ | O.*.6.9.8.!.^.{.{.|.|.|.}.{.)././.^.^.`.}.|. X X3X0XfXgXgXhXgXgXgXfXdX3X X|.{.`.^.^./.b.8.6.5.+.+.X.O.O.O.O.O.O.O.O.O. .} | ] ] ] m m M v v v c c c c c c c c c z c z c c c v c c v v c c c c c c c c M v D 5.L !.6.*.!.9.*. . ...;.*.9.6.C.|.!.C. .| L L F F s d g g g g g g g d d s s s d v g g g d g g g g g g d s s s d g g d d d s s y s d s g d d s s d y g c y c d s a s d d s d D s s d d s s v v d d d d g v v M v g c M g c v v g v v D D D D L L L m [ M D 9.!.3XdX/.8.JXDXKXFXhXDXDXhXJX3XgXJXgX3XDX X5. XdXJX).|.3X3XdXgXhXhXdX{.b.).3XdX!.hXDXhXgXfXdX).).!.b.5.5.+.+.X. . . .} } } } } } }  . . . . . .@.@.O.O.+.+.*.5.5.5.0.+.+. .} ] ! m b c c j p i t t t t t u i i j j z c j u u 0 w 5 5 5 * * * * 5 5 * * 5 5 5 5 5 5 5 5 5 5 5 5 5 5 5 5 5 w w e e e h l l l l l k k k k W Q ~ ~ ~ ~ ~ ~ ~ ~ W W k k k k x x Q x x k k k W W W W b b Q Q W W b x k j h h h h h h h h h h h h u u u u j j i i j j b b b j j j i i j j c b m ! ] ] ] ] ! m m m m m ! ! ",
"+.+.+.+.+.+.+.+.+.+.+.+.+.+.O.O.O.O.O.O.O.O.O. . .}  .} } } } } } } } } } }  . .O.O.O.O.O.O.O.O.O.O.O.O.O.O.O.O.O.O.+.O.O.O. . . . . .} } } } } } } } } } } } } } } } | ] |  .+.9.9.8.!.^.{.|.|. X|.{.).^././.^.`.{.|.|. X3X0XdXfXfXgXhXhXhXgXgXdX0X3X|.}.{.`.)./.!.b.9.5.5.;.*.+.+.+.+.X.X.X.X.}  . .] ] ) m M M v v v c c c c v v v c c c c c z z d c c v M m D c d c c c c c D v v  .[ 5.C. .^.6.*.[  .L X.*.;.;.9.^.{.9.*.D g F F L D g d y g g g g D F v g d s s d g g g d g g g g g g d d s s d g g d d s s y < s s y v g v d s d y v d y d d d s d g d y s D s s d g d s g [ D g g d c v v g v c c F d c v v c v v m D D ) ) ) ] ] ] ] D +.9.^.dXdX+.DXgXJXKXhXDXMXMXFX|.hXDXdXfXJX/.C.^. XJX XDXhX{.dXdX}.hX XgX+.!.{.dX XdXKXdXdXFXhX X).{.!.8.5.*.+.X.O.O.O. .} }  . . . . . . . . . .O.+.+.4.5.5.5.5.5.5.9.9.5.5.<.+.O.} m b v c c j i u t t t t u u u i i i i u u t w 5 * * 5 5 5 5 5 5 * * 5 5 5 5 5 5 5 5 5 5 5 5 5 5 5 5 5 5 w w w w u h l l j l l l l l l k k W Q Q Q Q Q Q k k l j l l k k Q Q Q x x x W W W W b b Q Q Q Q b x k j h h h h h h h h h h h h l l i i l i i j j j b b b j j j i i j z c M m ! ] ] ] ' m m m m m m ! ] ",
"X.X.X.X.+.+.+.+.+.+.+.+.+.+.O.O.O.O.O.O.O.O.O. . .}  .} } } } } } } } } } } }  . .O.O.O.O.O.O.O.O.O.O.O.O.O.O.O.O.O.O.O.O.O.@.@. . . .} } } } } } } } } } } } } } } } { { ] [  . .+.6.8.!./.^.{.}.}.{.{.^./.~.^.).{.|.|. X X3X0X0XfXfXgXhXhXgXgXfXfXdX0X3X|.}.{.).^./.!.b.8.9.5.5.;.;.;.*.+.+.+.O.+. .| ] m m M v v v v c c c c v v v v c c c c z z z d p p z c D [ [ M c c c c m v v D L 6.b. .6.5.X.+.[ [ *.| X.5.6.). X~. .| d g F L F d d g d d g g d g v F v d s s s s s d g g g v v g g g d s s d g d s s s s y < y y v d c v c y s v s y y d d s s d d y s v s d d g g d v s v [ d d d v v d v g g M c c c M c g v M D D D D ) ] ] ] ] L [ 6.8. XhX!.{.DXFXKXhXDXgXFXJX{.dXdXhXDXDX|.!.8.gXDX}.hXJXDX XMX}./.{.|.^./.b.|.dXhXhX^.LXDXhXdX{./.^.6.5.+.+.O.O.O.O.O.} } O.O.O.O.O.O.O.O.+.+.+.+.0.5.9.9.9.9.9.8.8.8.9.9.5.5.5.+.} ] m M v c c j p i u u t t t u u u u u t t w 5 * * 5 5 5 5 5 5 * * 5 5 5 5 5 5 5 5 5 5 5 5 5 5 5 5 5 5 5 5 5 w w w u l l j k l l l l l l l l l l k k l l l h h h h l l k k Q Q Q x W W W W b b W W Q Q b b j h h l h h h h h h h h h h i h i i l i j j j j z b b j j j i i j z c M m ! ] ] ] ! m m m m m ! ] ] ",
"+.+.+.X.+.+.+.+.+.+.+.+.+.+.O.O.O.O.O.O.O.O.O.O.@. . . .} } } } } } } } } } } }  . . . . . . . . . . . .O.O.O.O.O.O.O.O.O.O. . .@.@. .} } } } } } } } } } } } } } } } | { { ] [ m } +.5.8.b.!./.^.`.`.`././././.).{.|.|. X X X3X0X0XdXfXgXhXhXgXgXfXfXfXdX0X3X|.}.`.).^./.!.C.b.9.9.9.9.6.6.6.6.;.;.O.] ) m m v v v v v c c c c v v v v v c c c z z z d d p i i a v v c c c c c v v v g  .[ {.C.[ X.[ | L [ X.L X.X.*.~.}.fX9.F s g F L D g s g d d g d s d g v v v d s s s s s g v v v v v v g d s s s d s s s s s y 1 < y d s d v c a s v a a y s d d y y y s s d d d d d g d s g F v D L y d g g v g g v v d c M c v v v M D D D ) ] ] ] [ ] L *.;.).fX{.!.hXDXJXgXDXgXJXJX|.dXdXLXDX XdX|.9.|.hX0X|.hXMX X{.0X^.5.|.{.!.!.gX3XDX|.}.KXLXdX X{.{./.8.*.+.O. .O.O.O.O. .O.O.+.+.O.O.O.+.+.0.5.5.5.9.8.8.E.E.E.E.!.!.!.!.E.8.9.5.5.+.O.} ] m M b c c j j i u t t t t t u t t t 5 5 * * 5 5 * * 5 5 * * 5 5 5 5 5 5 5 5 5 5 5 5 5 5 5 5 5 5 5 5 5 5 5 w w u l j j k k k j l l h l l l l l l h h h h h h h l l l l k x x b Q Q W Q Q Q Q b b b x j h l l h h h h h h h h h h h h i l j i i j j j z b c j j i i j j z c m m ] ] ] ] m m m m m ! ! ] ] ",
"+.+.X.X.X.X.X.X.X.X.X.X.+.+.O.O.O.O.O.O.O.O.O.O.@. . . .} } } } } } } } } } } } } } } } } } } } } }  . . . .O.O.O.O.O.O.O.O. . .@.@. .} } } } } } } } } } } } } } } } { { { ] ] ) D ] | *.6.8.b./././././.~.~./.).{.|.|. X X X3X3X3X0X0XfXgXhXhXhXgXgXgXfXdXdX0X X|.}.`.).^./.~.!.C.C.C.!.!.!.!.8.9.+.| D m M v v v v v v c c c v v v v v c c c c c z z c z p p a y d M c c c c v M v s X.v b.~.+.+.;.X.[ F | ..F ..;.*.~.gX|.6.d s v F | F s < d g g g g d s s g F v s s s s s < v F y d g v v g s y y y y s s s s < y y y y y v d d d a v y y y y d d y 1 y s s s d d d d d g g v d y d [ c v g g g g g g M c c v c v v c v m D D ] ] ] ] [ ] } [ +.C.|.{.8.gXMXDXgXDXhXJXDX X{.gXJXDX9.DX X/./.0XdX).0XMXMX).}.|. X!.9.+.5.!.3XdX{.).JXdXdX!././.8.5.+.O. . .O.O.O.O.O.O.+.+.+.+.+.O.+.0.5.5.8.b.!.!.!.!.!.!.!.~./.^.^./.!.E.8.9.5.<.+.O.} ] ! m b c c j i i u u t t t 5 t t 5 5 * * 5 5 * * 5 * * * 5 5 5 5 5 5 5 5 5 5 5 5 5 5 5 5 5 5 5 5 5 5 5 5 w w u l j j j j j l h u h h h h l h u u h h h h h h l l l l l l k k Q Q Q Q ~ Q ~ b x k j l l l h h h h h h h h h h h h l l j j j j j j c c z j j i i i j j c m ! ] ] ] m m m m m m ! ! ] ] ",
"+.+.X.X.+.+.+.+.+.+.+.+.+.+.+.+.+.+.O.O.O.O.O.@.O. . . . .} } } } } } } } } } } } } } } } } } } } }  . . . . . .@.@.@. .O.O. . . .@. . .} } } } } } } } } } o.} } } } } { ] ] ] ] M M m [  .*.9.8.C.b.b.C.!./.!.).{.|.|.|. X X3X3X3X3X3X0XdXgXgXgXgXgXgXgXgXgXfXdXdX0X3X X|.}.{.`.).`.`.{.`.).^./.C.;.| D m M M v v v v c c c c c c c c c c c c c N N c c c p p d d d d d d c g c c F L L F *.^.!.[ b.6.*.*.D [ ..L | *.X.|.fX~...d v L [ [ v y d d d g g g s s F g D s s s s s d v F s d g v F v d s y < y y s s s s s y y 1 < v d s d v y 1 y s y d D y y y s s y s d d d d d g F s s g v v v g g d g v g v g v v c v v v v m m m M M D ] [ } [ } X.5./.^.!.dXDXdX3XKXKXDXhXdX/.JXKXhX .|.dX0X^.hXdX^.dXJXSX^.|.8.}.|.8.C./.+.`.b.~.`.3X!.{.9.!.9.+.+.O. . .O.O.O.} O.+.5.5.<.<.+.+.+.0.5.7.9.E.!.~./.^.^.^.^./.!.!.!.^.^.^././.!.8.5.<.+.O.} } } ] ! b c j p i i u u u t w 5 5 5 5 5 5 5 * * 5 5 * * * * * * 5 5 5 5 5 5 5 5 5 5 5 5 5 5 5 5 w 5 w w 5 w w u u h l l l l h h u u h h h h h u h h h h h h h h h h l l l j k k b b ~ ~ Q Q k j j j h h h h h l h l l j j j h h l l j j i j j z z c j j i i i p j c b ! ] ] ] ' ! m m m m m m ] ] ] ",
"+.+.X.X.O.O.O.O.+.O.+.+.+.+.+.+.+.+.O.O.O.O.O.@.O. . . . .} } } } } } } | | | | } } } } | } } } } } }  . . . . .@.@. . .O.O.O.O.O.O.O.O.@.@.O.} } } } } } } } } o.} } } } { ] ] ] q.M m m ] [ } 5.9.8.9.9.b.!.!.^.`.}.|.|.|. X X3X3X3X3X3X0X0XdXfXgXhXhXhXhXgXgXgXgXgXgXfX0X3X3X X3X3X3X0X3X X|.).~.5.} ) m M M v v v v c c c c c c c c c c c c i i p z z c z p d d d d d d d d g d g F F X.v 6.!.....6.;.6.*. .| L L ..L X.3X). .s | v v F F s d g d g g g s s D < F d s s s s d g F s F g d g g d s s y 1 1 y s s v s 1 < y s d d d d d a y 1 v d v L a a s y y s s d s s s d d v s s d d v v g g d g g v v v v v c v v v v M m m M M D ] [ } [ [  .X.9.!./.{.DX0X XJXJXMXMX3X`.JXKX X6.). XDX5.^.fX{. XKX0XgX/././.!.5.).}.;.!.9.8.b.b.9.8.9.9.*.+.*.O.+.+.O.O.O.O.+.5.5.5.5.5.5.<.+.4.5.9.E./.^.).{.{.^./.!.8.9.8.9.8.!./.^.^.!.8.9.5.<.+.O.O.} } { ] m b c c j p i i u u w w 5 5 5 5 5 * * 5 5 * * * * * * 5 5 5 5 5 5 5 5 5 5 5 5 5 5 5 5 5 5 w w 5 5 w w w w u u h l h l h h u u h h u u h h h h h h h h l l l l h l l j k k x b Q b x j j j l l h h l l h h l l j j h h l l j j i i j j z j j i i i p p c v m ! ] ] ' ] ! m m m m m m ] ] ] ",
"+.+.+.+.O.O.O.O.O.O.O.O.+.+.+.+.+.+.+.+.+.O.O.O.O.O.O. . .} } } } } } } | | | | | | | | | | } } } } }  . . . . .@.@.@.@.O.O.O.O.O.O.+.+.O.O.@.@.O.@.} } o.o.o.o.o.o.} } } { ] ] ] ] m M M M m m | +.*.;.5.6.9.b./.).{.|.|.|. X X3X3X3X3X3X3X3X0X0XfXgXgXhXhXhXgXgXhXhXhXhXgXgXfXgXgXgXgXgXfX0X0X{./.6.} ) m M M b b v v c c c c c c c c c c c c c c p p d z c c d d d d d d d d g s s g F ..F L 6.;.v X.*.+.;.;.X.L F L *...*.}.F ..v v g g v g g g g g g g s s g v 1 F s s s s d g F s F v s s g g s s y 1 1 < y s v s 1 < y s y y s s s s a y v v d F a a a y y s s d s s s s s v d d s s d g g g s d g v v v v v c c v m m M M M M M D ] [ | [ [ [ | *.8.!.).hX3X0XSXJXMXhXgX{.JXJX).{.!.|.KX9.9.gX). XDX^. X8.9.X./.+.!.~.;.8.+.| 6.+.9.O.9.5.*.*.5.+.5.5.+.+.+.5.9.8.8.8.5.5.5.5.<.5.9.E.!.^.{.{..X{.^.!.8.9.5.5.5.<.7.b./.^.^.!.E.9.5.0.+.O.@.} } ] ] ] m M v c j j i i u t w w w w 5 * * 5 5 * * 5 5 5 5 5 5 * * * * * 5 5 5 5 5 5 5 5 5 5 5 w w 5 5 5 5 w w w w u u h l l h h h h h h h h h h h h h h h h h l l h h h l j j k x x k k j j j j l j j l j h h h h j j l h l l j j i i j j j j i i i i p c c b ! ] ] ] ] ] ! m m m m m m ] ] { ",
"O.O.O.O.O.O.O.O.O.O.O.O.+.+.+.+.+.+.+.+.+.O.O.O.O.O.@. . .} } } } } | | | | | { ] ] ] ] ] | } } } } }  . . . . .@.@.@. .O.O.O.O.+.+.+.+.+.+.+.@.O.@.} } o.o.o.o.o.o.} } } { ] ] ] ] ] m M v v v v M L } X.*.5.6.!.^.`.}.|.|.|. X X3X3X3X3X3X3X3X0X0X0XfXgXgXhXhXhXMXMXMXSXSXSXMXMXMXhXhXhXgXfX0X}./.9.} L m M M b v v c c z z z c c c c N N c c c c v v v c z p d d d d d d d d c s < s g X. .F | *.d ..[ [ *.+.X.L F F F X.;.X.g *.v g F F v F g d d g g g s s s D s g s s s y d g F s g g g d d g s s s < : < y s s d s y < 1 y y s a y d d s d d s s a a a a s s s d s s s s s v d d d s s d g g s d g g v g v v d d c M m M M M M M D D [ } L L [ [ X.9.!.!.|.|.fXfXKXDXdXFX^.KXDX). X^.gXDXb.C.!.8.`. X~.~. XX.5.^.;./.!.X.9.*.[ *.+.9.X.5.8.6.5.5.+.9.9.+.+.+.5.8.!.!.8.5.9.5.5.<.5.8.!./.^.).{.{.{.^./.b.9.5.5.<.+.<.5.9./././.!.8.8.5.0.+.O.@.} | { ] ] ] m M v c c N p u t w w w w * * 5 5 * * * 5 5 5 5 * * * * * * * 5 5 5 5 5 5 5 5 5 5 w w w 5 5 5 5 5 w w w w u u u u l h h h h h h h h h h h h h h l l l h h h l l l j j j j j j j j l l j j j j h h h l j j l l l l j j p i j j j i i i i p j c b m ! ] ] ] ] ] ! m m m m m m ] ] { ",
"O.O.O.O.O.O.O.O.O.O.O.O.+.+.+.+.O.O.O.O.+.+.O.O.O.O.O.O.@. .} } } | | | | | | { ] ] ] ] ] | } } }  . . . . . . . . . . .O.O.O.O.+.+.+.+.+.+.+.+.+.@.o.} @.o.o.o.} } } } { { ] ] ] ! q.M M v v v v v c M L  .*.6.8.!.^.{.}.|.|.|. X X3X3X3X3X0X3X3X3X0X0XfXfXgXhXhXMXMXMXSXSXDXDXDXSXMXMXMXhXfXdX}.).9.| m M M b b c v c c c c c c c c c c c c c N c b M M v c c c c a a v d d s s s s s D F F | +.X.g D D D L [ +.;.*.X.| | ..X.1 [ *.v F v g g F d s d g d s y y 1 D d d d s 1 s s v s s s d s d d s s s y 1 y y y 1 s s y 1 < 1 : : y : : c d s s s s s s d d y y y s d d s s s y d s g s s v v v s d d g g d v v d c c c v M M M M m m D D D } L L | L 6.9.^.fX`. X XJXSXgXKXb.KXDX XdX|.MXfX).;.b.9.~.`.9.b.^.X.5.5.X.;.;.+.*.9.L O.+.+.6.8.!.9.*.+.5.8.8.5.5.9.8.!.^.^.!.7.8.8.7.<.4.5.9.8.!.~././.^.^.^.!.!.8.5.0.O.@.@.<.8./.^././.8.9.9.+.O.O.} } { { { ] ] ' m m b b c j u t w 5 5 5 5 5 * * 5 * * * * 5 5 * * * * * * 5 5 5 5 5 5 5 5 5 5 5 5 5 5 5 5 5 5 5 w w w w w w u u l h h h h h h h u h h h h h h h h h h l l l l l l j j l j l j j j j j j j j j j j l l j j l j i i p p p j i i i i i p j c b m ! ] ! ! ! ! m m M M m m ! ] ] O.",
"O.O.O.O.O.O.O.O.O.O.O.O.O.O.O.O.O.O.O.O.O.+.+.+.+.O.O.O.O.@.} } } } | | { { { { ] ] ] ] ] ] | } } }  . . . . . . . . . .O.O.O.O.+.+.+.+.+.+.+.+.+.+.@.} @.@.o.o.} } { { { ] ] ! ! ! m M v v v v v v c c v ]  .+.6.8.!.^.`.{.|.|.|. X X3X3X3X3X3X3X3X3X3X0X0XrXfXgXhXMXMXMXSXSXFXFXDXDXSXSXMXgXfX X`.9.[ m M n b c c c c c c N N c c c c c c c c N N c v c c v M d a a a c d s a s s s s g ..g g [ ;.< g v D [ ..F [  .| | ..X.*.| v y s v g g d v d s s F v g d y : v v d d s < y y g y y g < d g d y y s y 1 y s 1 1 y y 1 1 < : : : : y d v : y s d d d v v v v v v g d s s s s y d y F s y d g g s s d d d c c v c v v z c M v M M m m D D D [ D D [ D +.5.!.{. XFX).gXfXhXKX^.DXMXdX).{.hXFX~.;.8.5.`.*.;.5.;.L L X.X.+.+.X.| *.+. . .+.9.!.!.8.9.9.b.!.8.5.9.8./.^.{.XXE.!.!.E.7.+.O.+.0.5.5.9.9.8.!.^.^./.!.8.9.5.@.@.} @.5.!./././.!.8.8.+.O.O.} } } { { ] ] ] ] ) ! m n c j u t w 5 5 5 5 5 * 5 * * * * 5 5 * * * * * * 5 5 5 5 5 5 5 5 5 5 5 5 5 5 5 5 5 5 w w w w w w w w u u u u h h h h h h j j h j h h h h h h l l l l l l l h j j j j j j j j j j j j j j l j j j l l i j p p j j i i i i i p j c b m ! ] ! ! ) ! m m M M m ! ] ] | +.",
"O.O.O.O.O.O.O.O.O. . . .O.O.O.O.O.O.O.O.O.O.O.O.+.+.O.O.O.O.@. .} } | | { { { { ] ] ] ] ] ] ] | | }  . .@.@. . . . .O.O.O.O.O.O.O.O.+.+.+.+.+.+.+.+.O.@.@.@.@.@.} } { { { ] ] ! ! ! m M v v v v c c c c c v D | +.5.8.!./.).{.}.|.|. X X3X3X3X3X3X3X3X3X3X0X0X0XdXgXgXhXMXMXSXSXDXFXFXDXDXSXMXgX0X{.8.[ M M M b c c c c c c c N N N c c v b M b v v v v v v c c v M m D D v g d s s s s f ..g f v F D g ..[ D v L F g g g F [ X.L [ F s g g d d g g g s F v g d g d v F v s y < < < d < s 1 s s s s s y y y 1 y s < : 1 1 : : : : y y : c y y : y y s d d v c g d s y y y s y y s y s s d d s s d g s s s d d v c d M m M z d v v M M M m D D D ] M M L D [ +.b.b.{.JX|.jXdXdX0X/.gXdX{.{./.3XFX8.C. .5.!.*.X.[ L D v }  .| |  .L X.*. .[  .5.b.8.9.9.8.8.8.9.*.9.!.^.^.^.!.9./.!.8.<.+. .@.O.O.+.+.<.4.5.!./.!.!.E.9.5.@.} o.} +.8.!./.!./.!.8.5.+.O.} } } | { { ] ] ] ] ! ! m n c j u u w 5 5 5 * 5 5 5 * * * 5 5 5 5 * 5 5 5 5 5 5 5 5 5 5 5 5 5 5 5 5 5 5 5 5 5 w w w w w w w w w w u u u u h h h h j j j j h h h h h l l l l l l l h h h h j j j j l l j l j j l l l l j j j j i i j j p i i i i i i p j c b m ! ] ! ! ! ! m m M m m ! ] | } <.",
"O.O.O.O.O.O.O. . .} } } } }  . . . . . . .O.O.O.+.+.O.O.O.O.O.@.} } | | { { { { ] ] ] ] ] ] ] { | } }  . .@.@. . . .O.O.O.O.O.O.O.+.+.+.+.+.+.+.+.+.+.O.@.@.@.@.} } } { ] ) ! ! ! m m M v v c c c c c z d d d v [ +.5.9.8./.^.{.}.|.|. X3X3X3X3X3X3X3X3X3X3X3X0X0XdXfXgXgXhXMXSXSXDXFXFXFXSXMXhX0X{.9.L M M M b c c c c c c c c N N N N p p N N p p i i p c v v c c v v ] ] L D g g d d s F g s F y s s [ L D F F d g L g F ..*.F v g 1 s d s s d v g y g d s y y y y s F y 1 y < 1 s 1 1 < 1 y y y s y y s < y s < 1 1 1 ; ; : y d s y : : y % : y s y a s s d g s y : y y y y s y s s s s d d g g s s s s d v g s M m M c d z v M M M m D m D L M M L D D  .5.9.{.jX/.3X3XdX{.{.gX{.3X!.!.hXhX5.C.[ *.;.*.| X.[ F [ [ } L L } |  .|  .] [ O.5.+.+.0.9.5.6.5.O.5.8.!./.!.E.Q.!.8.5.+.+.O.O.O.O.+.+.O.O.O.5.9.E.8.8.9.5.@. .} } { 5.8./.!.^.^.!.9.<.O.O.} } } { { { { ] ] ) ! ! m b c j u u 5 5 * * 5 5 5 * * * 5 5 5 5 5 5 5 5 5 5 5 5 5 5 5 5 5 5 5 5 5 5 5 5 5 5 w w w w w w w w w w w w u u u h h h j j j j h h h h h l l l l l l l h h h h h h h h j j j j j l l l l l j j j j i j j j p i i i i i i p j c b m ! ] ! ! ! ! m m M M m ! ] { } 5.",
"O.O.O.O.@.@. .} } } } } } } } } } } } } } } @.O.O.O.O.O.+.+.O.O. .} | | | { { ] ] ] ] ] ] ] ] ] { | } }  . . .@.O.O.O.O.O.O.O.O.O.O.+.+.+.+.+.+.+.+.+.+.@.@.O.} o.{ { { ] ! m m m m M v c c c c c c z z z z z z c m | +.5.9.!./.).{.|.|. X3X3X3X3X3X3X3X3X3X3X0X0X0X0XfXfXgXgXMXMXSXDXFXFXSXhXhX0X{.9.L m M M b c c c c c c z c d d p p p p p p p p a i a p d c d d d d v m D D v v g g g d g s s s s s v D F F F F F L F g L *.*.v v D L g y s g g g s d d s y < < < y g s 1 y < 1 y 1 : 1 1 y y 1 d < < s < y y < 1 1 1 ; ; : y s a 1 : : : ; : s s 1 y y a y s d a 1 y y y y a y a s a s d d d d y a s s s v v s v M v c d d v M M M m m m D m m m L L M | +.;.9. X!. X XgX{.{.{.6.gXb. XdX3X5.5. .+.*.| [ [ [ D F L L L D L [ } } }  .D | 5.+. .}  .+.+.O.} 5.9.E.!.!.8./.9.<.+.@.@.O.O.O.O.O.} } @.@.+.<.5.9.7.5.<.} } } @.} O.5.!./././.!.8.5.+.O.} } } } } { { { ] ] ! ! m n b j i u w 5 5 5 * 5 * * * * 5 5 5 5 5 5 5 5 5 5 * 5 5 5 5 5 5 5 5 5 5 5 5 5 w w 5 5 w w w w w w w w u u w w u u u h h h l l h l l l l l l l h h h h j j j j l l l l l l j j j j j j j j j j j j j j j j j i i i i i i j c b n m ) ) ! ! ! ! m m m m m ' ] | O.5.",
"O.O.O. .@.@. .} } } } } } { | | | } } } } } } }  .O.@.O.+.+.+.O. .} | | | { { ] ] ] ] ] ] ] ] ] ] { | } }  . . .O.O.O.O.O.O.O.O.O.+.+.+.+.+.+.+.+.+.+.+.@.O.@.@.} { { { ] ! m m m M v c c c N N d d d p p p p p d z c m  .;.9.8./.^.`.{.|. X X X3X3X3X3X3X3X0X0X0X0X0X0X0XfXfXgXhXMXSXDXFXMXgXgX0X{.9.D m M b b c c c c c c z c z d p p p p p d d d p p p p d c d c c d s s s s s d g c g g g g g d s s g F F F F D F L L L s L X.L L F D g s s d g g d d d s y y y y < s F y 1 1 y < 1 > > 1 y y : s < 1 s y 1 1 1 1 1 : 1 : ; : y 1 : : : : : 1 a s : 1 a a y y s y : y y y a s y y s s s s s d d y y a s s v v s v v c z d d c M M M m M ] m m L L L [ L |  .X.6.)./.}. X|. X X8.5.hX0.0X0X`.+.*.[ *.+. .| [ L L F F | |  .} [ ] ] ] L M ] +.*.X. .O.+.+.O.O.5.9.8.E.8./.8.+.+.@.O.@.O.O.O.O. . .@.@.O.O.O.<.<.+.+.O.O.@.@.@.} } 4.E./././.!.8.7.<.O.} o.} } } } } { { ] ) ! m n c j i u w 5 5 5 5 5 * * * * 5 5 5 5 5 5 5 5 5 5 5 * 5 5 5 5 5 5 5 5 5 5 5 5 w w 5 w w w w w w w w w u u u u u u u u u h h h h l j j j l j j j j j j l l j j j j j j j j j j j j j j j j j j j j j j j j j i i i i i i j c b m ! ) ! ! ! ! m m m m m ! ] ] } +.5.",
"@.@.@.@. .@.@.@.@.} } } } } } } } } } } } } } } } @.@.@.O.+.+.+.O. .} } } | { ] ] ] ] ] ] ] ] ] ] ] { | } }  . .O.O.O.O.O.O.O.O.O.O.+.+.+.+.+.+.+.+.+.+.@.O.@.O.} } { { ] ! m m m M v c N N j p p p p p p p p p p p d z v L X.5.b.!./.^.`.}.|. X3X3X3X3X3X3X0X0X0X0X0X0X0X0X0XfXfXhXMXSXDXhXgXgX3X`.6.D m M M b c c c c c c z z p d p p d d d d d d d p p a a a a a a d d d d d s s d d d d v F v g d s d v v g g F F F L v F g F v [ D v d s g d d d d d d s y s s y y d g v ; : < y 1 : : 1 s s 1 1 < 1 1 y > : : : : : 1 1 ; * : 1 : : 1 1 : : 1 1 : : y y 1 1 y y : 1 y y a s y y s s s s s d d y y a a y v v s v v z d z z z v v z M ] M m m ] L L L M M m  .+.8.)./.3X{.|.gX+.b. X5. X3X^.6.X. .*.X... .[ L [ F F D L | | [ ] ] ] D D [ O.5.+.O.+.O.O.+.+.5.5.9.9.8.!.<.O.@.O.@.@.O.O.O.O.O.O.} } O.@.} O.O.O.} } } @.@.@.} o.+.7.!./.!.!.8.7.<.O.@.@.@.@.} } } } { { ] ! m m b j i u w 5 5 5 * * * * * * * * * * 5 5 * * 5 * * * 5 5 5 5 5 5 5 5 5 5 5 5 w w w w t t w w w w w w t t t u w w u u u u u h h h j j l j j j j k k k k k k k k k j j j j j j j j j j j j j j j j j j z j p i i i i i j c b m ! ) ) ! ! ! ! m m m m m ! ] | +.5.8.",
"@.@.@. . . . .@.@.O.O.O.O.O.O.} @.@.o.o.o.} } } } } } o.@.O.O.O.O. .} } } | { ] ] ] ] ] ] ] ] ] ] ] ] { | } }  . .O.O.O.O.O.O.O.O.O.+.+.+.+.+.+.+.+.+.O.@.@.@.@.@.o.{ { ] ! m m M b v c N N p j p p p a p p p p p p p p 1 a v [ 5.9.b.!./.`.}.|. X3X3X3X3X3X3X3X0X0X0X0X0X0X0X0XfXfXhXMXSXgXfXfX X).5.v m M M b c c c c z z z z p p p p p p p p p p p p p p p a a a c c s s c g c d d s s d d d D g d s d g g d g g v g g v F L *.D L [ g s s v d d d d g d s y s s s d g d s y 1 1 < 1 : : 1 y s 1 > s y ; y : ; > : < 1 : ; ; ; : : : : 1 1 : : 1 : : : 1 1 : : y : : y y y s d y y d s y a s s a s y y y y s z d v v d a z z z c c z v m D v M ] ] L L L m L X.[ X.^./.{./. X|. .).|.5.3XSXb.^. .5.X.X.X. .[ L [ L F L } X.*.} } } [ [ } X.+.5.+.+.+.} O.+.+.5.5.5.5.8.5.O.O.O.@.@.@.@.O.O.@.O.O.} } @.@.} o.o.o.} } } } } } } } O.<.E.!.!.E.8.7.+.O.@.@.@.@.O.O.} } } { { ] m m c j i u w 5 5 5 5 * * * * * * * * * 5 * * * * * * 5 5 5 5 5 5 5 5 5 5 5 5 5 w w w w w t t w w w w w t t t t w w u u u u u u u u h h l j j j k k k k b b b b b x k k x j j j j j j j j j j j j j j j j j p i i i i j j c b ! ! ) ! ! ! ! m m m m m m ' ] } +.5.8.",
"@.@.@.@.@.@.O.+.+.<.<.<.<.<.<.<.+.+.+.@.@.o.o.o.o.o.o.o.}  .@.@.@. .} } } } | { ] ] ] ] ] ] ] ] ] ] ] ] { } } }  . .@.O.O.O.O.O.O.O.O.O.@.@.@.@.+.+.+.O.@.@.@.@.} } } { ) ! m m b v c c N p p p p p i i i i i i i p p p d z z z [ X.5.b.!./.).}.|.|.3X3X3X3X3X3X3X3X0X0X0X0X0X0X0XfXfXgXMXfX0X0X|./.;.v M M M c c z z z z z j j d p p p p p p p a a p a p p p p a d d c d s d d d d d d d d s s d g g d g v F g g g g g g s F | v d ..8.d g s s s s s s g g g g d g g g g s 1 y 1 : 1 < : ; > < y y : s y ; 1 ; ; : 1 y y : % : ; ; : : : : : : : 1 1 : ; : : : : : : : y y 1 a d y y d 1 1 a y s y d y y a y y d v v d p a d c c d c c v M m v M m ] L L L m L L | } 8.6./.!.{./.+.}.{.9.`. Xb.8.*.5.*.X.*.X.X. .X.| +.} } 8.8. .} O.*.} O.5.6. .+.5.+.+.+.O.+.9.8.9.9.<.+.O.@.@.@.@.@.@.@.@.O.O.O.@.@.@.@.@.@.O.O. .O.@.} } o.} } O.+.5.9.8.8.8.5.+.+.+.+.<.5.<.+.@.O.O.} { ] ! m c i u t 5 5 * * * * * * * * & & * * 5 5 * * 5 * * * 5 5 5 5 5 5 5 5 5 5 5 5 5 5 5 5 w w w w w w w w w w w w w u u u u u u u u u u u l l j j k x b b Q Q b b b b b b b b b b x k j j j j j j j j j j j j p i i i j j z b m ! ! ) ! ! ! m m m m m m m ! { O.0.6.b.",
"@.@.@.@.@.+.<.<.4.4.4.4.4.4.4.1.<.<.1.1.<.<.+.o.o.o.o.o.o.} } o.} } } } } } | { ] ] ] ] ] ) ) ) ) ] ] ] ] | } }  . . . . .O.O.O.O.O.O.O.O.O.O.O.O.O.@.@.@.@.@.O.} } } { ) ! m M b c c p p p p p i i i i t t t t a p p p p p z z d M [ +.9.b./.^.`.}.|.|.3X3X3X3X3X3X3X3X0X0X0X0X0X0X0XdXgX0X3X X|.~.;.M M M M c c z z z p p j j p p p p p a a a a a a a a a a a a a a d s s s s a a s d g d s s d v v d s s s s g g g g g F L F g 1 D 8.F g F s s s s s d d g g g g g g d s 1 1 > ; : y : : : > < y > s y : : > : O 1 g y ; % % % % : : : : : ; : : 1 : : : : : : : : : 1 s 1 y s y a d a 1 a y y y d a y y y s d c d s p z p d d d c v v v M M M M L L L L M L D [ | ;.6.^.8.`.8.} b.^./.gXdX^.).8.5.X.*.*.+.*.+.+.X.6.M O.^.|.+. .8.!.O.8.!.8.9.!.8.5.O.5.5.5.E.8.5.5.+.+.@.O.O.@.@.O.@.@.@.@.O.O.@.} @.} } } } } } } } } { { } } } } <.5.5.5.5.<.+.+.<.5.7.7.5.5.<.<.+.O.o.{ ] m c i t t 5 * * * * * * * * * & & * * 5 5 * * 5 * * * 5 5 5 5 5 5 5 5 5 5 5 5 5 5 5 5 w w w w w w w w w w w w w u w u u u u u u u u u h h j j j k b b Q Q ~ ~ b b b b b b b b b b b k j j j j j j j j j p p i i i j c c n ! ! ! ! ! ! ! m m m m m m m ] } O.5.9.!.",
"@.@.@.@.<.<.5.5.7.7.7.7.7.7.7.7.3.3.7.7.7.4.<.<.2.+.+.+.@.o.} } } } } } } } } { { ] ] ] ) ) ) ) ] ] ] ] ] { } } } } } } @.@.@.} @.@.} } } } @.@.O.O.@.@.@.@.O.O.} } } ] ! ! m M v c c N p p p p i i i i t t t t t i p p p z z z a z M L X.;.8.!./.).`.}.}.3X3X3X3X3X3X3X0X0X0X0X0X0X0X0XfX0X3X}.`.C.*.M M M M c c z z z p p d d p p p a a a a a a a a a i i i a a a a a s s s a y y s d g d s s g D D g y 1 s s s s s s g | L g y y s d F D s g s s s s s s s d g g s s s s 1 ; ; ; : 1 1 : ; ; : y : 1 y 1 ; : ; ; g s : % ; % % % % * : : ; ; * % : : : : : ; : : : : : d y 1 y s a s d y s y y d a s y y y y d d s d d a a a d d d v m m v m m v m L L ] L m D L |  .5.9.9.fX!.+.{.8.}.|.{.9./.8.^.[ *.5.*.;.5.*.*./.+.!.3XdX8.6.^.^.8.|.}.`.{.0Xb.b.^.5.E.b.^.!.9.5.+.+.+.O.O.O.O.O.@.@.@.O.O.O.@.} } } o.o.} } } o.o.{ { { ] { { } } @.+.+.<.+.+.<.5.5.9.8.8.8.9.5.5.<.O.} ] ! c i t 5 5 * 5 5 5 5 * * * * & & & & 5 5 5 * 5 5 * * 5 5 5 5 5 5 5 5 5 5 5 w w w 5 5 w w w w w w w w w w w w u u u u u u u u u u u u u u l j j j j b ~ ~ ~ b b b b b ~ b ~ ~ ~ b b x x x j j j j j j j p p p j j c c b m ! ! ] ! ! m n m n n m m m ! ] } +.5.9.!.",
"+.+.+.@.4.7.7.7.7.7.7.7.7.7.7.7.7.7.7.7.7.7.7.1.<.<.<.<.+.@.} } o.} } } } } { { { ] ] ) ) ) ) ) ! ! ! ! ] { { } } } } } } } } } } } o.o.} o.o.} @.O.+.O.@.@.O.O.O.} } { ! ! m b c j N p p p i i i i i t t t t t t t a p p z c d z z z z D | *.6.b.!./.).{.|.3X3X3X3X0X0X0X0X0X0X0X0X0X0X0X0X X'.`.C.*.D v v b c c z z z p p d d p p a a a i i i i i i i i a t i a a a a a a s d s y s s s s s s g L L g d s f g g g s d g L g s s < y g g s s y s s s s s s y s g s s y y y 1 ; ; ; : 1 1 > ; % ; y 1 > 1 y % : 1 1 g 1 ; % ; % % % % % * * % % % % % : : : : ; ; : : : : d y : : a a 1 v d d y y d y s y y y y s d d c d a a a a c d v m M v M M v m m D [ L m M D [ | *.*.b.dX!. .3X).{.{.DX5./.5.!.X.*.6.*.5.6.;.5.}.6.3XSXfX{.^./.^.).hXdXgXhX0X^./.{.{./.|. X{.!.8.+.+.+.+.O.O.O.O.O.O.O.O.} @.} } } } } } } } { { { { { { ! ! ] { { { }  .O.O.<.5.9.8.8.8.E.E.8.8.9.5.<.O.{ ! z u t 5 5 * 5 5 5 5 & * * * & & & & 5 5 5 5 5 5 * * 5 5 5 5 5 5 5 5 5 5 5 w w w 5 5 w w w w w w w w u u w w u u u u u u u u u u u u u u l l j j j j k b b b b b ~ ~ ~ b ~ ~ ~ b b b x x j j j j j j j j p i j j c b b ! ! ! ! ! ! m n n n n m m ! ] } O.0.5.8.~.",
"+.+.<.4.7.7.7.7.7.7.3.3.7.7.7.7.7.7.7.7.7.7.7.7.7.7.7.5.5.<.+.@.@.@.} } } { ] ] { ] { ] ] ! ! ! ! ! ! ! ! ] ] { } { { { { { { { { { ] ] { { { { } } O.O.O.O.O.O.} o.{ ] ! m m v j p p i i i t t i t t t t t t t t t i i d c c p a p p p c v L  .5.6.C.~.).`.}.|. X3X0X0X0X0X0X0X0X0XfXfXdX0X X`.^.C.;.L M v v c c c c d p p p p p p p a i i i i i i i i i t t i a a a a a a d c d a a a y y d d s d g v F F F v F F v F v s < v D s 1 < v g g g s s s y s s g v d s s y y y 1 : ; ; ; 1 1 1 : ; ; 1 s ; : y % : : y s ; % % ; % % % % % % * % % O O % : : * ; * ; : : : 1 d s : : s a : 1 c y y y d y d a y y 1 y d s d d a y a a c d v v v v m M v M m m [ L M M M L [ X.+.5.b.*.[ /./. X|.^.8.6.C.;.8.} 9.5./.!.b.!. XX.|.KXMX3XgX}.).MXhXKXMXhXhXdX{.{.LX0XHXhXDX|./.8.9.5.O.+.+.O.} @.@.} } } } } } } o.o.o.{ { ] ] ] ] ] { ] ! ) ) ! ! ! ! o.O.+.+.5.7.8.8.E.E.!.E.E.8.<.@.{ ! z u 5 5 5 * & & & * & & & & & & & & & & & & 5 * * * * * * * 5 5 5 5 5 5 5 w t t t t w w w t w w w w t t t t t t t t u u u u u u u u u u i i l l j j j j x b b b ~ n ~ ~ ~ ~ ~ ~ b b x k j j j j j j j j j j j j c c n ! ! ! ! ! ! m m m ~ ~ ! ! ! ] } +.5.9.8./.",
"2.<.1.7.7.7.7.7.7.7.3.3.7.7.7.7.7.7.7.7.7.7.7.7.7.7.7.7.7.5.4.<.+.@.@.} } | { { ] ] { ] { ! ! ! ! ! ! ! ! ! ! ) ] ] ] ! ! m m m m ! m m m m m m ! { } } } } } } { { ] ! ! m M c p i i i t t t t t t t t t t t t t t i i d c c p p a p p d c c v D O.5.8.!./.).`.}. X3X3X0X0X0X0X|.0X0X0XdX0X X`./.!.*.L v v c c c c z d p p p p p p a i i i a a a a a a a t a i a a a a a a d d d d s a s d g v y y s s v v v v F g L v X.F s g v v s g g d d g y y y y s s d d s y d s y y 1 : ; ; : 1 < y < : ; : s ; > y ; : : : y % % % % % % % % % % % % % % % % % * : % ; ; ; : 1 a d d y y y y 1 % d v s y d y d a y y y y a y d s s y y a v d c v v v v v v m m m ] D M v M D L | X.9.!.8.D 5.|.^.{./.*.b.9.+.6.*.*././.}.fX).gXdX~.FXSX{.gXJX/.FXSXLXKXhXLXjXhXgXJXKXKXDXKXhX X{.!.8.5.+.O.O.O.} } } } } } } } } o.o.o.{ ] { { { { ] ] ] ] ) ) ! ! ! ! ] { } @.+.<.5.5.8.8.E.E.!.8.5.+.{ ! j u 5 5 * * & & & * & & & & & & & & & & & & 5 5 * * 5 5 * * 5 5 5 5 5 5 5 5 t t w t t t w w w w w w t t t t t t t t u u u u u u u u u u i i l i j i l l j j b b b b b ~ ~ ~ ~ ~ b b x k j j j j j j j j j j i j c c n ! ! ! ! ! ! m m m ~ n ! ! ! { O.+.5.8.C./.",
"2.<.1.7.7.7.7.7.7.7.3.3.7.7.7.7.7.7.7.7.7.7.7.7.7.7.7.7.7.7.7.5.4.<.+.@.@.o.o.| { ] { { { ! ! ! ! ! ! ! ! ! ! ! ! ! m n b b c c c c c c c c c b b ! ) ] { { { ] ] ) ! ! m m b z p i i i t t t t t t t t t t t t t t i i d v v d a p d d z z d d c D  .;.9.C.~.^.).}.|. X3X0X0X0X3X X X0X0X0X X}./.C.+.D v c c c c c z d p p p p a a a i i i a a i i a a t i i t a a a y a d a a d c g g d g c g s s y s d g g g v v s | s g g < s > [ s s s s s s y y s s s y s s y d y y y 1 > ; ; : : : 1 1 1 ; % 1 ; > : : : : ; : % % % % % % % % % % % % % % % % O % : % * * ; : y s s s d y 1 1 y : y v s a d s d s y y y y 1 y s s s y y y v v d c v v v v v m m m ] D M v M M L L } 5.C.5.5.*.*././.{.+./.5.6.9.+.!.!.|.SXfX{.hXDX!.KXDX8.DX3X/.KXdXJXKXdXKX XJXgXKXDXKXKXKXKXDXSX X{.UX;. . .+.} } } } } } } } } { { { { { { ) ) ! ! ! ! ! ! ! ! ! ! ! ! ! ! ] { @.O.<.5.7.8.8.8.8.5.<.} ! j u 5 5 * * * * * & & & * & & & * * * * & & * * * * * 5 5 5 5 5 w w w w t w w w w w t t t w t t t t u u u u t t u u u u u u u u u u u u i i i i i i i i i j j j b b b b ~ ~ ~ ~ b b x x z z j j N j j j j j j z c b n ! ! ! ! ! ! m m m m m m m ! { O.<.6.C.!.^.",
"<.1.1.7.7.7.7.7.7.7.3.3.7.7.7.7.7.7.7.7.7.7.7.7.7.7.7.7.7.7.7.7.7.5.4.<.+.@.@.o.{ { { { ! ! ! ! ! ! ! ! m m m m m n b c z j j j j j j j j j j j z b n m ! ! ! ! ! ! ! ! m m c j i i i i t t t t t t t t * * t t t t i i d c v c p d z z z z z d v v M L X.5.b.C.~.).{.|. X3X0X0X0X0X3X|.|. X|.`.~.C.X.M v v c c z d p p p a a a a a i i i a i i a i a i a i i t a y t y a d c d d c g g d d g g g g d s d v v g y g F g s s s < ; > D s y y y y y y y s s s 1 1 y s s y < < 1 > ; ; : : ; ; ; ; ; O ; : : : : : : % ; % % ; % % % % % % % % % % % % % % + % : % * ; : y y 1 1 s s : : a d : s s d s s d a y y y y 1 y y y a y 1 y v v s c v v v v v m M m ] m v v M M D D L O.5. .O.+.D b.!.9.0.5.X.9.+.6.9.|.|.JXSX XdXKX{.KXdX{.dX{.{.DXgXDXLX XHX^.DXPXKXHXKXKXKXKXHXHXDXjX!.6.}  .5.O.} } } @.} } { { { { { { { ) ! ! ! ! ! ! ! ! ! ! ! ! m m m m m ! ] { } +.<.5.5.7.5.5.<.} ! j t 5 5 * * * * * & & & * & & & * * * * & & * * * * * * 5 5 5 5 w w w w t w w w w w t t t w t t t t u u u u t t u u u u u u u u u u u u i i i i i i i i i i j j j j b b b b b b b b x x z z j j N N N j j j j j c b n ! ! ! ! ! ! m m m m m m m ] } O.5.9.!.!.^.",
"<.1.1.7.7.7.7.7.7.7.3.3.7.7.7.7.7.7.7.7.7.7.7.7.7.7.7.7.7.7.7.7.7.7.7.4.<.2.2.@.o.{ ' ' ' ! ! ! ! ! ! m m m n n n b c z j i u w 5 5 t t t t u u i j c c b b m m m M M M b c j i i i i t t t B B B * B B * * * t t t i p p z c c z c c c z z v c c c c c v | ;.9.b.!.^.`.{. X|. X0XdXfX0X X|.`.`.C.5.} v v v c c d p p a a i a a i i i i a a a a a i a a a a a i y y t a a d c d d d d d s d g g v v v d g v v g v v X. .1 g g g ; 1 g d v 1 1 v y s s y s y 1 > y g y < 1 < 1 1 : ; : : ; ; % : : ; % : : > : : : O : % % % % % % % % % % % % % % % % % $ X : % : : ; % ; 1 y y * % : y s 1 y d d d d d a y y 1 y 1 y y y y y y a v v s d v c v v m m M m L m v v m m D D ]  .X.] X.*.[ b.8.5.b./.O.5.5.6.6.^.dXdXKXMX0XKXdXHX|.DX3X!.^.dXFXJXHXKXHX^.KXKXKXJXKXKXKXKXKXDXKXgX{.5.+.+.+.O.} } { O.} ] ] { { { { ) ) ! ! ! ! ! ! m ! ! ! ! ! ! m m m m m m ! ! ! ] } O.+.<.<.+.} m j i t 5 5 5 5 5 5 * * * & & & * * * * * * * 5 * * * * 5 5 5 5 5 5 w w t t t w w w w w t t t w t t w w t t t u t t t t u u u u u u u u i i i i i i i i j j j j j j j j j z x b b b b b x x z z j z z z j j j j j c c b m ! ) ) ! ! ! m m m m m ! ! { O.5.6.9.!./.^.",
"<.1.7.7.3.3.7.7.7.7.3.3.7.7.7.7.7.7.7.7.7.7.7.7.7.7.7.7.7.7.7.7.7.7.7.7.1.<.<.2.o.{ { ' ! ! ! ! ! ! ! n m n n n n b z z p i t w 5 5 5 5 t t 5 5 t u i j j c b n M b v c c z i i i i t t B * * * * * * * * * * t t t i p a p z c c c c c c c v c c c c c d v D } ;.8.C./.~.`. X}. X3X0X0X0X0X|.{.~.5.[ d v c c c z p d a a a a t i i i i a a a a a i a a a y a y y d c d d d d a a a a a y y s d g v v v v g g F D v F | D d v g 1 y s d s d d s y s s y y y y 1 < g y < 1 1 1 1 1 ; : 1 ; ; % ; : s ; % ; : : : : O y ; X X X + + % % % % % % % % % % % % X % : : : * % * y a y : % * 1 y y y y y v d d y y 1 1 y y y t y a y y a s c s c m c c v m m M m L m M m D D D D D |  .] } +.[ 5.*.8.5.8.+.6.8. .*.dX X3XJXSXfXFXhXSXdX|.{.!.gX^.gXKXHXKXKXhXKXKXJXJXKXKXKXKXKXDXKXdX^.8.5.+.+.O.} { { o.{ ! { { ) ) ! ) ! ! ! ! ! ! ! m m m ! m m m n m m m m m m m m m ) ] } } } { ! b j u t 5 5 5 5 5 5 * * * & & & * * * * * * * * 5 5 * * * * 5 5 5 w w t t t t t w w w w t t t t t t w w t t t t t t t t u u u u u u u u i i i i i i i i j j j j j j j j j j j x b b b x x x z z z z z z j j N N j c b b ! ! ! ! ! ! m n M m m ! ! ] } O.5.9.8.!./.^.",
"1.1.3.7.3.3.7.7.3.3.3.3.7.7.7.7.7.7.7.7.7.7.7.7.7.7.7.7.7.7.7.7.7.7.7.7.7.1.<.<.2.o.' ' ! ~ ~ ! ! ! ! ~ m n n n n b c z p i u w 5 5 5 5 t 5 5 5 5 t t u i j c b b c c z z i i i i u t t t B * * * * * * * * * t t t i i a a p d c c c c c c v c c c c c d a a c L *.6.9.~.C.).|.|.|. X0X0X0X X`.~.;.D v v c c c c a M p a a t t i i i i a t t a i a y y y y y y a d c d a a y y y a y y y < y y y g F v F g g F | *.v g g v d D g s s d s g g < y s y y y y y 1 1 s g s 1 1 1 < < : ; : ; % ; % % : ; : : ; % : y : % % X o X X X X + + + + + + % + % % % $ X * : * % % % y a y 1 ; % : : y y y y s y g d y : y y 1 1 1 y y a a y y d d c m d c v D L M v L L m m D D D v m [ | ] D  .[ 5.X.9.*.5.+.5.9.9.!.hX).DXgX^.).gXSXDXDX3X3X X XhXHXKXDXKX{.KXHXKXJXKXKXKXKXKXJXJXFXDXfX`.9.O.O.} | ] ] { ! ! { ] ) ) ) ! ! ! ! ! ! ! ! m m m m b n b b n m m m m m m m m m m ) ] ] m b c i u t 0 0 5 5 5 5 5 5 * * & & & * * * * * * * 5 5 5 * 5 5 5 5 5 w t t u u u u w t w w w w w w w w w w t t t t t u t u u u u u i i i i i i i i i i p p j j j j j j j j j j x x x x x x x x x x z z z z j j j j c c b m ! ! ! ! ! m m m m m ! m ] { } +.5.9.C.~.^.`.",
"1.7.7.7.7.7.7.7.3.3.3.3.7.7.7.7.7.7.7.7.7.7.7.7.7.7.7.7.7.7.7.7.7.7.7.7.7.4.1.<.2.o.o.' ' ! ~ ! ! ! ! ~ n n n n n b c z j i u w 5 5 5 5 t 5 5 5 5 t t t i j z c c c c j p i i i u t t t t B * * * * * * * * B t t t i i a a a p z c c c c c c c c c c d d a y p y F  .*.8.C.C.^.`.}. X3X X0X|.^.~.*.D L c z z p M a m p a a t y i i i i a t t a i i y t t 1 t a a a a a a a y y y y y a s s s y < g F F g F F g  .*.v ..v g g 1 F g s s g g d s y y y y y y y y < < v y 1 1 1 1 1 : ; : ; % ; % ; : % ; > ; % : : % % ; % O X X X + o X X X X + + X % % % % % % % ; % % % y a 1 : : % * ; : y : y y c d d y : y y 1 1 1 y a a a a a y a d v d c v D D v v m L m m m D D v v L [ ] m } [ 9.5.6.*.X.X. .+.5.^. X^.DXjX`.|.DXDXDXMX{.gX9.JX).JXhXKXKX{.KXJXKXKXKXKXKXKXJXJXJXdXFXgX X8.+.+.+.O.} | ] ! ] { ] ) ) ! ! ! ! ! ! ! ! ! m m m m n n b b m m m m m m m m m m m m m m c z j i u t t t 5 5 5 5 5 5 * * & & & * * * * * * * 5 5 * * 5 5 5 5 w t t t u u u u t t w w w w w w w w w w t t t t t u t u u u u u i i i i i i i i i i p p j j j j j j j j j j x x x x x x x x x x z z z z j j j j c b n ! ! ! ! ! ! m m m m m ! ! ] { @.+.6.8.C./.^.`.",
"3.3.7.3.7.3.3.3.3.3.3.3.7.7.7.7.7.7.7.7.7.7.7.7.7.7.7.7.7.7.7.7.7.7.7.7.7.1.1.1.<.o.o.{ { ^ ! ! ! ~ ! ! n b b b b b c c z p i u t t t * 5 5 5 5 5 w t u i j c m M b c p i i i i t t t t t t * * : : : * 0 0 : t t a i a a a p p z c c c c z z z z d p a a a a y a a d F ;.6.b.C.C.`.}.}.).|.|.).C.+.D d c z a a a d M d a a t y a a a a a t t y a a a a a : t a y 1 1 y y y y y y y a s s s s y y s g d y g v g F g d d v v D v 1 1 < < ; : y s y y y y y < y y y 1 : 1 : : ; : : : : : : ; ; ; > : ; ; : > % : : % % % % O X o X % o X X X X X + X + % % * : % % ; * + % y y 1 : : * % % % 1 : y y y d d y : 1 1 1 1 1 y a a y t y t t a M d c v M D v v D D D m m m m m M D ] ] m [ L +.5.+.X. .[ ] } X.~.!.5.^.3X}./.KX XFXdXgX^.} hX}.JXDXJX3XhXLXJXKXJXKXKXKXKXKXKXHXDX0XMX|.9.5.5.<.+.+.O.] ! } ] ) ! ! ! b m ! ! ! m m m m m m n n b n n b b m m m m m m m m ! n b b z j j i u u u 0 0 0 5 5 5 * * * & & * * & & * * 5 5 5 5 5 5 5 5 5 w u u u u u u u u u u t w w w w w w w w w w u u u u u u u u u i i i i i i i i i i j j j j j j j j j j j j j j x x z z b z z x x z z j j j j j z z b b m ! ! ! ! ! m m M m m m ! ! ] } O.5.9.8.!.^.).).",
"3.3.7.3.7.3.3.3.3.3.3.3.7.7.7.7.7.7.7.7.7.7.7.7.7.7.7.7.7.7.7.7.7.7.7.7.7.1.1.1.<.<.2.o.{ { { { ! ! ! ! n b b b b b c c b c j u t t t * 5 5 5 5 5 t u p j v m ] ! m c p i i t t t t t t t t t * : : : : 0 0 t t t a i a a a p a d c c z z d p p p p a a y y y y y y a a v [ +.9.9.C.^.`.^.{.}.^.8.+.D z c d a i a c v s y y y y a a a t a t 1 y a a a a a t y a y 1 y y y y y y y y y y a a y a g v D F L F g F g F D F ..+.D d [ s : 1 : : < y y y y s y y y y s s < 1 1 1 : ; : : : : : : ; ; : : : ; ; : : > : % % % ; O X X X + o o X X X X X X X $ : 0 + X + ; * O % y y 1 : : y % O % 1 1 y : y d d 1 * : 1 1 1 1 t a a t t t t t a m d c c c v M m D D m m m M M m M D ] [ D [ D +.6.} +.} ] [ X.5.9.9.9.6.{.!.8.FX{.3X3XhX5.O.hX{.gXKXLX}.dXDXKXKXHXKXKXKXKXKXKXFXGX`. X^.5.5.9.5.5.+.+.} } } ! ! ! ! ! b n ! ) ! ! m m m m m n M M n n n b m m m m m m n n m n b b j j i i u u u u u u w t w 5 5 5 5 5 * * & & * * 5 5 5 5 5 5 5 5 5 w u u u u u u u u u t t w w w w w w w w w w u u u u u u u u u i i i i i i i i i i j j j j j j j j j j j j j j x x z z b z x x x z z j z j j j z z b b ! ! ! ! ! ! m n M M m m ! ' {  .+.5.9.!./.^.).).",
"3.3.3.3.7.1.3.3.3.3.3.3.3.3.7.7.7.7.7.7.7.3.7.7.7.7.7.7.7.7.7.7.7.7.7.7.7.3.1.1.1.<.<.2.o.o.{ { { ! ! ! n b b b b b b b b b z i t t t 5 5 * * * 5 t i c b m ] { ] ! b p i u t t t t t i t t t t : : : : : : t t t a i a a a a a a z z d p a a a a i a y t t 1 1 1 < < y 1 s D X.9.8.8.8.^.~.`./.9.X.M c z d a a 1 v D a y y y y a a t t t t 1 y a y y a a a y a y y y 1 1 y a a y 1 y y y y y c v D L D D g d g 1 g v d [ 9.*.v [ L F < 1 1 1 1 y y y s d s 1 1 y s y y y < 1 : : : : : : : 1 1 : : : ; ; > : : : % ; > ; O O % + o X o X X X X X + X + % *   X + * * % * y 1 s d d s % + ; : y 1 : : s d 1 ; : 1 1 1 : 1 a a 1 : y t t a M d c c c c v D D D D D L L ] ] ] | | [ M D M *.0.] 5.[ ) | +.5.9.9.*.6./.*.*. Xb.{.dX.X) O.}.}.{.HXDX!.hXDXKXJXDXKXKXKXKXGXGXGXGX(.6.C.9.8.8.E.8.5.<.} +.} ] ! ! ! ! b n ! ] ) ! ! m m b n b M b M M b b n m n n b b n n b b b b j j j i i u u u t t t t t t w 5 5 5 5 * * * * 5 5 5 5 5 5 5 5 5 w w u u u u u u u u u u t w 5 5 w w 5 5 w w w u u u u u u u u u i i i i i i i i i i j j j j j j j j j j j z z z b b b b b b b b b x x z z z j j z j b ! ! ! ! ! ! ! m n m m m ! ! ' } O.5.9.8.!./.^.`.).",
"3.3.3.3.7.1.3.3.3.3.3.3.3.3.7.7.7.7.7.3.3.3.3.3.3.3.7.7.7.7.7.7.7.7.7.7.7.3.1.1.1.1.<.<.2.@.o.o.{ { ) ! n b b b b b b b b b c N i t t 5 * * * * 5 t i v m ] { } { ! b p i t t t t t i i t t t t t t : * : : : t t t i i a a a a a p p p p a a a a a y t 1 : : : 1 1 1 < 1 y d v ] ;.5.;.C.9./.b.6. .M z d d a a : D D a y y y y t t t t t t 1 y y t t t a a a t 1 1 1 : : y s s y 1 1 1 y y y v g v F v g D L D g L D y < g ..+.D D L | y 1 : : y y y y g s 1 > > > : : y y 1 > : : : : : < 1 y y : : : ; ; : : > ; ; ; ; % % % % o + .   X X X X $ + X X o X X % % % % * 1 : y y y 1 ; % : ; 1 : ; : y d 1 * * : 1 1 : : t y 1 : t t t a m d d d d c v m D v M v v v v v v m D D v D M 5.O.[ 5.) D } +.5.5.9.+.5.5.+.6.8.b.+.{.9.M O.8./.DXdXhX3XDX3XJXHXDXKXKXKXGXGXGXaXrX`.;.6.8./.8./.E.9.5.O.5.O.} ! ! ! ! b n ! ] ) ! ! m b b b b M b M M b b n m m b b b b b b b b j j j j i i u u u u u t t t t t t w 5 5 5 5 * * * 5 5 5 5 5 5 5 5 w w u u u i u u u u u u 5 w 5 5 5 5 5 5 w w w w u u u u u u u u i i i i i i i i i i j j j j j j j j j j j j z z b b b b b b b b b x x z z z z z z z b ! ! ! ! ! m m m n m m m ! ! ] } +.5.b.8.!./.^.`.`.",
"3.3.3.3.3.3.3.3.3.3.3.3.7.7.7.7.7.7.7.3.3.3.3.3.3.3.3.3.3.3.3.3.1.1.1.1.3.1.3.1.1.1.<.<.<.2.+.+.@.o.{ ) ! ~ n n b b b b b b b c p u t 5 * * * * 5 t p v ! ] } } [ ] n p i t t t t i i i a i a t t t t : : : t t t t a a i i a a a a p p p a a t t t t t t 1 * * : : : : : t a c d D } X.5.5.+.5.*.} v s d a a a t D M a y y y y t t t t t t t t y t y 1 y a y 1 1 1 1 1 1 y s s y y 1 1 y y y g g g g g F F L [ g  .6.v  .g s 1 g s F  .[ D < ; y y y s 1 1 1 : ; ; ; ; < y 1 : ; ; ; : : : : ; : 1 1 : : : : : : ; % % % % % O + + + o o o X X X $ $ X o o X $ % % % % % : : y 1 1 : : ; : : : ; * : y s 1 * * * D % * * 1 y : 1 y : t a M d d d d c v D [ v m c c c c c c v v v v m v X.] | [ ) m 5.+.5.8.!.O.@.O.+.5.0.8.5.8.5.M ]  X!.gX!.hX}.MX|.FXGXSXGXKXKXGXGXtX'.`.C.6.;./.^./.!.^.8.5.8.5.9.<.+.O.} } ! ! ! ! ! ! b b b b b b b b b b b b b b b n n n b b b b b c j j j j u u u u u u u u t t u u u t w w 5 5 5 5 5 5 5 5 5 5 5 5 w u u u l j j j j j u u w 5 5 5 5 5 5 5 5 5 w w u u u u u u u i i i l l j j j j j j j j j j j j j j z z z z z z b b b b b b b b b b b x z z z b b b b b ! ~ ! ! m m m m m m M m ' ]  .+.9.8.b.!.^.^.{.{.",
"3.3.3.3.3.3.3.3.3.3.3.3.7.7.7.7.7.7.3.3.3.3.1.1.1.1.1.1.1.1.1.1.1.1.1.1.1.1.1.1.1.1.<.<.<.<.+.+.+.@.o.{ ] ! n n b b b b b c c c j p t t * * * * 5 t i v ! ] } | [ ] n p i t t t t i p p d a i i a t t t t t t t t t t t i i i i i i a a p p i a t t t a y t 1 * : * * * * 1 y a a d c c X.+. .L [ m d y a a a a c m a a y y y y t t t t t t 1 t a a c d s d d y 1 : 1 1 1 y s s y y y y : y y s d d d d v F F L L F X.[ | D v g 1 y : F [ g g y < y y s 1 1 1 > : : : : > < 1 : ; : ; ; ; ; % % % : 1 y 1 : : : : : % % % % O X o X + + X o o X X % $ X X X X + X $ $ $ % : : 1 : : y y 1 ; : : * * : y a 1 * % : a t * % 1 y 1 t a : : a v c d d d c v D [ c M c c c c c c v v v v m v [ [ | D ) { O.5.5.8./.O.O.0.} +.9.8.+.5.} ) 5./.8.|.).^.5.`.gXGXSXSXKXKXSXAX'.~.(.C.!.8.5.^.^.5.E.8.5.8.5.7.5.E.<.+.O.} ] ] ] ] ! m b b b b b b b b b b b b b b b n n n b b b b c j j j j j i u u u u u u u u u u u u u u t t w 5 5 5 5 5 5 5 5 5 w u u u i j x b b b b j j h u w 5 5 5 5 5 5 5 5 5 u t u u u u u i i i i i j j j j j j j j j j j j z j j z z z b b b b b b b b b b b b b x z z z x b b b b b b m m m m m m m m m m ] ] O.5.9.8.!./.^.).{.{.",
"3.3.3.3.3.1.1.1.3.3.3.3.3.3.3.3.7.7.3.3.3.3.1.1.1.<.<.<.<.<.<.<.<.<.<.<.<.<.<.<.<.<.<.<.<.<.+.+.<.+.o.o.{ { ! n b b b b c c c c c c p t t * * * w t i v ! ] } } [ ] M N i t t t t i p N d d d a a i a t t t t t t t a a a i i i a a a a a a d p i a t t t y t 1 : * * * * : 1 a y 1 1 a a v L D v c a a a a a a v c : a y y y y y y t y t t t y y y 1 1 y d d y 1 1 1 1 1 y s d s d d s y y y a s s s s g v F F L D ..d F *.g  .| s y y F > 1 > < y y s 1 1 1 1 1 1 > : : 1 < 1 > > ; O % % % % % % % ; : : : : : > ; % % O X X X X X X X X o o X % % $ X X X X X X + X + ; ; : ; * 1 a a a : o % * : y y y * % : : a : * t y t t a : : a v c d d d c m D m d v d d c c c c v v v v v v M [ | v m X.+.8.5.8.!.O. .} 0.O.9.5.*.9.} v O.!.5.8.5.9.~.5.{.dXfXMXGXMX0X).^.}.b.8.!.8.+.8.5.8.!.E.!.8.8.!.8.!.5.5.<.+.} } } } ] m b b b b b b b b b b b b b b n n n n b b b b c z j j j j i u u u u u u i i i i i i i i u u u u u w 5 5 5 5 5 w u u u i j x b ~ ~ ~ ~ ~ ~ x k u w w w w w w w w w w w u t u u u i i i i i j j j j j j j j z j z z b b x x b b b b b b b b b b b b b b b x x z z x b b b b b b n n m m m m M M m ] ] } +.9.8.!.!.^.).`.{.{.",
"3.3.3.3.1.1.1.1.3.3.3.3.3.3.3.3.3.3.3.3.3.3.1.<.<.<.<.<.<.2.<.<.2.2.<.<.<.<.<.<.<.<.<.<.<.<.<.+.<.<.2.o.o.{ { ! m b b b c c c c c c p i t B * * 5 t p v ! ] } } ] ] M N i t t t t i p N d d d d p p a a i i i t a t a a a a i i a a i a a a d z c d a i y y y t : * * * * : 1 y 1 % * y a % a a d d d s a a a a t d a a t t y y y y y y t t t t : : 1 1 1 y y y y y 1 1 1 y y y y : y y y y a y y y y s d g v F d g X.L : v g v v F g y F y O y < y y s 1 1 1 1 1 1 1 > > : 1 1 1 1 ; O O % O O O O O % % % % % % % % % % O X X + X X o X X X o X + % % X X X X o o X o X % * : : * * * : d y * % * : y y y * % * t : a % 1 t 1 : a : t a v c d d d c D D c d v d d d d c c v v v v v v m [ ] v n +.5.9.5./.8.+.) } +.5.b.*.O.*.m ] ] 8.5.+.+.} !.+.C.`.`. X3X~.C.C.!./.E.7.9.!.+.} /.^./.!.+.8.{.^.^.E.7.9.8.5.<.<.<.<.} ! b b b b b b b b b b b b b b b b b b b b b b b c j j j j i u u u u i i i i p p p i p i i i i u u u u u u u u u u u u i x b ~ ~ ! ^ ' ' ^ ~ ~ k u w w w w w w w w w w w u u u i i i i i i j j j j j j j j j j z z b b x x c b b b b b b b b b b b b x x x x x z x b b b b b b b b m m M M M M m ] ] O.5.9.8.!./.^.).{.{.{.",
"1.1.3.3.1.1.1.3.3.3.3.3.3.3.3.3.3.3.3.1.1.1.<.2.2.2.2.2.2.2.2.2.2.2.2.2.2.2.2.2.<.<.<.<.<.<.<.<.<.<.<.<.@.o.{ { ! b b b c c c c c c p i i t t * 5 t i v ! ] } | ] ' M z a a t t a i p d z z z z z d p p a i i i a a a t a t a a a a a a a a p c v c c p a y y t : * * * % % % o d 1 % : : : 1 y a d d a a a a y y a a y y a a y t y a y t t 1 1 : : 1 1 1 y y y y y y 1 1 1 y y 1 : y a s y s 1 y y y y < g F v d y [ *. .s y g d s s s v v : 1 ; y d ; < 1 1 : : : : : : : > 1 1 y ; % % O O + O O % % % X X % % % % % % % O % % + o o X + X o o o X X X X X X o . X . o % * 1 1 * % % * a y 1 : % % % : y y = % * : : a $ 0 : t a t t a v a d d d d D D d d v d d d d c c c c v v v v D ] v v ] +.9.0.b.!.4.5.M ] } 5.9.+.X.+.) M m 5.+. .[ [ 5.| ;.!.b././.).!.8.6.8.E.<.8.+.O.9././.8.5.9.^.^.E.8./.E.^.!.9.<.9.7.+.+.@.@.! b b n m b b b b b b b b b b b b b b b x z z z j j j i i u u u i i i i p j j j j j j j j j i i u u u u u i i i i l b { 2.2.1.<.2.2.o.{ ^ ~ b l w w w w w w w w w u u u u i i i l l l j j j j j j j j z z z z z z z z b b b c b b b b b b b b b b z x x x z z b b b b b b n n n n n n n n m ' { +.5.8.8.~.^.).{.{.{.{.",
"1.1.1.1.1.1.1.3.3.3.3.3.1.1.1.1.3.1.1.1.1.<.2.o.o.2.2.2.o.o.o.o.2.2.2.2.2.2.2.2.2.2.2.2.2.<.<.2.<.<.+.<.+.@.o.{ { ! n b b b b c c c c j p i u t t u p v ! ] } | ] ' M z a a t t a i p d z z z z z d d p a i i i a a a t t t t a a a t i i a d z z c c c d a y y * * * % + * : % : 1 : : : y y a a a a a a a a y y a a y y a a y t t y a a y y y y 1 1 1 1 y a a a y y y : % d s y y s d s 1 y y y y < y < y g [ d s < L [ s d F L F g < 1 d s s ; ; s s ; : y y < : : : : : : : : y ; ; ; % O O % % O O % X o O % % % % % O O % % X o   o X o o o o . o X X X X o . X . o % * 1 y * % % % 1 p 1 : y % + : y y : % * : : i = : t a d t * : v a d d d d m M d c c d d d d d d c c c c v v m D z v } +.8.+./.9.O.5.M } O.5.5.+.) +.m m ] +.+.) D  .+.[ *.8.9.6.*./.9.8.*.9.9.+.b.5.} 9.5./.8.5.!.E.E.8.^.XX!.^.E.E.<./.E.9.9.<.5.@.] ! ! m m b b b b b b b b b b b b b b x z z N j j j j i i i i i i i p p j j j j j j j j j j j j j j j j j j j j j ~ o.2.<.7.7.1.7.<.2.o.' ^ ~ Q j u w w w u u u u u u u i i i i l l j j j j j j j j z z z z z z z z b b b b b b b b b b b b b x z x x x z z b b b b b b b b n n b b n n m ] { +.5.8.!./.^.{.{.{.{.{.",
"1.1.1.1.1.1.1.1.3.3.3.3.1.1.1.1.1.1.1.1.<.2.o.o.o.o.o.o.o.o.@.@.@.@.@.@.2.2.@.@.2.2.+.+.+.2.2.+.+.+.+.+.<.<.@.o.{ { ' ! b b b b b b b b b c j p i p c b ! ] } { ] ' M N a i t t i i p d c c z z c c d d d i i i a a a t t t a a a i i p c c c c c d d c c z a a * * * % c * + + + * y 1 t y y y a a a a a a a y y a s y t t t t 1 y a a d a y y y 1 1 y y 1 y y y 1 y y a : d 1 1 s s y y y : y y y y y v s s d D y d D +.F d s > d g y 1 y g 1 ; ; d s s y : ; ; : ; ; ; ; ; ; ; 1 ; ; ; % O O % % O % % X o o X X O % O o o % % + X o o o . . o o o . o o o X o . X o . + % * y 1 $ $ % % d y % * d 1 % s s * % * : : t t * a d : * * : c y d c d a c c a c d d d d d d c c c c c v v v m d z +.+.5.5./.<.] O.M O.+.5.+.X.v  .v m } ] ] [ | [ } ) +.6.*.+.9.+.6.5.8.5.<.+.E.9.} ^.+.E.5.E.9.8.9.9./.E.^.!.^.8.9.^.^.E.8.7.9.5.+.} } ] ! ! n b b b b b b b b b b b b b z z j j j j j p p i i i j j j j j j j j z z b z z j j j j j j j z z z z x ! o.1.7.E.E.E.E.E.1.2.2.o.o.' ~ b l h h l l l l l l l i i i i i i j j j j j j j j x x x x b b b b b b b b b b n n n n n b b b b z x x c x b b b b b b b b n n b b n n m ] { +.5.8.!./.^.^.{.{.{.{.",
"1.1.1.1.1.1.1.1.3.3.1.1.1.1.1.1.1.<.1.<.2.o.o.{ { { o.o.o.o.@.@.@.@.@.@.@.@.@.@.@.o.o.@.@.2.+.+.@.@.o.o.2.<.+.+.o.o.{ { ~ ~ b b b m ! ! ! m b c c c c b m ] { ] ] m M c a a a t i i p d z c z z c c d d p p i i a a a t t t t t t i z c M ! m n v c p p p c c c * * * % : a 1 + . * 1 1 1 y y a a a d d a y y y y a a y t t 1 t y a d d c d y y 1 : y g s 1 y y y : y a a y a y 1 y 1 : : y : : y y < < y g g s y 1 1 F D ..D s y F v > v : < : ; < g ; : 1 1 1 1 ; ; ; % % ; % % : % ; : % + X X O % ; ; O o o o o X X O X o O % + % X o o o . . o o . o o o o o . X o o X $ * 1 y + + % + 1 a 1 : : a : y y : % % * : : i : a a : : * : c t d c d a c c c v c d a d c c d d d c c c v v v p z 0.+.} 9.9.} ) ) M +.5.5.+.) m ) v m  .z ] M D X.] D +.*.+.0.5.O.5.9.E.9.| 8.E.O.+.^.{ 5.8.5.9.9.5.!.^.!.^./.{.8.^./.{.E.!./.9.8.5.5.<.+.o.] ! n b b b b b b b b b b b x z z j j j j j j j j p p j j j j j j j z z b b b b x x x b b z z x z z x b ' 2.1.7.E.Q.W.!.W.E.3.1.<.2.o.o.' ^ Q x x k k k k j l l i h i i j j j j j j j j j z z z x b b b b b b b b b b n n n n n b b b c z x x x x b b b b b b b b n n b b n n m ' { O.5.8.8.!./.^.^.^.{.{.",
"<.<.1.1.1.1.1.1.1.1.1.1.1.1.1.1.1.<.<.2.o.{ { { { { { o.o.@.@.@.@.@.@.@.@.@.@.O.@.@.@.@.@.@.@.@.@.@.o.o.@.+.<.2.+.o.o.{ ! ~ ~ ~ ~ ! ! { { ] ! ! n b b n m ! ] ] ] m M c a i i i i a p d z z z z z z d p d p a a a i a t t t t t i p c n ! ) ) ! b c p p a a p c M a * X % + : c 1 1 y + d d d d s s g g y y y y M d y 1 y y 1 t y y y a a y y y 1 : y v s : : y 1 : y s s s y y y y : : : s : : s y < 1 1 s d d y 1 > s v v g s < y d 1 d y 1 d s F y 1 ; ; ; ; 1 ; ; : % % % % % ; % ; ; ; . o o O % : ; X o o o o o o X % o o X X * % X X o . . . . . . . . .   . X X o X $ % 1 a + $ % + * 1 1 1 * $ y a a : % % : : : X : : 0 : 0 * : d a d c a a c v c v c d d d c d d d d d c c c c z p c )  .5.9.+.) ) ] z +.+.+.} c M n c m ) M ) M D } D D  .5.O.+.5.} +.9.5.5.@.5.9.] <.5.7.+.E.5.4.!.8.^.!.8.9..X/.8.8./.^./.!.{.!.!.!.8.5.<.<.4.o.' ' ' ~ ~ ~ b b x x x x x c z N j j j j N N N N N j j j j j j z z z b b b b b b b b b x x x x x x ~ { 2.4.E.E.W.!.W.W.W.W.E.E.7.7.3.1.2.o.{ ^ ~ ~ x x j l l l l i i l j j j j j j j j z z z z z z c b b b b b b b n n n b b b b b b b b b b b b b b b b b b b b b b b b b m ! ] O.+.5.8.E.!.!.^.^.{.{.",
"<.<.1.<.1.1.1.1.1.1.1.1.1.1.1.1.<.<.2.o.{ { ] { { | | { o.o.} } @.@.} } O.O.O.O.} } } @.@.@.@.@.@.@.o.o.o.@.<.<.+.o.o.o.{ ^ ! ! ! ! { { { { { ] ! ! ! m m ! ! ! m M v z a i i i i a p p d z z z z z d p d p p a i i i t t t t t i p b ! ! b ] ) M c j p a 1 : 1 a v a a 1 : * % d L v y d d d d s s d s a y y y d c a : y y a a y 1 : : : : 1 1 1 1 y d s : : : : 1 1 1 y y y y y y : : y s s s s y < 1 1 < y s s 1 < y v g s s F 1 1 : y s s s v y 1 1 ; ; ; ; : ; % : : % % % ; ; % ; + ; O o o X % > % o o o o o o o X % X o . o % % % + o . . . . . . .   . . . X X o o $ $ 1 a % % % + * * * : : * : a y 0 % % = : : % : 0 t : t : : a a c c a d c v d v d c v v d a a a a d c c c z p d v ] +.5.+.! ) +.n m ) 5.) ) c ) M b m ! m M M D [ D ) +.5.) +.5.+.5.5.8.5.<.+.5.} 5.} @.@.8.5.E.8.5.!.E.7./.^.7.8.8.8.^.E.^.{./.^.^.!.8.8.8.4.<.@.o.{ ' ' ! ~ ~ b b x x x b z N j j j j j N N N N N z j j j j z z z z b b b b b b b b b b b b b b ~ { 2.1.E.E.Q.[.[.W.W.W.Q.W.E.E.E.E.3.1.<.2.o.^ ~ ~ ~ x k j l l l l j j j j j j j j z z z z z z c b b b b b n b n n n b b b b b b b b b b b b b b b b b b b b b b b b b m ! ] } } +.5.9.8.E.!.!.^.^.",
"<.<.<.<.1.1.1.1.1.1.1.1.1.1.1.1.<.2.o.o.{ { ] ] { { | | | | { { } } } } } } } } } } } } @.@.} } } @.@.@.o.o.+.2.2.+.@.o.o.^ ^ ^ ^ { { { { { { { ! ! ! ! ! m m m M n c p a i i i a a p p d d z z z z z p d p p p a i i t t t t t i j b ) } @.m m b c j i y y 1 * * * c a * : : * % a y a d d d d s s y y y y y y a d d y y y y y y y y y y 1 1 1 y y y a s > > y y s s 1 : 1 y y s y : y y s v d s y < 1 1 1 < s s y 1 > d s s y v 1 1 : ; d g y v 1 : ; O O O % ; ; % : < ; % % ; : ; ; X O ; X o o O : % o o o o o o o o X % o . o X % * ; O . o + + X o o o   .   X X o o $ $ : 1 * % % % o % d % X * % t a y % % = : = = % t a : a : : : t c c a d v v a d d D d a d d a y a d c c c d a z m ] X.5.) +.) ) m m ) 5.z M M ] M b m ! M c M D m D D 0.+.m +.*.+.5.<.5.o.5.5.{ 5.8.o.{ @.5.9.E.<.5.8.9.7.^./.8.5.5.8.^.8.^.{.^.{.{.^./.!.E.5.9.7.5.+.o.{ ' ' ! ~ ~ b x b c z N j j j j j j N N N z z N z j j j z z z b b b b b b b b ~ ~ ~ ~ ~ ~ ! o.o.<.7.E.E.W.W.W.[.Q.[.[.[.!.Q.W.E.E.7.1.1.2.o.{ ' ~ ~ x l j l l l j j j j j j j z z z z c c c c b b b b n n n n n b b b b b b b b b b b b b b b b b b b b b b b b b m m ! { { o.@.<.5.9.8.8.!./.",
"<.<.<.<.1.1.1.1.1.1.1.1.1.1.1.<.2.o.o.{ { { ] ] { { [ [ [ [ [ [ | | | } } } } } } } @.} } @.@.} } } @.@.@.@.o.+.+.+.2.@.o.{ { { { { { { { { { ) ) ) ) ! ! m b b v v c p a i i i a a p p d d z z z z z p d p p p a a i i t t t t i j b ) } } } m M c p t t y p a % : * a y 1 * % : + * : d d c d d s y 1 y y y a a y a d d s y y y y s s y y y y y y y a y > : y a 1 : : : : y y y y y 1 : y v d s y < 1 1 1 < y y < 1 > s y y 1 < y d 1 : s v s 1 d 1 O + + + O O % ; : 1 ; % % ; : % ; O o % ; O . o : % o o o o o o o o o : o o + . X 1 y : X . . . . . . . . . . o X o o $ + : : 1 % * %   + * 1 1 % $ : 0 y % % = = = ; % 0 a : a 0 * : t d c a d c c y a d v v d a a a y a d c d d a a z m } ] { | O.{ ) { c } ) c c v } m b m m M a M D v D D 6.X.) *.@.| 5.9.+.@.8.O.] 5.<.@.} 8.<.5.<.+.E.9.5.!.E.!.} 7.E.8.E.^.^. X^.{.{.^.!.8.8.!.Q.8.8.7.7.<.@.o.' ! ~ b b b b z j j j j j j j j N N z z N N j j z z z z b b b b b b b b ! ! ! ! ! ! ' { o.2.1.1.7.E.E.W.W.[.[.[.[.[.[.[.!.W.W.E.E.7.1.<.2.o.' ~ x x l l l l j j j j j j z z z z c c c c b b b b n n n n n b b b b b b b b b b b b b b b b b b b b b b b b b m m ! ! ! ] { } O.+.5.5.8.E.",
"<.<.1.1.1.1.1.1.1.1.1.1.1.<.<.<.2.o.{ { ] { ] ] ] ] { { ] ] ] ] ] ] ] ] | | } } } } } } } } } } } } } } @.o.@.o.o.@.@.@.o.o.{ { { { { { { { { { { { ! ! ! m n b c c c p a i i a a a p p d d z z z z c c j z p p a a p i a t t i j z b ! @.+.@.} ! M j t * t * = * * % % 1 y : % % 1 : % y s v M v g y 1 1 y y y s y s d c d s y y a s s y y y y < 1 1 y y : ; > : : 1 1 : : 1 y < 1 < 1 1 < d s s y y 1 1 y y 1 1 1 > > 1 y < < 1 1 1 1 1 y s s < s y % O O + X + % ; < 1 ; ; ; ; : % ; % o O 1 % . o 1 % o . o o o o o o o o o o o .   . : * X . . . . . . . . . .   o X X + X % : y % 1 * o + o y * $ $ % : : * % % % % : % : : : a : : : y y s d c d s a y d c c a a a a a a d d d a a a z M ] D m { | ] ! { b ! i c c c } m c M m b M m m v D X.5.+.[ *. . .7.<.O.5.5.@.{ o.O.' 0.8.8.@.{ +.8.O.8.7.!.E.} 8.9.5.8./..X{.^.Q.!.!.7.!.XX{././.Q.!.Q.8.7.<.@.{ { { ~ ~ b x j j j j j j x x z z z z z z z z z z z z x x b b b b b ~ ! ! ! ! ' ' ' { o.o.2.<.1.7.E.E.E.W.W.Q.[.[.[.[.[.[.[.[.Q.W.E.E.3.<.2.o.' ~ ~ ~ x j j j j j j j j j j j z z b b b b b n n n n n n b b b b b b b b b b b b b b b b b b b b b b b n n n n ! ! ! ! ] { } } O.+.5.5.",
"<.<.<.<.<.<.1.1.1.1.<.<.<.<.2.2.o.{ { ' ] { ] ] ] ] ] ] ] ] ] ] ] ] ] ] ] ] [ | | | } } } } } } } } } } @.@.@.@.@.o.o.o.o.o.o.{ { { { { { { { { { { ! ! ! ! m b v c c p a i i a a a p p d d z z z z c c j z p p p p p i i i i i j z b ! } O.O.} | ) c p t : % - $ % : : % o : % * : : % y d v F F s < s y y y y s s s d d d s s a a a y y y y y y 1 1 < y 1 : > : > 1 < 1 1 1 < < 1 1 1 : 1 y y y y y 1 > 1 1 1 > : : : 1 < < 1 ; ; ; ; : ; O % ; 1 y y ; O O X + % ; < 1 O ; ; : 1 % O % + O 1 % X X y % o . . . o o o o o o o o o     . X : o : . . . . . . . . .   o X X X X X : y * : * + + + : * $ % X y * : * % % * : : : : : s : : : a y y d v c s y y s d a a a y a a a a a a a a a z c v M [ ] ] ] ] | m t c z c c | c c M m M m ) M c v X.5. .[ *. .+.9.+.+.5.4.~ ! 5.} { 5.9.<.m { 8.5.+.<.E.!.O.+.!.5.!.7.!.^./.5.8.8.7.8./.^./.!././.^./.!.E.8.7.<.+.o.{ ! ! b b z z j j j j j z z z z z z j z z z z z x x b b b b b b ! ! ! ^ { { { { o.o.o.2.1.1.3.E.E.E.W.Q.!.[.[.[.[.[.[.[.[.[.[.W.E.E.3.1.2.o.o.^ ~ x k j j j j j j j j j z z b b b c b n n n n n n b b b b b b b b b b b b b b b b b b b b b b b n n n n ! ! ! ! ! ! ] ] } } O.O.",
"<.<.<.<.<.<.<.<.<.<.<.<.<.2.2.o.o.{ ' ! ] ] ] ] ] ] ] ] ] ] ] ] ] ] ] ] ] ] ] ] ] ] ] ] } } } } } } } } @.@.@.@.@.@.o.o.o.o.{ { { { { { { ^ ^ ^ { ) ! ! ! ! m b v c c p p i i a p p p p d d d z z z c c p d z z p p p p a a p j j z b ! } @.O.@.| ) c p * * * * * % % : : a * a 1 * ; : d d g g g v d > y < y y y s s d d d s s s s a y y y y y < < 1 1 y < < : ; ; : 1 1 < < y y y 1 : ; : : 1 < y y < : ; ; 1 1 : : : 1 < < y % % % % % % + o X ; : y 1 ; O + X O % 1 1 O % ; ; ; ; O O ; O ; % % % y % o . . o o o . o . o o o o o o . . % o : % X o . . . . . . . o X X X X . : t * % : * % % % * % % X y * t : : * : : : * : : y : : : y : y a D d a y y s a a y t y a a a a a y y a d z c v M ] D ] ] m m M c c m M c ) z c M m c d n ) [ D  .9.D | O.+.0.5.} +.+.{ ] { +.<.m O.9.{ ' } 9.m O.5.!.8.{ 9.!.+.!.7.!./.8.O.8.!.8..X.X.X.X!.^..XXX[.[./.!.Q.8.7.<.+.o.{ ! ~ b b z z j z z N z z z z z j j j z z x b b b b b b b ~ ! ! ! ! { { o.o.o.o.2.2.<.1.1.3.7.E.E.E.E.W.[.[.[.[.[.[.[.[.[.[.Q.W.W.E.3.1.2.o.' ~ b x j j j j j j j j x x b b b c b b n n n n b b b b b b b b b b b b b b b b b b n n n n n n n n ! ! ! ! m ! ! ! ! ! ] { { } ",
"2.2.2.2.2.2.2.2.2.2.2.2.2.@.o.o.{ ' ! ! ! ' ] ] ' ' ] ] ] ] ] ] ] ] q.] ] ] ] ] ] ] ] ] ] ] } } } } } } } } } @.@.@.@.o.o.o.{ { { { { { ^ ^ ^ ^ { ) ^ ! ! ! n b v c c p p i i a p p d d d d d z d z c c d d z z p p p p d z z p j z b n ) @.+.O.] m z t t * = $ : : : * * * y 1 d * % 1 g d d v v g s y y < y s y s d d d d s s s s y < y y y y y y y y y y < < y s d d y y y s s y 1 > ; ; : : 1 < y 1 : % % 1 > : 1 : 1 < < 1 ; ; ; ; ; ; % + X o O : 1 : ; + X X + ; ; O O % % O : % % ; ; % % ; : s ; O . . o o . . . . o o . . o o . o . + + 1 1 + . . . . . . . . X X - X . : * 1 o : : + * $ * % % % * : t : : * : % % % = y : y y : a t a y ] y y a a a a t t t t y y y y a t : a d z z z c M ] ] M c m b p z M M M M p c M M z z n D D v *.*.D | } 9. .<.n o.{ { ] { } O.' O.0.<.m ! 4.] +.7.<.} 7.E.8.} 8.8.^.^.7.5.!.E./.XX.X.X!..X.X.XXXXXXXXX^.^.!.E.8.7.<.@.o.{ ! ! b b z z z N N x z z z z z j j z x b b b b b b b ~ ~ ~ ! ! { { { o.o.o.2.2.<.1.1.3.3.7.E.E.E.E.W.Q.[.[.[.[.[.[.[.[.[.[.Q.W.W.E.1.<.o.{ ! b z j j j j j j j x x b b b c b b b b b b b b b b b b b b b b b b b b b b b b n n n n n n n n ! ! ! ! ! m ! ! ! ! ! ! ! ! ",
"2.2.2.2.2.2.2.2.2.2.2.2.2.o.o.o.{ ! ! ! ! ! ) ] ' ] ] ] ] ] ] ' ) D m m m m m m m ) ] ] ] ] [ [ } } } } } } } } } } } @.o.o.o.{ { { { { { { { { { { { { ! ! m b b v c z p p a i a p p p d d d z p p p p d d d d d d d z z z j p j z c n ! ) } @.] M c * - % % * t * % % * * * * v y : % y d d g v g s s y < s s < s d s y s s g d s y 1 > y s y y y y y y y y y y < < < y y y y y < > < y : > ; 1 y y > : % ; : 1 : 1 1 1 1 < 1 : ; % % % ; % O + X X % ; : ; O X o X % ; O O O O + ; ; % ; ; X O % > s : % . . o o . . . . . . . . o o . . o X + % : y . . .   X . . . X - X X o : + y o % 1 o * $ % * % % % t t : : * % % % % % y : : : : y : s a [ y y y y y a t y 1 t t t t t a a t a z z z d d M ) D v z m v d c v M M c d c M v p M v ) D v 9. .v D @.5.) b ! 8.] } x ! @.] 5.+.m +.} } O.{ 5.8.O.! 5.+.O.} 7.5.7.5.9.+.9.E.^./..XE.XXXX.XXXXX.X.X.X{.XX^./.!.E.7.7.5.<.+.{ ' ! m b z j j x x x x k j x x x b b b b b b b ~ ~ ~ ~ ~ ! { { o.o.o.2.<.<.<.1.1.1.1.7.7.7.7.E.E.E.W.[.[.[.[.[.[.XXXX[.[.[.[.Q.E.7.<.{ ' ~ x z j j z z z z x x z z b b b b b b b b b b b b b b b b b b b b b b b b n n n n n ~ ~ ~ ! ! ! ! ~ ! ! ! ! ! ! ! ! ' ' ' ",
"2.2.2.2.2.2.2.2.2.2.2.o.o.o.o.{ ! ! ! ! ! ! ! ! ! ! m m ] ] ! ! D D m m m m m m m D ] ] ] ] ] ] { | } } } } } } } } } } o.o.o.{ { { { { { { { { { { { { ! ! ! b b v c z p d p a i a a p d d z z p p d p p p d d d d z z z z j p j z c m ) ! ! ] ) c c = X $ % * * t t % + + + + y c ; : y d g v g g s y y : g y 1 y s s s s y y s s y 1 : y s y 1 < y y y y y y y y < 1 : > > : < > > < < < : > > y s ; ; ; ; ; < y : < y ; s 1 ; % O + O % ; % O + X X O % ; % O X X O % O O O + X O % % % : X o O > s % % . . o o . . . . . . . . . . . . . . % o + y y *   . . . X X - X X X X % : 1 $ % 1 + * $ % * * % * : 0 : : * % % % % % : : % = s : y y s v s a y y y a t a : : t t y y t a v z d d a a a v M M M z n z M M c c v z d c M c p v z D M v  .D v M +.+.) b 4.} ] o.~ { @.! +.} b m 8.} m ] 8.+.} ! 9.+.] @.+.!.<.E.5.5.5.!.8./.Q.Q.XX.X[.XX{..X.X.X.X.X{.XX^./.!.E.E.9.7.<.2.o.{ ' n x z x x x x k k x x x b b b b b b b ~ ~ ~ ~ ~ ! { { o.o.2.2.<.<.<.1.1.1.1.1.1.3.3.7.E.E.E.E.W.Q.[.[.[.[.XXXXXX[.[.[.W.E.3.2.' ~ x z z j z z z z x x z z b b b b b b b b b b b b b b b b b b b b b b b b n n n n ~ ~ ! ! ! ! ! ! ! ! ! ! ! ! ! ! ' ' ' ' ",
"2.2.2.2.2.2.2.2.2.2.o.o.o.o.{ ' ! n n ~ ! ! m m m m M M m m m m m m m m m D m m m m m D ] ] ] ] ] ] | | | } } } } } } } } { { { { { { { { { { { { { { { ! ! ! n b b b c c c d p a i a a p p d z z d d d p d p p z z z c z z z j z z c m ) ! b n M p p $ - - - - : % % y : : : : % g 1 : y d g g g g s y < 1 s < 1 : < s s y 1 1 y s y < y s y 1 1 1 < < < < y 1 1 1 1 : : : > > > : : ; ; % O % ; y s ; ; : : ; > y : < < 1 y 1 ; % O + O O % ; ; O + X X + O % % O X O % % O + X O + O O O : O X X > s O O % . o o . . . . . . . . . . . . . . . % % + : % a % . . o X . . . . $ X y 1 * % 1 * * $ $ % * % * : 0 : 0 * % % % % % : : : * % a y y d a a a t t a a t y : : 1 t t t y a a a d p a a a z z z i ) z a v m c z z d z c v c a z d D v v d D v D +.} ) ! @.) <.b j ! ! O.<.] ] } +.{ b } <.<.! } 7.} { } 8.5.8.8.5.+.8.8.E./.8.XXXX!.!.XX.X.X.X.X.X.X.X.X.X{.XX^./.Q.E.7.7.4.+.o.{ ! n x z x x k k x x b b b b b b b ~ ~ ~ ~ ~ ~ { { o.o.2.2.2.2.<.<.<.1.1.1.1.1.1.3.3.7.E.E.E.E.E.E.Q.[.[.[.[.XX[.[.[.!.E.7.<.' ~ x z z z z z z z x x z z b b b b b b b b b b b b b b b b b b b b b b ~ ~ ! ! n n m m ! ! ! ! ! ! ! ! ! ! ! ! ! ! ' ' ' ' ",
"2.2.2.2.2.o.o.o.o.o.o.o.{ ' ! ! n b n n b b b M b M M M m m m m m m m m m m m m m m m m m ) ] ] ] ] ] ] { | } } } } } } o.{ { { { { { { { { { { ) { { { ! ! ! n b b b c c c z p p i i a a a p d z d d d d p p j z z d c z z c z z z c M n n n n c p i X -   . . X % : : % % % % % : g < y d g g g g s y 1 : y 1 : ; : s : 1 1 y y y s y s s s : ; : 1 1 1 > y 1 1 1 1 1 : > ; ; ; < < ; ; ; ; ; % 1 1 : ; 1 : ; : : < 1 1 d ; 1 ; % O + O + O % ; % O + + X + % ; % O O O % O O O ; ; O X O : % % O ; s X o > . o o . . . . . . . . o . . o . . o X + X X y % % % X . . . . . . o % 1 1 1 $ : 1 * % $ % * % * t : : t * % % % $ % : : : % % s y a y y d d t : a y t a : : : : t t y a a a z z i t t d d a p m a z i ) z v z a d c v c a d a v c v s | M [  .| m ) 5.) ] n b ] ! } @.] m +.} m b { } <.! +.} ] +.7.+.9.8.5.! <.8.8.Q.7.XXXX8.!.^.XXXX.X.X.X.X.X.X.X.X.X.X{.XX[./.Q.E.8.7.4.+.o.{ ! n x z k k x x x b b b b b b ~ ~ ~ ~ ! ! { o.o.2.2.o.2.2.2.2.2.<.1.1.1.1.1.1.1.3.7.7.7.E.E.E.E.Q.[.[.[.[.[.[.!.!.E.7.<.' ~ x z z z z x z z x x z z b b b b b b b b b b b b b b b b b b b b b b ~ ~ ! ! n n m m ! ! ! ! ! ! ! ! ! ! ! ! ! ! ' ' ' ' ",
"2.2.2.2.2.o.o.' ' ' ' ' ' ~ ~ n b b b b b b b b v v b b b M M m M M m m m m m m m m m m m m m ) ) ) ] ] ] ] ] [ | } } } } } { } { { { { { ) { { { { ' ' ^ ! ~ ~ b b b c c c z p a a i i a a p p p p p d z z z z d d z z c c c c c c c b b b c z j i a z : % % $ X X % y % % ; ; % ; < s s g g F s g g y 1 : 1 : 1 ; : : : 1 < < y y s s s s s < 1 1 : : < < s < 1 1 1 1 1 : > > ; < : % ; ; % % % % : : : < : ; ; ; < 1 1 > : : ; ; O O O X X % % O O O O O + ; ; ; % O O % O + X % : O X X : % ; % % y % . + % o o . . . . . . . . . . . o % : . X % o % o * X X : t . . .   o . *   1 : % : d % $ X $ % % X y : : t : % % % $ % : 0 : % % y y t y y d d t : : t t a : : : : y y y t t a s s a y y s s p p v a d a D v v z i p z c d p d ) D d D v v F ) +.) [ ) o.! b z b n ! O.] m m +.m c ! ] } { } O.) ) 5.<.<.!.5.~ o.8./.4.7.E.!.8.E.Q.XXXXXXXX.XXXXXXXsXsXsXsX.X.X.XXXXX{.XX/.!.E.8.5.+.o.{ ! b x x j z b b b b b b ~ ~ ~ ~ ~ ! ^ { o.o.o.o.2.2.2.2.o.2.2.<.<.<.1.1.1.1.3.3.3.3.7.E.E.E.E.E.E.Q.Q.W.E.E.E.3.<.o.~ ~ b x j j b z b b x x b b b b b b b b b b b b b b b b ~ ~ n n n n n n ~ ~ m m ! ! ! ! ! ! { { { { { { ' ' ] ' ! ! ! ! { { ",
"2.2.2.2.2.2.o.' ' ' ' ' ' ! n n b b b b b b b v v c c c b b b M M M M M m M m m m m m m m m m m D D ) ] ] ] ] ] ] [ } } } } { { { { { { { ) { { { { ' ' ^ ^ ~ ~ b b b c c c z d p a i i a a a p p p p p z z d d d d z z c c c c b b b b b b c j u 5 : t y v y : $ X X X 1 y 1 < < ; : < < s F L s g v g 1 1 1 1 : : : : 1 1 1 < y y s s s y s g v d 1 ; < v s : : ; ; ; < s s > ; : > O ; ; % % ; : 1 1 < < > ; ; : 1 < < > : ; ; : ; O O X X O O + + O O O + O % % ; ; ; % O X X O % O O + ; O % % % 1 > o X * o o o . . . . . . . . . . . . . o + o o + * + : * X % 0 o .   X . $ o 1 % : 1 1 X o o X o : X y % * y : % % $ + % * : 0 : % t y y a a a a t : t y t a t : : : 0 y t y y y y t y y y t s p i d a p c D v v v a i c z p a a ) s d L v g v  .*.F +.m ) M j z b n ! { m c M ! c c ] } { ) +.! m 5.7.8.8.8.! { 7.E.<.+.8.8.E.^.Q..XXXXXXXXXXX[.[.XX.X.X.XsXsX.X.X.X.X.X.XXXXX[.!.E.8.4.O.o.{ ! ~ b b b b b b b b ~ ~ ~ ~ ~ ~ ^ ' { o.o.o.o.o.2.@.@.@.2.<.<.<.<.<.<.1.1.1.1.1.7.7.E.E.E.E.E.E.E.E.E.E.1.2.o.' ! ~ b b b b z z b b b b b b b b b b b b b b b b ~ b b b ~ ~ n n n n m ! n n m m ! ! ! ! ! { { { { { { { { { { { { ' ' ' { { ",
"o.o.o.o.o.o.o.' ' ' ' ' ' ! ~ n b c c c c c c v c c c c v v b b M v M M M M M M M M M M M M M m m m m D ) ] ] ] ] ] { } { } } { } } { { { ) { { { { { ' { ! ! ~ ~ b b c c c c z c d a a a a a p p p p p d d d d d d c c c c b b b n n n m n b j t * * t * * d : y y y : : y s y s < 1 < < s g L F g g g d y < 1 1 : : : : < < y s y y s s y s g d s s s s y ; y ; ; ; ; ; % % ; ; > ; + ; ; % % ; ; 1 < < ; ; ; ; : : y < > ; ; ; ; : ; % % % + + + + + O + X o + % ; ; % % % O O + X % % + ; o % X % : : % . : % . o . . . . . . . . o o . . . o + o o . o . % d % . % % o . . o   o 1 * y 1 % X X X X X X y : % % 0 = % % $ X $ % : : : : y a a : y t y 1 : y a : y y t : : : : 0 y y y : : t a t y t a a a a a v v v v v a a d a y y v [ d D F c d v  .) ) [ v z z i z c M m ) M c m ! ! ]  .c { M c b ! @.!.!.8.! ! <.Q.7.{ 8.!.E.!.E.!./.[.XXXX[.[.XX.X.X.X.X.X.XsXsXsX.X.XsXsX.X.XXXXX[.!.8.7.4.O.@.o.] ! ! ~ b b b b b ~ ~ ~ ~ ~ ~ ^ { { o.o.o.o.o.o.2.2.2.<.<.<.<.<.<.<.1.1.1.1.1.3.7.7.E.E.E.E.E.E.E.7.1.2.o.o.{ { ' ' { ' ! ~ b n n n n ~ ~ n b b b b b b ~ ~ ~ ~ ~ ~ ! ~ n ~ ! ! ! ! ! ! ! ! ! ! ! ! { { { o.o.o.o.o.} } { { { { { { { ] ",
"o.o.o.o.o.o.o.' ' ' ' ' ! ~ n b c c c z c c c c c z c c c c v v c c v v v v v v v v v M M M M M m m m m m m D D ] ] ] ] ] { } { } } { { { { { { { { { { { ! ~ ~ ~ b b c c z c z c z p i a a a a a p p p p p d d d d c z c c b b m m m m ! m b j u 5 : t t * % v y y y y ; ; 1 y g g 2 < s d d g  .F s s g s y 1 : ; ; ; 1 < < s s y y y y s y < 1 < y y 1 ; : 1 : : : ; ; ; : > ; : ; + ; % O O O % ; : : + X % ; ; : 1 1 : ; ; % O ; : % : ; + + + + O + X o o X O O O O + ; ; ; O o O O X ; o o o % : : ; X % % X   . . . . . . . . . . . . . . . o X o . % % % : o o X % o . + . - 1 1 : : : - X + X X % y : $ % : % % % X X X % % : : * t : : a y : : : t y : % : t y : : : : : y a y : : y t t y y t a a y a v v m v c a a a a y t v z d v s y g ) | +. .[ a p a a c c M m ] ! ) | m ! ! m { ] z c ! } 5.8.8.} b { 7.!.! <.Q.7.8.!.E.!.[.[.XX[.[.[.XX.XXX[.[..X.XsXsXsXsXsXsXsXsXsX.X.XXXXX/.Q.E.7.7.4.O.o.{ { ! ~ b b b ~ ~ ~ ~ ~ ! ~ ' { { o.o.o.o.o.2.2.2.2.<.<.<.<.<.<.<.<.<.1.1.1.1.7.E.E.E.E.E.E.7.7.3.1.<.2.+.+.@.@.+.@.{ ' ! ! ! ! ! ! ! ! ~ b b b b b b b ~ ~ ~ ~ ! ~ n n ! ! ! ! ! ! ! ! ! ' { { { { o.o.o.o.o.o.o.o.o.o.o.{ { { { { ",
"' ' o.o.o.o.o.o.o.' ' ' ^ ~ b b z c c N c c c c c j c c z j j j c c c c c c v v v v v v M M M M m m m m m m m m m ) ] ] ] { ] { { { { ] { ] { { { { { { { ! ~ ~ ~ b b c c z z c c z p a a a a i a a a p p p p p p p p d z c M m ! m m ! m m n ! p t : : : t : y y y 1 : : 1 y g Z g s s s s s s g g s s d s s y : : ; ; y 1 1 s s y y y y < 1 : : : 1 1 1 : y : ; ; : : > : s 1 < > ; % ; O + O % O % ; : % + O O ; : : 1 : ; % % % % ; 1 s s : X O X + X o o o X X O O O O ; : : O X + O O ; X o . O 1 ; . X + % % X o . . . . . . . . . . o o . . o o o o o o X : ; X o + . . o . o : y * : % $ $ $ $ X X : : % $ X % : % X $ X $ % t y % : * * a a : : : a : * $ % : t : : : : : 0 a y ; : y y a : : : y s t y d v D v d a y y y s s d v v y y y c d X.M } | c c c c c v n n M M M M p z ] m O.n j n { o.5.5.o.b ! } 5.{ ! +.E.E.E.7.7.Q.[.[.[.Q.Q.[.Q.[.[.[.XX.X.X.XsXsXsXsXsXsXsXjXsXsX.X.XXX[.!.E.E.7.5.5.@.o.{ ! ~ b b b ~ ~ ~ ~ ~ ~ ' { o.o.o.o.o.o.@.@.2.2.2.2.<.<.<.<.<.<.<.1.<.1.1.1.7.7.7.7.7.7.7.7.7.7.5.7.2.4.7.7.<.+.+.@.o.{ { { { { { { { ! ! ! ! ~ ~ ~ ~ ~ ! ! ! ! ! ! ! ! ! ! ! ! ! ! ' { { o.o.o.o.o.o.o.2.2.@.@.@.@.@.o.o.{ { { ",
"' ' ' ' o.' ' ' o.' ' ' ~ ~ b b N N N N c c c j j p j j p p p p p p j j d c c v v v v v v v v M M M m m m m m m m m m D ] ] ] ] ] ] ] ] ] ] ] ] { { { ] ) ! ~ b b b c c z p p d p p p z d a t a a a p p p p p p p d d c v a v M m m m m ! m m m v a : * : t v y s d d d s s s s s < > < s s s < < < s s s s s a < 1 : : < y y s d s s y y < < : : 1 1 : 1 s g ; O % ; : < s ; : ; ; > ; % O % ; : ; O O % O O O O % ; : 1 : ; ; : : ; % ; X % s < X O . o o . o o X X O % ; % ; % O O O O ; 1 % o . O : : . o o + % % X . . . . . . . . % . . o . . . . o o o o % . : ; X . $ . o % . : : : : % % % $ $ $ X % % % $ X % : % X % X X % y y % : % % t a t : : a : % % * : 0 * : : : : : y y > : y a a y : 0 y d s y s v m v a a y y s *.d a [ m : c y d y | D +.| c c c c c z c c c c v v p b c { ) j j ) O.+.5.} b @.o.+.<.{ ! o.4.8.4.4.<.7.7.3.3.E.[.XXXX[.[..XXX.X.X.XsXsXsXsX.XsXsXXXsXsX.X.X.XXXXX[.^.!.E.E.7.+.o.{ ~ b b b ~ ~ ~ ~ ~ ~ ' { o.o.o.o.o.@.@.2.2.2.2.2.<.<.1.1.1.<.<.<.<.<.1.1.3.3.3.7.7.7.7.7.7.7.5.7.<.E.Q.8.9.5.<.+.@.@.o.o.o.} } o.o.o.o.o.o.{ { { { ! ~ ! ! ! ! ! ! ! ! ! ! ' ! { { { o.o.o.@.2.+.+.+.+.+.+.+.+.+.+.@.o.o.o.} ",
"' ' ' ' ' ' o.o.o.' ' ' ~ ~ b x N N N N j p p p p i p p p p i i i i i i p p p c c c c c c c c v v v M M M M m m m m m m ! ! ! ) m m ! ! ] ) ] ) ) ! ! ! m ! b b b b c z z p a i a a a i a d z i i a p p p p p p p d d c v M p v ! ! m ! ! ! ! m v z a * % y % * % : : : s s s s < : : < s s s < < < s s s y s s s < 1 1 y s d s 1 > 1 < y s 1 % O % % % > g d ; y y y y y ; : ; y : ; O O ; > ; O % ; ; % O + + O % ; : 1 : ; % O % ; : 1 1 ; ; y y o X o o . o o o X X O ; O : 1 % X X O O O < O o X : : o . . o + % O X . . . . . . . % . . o . . . . o o o o o + . : o + . X   % . : * y * * % % % $ $ * X X : % % * : % $ % X + + : : = t % $ : a y t t a : % % * : : : : : * = : t y : : y a y y : : y d s s c v v z a a y a d d a c m a d c y d y *.v D M c c c z z d d d z z z z i m M ] b j b } O.} @.n { m @.+.n n { 5.<.2.7.<.4.7.!.E.[.[.[.[.[.XX.XXX.X.X.X.XsXsXsXXX[.sXsXXXsXsXsX.X.X.X.XXX.XXX^.!.Q.7.<.@.! b b b b ~ ~ ~ ~ ^ ' { o.o.o.o.o.@.@.@.2.2.2.2.2.1.1.1.1.<.<.<.2.2.1.1.1.1.3.3.3.3.3.7.5.5.5.7.4.Q./.Q.E.8.7.5.+.+.@.@.+.+.<.<.<.<.<.<.<.<.+.+.o.o.{ ! ~ ! ! ! ! ' ] { { { { { { o.@.@.@.2.+.+.+.+.+.+.+.+.+.+.+.+.+.@.@.o.",
"^ ' ' ' ' ' ' ' o.' ' ' ~ ~ b b N N N N j p p p p p p p p i i i i i i i a a p p j j p j d d z c c c v v v M M M m m m m M m m m m m m m ! ! ] ! ! ! m m m b b b b b c c z p a i i i i i a a a a a p d p p p d z z d d c c M v c M m m m ! ! m ! z z p t d : : : ; : : : : 1 < 1 < < y s s y s s d g s s y a y a s < : : 1 s d y 1 : : > < s d 1 : : ; % > F 1 1 s y : ; ; ; ; ; > > ; ; ; < > % % % % O O O X + O % ; : : : ; % O X o o o O ; % ; : 1 % o o . o X o X X O : O : 1 ; X . o O X ; % o o ; y o . . . o + O X . . . . . . . . . . . . . . . o X X . o o % X % . X o $   - * % y * : % $ % + X : X X : % % % * % % % X % $ * : : y % % : t t : : a : % % % : : : : : * * : y y 0 0 y y y y : 0 y z s s v v v s y y : a s y v v D t v y y v d ] d M a v v v c p p p d z d p d t !  .c n b ] O.! b ) b b } { ! b n { <.@.4.3.3.8.XXQ.[.[.[.[.Q.[.[.[.XX.X.X.X.X.XsX.X[..XsX[.sXsXsXsXsX.XsXsXsX X X.X^.^.!.9.<.{ ~ n b b b ~ ~ ~ ^ ' { o.o.o.o.o.@.@.@.2.2.2.2.2.<.1.1.1.1.1.<.2.<.<.<.1.1.1.1.1.1.1.1.5.5.7.4.7.E././.!.!.E.8.5.<.<.<.<.4.5.5.5.5.7.7.5.5.<.<.<.<.o.{ { { ! ! ] { { { { { { { o.o.@.@.@.2.+.+.+.+.2.+.+.+.+.+.+.+.+.@.@.@.",
"^ ' ' ' ' ' o.o.o.' ' ^ ~ ~ b z N N N j j j p p i i i i i i i i i i p i i i p i i i i p p p p p z c c c b b M M M M M M M M M M M M M M m m m M M M M M M b b b b b c c z p a i a a i i a t t t y a d a a a d c c c c c c v v v M n m ! ) ! ! M v m m c s s a y a : d a v d y 1 1 1 1 s s s s d y 1 F s y y d d s y 1 : 1 < ; ; : 1 1 1 1 < : ; ; : : : 1 1 y s ; ; ; ; : : % ; % O ; % 1 < O % O O O O O O + + O O ; ; ; ; ; ; 1 O X % O + + + . X ; 1 O o o . o . O X + : O : : % O . . X O : > o . % y O . . o o o X X o . . . . . . . . o . . . . . o % + . o X + % % : . X % ; X : + ; : : % + ; + o * + + * % % % % % % % $ % $ % % : y % % : a y : : a * % % % : : : : : = = : y y : 0 y y t t 1 1 a c a d v v a a t : t a s y y y a : y y s g d d a a d c c c p i i p z c p p p p ) O.c c n } ] c c c c } +.z m c x b ' <.7.7.E.[.[.[.Q.[.Q.Q.[.[.[.[.XXXX.X.X.X.XXXXX[.XXsX.XsXsXsXsXsXsXsXsXsXsXsX X.X{.^.!.7.<.o.! b b ~ ~ ~ ~ ! ' { { o.o.o.o.o.@.o.2.2.2.2.2.2.1.1.1.1.1.<.<.<.<.<.<.<.<.<.<.<.<.7.5.E.E.E.E.8.E.!.^.!.!.E.<.<.<.<.4.5.7.7.7.7.7.8.E.8.7.7.7.1.<.2.@.o.{ { { { { o.o.o.o.o.@.@.@.@.2.2.+.@.O.O.<.<.<.+.+.+.+.+.+.<.<.+.",
"^ ^ ' ' ' ' ' ' ' ' ' ^ ~ ~ b z z N N j j j p i i i i i i i i i i i p i i i i i i i i i i i i i p p z c c c c c c c c c v v v v v v v v M M M M M M M M M M b M b b c c z p a i t t t t t t t t : y a a a d d a d d d c c v v v c M n m ! ) ] } M ) D v d a y : : y s 1 y  ...y < 1 < < y v F F < y < d s s ; ; s s < 1 1 1 : ; ; 1 y y < 1 : ; O + O O O % % % : 1 < 1 % ; s ; y y % % : O ; O + X X + + O % X X O ; % % ; ; ; : % O O ; + o X O O X X 1 : % O . . ; % O % O : % O % o . . X O % X o o 1 % . . o o o o o X o . . . . . . . o o . . . .   % + . . o X + X 1 % o + % : $ % % : : ; % y ; % % + + % % % % % % % % $ $ % % $ t s X 1 : d d * a : : * % * : : : : : * : : t t : : t y t 1 t t a c a a c d a a t : t a s y y y a : y y s D a a a a a a a i i i i p z c p p p z b ! M z m ] m c c c c @.+.b b n ! ' o.7.3.7.!.Q.!.Q.3.E.[.[.[.[.[.[.XX.X.XXXXX[.sXsX[.sX[..XsXsXsXsXsXsXsXsXsXsXsXsXsX.XXX/.E.5.+.{ b b b b ~ ~ ~ ~ ' { o.o.o.o.o.o.o.2.2.2.@.2.2.<.<.1.1.1.1.1.1.<.2.2.2.+.2.<.2.<.7.E./.!.E.8.8.8.8.8.7.7.4.<.<.<.<.<.4.5.5.7.8.E.E.E.E.E.E.E.7.7.1.<.2.o.o.o.o.o.o.o.o.@.@.@.@.@.@.2.2.+.+.O.O.<.2.<.+.+.+.+.+.+.<.<.<.",
"^ ^ ' ' ' ' ' ' ' ' ^ ^ ! ~ b z N p p p j j i i i i i i i i i i i i i i i u u i u u u u i i i i i i p p z z z z z z c c z c c c c c v v v v b M M M M M M M b b b b c c c p a a t t t t t t t t : a a y t y d c d d d c v v v v t p m ] } { ) m a c c a : ; % % y y d [ L s ; : 1 1 < < s s g L ..g v D d 1 s : y s y 1 : : ; ; ; ; y y y 1 : ; ; ; ; ; % O + + 1 < < < ; ; O y ; . O < O X ; X o o o o o + : X o O ; O % : ; ; ; ; % X ; O o . O X . . o % O X X o O o O ; X ; % o % + . . . o X % o . ; % X o o o o o o o X o . . . . . . . o . . . . .   o o o o o X X o s o . X : $ : : y s y 1 y : % X o . X % * % % % % % $ $ % % % : y $ y t a a * a : : * % = : : : : : : * : : : t : s : : 1 t t a c a a d a y y t : t s s y y y s 0 a D a 5.y a a i t t t t t i i p z z p p b M p z z z ) ! z b b c c ! n i u n { o.o.<.7.Q.7.7.3.<.E.Q.[.Q.Q.[.[.[.XXXXXX[.[.sX.X.X[..X[..X.X.X.X.X.XsXsXsXsXsX0XdXdXsX.X^.!.8.<.{ b b b ~ ~ ~ ~ ! ' { o.o.o.o.o.o.o.o.o.o.o.@.2.<.<.<.<.1.1.1.<.<.2.o.+.<.1.5.4.7.E.[..X^.!.Q.E.7.4.+.@.@.@.@.+.+.+.+.<.5.7.7.7.8.E.E.!.!.!.!.E.E.7.4.<.+.@.o.o.o.o.o.o.@.o.@.@.+.+.2.2.2.2.+.+.+.<.+.+.+.+.+.+.+.+.<.<.",
"^ ^ ' ' ' ' ' ' ' ^ ^ ^ ! ~ b z N p p p j i i i i i i i i i i i i i i t t t t t t t t t t t u u i i p p p p p p p p p p p z c c c c c c c c v v b b M b M M b b b b b b c p a t t : 0 0 0 t t t t a a a a a a p a a d c c c v c z c c z M ) D D z v v d * : a d s v y s s y 1 : : > 1 < < d d s *...g [ | F y : < y y 1 > : ; ; ; ; 1 y y 1 1 ; ; ; ; ; : ; % % % % ; ; : : : % % O g O X % o o o . . . . o : X o O % o O : ; % % : % o O O + . o o o o o O : ; o . % O O ; X O % . O % o . . . . % X . % O X o o o . . o . o o o . . . . . . . . . . . . . . o X o o o   + % : . o   1 o % % : y : y y y : 1 % % * : * * % % % % $ % % : % : : y * t : * : t * % $ % : : : : : = * : : : : : d : : : 1 t a c a y a a t t : : t a s y y t a 0 s v d X.: a a a a t t t a t i p p p i p M ] i p p b m c j b b c c c c b c b o.<.o.' E.8.7.2.3.3.Q.Q.Q.Q.[.XXXX[.[.[.[.XXXXXXXX.X[.XX[..XXX.X.X.X.XsXsXsXsX0XdXdXjXsX X{.^.!.7.@.~ b b b ~ ~ ~ ! ' { o.o.o.o.o.o.o.o.o.o.o.o.@.<.<.<.<.<.1.1.<.2.2.+.<.7.7.E.E.!.XX.XsX{.^./.!.8.<.@.@.@.@.@.@.@.@.O.+.<.5.7.7.7.7.E.Q.!.!.!.!.Q.E.7.5.<.<.o.o.o.o.o.o.@.o.@.@.+.+.2.2.2.2.+.+.+.+.+.+.+.+.+.+.+.+.<.<.",
"^ ^ ^ ' ' ^ ' ' ' ^ ^ ^ ~ ~ x z j j j i i i i i i i i i i i u u u u t t t t t t t t t t t t t t t t i i i i i i i i p p i a p d z z c c c c c v v v v v b b b b b b b c c p p i t 0 t 0 t t t t t a a p a a a a a a s d d s d z v v v v v v D [ D v D v y a d s y y y s y 1 s 1 > 1 y y y < s g v F D < 9.*.F y y y y < < 1 : ; ; ; 1 y s y y s : % % : 1 : % % % O ; O 1 X . X ; s O % X X o o o o o . . . ; O O O O . X < ; ; O O % + + + + o o o o o O . o ; ; X O % X ; O . ; o o O o . . . o O O X X X o o o . . . . . . . o . . . . . . . . . . . . . . . o + . + . o % : % o . + + o + % : % : 1 y : 1 : : : : * % % * % % X X % t % % a : % : = ; % : : % $ % : : : : : * % : : % : : d : : : : t t t y y a a : : : : t a s t t : : 0 d s s s 0 a a a t t t t t t i p p i p c M ! i z p M } b c b b b c c j j j ' 4.4.2.2.!.7.2.E.E.Q.[.[.[.[.[.XX[.[.[.[.[.XXXX.X.XXXXX[.XX.XXX.X.XsXsXsXsXsXdXdXdXjXjXdXsX.X[.E.7.o.b b b b ~ ~ ~ ! ! ) o.o.o.o.o.o.@.o.o.o.o.o.@.2.2.2.2.2.2.o.@.<.7.7.E.!./.^.{..X XjXdXsXsX.X^.8.@.@.o.{ { { o.o.@.@.O.+.<.<.4.7.7.7.E.E.E.Q.!.!.!.8.7.<.+.+.+.o.o.o.o.o.o.2.2.+.+.+.+.+.+.+.+.<.+.<.<.+.+.+.+.<.<.<.<.",
"^ ^ ^ ^ ^ ^ ^ ' ' ^ ^ ~ ~ ~ b z j j j i i i i i i u t t u u t t t t t t t t t t t t t t t t t t t t t t t t t t t t t t t t i a p d z c c c c c c c c c c c c c c c c c c z p i a t t t a i i a a p z d p z d a a a s d d a y v v v g g v v D [ [ D v d s s s y 1 ; % O 1 s 1 y s d g d d d s y s y d y g v y ; s s s y y s y < 1 1 < y y y y y y 1 1 s s y 1 : ; O ; O + O O % 1 % O y + X o o . o o . . . O ; ; + X X O 1 y ; O O O O X o X X o o o o . + . 1 % % < o . X % % % O o X o . . o X > > X X X o o . . . . . . . . . . . . . . . . . . . . . . . .   . : . o o o % * % . o % X X % % % % * % o o o + O O + + X ; X y : : : d % $ % : % : : ; % % : * % % : : : * * % % : : % % : d * * * : : : t t t a t : * : : t a a t 0 : : 0 d z y y y a a t t t t t t t u i p z c M ! M p c p b ) z z b b b b c c z z ' <.7.1.4.7.4.7.E.E.Q.[.[.[.[.[.[.[.[.[.[.XXXXXX.XXXQ..X[.XX.XXX.X.XsXsXXX.XsXdXjXjXjXjXdXsX.X^.E.<.{ b b b b ~ ~ ~ ! ! ! { o.o.o.o.@.2.o.o.o.o.o.o.o.o.o.o.2.2.<.4.7.E.Q./.[.XX.X.XdXjXjXjXjXjX.X/.8.@.@.o.{ { { { o.@.@.@.+.<.<.4.7.5.7.7.8.E.E.E.E.E.8.7.5.<.@.@.+.o.o.o.o.o.2.2.2.+.+.+.+.+.+.+.<.+.<.<.+.+.<.+.<.<.<.<.",
"~ ^ ^ ' ' ' ' ' ' ^ ^ ~ ~ ~ b z j p p i i i i i i u t t u u t t t t t t t t t t t t t t t t t t t t t t t t t t t t t t t t t a i a p d z c c c c c c c z z z c z z c c c c p p a t * * * * : : : t y a d g g d d d d d s v s d g g v v v v v D D D D L D g y * ; : < y y s 1 < 1 1 y y s g s 1 y 1 d s F 6.6. .s s y 1 1 y s s s y y < 1 1 1 y s < < d d s y 1 : % : ; O X ; s ; O : < + X o . . o o . . . X ; : % X o + : s ; O O O O + X o X o o o o o ; . . X d ; + . . O : O ; o . o . o X > X X : o % O o . . . . o . . . . . . . . . . . . . . . . . . . . X + + X X o o : 1 o . % % + % % : % % % % o + O % * % + % ; X * % % % v % % X : % : : : * % : : % % : : : % % % % : : % % t d * * * * : : : : : t : * * : : : t t 0 : : * t z v t * t t t t t t t t t t t i i t i z c c c c i z M p j c c c c b b b b o.E.<.2.E.1.<.3.E.Q.Q.[.[.[.[.[.[.[.[.[.[.XXXXXXXXXXQ.XX[.XX.XXX.X.XsXsXXXsXdXdXjXjXjXjXdX X{./.9.<.{ b b b b b b ~ ~ ~ ! ^ o.o.o.2.2.2.o.o.o.o.o.o.o.o.o.+.<.4.7.E.!.^.XXXX.XsXdXjXhXPXPXPXjXjX.X!.5.O.@.o.o.{ { } o.@.@.@.+.<.<.4.5.5.7.5.5.7.7.7.7.7.7.8.7.4.<.<.+.+.@.@.o.@.@.+.+.+.+.+.+.+.+.+.+.+.<.<.<.<.<.<.<.<.<.<.",
"~ ^ ^ ' ' ^ ^ ^ ' ^ ^ ~ ~ b z N p i i i i i i u u t t t t t t t t t t t t t t t t t t t t t t t t t t t t 0 0 0 0 0 0 0 t t t t t t i a p d z c c c c c d p d z z z c c c c z p i t * * * * * * * : t a y 1 1 a d c d d d a s d d g v g v v v M [  .v D d s a y 1 1 1 1 < 1 y 1 1 y y s s < y g 1 d F s : d F D s s 1 > ; : 1 y s s y 1 1 < 1 1 y 1 1 s s y 1 : : ; < ; O y s O % : y X O + o o o o o . . o O % ; ; O o o % 1 O O O O O O O X X X o o o . X O . ; < ; O o . X ; ; O O . o o X X O o o O . % O . . . . . o . . . . . . . . . . . . . . . . . . . . . o : % + o o O d + . + : % % % : % % + % + X X + % O % 1 % % % % % % v X : % : % : % 1 : % : : % % : = * * % % % : : % % t s * * * * * * * * * : : % * : : : 0 0 : * : * t z d : : : * : t t : : t t 0 t i i t t p p z b c p i v i p c c v b b b n n 5.<.o.E.3.2.3.E.E.Q.[.[.[.Q.Q.Q.Q.Q.[.[.XXXXXXXXXX[.[.[.[.XXXXXX.X.XsXsX.XdXjXdXdXdXdXjXdX X^.!.9.+.] b b b b b b b ~ ~ ~ ^ { o.o.2.2.2.o.o.o.o.o.o.o.o.<.<.7.8.!./.XX{..XsXdXjXhXPXDXLXLXPXjXsX.X!.5.O.@.o.o.{ { } o.@.@.@.+.+.<.4.5.5.5.4.5.5.5.5.5.4.4.7.7.7.5.5.5.5.<.O.@.@.@.+.+.+.+.+.+.+.+.<.+.+.<.<.<.<.<.<.<.<.+.+.",
"~ ~ ^ ^ ' ' ' ' ' ^ ~ ~ ~ x j j p i i i i i i u u u u u t t t t t t t t t t t t t t w w t t t t t t t 0 0 0 0 0 0 0 0 0 0 0 0 0 0 t t t i a p d p d d d d d p p z z z z c c c p a t t * * * : : : : t y t 1 1 y s d d d d s d s s d d d d v v F d v F s F s d s 1 1 y y 1 1 y 1 ; % 1 s d d y 1 1 : > d < : y < s s y 1 1 1 ; > y s s s y y g g s F [ L d s s s s s < 1 s g % ; 1 : O . X X X X X X o . o O % o X ; ; . o % : y . o + O ; O X . X X o o o o o . ; o + : o . o % ; + O o X X X o o o o o o O X o o . . o . . . . . . . . . . . . . . . . . . . . . . o o + + o X + 5.+ o X % ; ; % : % % + + % X o o + % % % % % % % = : D X y X o % : % : y * * * * + * * % * % % % * * % : y y : % % * * * * * * : * * : : : * : 0 * : 0 : t t t : : % % : t : * : : 0 0 t t t u i p i d M c z j c j z c c c v z b b } 5.o.9.7.o.7.E.[.Q.[.[.Q.Q.W.Q.[.Q.[.[.[.[.[.[.[.XXQ.XXQ.XXXXXXXX.X.X.XXXdXdXjXjXjXjXdXdX0X{./.E.9.+.] b b b b b b b b b ~ ! ^ { o.o.o.o.o.{ { { 2.2.2.<.1.7.E.Q./.^.XX.XsXjXhXPXDXLXLXDXPXPXdX.X^.8.5.@.@.o.o.{ } o.o.o.@.@.+.<.<.4.4.5.5.5.5.5.5.5.5.4.4.E.!.!.!./.!.Q.8.9.7.4.<.+.+.+.+.+.@.+.+.+.+.+.<.<.<.<.<.<.<.<.+.<.",
"Q ~ ^ ^ ^ ^ ^ ^ ^ ^ ~ ~ ~ x j j p i i i i u u t t t t t t t t t t t t t t t t t t t w w t t t t t t t 0 0 0 0 0 0 0 : 0 0 0 : : 0 0 0 0 t t i i a p p p d p d p p p z z c c c d p a t t t 1 1 : : : : t 1 1 y y y y d d d d g v d s s s g d d D g v v v v d v : > 1 y y 1 1 1 < < : : < s s s y y s y : d d 1 y d g s y d 1 s 1 ; 1 s g s y 1 : s g d s ; ; % ; 1 : : y y ; s g 1 < ; X . . o o o . o . X : X . . : % X o + < 1 X o X O % O X X o X o o o o o X O . . ; X . o O % ; X X + + X o o o o o o o o X X . . o o . . . . . . . . . . . . . . . . . . . . . o o . o * o % % % + X X % : : % % % % . : X o X + % % + * s . X : s v X : % X % : % * y * * * * % * * % * % % % * % % : y : * % % * * * : : * * * * : : : * : t * 0 t 0 * * : : * % = t t : * * : : 0 0 t t u p t i c v c c j c c c u c m m j m M 5.+.O.+.@.7.E.!.W.[.Q.Q.Q.Q.[.Q.Q.[.[.[.Q.[.[.[.[.[.Q.[.Q.XXXXXX.X.XsXXXsXdXdXjXgXjXjXdXdX X{.~.8.7.+.] b c b b b b b b b ~ ~ ! { { { o.o.o.o.o.o.2.<.1.7.7.E.Q./.{..XsXdXhXPXPXDXDXLXDXPXhXjXsX{./.9.4.+.O.} o.} o.o.o.o.@.@.+.<.<.<.<.4.<.<.<.<.5.5.<.<.<.E.XX{..X.X.XXX^.!.E.8.7.5.<.+.+.+.+.+.+.+.+.+.<.<.<.<.<.<.<.<.+.+.",
"Q Q Q ~ ^ ^ ^ ' ' ^ ~ ~ ~ x j j p i i i i u u t t t t t t t t t t t t t t t t t t t w w t t t t t t t t 0 0 0 0 0 0 0 0 0 0 * * 0 0 0 0 0 0 t t t i a p p p p p p p d d z c z z c d a a t y t t 1 1 : y d c a a a a s d d s s d g d s y y v D v s y s s s s v s y 1 1 > : : : : g < : 1 1 < s s s g v v < y 1 v d L D < s g 1 y y < 1 1 1 1 : ; g s y < 1 : ; ; ; y s 1 1 d 1 ; ; : 1 ; . . . o o o X % ; o o . . . 1 ; + O s s % o X O X O O % o X X o X o + O X . . X O o . X O : + O O O + o o o o . . o X X X . . o o . . . . . . . . . . % g . . o . . . . . . o . . . + . o % : % + + X % * % % % % % o % % o o + % % % y X   % d a X * % % $ % : * y * * * * 1 * % % * % % % * % % 1 1 : * % % * * * : : * * * * : : : * : t = : 0 * = = * * * = : i t * = * : : 0 0 t t i i t i c c c p p c c c t v D M i b +.} ) ] +.<.7.E.[.W.W.W.W.Q.Q.Q.W.Q.Q.[.[.Q.[.[.[.[.[.[.XX[.XXXX.X.X.XXXsXdXdXjXjXjXjXdX0X X{.^.!.8.5. .] M c c c c b b b b b ~ ~ ! { { { { o.@.<.<.1.3.7.E.E.!./.XX.XsXjXjXhXPXPXPXPXDXPXPXjXdX XXX!.9.5.<.O.@.o.o.o.@.o.o.@.@.+.<.<.<.<.<.<.<.<.<.<.<.<.<.<.!..XdXjXjXjXdX.X{.^./.!.8.7.7.<.<.+.+.<.<.<.<.<.<.+.+.+.+.<.<.+.<.",
"Q Q Q Q ^ ^ ^ ^ ' ^ ^ ~ ~ b z j p i i i i u t t t t t t t t t t t t t t t t t t t t w w t t t t t t t 5 0 : 0 0 0 0 0 0 : : * : 0 0 0 0 * : : t t t a i a p p d p p d d z z z z c z d p a i a y 1 1 1 : 1 y a d d s y s y y y y s s s y y s d F D d y s v y s y s y 1 : ; ; ; : d y < y < 1 y s g y y y s < s ; v d s d s y y 1 ; 1 < y 1 1 y y 1 ; % : : ; ; ; s y y d y O : O o % ; ; X X X X X % ; % O X . . . . % s > o %  .; X X O o X % ; X o X o + X O : o . . . % o . o X O ; O + O X o o . . o . . o X X . . o o . . . . . . . . . . o g . . . . . . . . . o o . . . o % o + X % + % % % % ; % % + % % X . . o X + X % * o X y % : : X % X $ : * y : * * : t * % % * % % % * * * : : % * % % * * * : : * * * * * * * * * t = * = $ = * * * = = a a t * % * * : 0 0 t i i 0 t i p v c p p c c c i m m a p c ] ) !  .+.+.E.W.E.E.W.W.W.W.W.Q.Q.Q.Q.Q.[.Q.[.[.[.[.Q.[.[.[.XX.X.XsXXXsXdXdXjXjXjXhXdX X.X{.^./.8.9.+.} ] M c c v v b c b b b b ~ ~ { { { { o.+.<.4.7.7.E.E.Q./.[.XX.XsXjXjXjXjXjXhXPXPXPXPXjXdX.X^.!.9.7.5.O.@.o.o.o.@.o.o.@.@.+.<.<.<.<.<.<.<.<.<.<.<.<.<.7.^.dXhXPXDXPXhXjXdXsX.XXX/.!.E.9.7.<.<.<.<.<.<.<.<.+.+.+.+.<.<.+.+.",
"Q Q Q Q ~ ^ ^ ^ ^ ^ ^ ~ ~ b c j i i i i i i t t t t t t a t t a t t t t t t t t t t t t t t t t t t t 5 0 0 0 0 0 0 0 0 : 0 * 5 * * * * * * : : : t t a a p p p p p d d z z p d d d d d p p p i y 1 1 : : 1 a d d s s s y : > : s s s s s y s v v d s y s v D F F g < : : : 1 1 y d s s y 1 < y s s y y s s s 1 > 1 s d s s s y 1 1 < d g 1 F s y 1 + : ; : 1 y s y : ; % 1 y 1 O O O O + X o . O ; : % X X . . . . o < L O o d s o o % o o o o O o X X + + O + o o . . + : o o o + 1 O X O + + o . . o o . o X X o . o o . . . o . o . . . . . . . . . . o o o . . . . . . . . % % . % % + % % ; % : % % + * % X o . o % * X % % % X y : : : X $ $ X : : y : ; * 1 1 1 * % % % % * * * * : * % % % % % * * * * * * * * * * * * * 0 = = & $ = = = = = * t t 0 * * * * * : 0 t i t * t i p c d p p z d a a c v M m m ] D 5.9.+.E.E.E.E.E.W.Q.Q.Q.W.W.Q.Q.Q.Q.[.Q.Q.[.[.[.Q.[.[.Q..X.X.XXXjXsXdXjXjXgXgXdX X|.{.^./.b.9.5. .} ] ] ] ! m b b b b b b n ~ ~ { { o.@.O.<.4.7.7.E.E.!./.^.XX{..XsXsXsXsXsXjXjXhXPXPXhXjXdX X{./.8.9.9.0.O.O.} o.o.@.@.@.+.+.+.+.<.<.<.<.<.<.<.<.<.<.<.7.{.jXhXDXLXJXKXDXPXhXjXdX X.XXX/.!.8.7.5.<.<.<.<.+.+.+.+.+.+.<.<.<.",
"^ ~ Q Q ~ ^ ^ ^ ^ ^ ^ ~ ~ b z j i i i i i i a t a t t a t t t t t t t t t t t t t t t t t t t t t t 5 5 0 * 0 0 0 0 0 0 * * * * * * * * * * * * : t t t i a p p p p d d z z p p d d p p z p p p a y 1 1 1 t a d d y s y < y : : y F F f s s s s s s d g v g g f s y y < < 1 1 : : 1 1 1 1 < < < y y s d d s 1 1 1 > : 1 1 1 1 1 1 1 s ; 1 s : 1 y < O ; % ; : 1 : ; % O % ; : ; % O O % ; ; O O : : ; % O X o . o . . X F d X < g O o . o o o o O + X X X O O X o o . . . ; % o . o : % + O O X o X O o o o . o o O X o o . . . . o % . . . . . . . . . . o o o . . . . . . . . . o : % + % X % : : % ; ; % % % + % o + : 1 % o % : X : % : : $ X % X : : y 1 : : y : 1 : % % % % * * * * : * * * % % % * * * * * % % % % = = * * : = = & & $ % % = = * 0 0 * = * * * * * : 0 0 t 0 t p p i p M p p p p p c v M c p } *.+. .} 4.<.1.3.W.Q.Q.W.W.W.Q.Q.Q.Q.Q.Q.Q.[.[.[.Q.[.[.[.[.sXXX[.jXjXjXjXhXjXdXdX X|.{.^.~.8.9.5.+.O. .} } } | ] ] ! ! ! ! ! ! ! ) { o.+.+.<.<.5.7.E.E.!./.^.XX{.{..X.X.X.XsXsXdXjXjXhXjXjXjXdX X{.^.!.8.8.5.+.O.} @.o.@.@.@.+.+.+.+.+.<.<.<.<.<.<.<.<.<.<.7..XjXhXLXHXKXKXKXLXDXDXPXjXdXsX.XXX/.!.E.9.7.4.<.<.<.+.+.+.<.<.<.<.",
"' ^ ~ ~ ~ ^ ^ ^ ^ ^ ~ ~ b j j i i i i i i i p p p p a a a a a a i p p t 0 t t t t t t t t t t t t t 5 5 0 * * * * * : : * * * * * * * * * * * * : t t t a a p p p p p d z z z p p p p p d d d p p a y y t y y d d g y y y s s y 0 g v s s s s y s s s f s s s d g g s s y y : ; > < s y < < < < y y s d d s 1 > < 1 1 > : : : : O ; % d 1 : % % ; < ; ; % % ; ; % % ; ; % % ; ; % O O + O % : > % X O ; ; O X o o o o . 1 F O O d ; X . o o o o X O o o o % % o X o . . . o ; X o . % ; O ; ; O o O O . o o o . . X O X o . . . . o % . . . . . . . . . . . . o . . o o . . . . . o : % + * X % * : % : : ; + % + % % X X o % % X : $ % % % y % X % X : : y y : : y * 1 1 % % % % % * * * : * % * % % % * * * * * % % % % % % * * * = $ $ & $ $ % = = * : * = = = = * * : : 0 0 t t i p c v p t p p i v p c v M m ] X.} } } 0.9.7.E.E.[.Q.W.W.W.Q.Q.Q.Q.Q.Q.Q.Q.[.[.Q.Q.XXXXXXXX.X.XjXjXdXjXhXgXdX3X|.{.{.^.!.8.5.5.+.+.+.+.+.+.+.O.O.} } } } } } } } } } @.+.+.<.5.7.8.E.E.!.^.XXXX{..X.X.X.X.X.XsXdXjXjXjXjXjXjXdXdX|.{.^.!.8.9.<.+.O.@.@.@.@.@.+.+.+.+.+.+.+.<.<.<.<.<.<.<.<.9..XjXPXLXJXKXKXKXKXJXJXLXDXPXjXjX0X.X{.^.!.E.8.7.5.<.<.<.<.<.<.<.<.",
"' ' ^ ~ ~ ^ ^ ^ ^ ~ ~ ~ b j i i i i t t i p c c c v v a a y y a d M m p u t t t t t t t t t t t t t 5 5 : * * * * * : 5 5 * * * * * * * * * * * * t t t a i a p p p p p z z z p p p p p d d d p p p a a a a a a s y s s s s s s y : : y s y y : : y : : y y s y y y s s s s 1 : ; ; : : 1 1 < y s s y y < < 1 1 : : : : : : 1 ; ; ; > ; ; : % ; % ; % 1 % % ; ; ; ; ; ; ; % ; y % O O O O O % ; : ; ; ; % O + o o X X . . g : . : ; O o o o o o o O + X . % % . o o . . . . O O + . + ; ; ; ; % O . . o o o o o . o X X o . . . . . X o . . . . . . . . . . . . . . o o . . . . % % X % % % % + % : : : ; : X + % + % % % o % % X : % : % X a % X % X : ; y y : * : % = 1 : % % % % * * * : * % * * % % * * % % % % % % % % % * * * = $ $ & $ = % = = * * * = = % = * : t 0 0 0 t i p j i i i a p a p c p c v M | D  .O.9.!.5.8.E.[.!.[.Q.W.W.Q.[.Q.Q.Q.Q.Q.Q.Q.Q.W.Q.XXXX.X.XXX.XjXjXjX XdXgXdX X|.{.).^.!.8.9.+.+.<.+.+.+.;.5.5.+.+.O.O.O.O.O.O.} } } O.+.+.+.5.7.8.E.E.!./.^.[.XX{..X.X.XsXsXsXsXjXjXjXPXhXjXjXjXdX X.X{.^.!.8.5.+.O.@.@.@.@.@.@.+.+.+.+.+.+.<.<.<.<.<.<.<.<.8..XhXPXLXJXKXKXKXKXKXKXJXLXLXDXDXPXjX0XsX.XXX/.!.8.7.5.<.<.<.<.<.<.",
"o.' ^ ^ ^ ^ ^ ^ ~ ~ ~ W k j i i u u t t i c m D [ O.O.] s s d v M D X.| z a t t t t 1 1 t t t t t t : : 0 0 0 : : * * * * * * * * * * * * * * * * 0 t t t i a p p p p p p p p d d d d p p p d d d d a a a y a a y y s s s y s s s 1 : < s g 1 : > 1 > : 1 1 1 > 1 1 y y s y < 1 > : ; ; : : 1 1 < < y 1 : : 1 > : : ; : 1 : 1 ; % % ; ; ; ; ; ; % ; : 1 % O O ; ; ; ; ; ; O O : % O O O X X X + O % ; ; ; % : X o X X o . X d o ; : O o o X o . . . o o o O O X o o . . o . . + O + o ; > ; % ; % o . o + + + o . . o + + o . . . . . . . . . . . . . . . . . . . . o . . . . o % % o O X % ; O > % y : % : X O % % % % O X % % % > % : % % % : % O O ; % : a : ; : % * : 1 % % % % * * % * % % % % % % * * % $ $ % % % % % % * * % = $ $ $ & & = = = = * = = = = = = * : : : t a p z p i a i a a a d z v M M D M  .9.5.6./.8.8.XXE.!.!.E.Q.Q.[.Q.[.[.Q.Q.[.W.Q.Q.W.[..X.XsX.X[.sX.X{.{..XdXdX X|.{.)./.b.9.5.*.0.*.+.*.5.6.9.9.9.9.5.5.5.5.*.+.+.+.0.5.+.5.5.9.9.8.8.E.E.!.!./.^.XX{..X.XsXdXdXdXjXjXjXhXPXPXhXhXgXjXdX0X|.{./.E.9.5.+.O.@.@.O.+.+.+.+.+.+.<.<.<.<.<.<.<.<.+.+.8. XPXPXLXJXKXKXKXKXKXKXJXJXJXJXHXLXDXhXjXjXsX.X{.^.!.8.7.7.<.<.<.<.",
"o.' ^ ^ ^ ^ ^ ~ ~ ~ ~ Q x j i t u u t u a c L } +.5.6.*.X.[ D D [ [ *.X.D a : : : 1 1 1 t t t t t t : : 0 0 0 : * * * * * * * * * * * * * * * * * 0 t t t i a p p p p p p d p p d d d p p p p d d d d a s a s s s s y y y y s s s s y s y : y y < : s < : > 1 s s s y 1 1 1 < y y y 1 > : ; ; : < < y y > ; > 1 : : ; : 1 ; ; ; ; % % ; + : 1 % ; % % % O o o o O ; < y < % O O ; % O O o . . o + O ; ; y ; + o o o o X . . y ; O 1 O o . . . . . . . o O O + O O O o . o . . o + ; + % ; ; O % % O o . o + + o o . o o + + o . . . . . . . . . . . . . . . . . . . o . . . o o o o X X o O ; ; y X y ; % % ; O O % % O X X X X % > % : : X O y X X % ; % : y 1 : y + ; 1 1 * % % % * * % * % * % $ $ % * % % % % % % $ % % % * * % = $ $ $ $ & = = = = = = = = = = = $ $ * : t i p a a a i i i a a d p [ c c ] 9.b.5.;.^.^.8..X!.XXQ.Q..XE.Q.Q.Q.Q.Q.Q.[.Q.W.Q.E.[.XX.XXXsX/.XXhX.XXXjXhX0X{.).{.)./.!.9.5.+.+.5.5.5.6.9.9.8.b.8.8.8.8.8.8.9.5.5.5.0.+.5.9.9.8.8.8.E.E.8.!.!./.^.{..X.XsXsXdXjXjXhXhXPXPXDXDXPXhXhXhXjXdX X}.^.!.8.5.<.+.O.O.O.+.+.+.+.+.+.<.<.<.<.<.+.<.<.<.<.!.0XPXDXLXJXKXKXKXKXKXKXJXJXJXJXJXHXLXLXDXPXjXjXdX.X{.^.!.E.9.7.<.<.",
"o.' ' ^ ^ ^ ^ ~ Q ~ ~ b x j u t u u u u a c ] +.6.b.!.b.9.*. . .X.+.6.*.X.L d y : 1 B 1 t t : : : : : : 0 0 0 * * * * * * * * * * * * * * * * * : 0 t t t i a a p p p p p p p d p p p p p p d d d d d d d d d d d s y 1 1 1 1 < < y y y y < g s y y : y s s s d d y < 1 1 y d g s y 1 1 : : : : : 1 y y 1 : : 1 : : ; : 1 > O O ; % O ; o : < ; : ; ; ; O O O O O O O % : : ; O O O o o o o o o X O O ; 1 1 + . . o o o X . 1 s X < % o O . O d < : % O ; ; O O ; ; ; ; O . . + O . O O ; O + O O % O o o o + + o . . o o + + o . . . . . . . . . . . . . . . o . o o o o . o . . . o X X X % : y O : : % O > % O O % O O X X X % : % ; : % % > % O % % % % : 1 1 y + ; 1 1 : % % % * * % % % % % $ % % % % % % % % % % % % % * * % * $ $ $ $ $ % % % $ = = = = = = * * % % * a p i t a a a i i a p d p v d D *.6.9.X.!./. XC.{.^.{.^..XQ.E.[.W.Q.Q.W.Q.Q.W.Q.[.E.[.[.XXjX.X.XsX X{.hXgX0X|.{.{.)./.!.8.9.5.5.5.9.9.9.9.8.b.!.!.!.!.!.!.!.!.8.8.9.9.5.5.8.8.8.8.8.8.E.Q.!.!./.^.{..X XsXdXdXjXhXhXhXPXPXDXLXLXDXDXhXhXjXjXdX X.X^.!.8.5.<.+.O.O.+.+.+.+.+.+.<.<.+.+.+.+.+.<.5.5./.dXPXDXLXJXKXKXKXKXKXKXJXJXKXKXKXKXJXJXJXLXLXPXPXjXdX X.X^./.E.9.7.",
"o.o.' ' ^ ~ ~ Q Q Q ~ x k j u u u u u u a c ] 5.8.~.^./.!.6.*.*.;.5.b.9.6.*...F d t 1 1 t t 1 1 : : * * 5 * * * * * * * * * * * * * * * * * * * : 0 t t t i a a p p p p p p p p p p p p p p d d d d d d d d d d s s s s s s s s y 1 1 1 s L v d s > 1 1 1 : : 1 y y y y y < 1 1 1 1 : : : : : : ; ; > : : : : : : : ; ; ; y ; O % ; % % O % : 1 1 y y < : ; O O O % % O % ; : : : : : ; % O O O X X O % X y ; o . . o o + o O y ; : ; . O ; % . + % ; 1 : ; % o + + O % O o . . o ; o O ; % o O O O O O + o o + + o o o o o o o o o . . . . . . . . . . o o . o . o o o o . . . . . o O % X O % : : X 1 : ; O % % O O O O X X X O % O ; y : % X : % % % * % ; y y : * ; : : : % % % * % % % % % $ % % % % % $ + $ $ $ $ $ % % * * % * $ $ $ $ $ $ $ $ $ = = = = % % % $ = t p a t t t i i a a a a d d z c D [ X.*.8.8.!.dXC.!.^.{.{..X!.7.[.E.E.E.W.3.Q.W.W.[.W.E.XXjX.XXX/.{.XX X XjX X|.}.{.^./.!.8.9.8.9.9.9.8.8.9.9.b.!.!.!.!././.^./.!.!.!.9.8.8.b.!.!.8.8.8.8.!.!./.^.^.`.{. X XdXdXjXhXhXPXDXDXDXLXJXJXLXDXDXhXhXhXjXdX X{./.!.9.5.<.+.@.+.+.+.+.+.+.<.<.+.+.+.+.+.<.5.9.^.dXPXLXLXJXKXKXKXKXKXKXKXKXKXKXKXKXKXKXKXKXJXLXHXDXPXjXjXsX.XXX/.!.",
"2.o.o.' ^ ~ ~ Q ~ ~ ~ x j i i t t t t u i d ] *.8.!.).`.).C.*.9.b.b.b.x.9.x.*.;.| m a * 1 1 : 1 : : : : * * * * * * * * * * * * * * = = * * * * 0 t t t t i a a a a a a p p p p p p p p p p p p d d d d d d d d d d d g v v s v d s < 1 y y d d s g y 1 1 : ; : 1 < 1 y < 1 : : : : : : : > < < ; % 1 : ; ; ; : ; : : ; ; s < ; % % % % ; % ; : : ; % O ; ; ; O O O O O O ; ; ; ; ; ; O O O O O X X O O O < 1 + . . o o X X o ; d ; y ; O o O . . . o O ; O % ; O + O O + o . . o ; o + % ; O O O O O + + + o + O ; + o o o o o o o o o . . . . . . . . o o . . o o o o . . . . . . o O % X O % ; : % : 1 o ; y ; % O % O O X X O % O % y : % : y y % % : % ; > 1 : : ; : : ; % % % % % % O * % $ % % % % % $ + $ $ $ % % % % * * % * $ + + $ $ $ $ $ $ = = = = = = = = : a d t t t t t a a a a a d z z M D D 5.^.!.).{.^.9.6.^.`.|.8.^.sX.X/.[.[.E.E.!.[.E.[.3.XXdXsXXX!.gX^.^.gX|.dX^.{.{.^.~.!.8.9.8.!.6.b./.8.9.!.!./.^.C.!./.^.).b.!.).^.8././././.!.~.!.!.~./.^.^.{.{.}.|. X0XdXdXgXhXPXDXDXDXLXLXLXJXJXLXDXDXSXhXhXgXgXdX X{.^.!.8.9.<.+.+.+.+.+.+.+.+.+.+.+.+.O.<.5.5.8..XjXDXLXLXJXKXKXKXKXKXKXKXKXKXKXKXKXKXKXKXKXKXKXJXHXLXLXDXPXjXdX.X{.",
"2.o.o.o.' ^ ~ ~ ~ ~ Q k j u u t t t t u a p v } 5.9.C././.~.9.C.~.~.C.C.b.C.z.9.5.X.m p t 1 1 1 0 : : 5 * * * * * * * * * * * * * * = = * * * * 0 t t t t i a a a a a a a a a a p p p p p p p p d d d p s s s d d d d v v v y s g g g s 1 1 1 y s [ < y y s 1 ; : 1 1 1 < 1 : : : 1 : : : > 1 1 : ; y 1 : ; ; ; ; ; : ; ; < d : % % % % % % % : : ; % O O O O O O O O O O O % O O o . . . o X X . o X X O O : ; o o o o o o o O s : : : + ; O . . . o X o o o O O + O O o . o + + o O o + : ; O O O + o o O + O % O o + + o o o o o o . . . . . . . . . . . . . o o o o . . . . . . o o X X O % % : : 1 y O ; : : % % O O O O O X O O % : : ; : : > : ; ; % ; ; 1 y : : : : ; * % + X ; ; O * O $ $ $ % $ $ $ $ $ $ $ $ % * * * * % = $ + + $ $ $ $ $ $ = = = = = * 0 t t t t t t t t t t a a a d d z z F s [ /.9.9.C.9.+.6.6.!.8.!.|.hXgX X!..X!.7.E.^.E.!.E.E.XX.X X^.{.|.{.`.gX{./.|.{.^.!.!.C.8.b./.!.8./.^.b./.!.^.{.b.!.).{.^.C.!.!.8.9.^.^.^.^.^.!.!.b././.^.).{.}..X X XdXdXgXgXhXDXDXDXDXDXLXLXLXLXHXLXDXDXDXMXhXhXhXgXdX X}.^./.!.8.9.5.<.+.<.<.+.+.+.+.+.+.+.<.7.8.^.0XhXDXLXLXJXJXJXKXKXKXKXKXKXKXKXKXKXKXKXKXKXKXKXKXKXJXHXHXDXPXPXjXdX",
"2.2.2.o.o.' ~ ~ ~ ~ Q j j u u t t t u u t i a v  .*.6.b.b.C.~.~.(.(.~.V.V.(.V.~.b.5. .M p t : : 0 0 0 0 5 * * * * * * * * * * * * * * * * * * * 0 t t t t i a a p p a a a a a a a a a a a a p p d d d d z c g c g d d d d s : : y s g g g s < s d s y s d d y : > 1 1 > ; : 1 1 1 1 1 : ; ; < 1 1 : s < ; ; ; ; ; ; ; ; : 1 d y ; ; % % % ; ; ; ; ; % O X o o o o o o o O O O % O O O O X X X O X o . o X o % ; % X X X o o o o : < % 1 ; + > o o o . . . . o O O + O , O O o o o O . O O O y ; O O + o o o O O ; O + O O + o o o X X o o o . . . . . . X % O O o o o o . . o o o . o o o o X O % ; y y y > % > : % O O O O O + X O O % : y % % : ; 1 > ; % % % : y y 1 : : * * ; ; X : : + * % $ $ $ $ $ $ $ $ $ $ % % : y y t 0 = % X - + $ $ $ $ $ $ % % = = = : t t : a t : : t t t t t a a d c c z d d [ *.b.).!.b.C.;.X.b.~.3X|.dXgX{.!..XXX7.{./.8. X7.8..X.X X{.!.`.~.`. X!.^./.^./.!.!.!.!.!.^.C.8.!.!.!.^.).{.~.^.`.~.b.!.~.{.{.8.{.|.^.~.!.!.^.^.^.^.{.{.}. X XdXdXjXgXhXhXSXSXDXDXDXDXDXDXLXLXLXLXLXDXDXDXSXhXhXhXgXgXjXdX X{.^.^.!.8.8.9.5.7.7.5.5.5.5.5.5.5.8.!. XjXPXDXLXJXJXJXKXKXKXKXKXKXKXKXKXKXKXKXKXKXKXKXKXKXKXKXKXJXJXHXDXDXhX",
"2.2.2.2.o.' ^ ~ Q W W j u u u t t t t t t t t i c [ +.;.>.C.).).).(.(.(.(.(.(.(.~.8.*.| F d 1 : : * * * * * * * * * * * * * * * * * * * * * * * 0 t t t t i a a p a a a a a a a a a a a i i a p d a d d d d d d d d d d d d y s s y s d d s s d d y s s s y 1 < 1 1 1 1 1 1 : ; : 1 1 : ; ; > < < < d y : ; ; ; ; % % O ; : < d ; ; % ; : ; ; % ; ; % O o o o o . . . . o o O O O O O O X o o X + + X o o o X % 1 % O O o . X o O < % : ; + ; : + o . . o . o , O O + + + + O O + o o + O % + s O O + o o o o O O ; + + o + + + X X + + + O O X O O O O X o o o o o o . . . o o o o o . o o o O O o : 1 : y O % : > % O O O O + X % % % : : O O ; : ; : : O % % ; y y y 1 : % % % 1 % : * + % % $ $ $ + $ $ $ $ $ $ % % $ * * $ % % * % + + $ $ $ $ % $ = = * * * * * : : * * : t t t t t t a a d d d c v v +.*.gX{.b.).8.6.9.`./.hXdX3X}./. XhX^.8.^.5.b.b.8.^. X0X X XdX^.b. X`.8./.!././.!.!.)././././.!.^.!.|.0X~./.!.C.b.).{.`. X X8.{.^./.{.{.|.{.).{..X{.}. X X0XdXdXjXgXhXSXDXDXDXDXDXDXDXDXDXLXLXLXLXLXDXDXDXSXMXMXhXhXhXhXgXdXdX X.X{.^./.!.!.8.8.8.8.8.8.8.8.8.!.^.0XjXPXDXLXJXJXJXKXKXKXKXKXKXKXKXKXKXKXKXKXKXKXKXKXKXKXKXKXKXKXKXJXLXDX",
"2.2.2.2.o.' ' ~ ~ Q W l u u t t t t t t t t t 1 a v [ +.9.C.'.(.(.V.V.V.V.(.(.(.(.b.6.*.*.L s 1 : : = = * 5 5 5 * * * * * * * * * * * = = * * * 0 t t t t i a a p a a a a a a a a a a a a i a a a a a a s s s d d d d s s d d d s y s d g d d s s s s s s y 1 < 1 1 1 1 1 1 : ; : 1 1 1 1 : : < < y s < < : : ; ; ; O O % : 1 y 1 : ; : y ; % : % % O O X o o o o o o o X X X O O O % % O + X X + + X o o X o X ; ; ; O X o o + % : % % s X + > O o o o o o o . + + o o o + + O O + o O O ; . < < ; O + o o o + o % o + o + O O X o X X o g o o X X X X o o o o . o o o o o o o o o o o o o o X ; . % : 1 s % O 1 : ; O O O O O O % % % y : 1 % % > : : 1 : ; % % 1 a y y 1 % % % : * ; * + % O $ $ + + + + $ $ $ % % % X $ $ $ $ $ : = % $ $ $ $ % % % = = * * * = = * : = : 0 t t t t t y a a a a d a y  .*.*.C.b.^.`.8.;. X~.). X0X|.9.). X}.5.9.^.*./.|.9.9.3XfX{.MX`.).8.^.6.8.!.6.~.~.b.~.!.b.{.^.9.C.}.{.3X|.C.C.b.}.|.0X`. X X!./.!.{.|. X|.|.|.|.|. X X XdXdXjXgXhXhXhXhXhXhXhXSXMXMXSXSXDXDXDXDXLXFXLXDXDXDXMXMXDXDXMXhXhXhXhXgXjXdX X.X.X{.{.^.^.^.^././././.^.{.0XhXhXDXDXLXJXJXJXKXKXKXKXKXKXKXKXKXKXKXKXKXKXKXKXKXKXKXKXKXKXKXKXKXKXJX",
"2.2.2.2.o.' ^ ^ ~ Q k l u u t t t t t t t t t t a c ] +.5.C.`.(.~.V.V.V.V.(.V.(.(.V.b.6.b.*.L g 1 : * % * 5 5 5 * * * * * * * * * * * = = * * * 0 t t t t a i a a a a a i i i a a y y y t i i a a a a a s s s s d d d d s s d d d g d d g v g d s s s s s y y < 1 < > 1 1 1 : : : > 1 1 1 : : < 1 < ; ; : < y < < : ; ; ; : 1 : : : < s O O % ; ; % O O O + X X X X X X X o X X O O % % % % O O + + X o o o X o O ; : ; ; O o o O ; ; % > O X ; % + o o o o o o o o o o + o + o + O o + ; ; + O > < ; O + o o o o + o o + o + O + X o . . X . . o . . . o o o o o o o o o o o o o o . o o o o o o ; O ; s ; d ; : : : % O O O O % O % : y O y % % : : > 1 : ; O + : s y y 1 % % % % : * % + % O $ + + X + + $ $ $ $ % % $ $ $ % = % : = % $ $ $ $ % $ $ = = = = % % * * * * v a 0 0 t t y a y y y a c v v  .*.9.!.`.{.C.)./.}./.0X|./.9.~.b./.b.9.+.;.). X).b.{.{./.gX|.).5.6.8.5.6.5.6./.).}.dX`.{.`.*.C.|.|.dX|.b.9.{.0X X}.^.|.}.!.!.{.}. X{. X X X X0X0X0XdXdXdXdXjXgXhXgXhXgXhXhXhXhXhXhXhXhXDXDXDXDXDXLXLXLXDXDXMXDXDXDXDXDXDXhXhXhXhXhXgXjXdX X X X.X.X{.{..X.X.X.X0XjXDXDXLXLXJXJXJXKXKXKXKXKXKXKXKXKXKXKXKXKXKXKXKXKXKXKXKXKXKXKXKXKXKXKXKX",
"2.2.2.2.o.' ' ^ ~ Q k h u u u t t t t t t t t t t z L X.;.C.~.V.V.V.V.C.C.(.V.(.(.~.~.V.~.b.*.P s 1 : * * * 5 5 * * * * * * * * * * = = = * * 0 0 t t t t a i a a a a i a y y y t t t t y a a a a a a a a y a a s s d d d d d d g v F s s g g s y s y y 1 1 > 1 1 1 1 1 1 1 : : : > < 1 1 1 : 1 1 ; ; ; : O % : ; ; < < : : 1 : 1 ; % 1 ; > < 1 : ; ; % O O O O O O O O O O % % O O O O X o o o o o o o o o o o X O ; : : ; X o + O ; % O > o + ; O + + + O o o o o o o o + + o + O o o o + < ; ; : < ; O + o o o o + o o o + O O o o o + . O X o o . . . . o o o o o o o o o o o o o o o o o o . : o % y s 1 1 : : : ; O O O O % O O : y X : 1 % % % % y : ; O X % a y 1 y % % % % : ; % O O O $ $ + X + + $ $ $ $ $ $ $ $ $ % % $ : % $ $ $ $ $ $ $ $ $ $ % % % % * = * t : * : t t t a a a t 1 a z v a L X.;.5.*.X.3XgX~.~.).`.!.b.!. Xb.6.*.9.D ).).9.^.dX).C.|.3X~.6.8.*.*.*.5.5.8.!. X X}.^.`.8.9.C.0X`.{.+.9. X|.}.^./.{. X`.8.`.{. X|.{. X X X XdXdXdXdXdXdXdXdXdXdXdXdXjXgXgXgXgXgXgXgXgXhXDXDXDXDXDXLXFXDXDXDXDXDXDXDXDXDXDXDXDXPXSXhXhXhXgXjXjXjXdXdXdXdXdXdXdXhXhXLXDXLXJXJXJXKXKXKXKXKXKXKXKXKXKXKXKXKXKXKXKXKXKXKXKXKXKXKXKXKXKXKXKXKX",
"2.2.2.o.o.' ' ^ ~ Q k l u u u t 5 w t t 5 t t w t N m  .5.~.C.b.V.V.V.C.x.V.V.V.(.(.(.`.).(.b.;.F y 1 : * * * * * * * * * * * * = = = = = * * 0 0 t t t t a i i a i a p a a t 1 : : 1 t y a a a s a a a y a y a a s d v d s s g s s [ g d v F g s 1 < s d d s s y 1 1 1 1 1 : : : : < 1 1 < 1 < : : > < 1 1 : : : : : ; ; ; : ; y ; % ; ; > ; + % ; ; : % % O O O O X X X X X X o o X X X X X X o o o o o o X X X X O ; ; ; % O O O O O . : o . O ; O O O O + o o o o o + + + o + , + O + o > ; ; ; : : ; O O o + . O o + X X + O O o O O O O o . . . . . o o o . . o o . o o o o o o o o o o O X o O % : y 1 y 1 ; : ; % O O + O % ; ; : % O d % O % % y 1 % % % X : 1 1 y * % % % % * % O % % $ X X X + + $ $ $ $ $ $ $ $ $ $ $ X % $ + $ $ $ - - $ $ % = = = = = * * : * t t t t t t y a a y a p p p a X.;.;.8.).{.dXdX9.b.~.b.)./.6. .D D | [ *.MX~.fX)./.).C.dX3X6.5.5.[  .6.!.}.{.`.).b.8.C.}.5.^.gX0XC.5./.`./.9./.9.`.|. XC.^.}.^.`.^.}. X X3X3X3X3X0XdX0X X X X|. X X XdXdXdXdXjXjXjXdXjXhXhXDXDXDXDXDXFXLXDXDXDXDXDXDXDXDXDXDXDXDXDXDXDXDXDXPXPXhXhXhXhXhXhXhXhXDXDXLXHXJXJXJXKXKXKXKXKXKXKXKXKXKXKXKXKXKXKXKXKXKXKXKXKXKXKXKXKXKXKXKXKXKX",
"2.2.2.2.o.' ' ^ ^ ~ W k l u w 5 5 5 w t t w B w t p M } 5.9.b.C.V.V.V.C.C.V.x.V.(.(.}.,X].(.(.C.*.F < : : * * * * * * = * * * * * * * * * * 0 0 0 0 t t t a i t t i p z z p t : * : 1 t t a a p d d a a s s a y y s d v g s s d s s v d s g v v d y s g F F d s y < 1 1 1 1 > > > > y 1 1 1 > < 1 < < < < < : ; ; ; ; ; ; ; ; ; ; ; % O O % % % % ; ; < ; O O O O O X o o o o o o o o o o o + + X X X X X X X X X X X O O O ; O O X X + o > ; . o O , O O O O O o o o o o + + o + O O O O o O ; ; O O > < < ; o O o O o o o o o O O o O O + + o o . . . . . . . . . X X o o o o o o o o o o o X X X X % O : y y y d : ; % O O O + % ; % > % O y ; > ; O % : % % % + : 1 1 y : % % % % * % % % * % X X + + + + $ + + $ $ $ $ $ % $ X % - X $ $ $ $ - $ $ % % * = = * * : 0 * t t t t t t t a y a a d a L M 5.;.;.!.C.3X|.3X/.b.9.b.*.L D | | [ 8.+.6.9.6.|.b.3X|.8./.*.X...6.L *.8.|.{.9.X./.{.|.`.8.C.C.).b.;.9.`.C.~.`.!.^.|.{.5.^. X^.}.`. X XdXdXdXdXdX X|.{.{.{.{.^.).{.{.{.}.|. X0XdXdXdXdXdXgXhXPXDXDXDXDXLXFXDXDXDXDXDXDXDXDXDXDXDXDXDXDXDXDXDXDXDXDXDXDXDXDXDXDXDXDXLXLXJXJXJXKXKXKXKXKXKXKXKXKXKXKXKXKXKXKXKXKXKXKXKXKXKXKXKXKXKXKXKXKXKXKX",
"2.2.o.o.o.' ' ^ ^ ^ ~ Q k l w 5 5 * 5 * 5 5 B w t i z L +.;.9.b.C.V.V.V.C.C.C.V.(.(.}.,X}.].(.~.9...s ; : * * * * * * = * = * * * * * * = * 0 0 0 0 t t t a i a i i i i a a a t t : t y y a p a a a d c v v d s s d d d d d d d d s y 1 < y y s d v F F D v v s y y 1 1 y y y 1 1 > y 1 < < > < < ; ; < < : ; % O O ; ; % % ; % % ; : ; % % % % ; O < : ; ; O ; % O + X o o o o o o o o o o X X X X X X X X X X X X o o O O O O O ; X % o ; ; + o o O , ; O O O + o o o o + + o + O O + o + o O ; O O ; ; O ; < O O O + o o o + O ; O O + + + + + X o . . o o o o . % ; % o o o o o o o o o o o X X X O % % s 1 1 : s : * % O O O O O % ; % % > y X ; % O > ; % % % : : : y y : % % % % % % % * $ X X + + + $ $ $ + X + $ $ $ % $ X = $ X - $ $ $ $ $ $ % % % = % * * : 0 0 0 : 0 0 t t : t a d g z a c L 6.;.+.~.0XSX).8.+.*...D [ 6. X9.+.L  .~...9.C.;.8.6.*.9.b.+...*.[ *.9.6.C.5.*.8.`././.8.6.6.6.C.;.9.{.`.~. X{.C.0XgXC./.).).0X{. X X0XdX0X X X|.{.{.^.^.^./.!.!.~././.^.).{..X.X.X.X.X0XdXjXhXDXDXDXDXLXLXFXLXDXDXDXDXDXDXDXDXDXDXDXDXDXDXDXDXDXDXDXDXDXDXDXDXDXLXHXJXJXJXKXKXKXKXKXKXKXKXKXKXKXKXKXKXKXKXKXKXKXKXKXKXKXKXKXKXKXKXKXKXKXKX",
"2.2.o.o.' ' ' ' ' ^ ! ~ b j u 5 5 * 5 * 5 * w w * B i c D [ ;.6.6.x.V.V.C.C.C.(.(.(.}.,X<X,X].(.V.;.L < : : * * * * * = * = * * * * * = = * 0 0 0 0 t t t a a i i t 0 * * * * t t i a p i i p p d d a y y d v v c d s y y 1 1 1 y y s s s s d s d g g s d v F s y y < 1 1 > : ; ; ; 1 : < 1 > : : < < : ; ; O O O O O O % ; ; ; % % : : ; % % % O s : O ; : : : % O + o o o o o o o o o o o X + X X X X X + + X X X o o + X O O ; O : % X O ; % o o o O , , ; O O o o o o o + o o o O O + o o o O ; O O < ; O ; O O O O ; O o . o : O O + + + + + + + X X X X X X . y X o o o o o o X X X X X X X X X X O % 1 : 1 ; < : ; % O O O O + O % % % % : % % % X % : ; + + * : : 1 1 : * * % % % : * % + + $ $ $ + $ $ $ + + + + $ $ $ $ X % $ X - $ % % % % % = = = = % * : : 0 0 : : : 0 t t t t a c v z z a D ;.!.8.5.b.b.X.[ s X.*.|.}.fX6.6.+.b.!.*.[ *.5.*.6.8.;.*.[ D *.6.[ ~.+.;.b.8.5.`.{.}.6.;.[ 5.8.5.6.^.C.^.9.^.~.9. X^.8.0X X|.~. XdX X0X3X X|.}.^.^./.!.8.9.7.5.5.9.9.8.8.!./.^.^.^.^.^..X XdXjXhXDXDXDXDXLXLXLXHXLXDXDXDXDXDXDXDXDXDXDXDXDXDXDXDXDXDXDXDXDXDXDXLXHXJXJXJXKXKXKXKXKXKXKXKXKXKXKXKXKXKXKXKXKXKXKXKXKXKXKXKXKXKXKXKXKXKXKXKXKX",
"2.o.o.o.' ' ' ' ' ' ^ ^ ~ b j u 5 * 5 5 5 5 w B * * t p a D  .;.>.x.V.V.V.C.C.(.(.(.'.,XtX1X'.(.V.x.*.v : : : * * * * = = = * * * * * = = * 0 0 0 0 t t t t t t t t 0 0 : : * * * * 1 t a a a a y a a s y y y s d a y s s y : y s s y y y s g v g d s y s g d s s s y < y < 1 > : > s y 1 < > > : ; ; ; ; O O O O O O O % ; : : : ; ; : ; % % % s % ; ; ; : : ; % O O X o o o o o o o o o o o o + X X + + + + X X X o o + o o O O % % % O O ; ; O o o o + O O O O o o o o + o o o o o ; ; o o . o ; ; O : < ; + O ; ; ; O O + o o ; O O + O + + + + X + + + X X % % o X X o o o o o X X X X X X X X X X + : O : 1 : O ; : ; % % O + + O % % ; % % y O % X O y > O X % * ; : 1 : ; * % % % : * + X + $ $ $ $ $ $ $ + + + + + $ $ $ $ % $   X $ % = % % % = % = * % * : : 0 t : : : : t t y a a d d z m a a 5.+.5.~.8.`.| g ~.`.6./.MX .X.6.C.).F X.[ !.9.8.5...5.;.v D 6.+.5.C.9.!.`. X5.!.5.X.L F 6.5.!.8.C.~. X{.`.`.~.`.0X9.fX}.{.{. XdX0XdX X X X{.{.!.!.8.8.O.O.} }  .+.+.<.5.9.8.E.!.!.!.!.^..X XdXjXhXDXDXDXDXDXLXHXHXFXLXDXDXDXDXDXDXDXDXDXDXDXDXDXDXDXDXDXDXDXDXLXJXJXJXKXKXKXKXKXKXKXKXKXKXKXKXKXKXKXKXKXKXKXKXKXKXKXKXKXKXKXKXKXKXKXKXKXKX",
"2.o.o.o.o.o.' ' ' ' ' ' ! ~ b j u 5 5 5 * 5 w 5 w w * * y a d F X.*.>.>.C.x.C.].].].'.1XtXtXtX'.(.~.9.L 1 1 1 * * * * * * * * * * * * * * * 5 5 t t t t t t t t t t t t 0 * * = = = * : y y s a y a d s y y y s s y y s d s 1 y s s d s s s g v g s s s y s < y s s y y y < 1 1 1 1 < 1 1 1 > > : ; % ; ; % O % % O O O % % : < 1 ; ; ; ; ; ; s O % ; : O : < : % O O O + O + o o o o o o o o + O + + O O + o o o o o o o o O + + O O O O O O O ; o . o o + O O O + o o + o o o o o o O ; O o o o O ; O ; > , o O O O ; ; O O O O O O O O O + o o o o + + + + o o + O + o o o + + + o o o o + + + o + o + ; O ; > : ; ; ; : > ; O + + + O ; ; ; O < % % + + y ; O O % % % : : > ; ; % % % : ; % X + + + % % % $ X X X X + + + + % + % X + + $ % % % = % $ % = * * * : : 0 0 : : : : 0 t i a a d 1 c M a *./.~.9.9.*.F v ).).*.b.|.6.*./.{.3XL ;.X.}.b.X.6.8.9.!.| L +.[ *.8.)./.b.b.| [ X.9.6.X.8.!.`./.6.*.0X0X/. X}./.dX8.{.^.|. X X X3XdXdXdX X}.{.^.!.8.5.@.) ] { | } O.+.<.7.8.E.E.!.!.!.!./.[.XX.XsXjXhXMXSXDXDXDXDXLXLXLXLXLXLXLXLXLXLXLXDXDXDXDXDXDXDXDXDXDXDXDXFXJXJXKXKXKXKXKXKXKXJXJXKXJXKXKXKXKXKXKXKXKXKXKXKXJXJXKXKXKXKXKXKXKXKXKXKXKX",
"2.o.o.o.o.o.' ' ' ' ' ' ' ! n b j u 5 5 5 5 5 5 w 5 5 * : t y y D ..*.*.z.b.V.(.(.].'.<X<XtXtX1X(.(.C.*.s 1 : * * * * * * * * * * * * * * * 5 5 t t t t t t 0 0 t t 5 5 * * = % % % * : y y s s d d a y s s s s s s s s s < g y 1 s v g d s d d d g d y y y y 1 1 1 1 1 1 1 1 1 > : : : : : : : : ; ; ; ; % ; ; ; % % O O O % ; : y 1 O ; : s ; O % ; ; ; : < ; % O O O ; + o O o o X o o o + o + % % + + + o + + + + O o o O + + O O O O O O ; ; O o o o o O O , ; ; O o o O O O o o o O < O o o o O O O ; , ; O o O ; > > > > > : : ; ; O O O o + o O O o ; o . o o o + + o o + + o o o o + + + + + + + + O ; ; < ; ; > : < > ; O O + O % % O % % > % + o ; ; % % % % % > : > ; ; ; % % % ; % + $ + + % % % $ X X X X + + + % % X = d t = % $ $ % t $ X % = * 0 0 0 0 : : : * : : 0 t i a a a y D ] p b.| | X. .*.L ~.b.X.~.9.*.D *.^.!.*.;. X;.C. .8.b.X.*.L v D [ b. X).;.| ;.X.| 9.8.).9.b./.5.!.8.^./.3X/. X^.MX|.!.`.).). X|.|.0XdXdXdXdX X^././.8.5.O.| { | }  .O.+.5.5.7.8.E.E.!.!.!.!.!.!./.^..XsXdXjXhXSXDXDXDXLXLXLXLXLXLXFXLXLXLXLXDXLXLXDXDXDXDXDXDXDXDXDXFXJXJXKXKXKXKXKXKXKXJXJXKXJXJXJXJXJXJXJXKXKXKXKXJXJXJXJXKXKXKXKXKXKXKXKXKXKX",
"o.o.o.o.o.' ' ' ' ' ' ' { ' ! ~ b j u w 5 5 5 5 5 5 * * * : : t s F ..$.;.6.C.V.V.(.'.<X<XtXwXtX].(./.6.F 1 % * * * * * * * * * * * * * * * 5 5 5 5 t w 0 : * * * * * * * * = % = : a d a y a s s a y y s s s s s s s y y g s g d g d s s s s s s g s < y y y < 1 > 1 1 1 1 1 1 < : : : : > : 1 < < 1 : ; ; ; ; ; ; ; % % % ; ; ; s s ; % d < O O O ; ; % O ; ; ; O O O + ; ; o o o + + + + O + + % % + + O O O O O O O O o O O + O O O O ; O O ; ; O + o o o + O ; , O o o O O O o O O O o > O O o O O O O ; , ; o o O ; ; O + O ; ; ; ; ; : ; ; O O ; > ; ; O o o o o o o o X + + + + + + + + + + + + + + + ; ; ; < > > > : 1 > ; O O O % % O % O ; ; , + ; ; % X O % % ; : ; ; : ; ; % % ; % % % % % % % % % X X X X + + + $ + + % % % % = % % t % $ $ % = * * : : * = * * * : : 0 t i a i a y 1 t c [ D +.*.X.5.9.3XP x.X.b.| *.+.F 5.;.fX6.D +.| *.L [ L L F  .*.!./.| D | +.;.!. .5.5.+./.C.).!.|.).~.).}.b.dXdX5.{.!.{.|.{.3XgXfXdXdX X X{./.!.!.9.+.} ] ! ) ] | } @.+.<.9.8.8.E.E.E.E.E.E.E.E.!.^.{.|. XdXhXSXDXDXLXLXLXFXFXFXFXFXFXHXHXLXLXDXDXLXDXLXDXLXLXLXHXJXJXKXKXKXKXKXKXKXKXKXKXJXJXJXJXJXJXJXJXKXKXKXJXJXJXJXJXKXKXKXKXKXKXKXKXKXKX",
"' ' ' ' ' ' ' ' ' ' ' ' { ' ~ ~ ~ b k u u w 5 5 5 5 * * * * * : % a D [ *.;.9.C.V.(.'.<XtXtXwXqX'.`.).C.X.1 % * * * * * * * * * * * * * * * * * 5 5 5 5 0 5 * * * * * * * * * * 0 t t : y a y a y y y y y y y y y s d s d d v g d g d y y s s s y y y y y y y < y < < 1 1 1 1 < : : : : ; ; : : : ; ; % ; 1 1 ; ; ; ; ; ; ; ; % ; 1 s 1 1 1 1 O O O ; ; O O O ; ; O O % % O O O O + + + O O O O O O O O O O O O O O O O O o O O + o o O O ; O ; ; ; ; + o o O o o + O ; ; O o o o O O O O O O ; ; O O + < ; O O ; O O O ; < ; o + O O + + O O O ; ; > > g s % O O O o o o o o o + + + + + + + + + + + + + + + O ; > ; : < : ; : : > ; % O O % O % ; + ; ; O ; ; % X X % % % ; ; ; : ; ; % % ; % % % % % % % % $ X X X X + + + $ + + % % % % $ $ $ = $ % % $ % = = = % % % % * * * : 0 t t a a i a d d c +.b.6. .D g 6.9.*.5.5.*...F | 9.;.*.6.~.6.D  .X.v [ L D D D +.X.F [ X.6.6.8.5. .+.L 5.5.^.6.^.).^.)./.~. XMX8.9.!.~.|.|. X|.|.|.dX X}.^.!./.!.9.+. .] ) ) ] | } O.+.4.5.8.8.8.E.E.E.E.E.E.E.E.E.!./.^.{.|.dXhXSXDXDXLXLXFXFXFXFXFXFXFXLXLXLXLXDXLXLXLXLXLXLXHXHXJXJXKXKXJXJXJXJXJXJXJXJXJXJXJXJXJXJXJXJXJXJXJXJXJXJXJXJXKXKXKXKXKXKXKXKXKXKX",
"' ' ' ' ' ' ' ' ' ' ' ' ' ' ' ^ ~ ~ b k l u u 5 5 5 * * * * * 5 0 * * a M  .*.>.x.V.].1X<XtXwXeX1X'.`.~.;.a % * * * * * * * * * * * * * * * 5 5 5 5 5 5 5 5 5 5 5 5 5 5 5 * * 5 0 0 0 : y y y t 1 1 y y < y y y y y s s s s v d s s s s s s s y y y y y y f s s s s y < 1 > > : : : : : ; ; ; : : ; ; ; ; : : 1 : ; ; ; ; ; % % O ; O d < > : ; O ; % % O O O ; ; % O O ; O O % O O O + O O O O O O O O O O O O O O O O O O O O O + + + O , O ; ; , , O O o O + o o O ; ; ; O o o O O O O O O O , ; O O O ; O O ; ; O O ; , , O O O O O o o o O O ; , , < < ; , ; ; + + + o + + + + + + O O O O + + O O O O O O % ; ; > : : ; > : : ; O O % O + O ; o ; ; O % % % O X % % % % ; : : : ; % % ; % % % % O % + $ $ X X X X + + + $ $ + % = % % $ $ % % % % % = = = % % % % % % * : * : 0 t t t t a t a a 5.*.*.;./.| *.b.6.b.X.D *.d *.[ *.X./.C.;.v F D L D v F D  .+.+.|  .+.+.X. .X. .| D 5.!.9.9.b.gX`.|.!.`./.`.^.+.).!.{.).{.).|.{.^./.{.}. X^.~.8.5.+.| ! ] ] ] } } +.<.5.7.8.9.8.8.8.E.7.7.8.E.E.8.E.8.Q.!.^. XjXPXDXDXHXHXHXHXHXHXFXFXHXHXLXFXLXLXLXLXLXLXLXFXHXJXJXJXKXKXJXJXKXKXJXJXJXJXJXJXJXJXJXJXJXJXJXJXJXJXJXJXJXJXKXKXKXKXKXKXKXKXKXKX",
"' ' ' ' ' ' ' ' ' ' ' ' ' ^ ' ' ^ ~ ~ Q k k l u w 5 * * * * * 5 5 5 0 * y M } +.>.C.(.].5X1XqXrX1X,X'./.6.a * * = * * * = = = = * * * * * * * 5 5 5 5 5 5 5 5 5 5 5 5 5 5 5 * * 5 5 i z a y t y y y y y < y y s s 1 s y 1 : < 1 y s d d d d s s s s s s s d v d s y y 1 1 1 1 > > : > < y ; ; : : ; ; ; > ; O 1 ; O % ; ; % % % + % ; y d < O ; ; ; % % O O O ; ; ; % % ; ; O O O O O O O + + O O O O O % O O O O O O O O O O O O O O O O O ; O ; > ; > ; o o O O o O O O O O O O O O O O O O O O O O O O ; ; O , ; > ; , ; , , ; O O O O O O O O O O O O O , , , O : ; O O + + + + O O O O O O + + O O O O O O ; O > ; , < : > : : ; , % ; % + O ; O ; ; + O ; % % O % % % % ; : : > ; % % % % % % % O % + $ $ X X X X + + + $ $ + % = % % % % % % $ = % = = = % % % % % = * : : : 0 t t t t t t a a +.v [ 8.5.*.6.C./.*.F F L | g [ 9.dX9.~.X.v v D D v D D v L  .v [ X.[ [ [ [ *.+. .b.}.C./.).{./.^.{.{.|.|./.5.9.6.).^.!.C.b.+.9.8.b./.{.^.^.!.9.<.O.] ) } ] { } } +.<.7.9.8.8.8.8.9.9.7.7.7.7.8.8.8.8.8.E.^..XdXjXDXDXHXHXHXHXHXHXFXFXHXHXLXFXLXLXLXLXHXHXFXFXJXJXJXJXKXKXJXJXJXJXJXJXJXJXJXHXHXHXJXJXJXJXJXJXJXJXJXJXJXJXJXJXKXKXKXKXKXKXKXKX",
"' ' ' ' ' ' ' ' ' ' ' ' ' ^ ^ ^ ^ ^ ~ ~ ~ b x j l u w * 5 * 5 5 5 5 5 * * t v L $.>.V.V.(.'.<XqX,X<X}.).9.g * * % = = = & & = = = = * * * * 5 5 5 5 5 5 5 5 5 5 5 5 5 5 5 5 * * 0 p z i t t a a y y y y y y < y s s  .g s d y s s s d g v v g d s s s y f D F s y y 1 1 1 < < y s y : ; 1 d s > : : % O % : ; ; ; ; : ; ; ; ; ; O O : : > F < O ; ; % % O O O O ; ; O O O O O O O O O ; O O O o + O O O O O O O O O O O O O O O O ; ; O O ; , ; ; O > > , O + ; O O O O O O O O O O O O O O O O O O O O , > > ; , ; ; ; ; ; ; ; ; ; ; ; ; O O O O O O O O O ; < > + O O O O O O O % O O O O O O O O O O O O O % ; + ; : , > < > : > ; ; ; ; ; O O O ; % % O O % ; ; % % % % % % : > ; : ; % % % % O % O % + $ $ X + + X + $ $ % $ + % % % % % % % % % = * = = = % = % % % * * : * : 0 t 0 0 0 0 y y y D v  .!.5.9.!.5.L g s F D *.*.b.6.*.b.9.D d g v F L v v L +.v D v L F F L *.D *.;.).).b.}.3XgXC.8.6.~. X9.9.X.*.8.9.6.b.!.!.^.{.^. X^.^.^.!.b.5. .} ] ] } } }  .O.+.4.7.9.9.8.9.9.7.7.5.4.4.5.7.7.8.7.8.E.^. XdXgXDXDXHXHXHXHXJXJXHXHXJXJXFXFXJXJXJXJXJXJXHXJXJXJXJXJXKXKXJXJXJXJXJXJXJXJXJXJXHXHXHXJXJXJXJXJXJXJXJXJXJXJXJXJXKXKXKXKXKXKXKXKX",
"' ' ' ' ' ' ' ' ' ' ' ' ^ ^ ^ ^ ^ ^ ^ ~ ~ ~ ~ b k l u w w 5 5 5 5 5 * * w * B d S P >.x.C.(.'.,X'.qX<X).b.v : * % = = = & & & & = = * * * 5 5 5 5 8 8 5 8 8 8 5 5 5 5 5 5 5 0 0 t u i p d a y t y y a y s y y < < y v D D F s s y y s s s y < y y s s d g g g f y 1 > > 1 < < 1 1 1 y y y y y < 1 < 1 ; ; ; O ; ; ; O + + O % ; ; ; y ; ; F < s ; % % % ; O O O O ; ; O O O O O O O ; ; ; O O O O O O O O O O O O O O O O O O O O O ; ; > < , , ; ; ; ; ; < , , ; O O O O O o O O o O O O O O O O O O O ; ; > > > ; ; ; ; ; ; ; ; ; , , , O O O O O O O O O O O ; > ; O + O % O % , , O O O O O O O O O O O % % ; O O > > ; > < : > ; ; ; > ; ; O + ; % % O O % ; ; % % O % % % ; > ; ; ; % % % % % % O % + $ $ + + + + + $ $ + $ + % % % % % % % % = = = % % % % % % % = * * : : : 0 : : : 0 t t y a a d +.5.5.X. .v g g s : v F 6.!.9.L L L d s d v v M D D v | [ [ +.F [ [ [  .+.X.9.6.X.^.^.).b.9.8./.5.+.L X.X.b.8.6.+.5.6.{.!. XdXdX X).{.8.8.5.| | ] | | } } O.O.<.<.5.9.9.9.9.9.5.4.<.<.<.<.5.7.7.7.E./..XdXjXhXDXDXHXHXHXHXJXHXHXHXJXJXFXFXJXJXJXJXJXJXJXJXJXJXJXJXKXJXJXJXJXJXJXJXJXJXJXJXHXHXHXJXJXJXJXJXJXJXJXJXJXJXJXJXKXKXKXKXKXKXKXKX",
"' ' ' ' ' ' ' ' ' ' ' ' ' ' ^ ^ ^ ^ ^ ^ ~ ~ ~ ~ ~ k l u w 5 * & & 8 * * * * * * s g S $.b.b.V.(.'.'.'.).6.v : * = % = = & $ $ $ = = * * 5 5 8 8 7 w w w w u u u u 7 5 u u u u u i j j c M v a y y a a y y y y y 1 y s v F d y s y y y y < < 1 < < < : g g s s s s < y y y y y 1 1 1 y y y y < > < y y y < > : < < > % O O O ; > < : ; O , F : ; < y y < ; ; O O O O ; O O O O O O O O ; ; ; ; O O O O O O O O O % O O O O O O O > ; , ; > > O , O O O O ; > > , ; O O O O O o O O O O O O O O O O O O O , , > > > ; ; ; ; ; ; ; ; , , , , ; O O O O O ; ; O O O O > ; O O O O ; ; O ; O O O O O O O O O O O O O O O O ; , , ; > : : : ; ; ; ; ; ; % ; ; ; O O O % ; ; % O % O % ; ; ; ; ; ; ; ; ; % % % % % % % % % + X X % % X $ X % % % % % % % % * * % % % % % % % % % * * * * : t : : : 0 : : t a a m O.D D  .[ d s d y F [ *.;.D d c a v d d M D c D c v [  .|  .L [ [ D +.5.9.5.C.X.6.;.b.b.8.*.5.*.*.M X.9. .| ;.8.^.{. X XdX X{. X X{./.8.5.+.} { { | | }  .O.+.<.4.5.<.0.+.+.+.O.O.O.O.<.<.<.5.7.9.!.{. XdXhXPXDXLXLXJXJXJXJXJXJXJXJXJXJXJXJXJXJXJXJXJXJXJXJXJXJXJXJXJXJXJXJXJXJXJXJXJXJXJXHXHXHXHXHXHXJXJXJXJXJXJXJXJXJXJXJXJXJXJXKXKXKXKX",
"' ' ' ' ' ' ' ' ' ' ' ' ' ^ ^ ^ ^ ^ ^ ^ ^ ~ ~ ~ ~ W k l e w w 5 8 8 8 & * * * * 0 t s d +.>.x.b.V.(.~.V.*.g ; : = % = = & & $ $ = = * 5 5 w u h l l l l l j j j j j j j j j j j j j z c M v z d s s s y y y y y s s d s y 1 1 y s s s s s s s y : ; s s s y s g v L g g v g s y 1 1 1 1 < f g < > ; > s g g g Z Z g s < > > y g D g s > s g ; ; + < s 1 > ; ; O O O ; ; O O + O + + O O O O ; ; ; O O O O O O O ; O O o O O ; > < > O O O O O O O O O O ; O ; > ; O O O O O O O O O O O O O O O O O O O O O O , ; > > ; ; ; ; ; ; ; , , , , ; O O O O ; ; O O ; ; O ; > , ; ; ; ; O ; O , , O O % % O O , , O O O O ; ; ; > ; > > 1 < > ; ; ; ; ; ; ; ; ; ; ; O % ; ; % % % O % % ; ; ; ; ; ; ; ; % % % % % % % % % + X X % % X X X % % % % % % : : : : * * * * * * * * * * * * * t t : : : : 0 : 1 : 5. .c *.6.v : d v X.L | | L v y d c a v d c M D M d v [ X.+.X.L F L | X.9.X.X.+.8.!.b.5.b.6.b.|.X.D F  .X.*. .^.|.|.{.{.8. XhXDXhX}.}.^.8.8.5.O.| } } } } }  .O.+.<.<.+.+.+.O.@.@.@.@.@.O.<.<.4.5.8.E./.{.0XjXhXDXDXLXLXJXJXJXJXJXJXJXJXJXJXJXJXJXJXJXJXJXJXJXJXJXJXJXJXJXJXJXHXHXJXJXJXJXJXJXHXHXHXHXHXHXJXJXJXJXJXJXJXJXJXJXJXJXJXJXKXKXJXJX",
"' ' ' ' ' ' ' ' ' ' ' ^ ^ ^ ^ ^ ^ ^ ^ ^ ^ ^ ~ ~ ~ ~ W k l l u w w 5 8 & * * * * * : : 0 d D ..;.9.C.b.6...s ; = = = = = & & $ $ = = * 5 w u j x ~ ~ ~ ~ ~ ~ ~ ~ b b b j j j c c b c j c n M p i y t : 0 a d d d d s s s d d s y 1 1 < y s s s s g F [ g s s g v v v L v d d d s y y 1 1 < g g f g F g y < y s s f f s s y y < ; O O ; ; y ; o o O o O s < > ; ; O O ; ; ; ; O O O O o o O O O ; > > ; O O O O o o O O O O > > > < > O O O O O O O O O O ; ; > < > ; , , O O O O O O O O O , , O O O O O O O O O O > > > > > > > , ; ; , , > ; O O ; ; O O O ; ; O ; ; ; ; , > , ; ; ; ; ; ; ; ; ; ; ; ; ; , ; ; O O O ; ; ; > , : > < < > ; ; ; ; ; ; ; ; ; ; % % % ; % % % % % % % ; ; ; ; ; ; ; ; % O % O % % % % % X X % % + + + % % % % % % : * : : * : * * * * * * * % % % * : 1 : : : : 0 a a v ] y d d d y c m 5.| v M v d 1 y d g a v d ] m M m m O.6.9.X.D [ +.*.5.9.*.X.8.*.5.8.~.*.6.C.*.+.M D 5.+.b.9.{.dX^. X{.9.{./.dXhXjXhX{.!.!.5.5.*.+. . . .} }  .O.+.+.+.+.+.+.O.} } @.O.O.O.+.<.4.5.8.!.{.sXdXjXhXLXDXLXJXJXJXJXJXJXJXJXJXJXJXJXJXJXJXJXJXJXJXJXJXJXJXJXJXJXJXJXHXHXJXJXJXJXHXHXHXHXHXHXHXHXJXJXHXJXHXHXJXJXJXJXJXJXJXJXKXKXJXJX",
"^ ^ ^ ^ ^ ^ ^ ^ ^ ^ ^ ^ ^ ^ ^ ^ ^ ^ ^ ^ ^ ^ ~ ~ ^ ~ ~ Q W k l l u u w 5 5 5 5 & = & = = % : s F X.*.*.| D 0 = = = = = = $ $ $ $ $ = * 5 u j ~ ~ ^ ' ' ~ ~ ~ ~ ~ ~ ~ ~ b k x b b n b j j c b c c c d i t t d y s s s y 0 y s d s s s s s s s g g v g < g g g F D F v s s s y 1 > 1 1 1 1 < < y < > ; < y < < < > < y f s g g s ; > ; ; ; g ; O O O + O O < < > ; O O ; > > > ; , O O O O O O O O O O O O O O O < 2 f < ; ; > > ; , , , O O O ; ; , O O O O ; , , , > ; ; O O O O O O O O , > , , , O O O O O O O O O > > > > > > , , ; ; , , , ; ; ; ; ; O O ; , ; ; O ; , > > , ; ; ; ; ; ; ; ; ; ; ; ; ; , ; ; O O O ; ; ; > , , , > < < > ; ; ; ; ; ; ; ; ; ; ; % ; % % % % % % % % ; ; ; ; ; ; ; % O O % % % % % $ X X % % + + X % % % % % % % % % % % % % % % % % % % % % % % : : : : 0 : t : a t D t d a a D D | [ v t d d z p M 1 g a v d z c ] +.v O.6.6.| X.).~.;.D | X.8.5.b.).8.D  .+.L D M [ 5.).!.{.`.dX!.{.{.^.hXhXdXDXhX{. X/.!.!.9.5.+.O.O.O.O. . . .O.+.+.+.O.O.O.O.O.} @.@.O.O.+.<.5.5.8.^..XdXjXhXDXLXDXLXHXJXJXJXJXJXJXJXJXJXJXJXJXJXJXJXJXJXJXJXJXJXJXJXJXJXJXJXHXHXJXJXJXJXHXHXHXHXHXHXHXHXJXJXHXHXHXHXJXJXJXJXJXJXJXJXKXKXJXJX",
"^ ^ ^ ^ ^ ^ ^ ^ ^ ^ ^ ^ ^ ^ ^ ^ ^ ^ ^ ^ ^ ^ ^ ^ ~ ~ ~ ~ ~ ~ Q W k l h w 7 5 8 4 8 8 4 = * : * * d d d c 0 : = & & & & & $ & & & & = * 5 h k ~ ^ ^ ^ ^ ^ ~ ~ ~ Q Q ~ ~ b b b ~ ~ ~ b b b c v b b b M c i t d i t y d s y y s s s s s s s s s d F F L F g g g g g v s < y y 1 : : : 1 1 1 > > < < ; ; : > > > : ; : < y < s F L F g f < < > ; O O O O O O O ; > < < > O O O , ; ; ; ; O O O O O O O O O O ; > < f g f f < > , > O O , O % , , , ; , , O O O ; > , > > > , , , O O O O O O ; > ; ; , , , , O O , , , , > > > > > > > > > > > > > > ; ; > > , , > ; > > ; > > > > > , > > , ; ; ; ; ; ; , ; ; ; ; ; ; , ; , > > > > , > > > > < > ; ; ; ; ; ; ; ; ; ; ; ; ; ; % ; O ; % O ; ; ; ; ; ; ; ; % % O O O % % % + + % % + + + % % % % % % % % % % % % % % $ $ $ $ % % % % * * : 1 0 : : : : t t t t y a a D [ X.d a a a a p v c a a v d } L L [  .} [ 5.[ D +.| [ v  .6.8.;.D  .D D  .*.L [ 9.5.^.*.8.C.;./.C./.dX0X XDXdXhXdX^.{.{.^././.6.*.5.+.+.+.+.O.O.O.O.O.+.O.O.O.O.O.O.O.O.O.O.O.5.5.9.E.!.{.0XjXhXPXDXDXDXLXLXLXJXJXJXJXJXJXJXJXJXJXJXJXJXHXHXHXJXJXJXJXJXJXJXJXJXJXJXHXJXJXHXJXJXJXHXHXHXHXHXHXJXJXHXHXHXHXJXJXJXJXJXJXJXJXJXJXJXJX",
"^ ^ ^ ^ ^ ^ ^ ^ ^ ^ ^ ^ ~ ~ ^ ^ ^ ^ ^ ^ ^ ^ ^ ^ ~ ~ ~ ^ ^ ^ ^ ~ ~ x k l u 7 7 8 8 8 8 8 5 * = % * = = = = & & & & & & $ $ $ $ $ & * 5 0 h k ~ ~ ^ ^ ~ ~ ~ ~ ~ ~ ~ ~ ~ ~ ~ ~ ! ! ~ ~ ~ ! ! m n c c c c z z i m a t d d a y y : : y y s y y y s f g g s f s y < 1 y s s s y 1 1 1 1 1 < < : > < < > ; : : , ; O O ; : : : ; ; ; > < 2 f g f s > ; O O O O O O O O f f g f s 2 > ; ; , ; ; ; ; ; ; O , ; > < f f 2 2 < g f 2 > , ; , , , O ; , , , , > , O O ; , , > > > > > > , O O O O , ; O > ; , , , , , , , , ; ; > > > > > < s s > , > > > > > > > > , > < > ; > , > > > > > > , , , , , , , , , , , , , , ; > > > > > > > > > > > > > < < > , ; ; ; ; ; O ; ; ; ; ; ; ; ; ; ; ; ; ; ; ; ; ; ; ; ; ; % % % O % % % + + % % + + + % % % % % % % % % % % % % % % % % % % % % * * * : t 0 * * : : : t t t y a a d c c d a a a a d v v d m M +.] M [ | L } L X.D v c | v X.{.5.v L g [ L [  .X.9.;.*. .X.8.8.9.dX{./.dX^.8.^./.8.8.8.!.b.8./.8.8.9.8.5.6.0.+.+.+.O.O.O.O.+.+.+.+.+.+.+.+.+.+.+.+.5.5.8.~.{. XdXhXPXDXDXDXLXLXLXLXHXHXJXJXJXJXJXJXJXJXJXJXJXHXHXHXJXJXJXJXJXJXJXJXJXJXHXHXJXJXHXHXJXJXHXHXHXHXHXHXJXJXHXHXJXJXJXJXJXJXJXJXJXJXJXJXJXJX",
"^ ^ ^ ^ ^ ^ ^ ^ ^ ^ ^ ^ ~ ~ ^ ^ ^ ^ ^ ^ ^ ~ ^ ~ ~ ~ ^ ^ ^ ^ ^ ^ ^ ~ ~ x l h h 7 7 6 8 8 & = $ $ + $ $ $ $ $ & & & & $ $ $ $ $ $ & * 5 u h k ~ ~ ^ ~ ~ ~ ~ ~ ~ ~ Q Q b x x x ~ ~ ~ ~ ~ b j z b n b b n n b z p p p p d a s d g v v g s y y y s s y y y y < < 1 : ; > < s g d y 1 > 1 : : O O ; ; : ; ; ; , > < < ; O ; : ; O + O + O y F , , ; , < 2 y < > > , , < f f g f f < < < < > : > ; ; ; > < < < < ; O , ; O < ; ; > > > > > > , ; ; , , ; > > , , ; , , > ; > > > > > , , , , ; , O , > , ; ; ; , , > > > > > > > > > > > > 2 s 2 > , , > > > > > > 2 , > > , , > > > > > > > > > > > > > > > > > > > > > > > > > > > > > > > > > > < < > , ; ; ; ; ; ; ; ; ; ; ; ; ; ; ; ; ; ; ; ; ; ; ; ; ; ; % % % % % % % + + % * + % % % : : % % % % % % % % % % % % % % % % % % % * : t : : * * : : : : t t y a a : c a : a a a a z m m M p m M c [ M v L c a v m +.!.5.v [ X.d D v D | [ D X.X.X.v  .9.b.5.9.!./.!.6.| } *.9.b.8./.^./.^.dX^./.C.8.!.9.8.5.5.+.+.+.+.+.+.+.+.O.O.O.O.O.O.O.+.+.5.5.8.!.^. XdXjXPXDXDXDXLXLXHXHXHXJXJXJXJXJXJXJXJXJXJXJXJXJXHXHXHXJXJXHXHXJXJXJXJXHXHXHXHXHXHXHXHXJXJXHXHXHXHXHXHXJXJXHXHXJXJXJXJXJXJXJXJXJXJXJXJXJXJX",
"^ ^ ^ ^ ^ ^ ^ ^ ^ ^ ^ ^ ~ ~ ^ ^ ^ ^ ^ ^ ^ ~ / ~ ~ ~ ^ ^ ^ ^ ^ ^ ^ ^ ^ ~ W k l h e 7 6 8 & & & $ % % = $ & & & & & & $ $ $ $ $ $ & * 5 u h k Q ~ ~ Q ~ ~ ~ ~ ~ ~ W x x b ~ ~ ~ ~ ~ b b x j j j j z z b ! ! b c M c z p y a y 0 0 0 y s d v v d d g g g v g s < < < < < < 1 1 < 1 1 1 : > > : > y < ; ; : > , ; ; ; O ; > ; ; O O ; O O < > > ; O ; ; : : , ; ; O O ; , > > > < < 2 2 2 2 2 2 2 2 2 < < < > > > ; ; ; < > ; ; ; > > > > > > ; , , , , > > ; , ; , > ; > > > > > > , , ; ; , ; , > ; ; ; ; ; ; , > > > > > > > > > > > > < < < < > > > < > < < 2 > > > > > > > > > < < < < > > > > > > > > > > > > > < < > > > > > > > > > > > > < > > > > : ; ; ; ; ; ; ; ; ; ; ; ; ; ; ; ; ; ; ; ; ; ; ; ; % % % % % % + % % ; + % % % : : % % % % % % % % % % % % % % % % % % % * : t : : * * : : : : t t y a y y a : a a a y d v L ] m v z i v L L M d d c [ 5.*.[ D v [ v L D [ X.X.| D  .6.5.*.{.).X.+.6.!.8.6.C.{.^.{. X^.3XhX{.{.^.{./.!.{.!.C.!.8.5.5.;.+.+.+.+.+.+.+.O.O.O.O.O.O.O.+.5.5.5.!.)..XdXjXPXDXDXLXLXLXLXHXHXHXJXJXJXJXJXJXJXJXJXJXJXJXJXHXHXHXJXJXHXHXHXHXJXJXJXHXHXHXHXHXHXHXJXJXHXHXHXHXHXHXJXJXHXHXJXJXJXJXJXJXJXJXJXJXJXJXJXJX",
"^ ^ ^ ^ ^ ^ ^ ^ ^ ^ ^ ^ ^ ^ ^ ^ ^ ^ ^ ~ ~ / ~ ~ ~ ~ ~ ~ ~ ~ ^ ^ ^ ^ ^ ^ ~ W k l h e w 5 8 & & & $ $ & & & & & & & & & & $ $ $ & & * 5 u l k W Q Q ~ ~ ~ Q Q Q W k k W ~ ~ ~ ~ ~ ~ ~ ~ ~ b b j j j b n ! ! n b z m c t z a t 0 a d g y s 0 s v v d s s s s s s s y y < < > < < < < > : > < > > f y > > < < < : ; ; O O : > O O O ; O + ; ; , ; O O O O ; ; , ; ; O O O O ; > > > < < < < 2 2 2 < < < > > > > > > ; > > ; > > , , > > > > > > > , , , ; ; > , , > > > > > > > > > > > , , , > , , > , , , , , , , , , > > > > > 2 < < < < < 2 2 2 < 2 < < < < 2 > > > > > > > > > < < 2 < < < < < < < < > > > < < < < < < < > > > > > > > > > > < < < < < < > > ; ; ; ; ; ; ; ; ; ; ; ; ; ; ; > > > ; > ; ; ; % % O O O O O % ; O % % % ; ; % % % % % % % % % % % % % % % % % = % = : : * : : : : : : 0 0 t t y t y a a a a a a M 5.D ] m c v M m } M c ) M v v v m v d a t c D D D D c ] ] X.+.X.b.*.} +.!.{.!.!.).3X XdXdX X{.8.^.^.{./.!.).|./.|.b.!.8.8.5.5.9.9.6.5.5.+.+.+.O.+.+.+.+.5.5.5.8.~.{..X XjXhXDXDXDXLXFXFXHXHXJXJXJXJXJXJXJXJXJXJXJXJXJXJXJXJXJXJXJXJXJXJXHXHXHXHXHXHXHXHXJXJXHXHXJXJXJXJXHXHXJXJXJXJXJXJXJXJXJXJXJXJXJXJXJXJXJXJXJXJX",
"Q Q Q Q ~ ~ ~ ~ ^ ^ ^ ^ ^ ^ ^ ^ ^ ^ ^ ~ ~ / ~ ~ ~ ~ ~ ~ ~ ~ ^ ^ ^ ^ ^ ^ ~ Q ~ W l h e w 5 8 & & & $ $ & & & & & $ & & & $ $ $ & & 5 5 u l k W Q Q Q ~ ~ Q Q Q Q k k W ~ ~ ! ~ ~ ~ ~ ! ! ! ~ b z x b b b ! ! ~ b z v p t 0 d d 0 : y : y s s s d v v g s s s s s d s s y < s : < < > > : > : > ; < f y ; ; ; ; ; O ; ; O O ; ; O O O ; ; ; + , ; O + O O ; ; ; ; O ; > > > > > > > ; O ; > > > ; ; , O O O O , O O ; ; ; > > > > > > > > > > > > > ; , ; > > > > > > > > > > > > > > > , , , , , > , , , , , , , , , > > > > > 2 2 2 < < < 2 2 2 2 2 < 2 2 2 2 2 2 2 2 < < < < < < < 2 2 < < < < < < < < < < < < 2 < 2 < 2 < < < < < > > > > < < < < < < < < < > > ; ; ; ; ; ; ; : ; ; ; > > > > > > > > ; ; ; % O O O O O % ; O % % % ; ; % % % % % % % % % % % % % % % = % = = = * * * : : : : : : 0 0 t t t t y a d a a a a M m m  .v d d d z ) c c m p c c c c v c c D 9.+. .[ 5.9.[ [ [ +.6.8.8.5.8.{.|./.dXDXhX0X^.!.9.8.|./.!.!.{.dX).^.}.!.9.8./.8.)./.!.!.b.8.8.9.5.5.5.5.5.5.5.9.9.8./.{. X0XdXhXDXDXDXLXFXHXFXHXHXJXJXJXJXJXJXJXJXJXJXJXJXJXJXJXJXJXJXJXJXJXJXHXHXHXHXHXHXHXHXJXJXHXHXJXJXJXJXHXHXJXJXJXJXJXJXJXJXJXJXJXJXJXJXJXJXJXJXJXJX",
"Q Q Q Q Q Q Q Q Q ~ ^ ^ ~ Q ~ ^ ^ ^ ^ ^ ~ / ~ ~ ~ ~ ~ ~ ~ ~ ^ ^ ^ ^ ^ ~ / ~ ~ Q k l l h u 7 8 & & # # # & & $ $ $ & & $ $ $ $ $ & 5 5 u l l W Q Q Q Q Q Q Q Q Q x Q ~ ~ ^ ^ ~ ~ ~ ! ~ ~ ~ ~ b b b b b b ~ ~ b z z n ) m 0 d c z a g d v 0 0 s d s s y y s s s s s s s s f s g f y < < ; ; < y < < < < y s y > ; O ; ; O O ; ; ; ; ; ; ; ; ; O > > O + O ; ; ; , < > > O O O O ; > > > ; > > > > > > > > ; , , O O ; ; ; ; ; > ; > > > > > > > > > > > > > > > > > > > > > > > > > > > > , , , , > > , , , , > > > > > > > > > > < < 2 2 2 2 2 2 2 2 2 2 2 2 2 2 < < < < < 2 2 < 2 < < < < < < < < < < < < < 2 2 2 2 < < 2 2 2 2 2 < < > > > < < < < < < < < < < < > > : : : : ; ; ; : : : > > > > > > > , ; ; ; % O O O O % ; % % % % ; ; ; ; % % % % % % % % % % $ % % = = * = * * * * : : : : : : : 0 : % : c c a a a a d M L M c c p a p c v c p z v i M m v v D [  .*.9.5.9.!.9.*.D } 6.8.5.5.6.8.^.5.!.{.dX!.!.9./.^.!.8.~.8.^.|.|.C.^.^.^./.}.3X|./.^.}.).^.^././.!.b.8.8.8.8.8.8.Q.!./.{. XdXjXhXSXDXDXDXLXFXHXHXJXJXJXJXJXJXKXKXKXKXJXJXJXJXJXJXJXJXJXJXJXJXHXHXHXHXHXHXHXHXHXHXHXHXHXHXJXJXJXJXHXHXJXJXJXJXJXJXJXJXJXJXJXJXJXJXJXJXJXJXJXJX",
"Q Q Q Q Q Q Q Q Q Q Q Q Q Q Q ~ ~ ~ ^ ~ ~ / ~ ~ ~ ~ ~ ~ ~ ~ ~ ~ ~ ^ ^ ~ / ~ ~ ~ Q x k k l u 7 8 4 & & # & & & $ $ $ $ $ $ $ $ $ = 5 7 h l k W W Q Q Q Q Q Q Q Q Q ~ ~ ^ ^ ' ! ~ ! ~ ~ ~ ! ~ ! ! ! ! ~ n b b j i ) c z i 0 0 p n F D z g v s 0 y s s s s s < y y 1 < < > > < y s s s y < : y y : < < y < > : ; : ; O O ; ; O ; : < ; : : ; ; ; > < , ; ; ; ; , , > > > > > > , O O , ; ; > > > > > > > > > > > ; , O O O , , ; , , , , , ; > > > > > > > > 2 < > > > > > > > > > > > > > > > > > > , , , > > > > > > > > > > > > > < 2 2 < < 2 2 2 2 2 s s f f f 2 2 2 2 s s s 2 2 2 2 2 < < < < < < 2 2 2 2 f 2 2 2 2 2 s s s s 2 2 2 < < < < 2 2 < 2 2 2 2 < < < < < < > > : : : ; : : : : > > > > > > > ; ; ; % O O O % % ; % % % ; % % ; ; % % % % % % % % % $ $ % % % % * % * * * * : : : : : : : : : t y y y a a a d d v d a p a d ] m z a t a p z p D } m D } +.5.b.6.+.X.D ] O.!.dX/.6.9.5.C.{.).).).*.+.9.8.!.^.9.8.^.`.}.!.{.!.^.).^.3XdX X X!.{.3XdX3X|.|.}.{.^.^././.^.^.^.^./.^.{.0XdXjXhXSXDXDXDXLXLXFXHXHXJXJXJXJXJXJXKXKXKXKXKXJXJXJXJXJXJXJXJXJXHXHXHXHXHXHXHXHXHXHXHXHXHXHXHXHXHXHXJXJXHXHXJXJXJXJXJXJXJXJXJXJXJXJXJXJXJXJXJXJXJXJX",
"W W W W W W Q Q Q Q ~ ~ Q Q Q Q ~ ~ ~ ~ ~ ~ ~ ~ ~ ~ ~ ~ ~ ~ ~ ~ ~ ~ ~ ~ / / Q Q ~ ~ ~ ~ k l h w 8 4 & # & & # # & & & # $ $ $ & & 5 u l k W Q Q Q Q ~ ~ Q Q Q Q Q ~ ^ ^ ^ ^ ' ~ ^ ~ ~ ! ! ! ! ! ! ~ ~ ~ x b z z c c z n v z z v v p p d s s s y y y < y y s s < < < : : ; : : < < y < > : : : > ; f < < > ; ; O ; ; ; ; ; ; ; < < ; > > > ; ; > < < , ; ; ; > > ; ; > > > > > > ; > > , , , > > > > > > > > > > , , , , , , , , , , , , , ; ; > > > > > > < < < 2 < , > , , > > > > , , > , , , , , > > > > > > , , > > > > > > < < 2 2 < < 2 2 2 2 2 2 2 f f f f f f 2 < < 2 2 2 2 2 2 2 2 2 2 2 2 f f f f f f f f f f f 2 2 2 2 f f f 2 < 2 f f < 2 2 2 2 2 2 2 2 < < < < > > > > , , > > > > > > : : > > ; ; % % O O % ; ; ; % % ; : ; % % % % % % % % % % % % % % % = = % % = * : : : : : : : : : : : a y t t a d c z p d a i i v p v i t a p z m D m m m m [ +.8.5.) [ [  .0.9.*.9.O. . .O.!.9.+.+.*. .+.5.9.{.hX{.5./.3XdX^.8.b.^.}.{.}.^.).|. X X3XgXgXdX0X X X X X{.}.{.{.|. X{.^. XdXdXhXhXDXDXDXDXLXLXFXLXHXJXJXJXJXJXJXJXKXKXKXKXJXJXJXJXJXJXJXJXHXHXJXJXHXHXHXHXHXHXHXHXHXHXHXHXHXHXHXHXHXHXJXJXJXJXJXJXJXJXJXJXJXJXJXJXJXJXJXHXJXHXHXHX",
"W W W W W W Q Q Q Q Q ~ Q Q Q Q ~ / ~ ~ ~ ~ ~ ~ Q Q Q Q ~ ~ ~ ~ ~ ~ ~ ~ ~ Q Q Q ~ ~ ~ ~ ~ x l h w 8 8 & & & & & $ # # # $ $ $ & & 5 h k W Q Q Q Q Q ~ ~ Q Q Q Q ~ ^ ' ' ^ ^ ~ ~ ~ ~ ~ ! ! ! ! ~ ~ b b ~ j b ) i b c c b n D D v v ) ) v z a y 0 y y < 1 > < < y s s < < : ; O O ; ; ; < : ; > , ; < ; ; ; > < < < > ; ; ; ; ; ; ; f ; < f , ; > > , , ; , ; ; ; ; ; > > > > > > > > > > > > > > < > > > > > > > > > > > > > ; ; ; ; ; ; , ; ; ; > > , > , > > > 2 2 < > , , > < > > > > < < < < < < > > < > < < > > < < < < < < < < < < < < < < < 2 2 2 2 2 f f f f f f C C f 2 2 f f f 2 2 2 2 2 f f C Z Z Z Z C C f f f 2 2 2 f f C C f f 2 f f 2 f f f f f 2 f f 2 2 2 2 < < < > > > > > > > : : : : > > > ; ; ; % O % ; ; ; % % : : ; % % % % % % % % % % % % % % % = = % % % * : : : ; : : * * : : : t y a a a s c d a t 0 : v p p t a d v M M m ) D m m m [ D 0.) D v 0.M m z +.} v M D [ D  .O.!.!./.!.{.dX|.8.5.;.+.!./.!./.{.|.}.0XfX0XgXhX|.3X|.hXDXgXhXgXjXdXdX0XdX3XdXgXdX^.dXjXgXgXhXDXDXDXDXLXLXLXLXHXJXJXJXJXJXJXJXJXKXKXKXKXJXJXJXJXJXJXJXJXHXHXJXJXHXHXHXHXHXHXHXHXHXHXHXHXHXHXHXHXHXHXJXJXJXJXJXJXJXJXJXJXJXJXJXJXJXJXHXHXHXHXHXLX",
"W W W W W W Q Q Q Q Q Q Q Q Q Q / / ~ ~ ~ ~ ~ ~ Q Q Q Q ~ ~ ~ ~ ~ ~ ~ ~ Q Q Q Q ~ ~ ~ ~ ~ ~ x l h w 8 4 & & & & # $ # # $ $ $ & 8 7 l x Q ~ ~ Q Q Q ~ ~ ~ Q Q ~ ~ ^ ' ' ^ ^ ^ ^ ^ ~ ~ ~ ~ ~ ~ b b k k b b ! z ! b x b c v M M z d v v d d z v F : 1 < 1 : : : > < < s s y < ; O ; ; ; ; ; ; ; > g < < > O O ; ; s s y < > : : ; : < < ; O ; > > > ; > , > > > > > > > > > > > > , , , , > > > < > < < < < < < < > > > > > > > > > > > > > > > > > > 2 > , , , , < 2 2 2 > > < < < < 2 2 2 2 2 2 2 2 2 2 2 < 2 2 2 2 2 2 2 2 2 2 2 2 2 2 < < 2 2 2 s s s f f f f f f f f f f Z Z Z f f f f f f f f f Z Z C f f f f f f f f f f f f f g Z F f f g f f f f f g f f f f f f s f f y y < < : : : : : : : : : : : > > ; ; ; % % ; ; ; : ; > > ; ; % % % % % % % % % % % % % % = = = = = = : : : ; : : * * : : : t y a a y a a a a t t t ) M c z c c z c M M M v v v v v m c v c ] } m m ) m m M m m ) ] 8.5.X.!.9.+.^./.!.+.8.6.C.5.9.8.b.hXSXhXSXDX|.{./.0XdXgXhXgXgXjXdXdX0X X XdX0XdXdX{.dXhXhXMXLXDXDXDXDXLXLXFXFXHXJXJXJXJXJXJXJXJXJXJXKXKXJXJXJXJXJXJXJXJXJXHXHXJXJXHXHXHXHXHXHXHXHXHXHXHXHXHXHXJXJXJXJXJXJXJXJXJXJXJXJXJXJXJXJXJXJXJXJXHXHXHXHXLXLX",
"k k W W W W Q Q Q Q Q Q Q Q ~ ~ / / / ~ ~ ~ ~ ~ Q Q Q Q ~ ~ ~ ~ ~ ~ ~ ~ Q Q Q Q Q ~ ~ ~ ~ ~ ~ x k h w 5 8 8 8 & & & # # # # # & 8 u l Q ~ ~ ~ Q Q Q ~ ~ ~ ~ ~ ~ ^ ^ ^ ^ ^ ^ ^ ~ ^ ~ ~ ~ ~ ~ ~ ~ ~ b b ~ b ! ) b n z c c M v z n z d d z d d s s y 1 1 1 < < < 1 : 1 : < s s < < < < > ; ; > ; 2 g ; > ; < : ; ; O ; < y < y 2 2 < y s f f 2 s f f 2 < < > > > > ; ; ; ; ; ; > > , , > > > > , , > > > > > > > > > > > > > > > > , , , > > > > > < 2 < < < > > > < 2 2 2 2 < < < < 2 2 2 2 2 2 2 2 2 2 2 2 2 2 2 2 2 2 2 2 2 2 2 2 2 2 2 2 2 2 2 s f f f f f f f f f f f f f f f C Z f f f f f C f C Z F F F F Z C C f f f f f f g g g Z F Z f g Z f Z C Z Z f f f f f f f f f s f s s < : : : : : : : : : : : > ; ; ; ; ; ; ; ; ; ; : > ; ; % % % % % % % % % % % % % % = = = = = = : : : : : : * * : : t t t t y t y t t t 0 p c ] O.v c M v d p z p p d d z c z p v M M b ] ) p v M ] [ ] ] ] +. .[ [ ] +./.9.5.8.6.5.*.;.5./.0XfX{.b.|.{.9.!.{.}.DXdXgXFXJXDXDXDXDXSXhXhXDXDXDXdXgXhXDXDXDXDXDXDXLXLXLXLXFXLXJXJXJXJXJXJXJXJXJXJXKXKXKXJXJXJXJXJXJXJXJXJXHXHXJXJXHXHXHXHXHXHXHXHXHXHXHXHXHXHXJXJXJXJXJXJXJXJXJXJXJXJXJXJXJXJXJXJXJXHXHXHXHXHXHXLX",
"k k k k W W W Q Q Q Q Q Q Q Q Q / / / ~ ~ ~ ~ Q ~ Q Q Q Q Q ~ ~ ~ ~ ~ ~ / ~ ~ ~ ~ ~ ~ ~ ~ ~ ~ ~ k l h w 7 7 5 5 5 8 & & # # # & 8 e l Q ~ ~ ~ ~ ~ ~ ~ ~ ~ ~ ~ ^ ~ ^ ^ ^ ^ ^ ~ ! ! ! ! ~ ~ ~ ~ ~ b b b ~ n ! ) ! n b c c M n v c z a y s s s d s y < 1 1 < < < > : > : y s g s s y < > ; ; > > f : > > : > > : : : : : : < > > > < 2 f f f f f f f f < < < < > > > O O O , , , > > > > > > > , , > > > > > > > > > , > , , , , , > > > > , , < < > < > < 2 2 2 2 2 2 2 2 2 2 2 2 2 2 2 2 2 2 2 2 2 2 2 2 2 2 2 2 2 2 2 2 2 2 2 2 2 2 2 2 f 2 f f f f f f f f f f f f f f f f f f f f f f C f C C C C Z Z F Z Z Z C f g g Z Z Z Z Z S Z F F Z Z Z F S F F S S S Z Z Z Z f g f f f f f f s y < < 2 2 2 > > > > > > , ; ; ; ; ; ; ; : : : : ; % % % % % % % % % % % % % % % * * * % % : : : : : : : * * : : t t y t t t 0 0 a a : M D v z c d p p p p a p p p p j j z z c c c c c c b b ! m ] ] ] ] O. .| ] D D [  .5.O.|  .D [ O.5.;.L | D 5.*.6.!.{.hXJXGXDXDXFXKXHXFXdXJXDXDXJXDXgXgXHXSXhXjXDXLXDXLXLXFXFXFXHXJXJXJXJXJXJXJXJXJXJXJXJXJXJXJXJXJXJXJXHXHXHXHXHXHXHXHXHXHXHXHXHXHXHXHXHXHXHXHXJXJXJXJXJXJXJXJXJXJXHXJXJXJXJXJXLXLXJXJXHXHXHXHXHXHXKXDX",
"k k k k k W W W W W Q Q Q Q Q Q ~ ~ ~ / ~ / Q Q Q Q Q Q Q Q Q Q ~ ~ ~ ~ ~ ~ ~ ~ ~ ~ ~ ~ Q Q ~ ~ W k l e h w w u u w 5 8 8 8 8 8 6 h k Q ~ ~ ~ ~ ~ ~ ~ ~ ~ ~ ~ ^ ~ ~ ^ ^ ^ ^ ! ! ~ ! ! ~ ~ ~ ~ Q b ~ ~ ~ ~ n ! ! n b b M M M v z d d y y y y s s s y y y < < < < s s f < : : g s : ; O O O : s y < < > : ; ; ; : : : > < 2 2 f 2 2 < < < > , ; < 2 > > > > < < < > > > ; , , , > , , > , > > , , > > > > > > > > > > > > , , , , > > > > , , < < > > > < 2 2 < < 2 2 2 2 f f f 2 2 2 2 2 2 2 2 2 2 2 2 2 2 2 2 2 2 2 2 2 2 2 2 2 2 2 2 2 C C C f f f f f f f f f f C f C f C C f f 2 f f f C C C C C C Z Z Z Z Z Z C f f Z F F F F S Z S F F F Z F S S S S P P S Z F F Z C C C C C f f f f s s < < < < < > > > > > , ; ; ; ; ; ; > : : : ; % % % % % % % % % % % % % % % * * * % % : : % % ; 0 0 * * : : t t y y t 0 0 0 t a t c c i a p p p p p p p d d p p j j z z c c c c c c ' b +.} m m m ! ] ) m m O. .[ D D D D [  .8.;.9.5.;.9.9.8.!.}.hXgXhX0XDXhXhXhXhXMXgXgXgXhXDXdX X}.dXgXhXDXLXDXDXLXLXLXLXFXHXJXJXJXJXJXJXJXJXJXJXJXJXJXJXJXJXJXJXJXJXHXJXHXHXHXHXHXHXHXHXHXHXHXHXHXHXHXHXHXHXJXJXJXJXJXJXJXJXJXJXHXHXJXJXJXJXLXLXHXHXHXHXHXHXHXHXJXPX",
"k k k k k k k k W W Q W Q Q Q Q Q Q Q Q Q Q Q Q Q Q W W Q Q Q Q Q Q Q Q ~ ~ ~ ~ ~ ~ ~ ~ ~ ~ W W W x l h h h l h h e e w 7 7 7 7 w l k Q ~ ~ ~ ~ ~ ~ ~ ~ ~ ~ ^ ^ ~ ~ ^ ^ ! ! ~ ~ ^ ^ ! ~ ~ ! ! Q b ! ~ ~ ~ b ~ ! ! ~ m m m M v z c c d a y y y y y y y y < < : < y y : > < f > < s 2 ; O % < s : < < > ; ; ; : : : : > > < > > > > > > ; > < < , , 2 2 > , , > < < 2 2 > > > > > > > > > > > > > > > > > > > > > 2 < > > > , , , > > > > > > > > > > 2 2 2 2 2 < 2 2 2 2 2 2 2 2 2 2 2 2 2 2 f C 2 2 f f f f f f f f C f f C C C 2 C C C C C C C C Z Z Z Z C C C C C C C C C C C C f C C C Z Z Z Z Z Z Z Z Z S P P P S Z Z Z Z Z S P Z S S S S S Z P P P P U P G S S S Z Z Z Z Z C C f f f f f 2 2 2 < < < < > > > > : : ; ; ; > : : : : > ; ; % % % % % % % % % % % * * * * * * * * * * : : : : : : : t y y t 0 t t 0 0 t a a a i t t p p p p p p p p p p p p p p p p c c z z c b m b b M M M M M M m m m m D ] [ [ [ D +.*.8./././.8.3X0XdX X|.gXhX}.|.{.gXJXJXJXhXDXSXhXdXgXgXSXJXDXDXLXDXhXJXDXFXFXDXFXHXJXJXJXJXJXJXJXJXJXJXJXJXJXJXJXJXJXJXJXJXJXJXJXJXJXJXHXHXHXHXHXHXHXHXHXHXHXHXHXHXJXJXJXHXJXJXJXJXJXJXHXHXJXJXJXJXHXLXHXHXHXHXHXHXHXHXLXhX",
"r l l l l l l l k W W W W W Q Q Q Q Q Q Q Q Q Q Q W W W Q Q Q Q Q Q Q Q Q Q Q Q ~ ~ ~ ~ W W W k x k k l l l l l l l l e w e e w e l Q ~ ~ ~ ~ ~ ~ ~ ~ ~ ~ ~ ^ ^ ~ ~ ^ ^ ! ! ! ~ ^ ! ~ ! ! ~ ~ ~ ! ! ~ ~ ~ ~ n ~ n ~ m m m M c d d c c d s y y y y < 1 y < : > > : < < y < > > < y < < : < 2 < > > > < < < < < > : : > > < < < > ; > > < 2 < < < > > > > > > < < < < < < < > < > > > > < 2 2 < < > > > > > > < < 2 2 2 < < < < < < < < < > > > > > < 2 2 2 2 2 2 2 2 2 2 2 2 2 2 2 2 2 2 2 C C C C C C C C C C C C C C C C C C C C V C C C C Z Z Z Z S Z Z Z Z Z Z Z Z Z Z Z Z Z Z Z Z Z Z Z Z Z Z A Z Z Z A P P U P S Z A S S A S P S G S S S S C P #.I U U U G G G G S Z Z Z Z Z Z Z C C f f f f 2 2 2 < < > > > > > : ; ; ; ; : > > : > ; ; % * % % % % % % % % % * * * * * * * * * : : : * % % : : t a t 0 : 0 0 0 t t t t a i t a z d p p p p p a a i i p p p p p z z z z z N i ' b b v v v M m ] ] ] ] [ [ ] X.*.+.X.5.5.8.8.5.8.^./.0XfX`.|. XSXSXDXMXSXKXDX XdXgXgXjXdXgXgXgXhXhXhXgXDXDXDXDXFXFXLXFXHXJXJXJXJXJXJXJXJXJXJXJXJXJXJXJXJXJXJXJXJXJXJXJXJXJXHXHXHXHXHXHXHXHXHXHXHXHXHXHXJXJXJXJXJXJXJXJXJXJXHXHXJXJXJXJXLXLXHXHXHXHXHXHXHXHXDXjX",
"r r r r l l l l k k k W W W Q W Q Q Q Q Q Q Q Q Q Q W W W W W Q Q Q Q Q Q Q Q Q Q Q ~ Q Q W W W W W k l l l k k k k k l l l r e r W Q ~ ~ ~ ~ ~ ~ ~ ~ ~ ~ ~ ^ ^ ^ ~ ! ! ^ ~ ~ ~ ! ! ~ ~ ! ~ ~ ~ ~ ~ ~ ~ ~ ~ b b b b b M M v c d s d c d s s s y y ; : < < < < < < < < < > ; > < < > < < s s < > ; , , > < < < > > > > > > > > > > > > < < > > < > > > > > > > < > > < 2 < < < < > > > 2 2 2 2 2 < > > > , < > < 2 2 2 < < < 2 < 2 2 2 2 2 > 2 2 2 2 2 2 2 2 2 2 2 2 2 2 2 2 2 C C C C C C C C C Z Z Z Z Z Z Z Z Z Z Z Z Z Z Z Z Z Z A A C Z A A A A A A Z Z A A A Z Z C C Z A A Z A G G G A A A G A P U U U U U U P I I P P G G A S P P U G G U U U -.I U #.U P P Y Y U G A Z S G S Z Z Z C C f f 2 2 2 < < < > > > > , > ; > > : > > : ; ; ; ; ; % % % % % % * % % = % % * * * : * * : : : * % * : t t t t 0 0 : 0 0 t t 0 0 t i a a d d p p p p a a a i i p p p p c c z z z z c c b b b M M M M M M ) | m v m ] ] O.O.*.5.8.9. .8.^.^.{.9.!./.^.dXhXjXfXhXgXfXgX{.jXdXjXdXLXJXJXLXLXJXhXhXMXDXSXSXDXDXLXFXJXJXJXJXJXJXJXJXJXJXJXJXJXJXJXJXJXJXJXJXJXJXJXJXJXJXHXHXHXHXHXHXHXHXHXHXHXHXHXHXJXJXJXJXJXJXJXJXJXJXJXJXJXHXHXHXHXHXHXHXHXHXHXHXJXLXPXdX",
"r r r r r r l l l l l k k k W W W W Q Q Q Q Q Q Q Q W W W W W Q Q Q Q Q W W Q Q W W Q W W W W W W W k l l k k W W W W W k k l h l Q ~ ~ ~ ~ Q Q ~ ~ ~ ~ ~ ~ ~ ~ ~ ~ ~ ~ ~ ~ ~ ~ ! ^ ' { ! ~ ~ ~ ~ ~ ~ ~ ~ ~ b b b b c c v v c d a a d d s s f f y < > > < s s f s y > , , > > < > > > < < 2 f < < < > , > < < < 2 < > > > > > > > > > > > > > > > > 2 > > > > > > > < < < < 2 2 < 2 2 > > 2 2 2 2 < > > ..< > > 2 2 2 2 < < < < 2 2 2 2 2 2 2 2 2 2 2 2 2 2 2 2 2 2 2 2 2 2 C Z Z Z C C C Z Z Z Z Z Z Z S A A A A A A A A A G A A A A A G G A A A G G G G A A A A A G G I G A H A G I I I I I I I Y Y Y U U U #.U U U U U U U P P P P P U U U U &.U -.-.-.-.Y U Y U U U P G G P P P G S Z Z Z Z C f 2 2 s < y < < > > , > ; > > > > > > ; ; ; ; ; % % % % % % % % % : : * * % % : : : : : : : : : t a t t 0 0 0 : : 0 0 0 t t t a i i a a p p a a i a a p p j j p p c c z z z z c b b b b M M m M M m m  .] v m [ ] b.O.8./.6.5.^.}.MXgXdX^.8.8./.|.3X X).{.}.`. XdX{.dXFXDXDXMXhXFXLXgXFXDXDXDXSXSXDXDXLXJXKXJXJXJXJXJXJXJXJXJXJXJXJXJXJXJXJXJXJXJXJXJXJXJXHXJXHXHXHXHXHXHXHXHXHXHXHXHXHXHXJXJXJXJXJXJXHXHXJXJXJXJXJXHXHXHXHXHXHXHXJXJXHXHXHXDXhXsX",
"l l r r r r r r r r l l l k k k W W Q Q Q Q Q Q Q W W W W W W W Q Q Q Q W W W Q W W W W W W W W W W k k k k k W W W W W W l l l W Q ^ ~ ~ ~ Q Q ~ ~ ~ ~ ~ ~ ~ ~ ~ ~ ~ ~ ~ ~ ~ ~ ~ ! ~ ~ ~ ~ ~ ~ ~ ~ ~ ~ b b b ~ n n n M M b c z d d d s s s f f y y < < s s s f f s > > > > > < > < < < < > < f g s < > > < < > > < 2 f 2 < < < < < < < > > > > > > > > 2 > > > > > > > > > < < 2 2 < 2 < < > < < 2 < 2 C Z > < < 2 2 2 < < 2 2 2 2 2 2 2 2 2 2 2 2 2 2 2 2 2 C C C C f C C Z Z Z Z Z Z Z Z Z Z Z Z Z A A A A A A A A A A A A A A A A H H A G Y Y I I I I Y Y G G Y Y Y Y Y Y Y Y Y I Y Y Y Y Y Y Y R T T -.-.-.-.&.&.&.&.&.-.U U U U U Y -.-.Y %.U &.&.&.&.-.-.Y Y Y Y U G Y U U U U P G S Z Z Z C f f s s s y < < > > : > : : > > : > > > : ; : % % % % % % % % * : : : : : : : : : : * : : : t a y t 0 0 0 0 : : 0 0 0 t t t a i i i i i i i i i i i i p p j p p c c z z z z c b b b b M M m M M M m L m ] +.5.*.9./.{.{.^./.`.3XfXKXgX0X{.fX).C.;.5.b.C.^.!.~. XdXfXMXgXhXDXKXMXhXDXhXMXDXDXHXJXJXJXJXJXJXJXJXJXJXJXJXJXJXJXJXJXJXJXJXJXJXJXJXJXJXJXHXHXHXHXHXHXHXHXHXHXHXHXHXHXHXHXHXHXHXHXHXHXJXJXJXJXHXHXJXJXJXJXHXHXJXJXJXJXJXJXJXJXLXPXjX.X",
"l r r r r r r r r r r l l l l l W W W W Q Q W W W W W W W W W W W Q Q Q W W Q Q W W W W W W W W W W k k k k k W W W W W l l l l W Q ~ ~ ~ ~ Q Q Q Q ~ ~ ~ ~ ~ ~ ~ ~ ~ ~ ~ ~ ~ ~ ~ ~ b ~ ~ ~ ~ b b ~ ~ b x b b ! ~ m m M M v z c c d s y y y y y < > y g < < < < y < < < < > > < 2 y < < < < 2 s f s f f < < < < y 2 < < < < < < < < < > > > > 2 < 2 > > > > > > > > > > > > > > > > 2 2 2 < < < < < 2 2 2 2 2 < < 2 2 2 2 2 2 2 2 2 2 2 2 2 2 2 2 2 2 2 2 2 f C Z Z Z C C Z Z Z Z Z Z A A A A A A A A A G G A A A A A A A A A A A G I I Y Y Y Y Y Y Y Y Y Y Y Y U T R R Y R T T T R Y I T R R R T T &.&.&.&.&.&.&.%.i.i.i.%.&.&.&.&.&.-.-.%.%.-.%.%.i.&.&.&.-.-.-.-.-.&.-.U U #.-.#.U U G G S S Z Z C f f s f s y 2 < > : > : : > > : > > > > ; > ; ; * * % * % = : : : : : : : : : : : % : : 1 y y 1 : : 0 0 0 : : 0 0 0 0 t t a i i i a a i i i i i i i p p j p p c c z z z z c b b b b M M m M m m m } ] | O.5.O.*.^.^.).!. X~.|.{.b.!.b./.dX!.8.!.^.^.^. X{.`.DXDXhXjXhXKXSXdXhXMXDXFXLXDXDXFXHXJXJXJXJXJXJXJXJXJXJXJXJXJXJXJXJXJXJXJXJXJXJXJXJXHXHXHXHXHXHXHXHXHXHXHXHXHXHXHXHXHXHXHXHXHXHXHXHXHXHXHXHXHXHXJXJXJXJXJXHXJXJXJXJXJXJXJXHXDXhXdX{.",
"l l r r r r r r r r l l l l l l l k k k W W W W W W W W W W W W W W W W W W W W W W W W W W W W W W W k k W W W W Q Q W l l l l Q ^ ^ ~ ~ ~ ~ ~ ~ ~ ~ ~ ~ ~ ~ Q Q Q ~ ~ ~ ~ ~ ~ ~ b x ~ ~ ~ ~ ~ b b b b x b b b M M M v v v v g d s s y s y y y < 2 f s < < < < y s y s s 2 < 2 f 2 < < < 2 f f 2 y f s 2 < < < 2 < < > < < > > < < > > > > > < 2 < > > > > > > > < 2 < < > < > > 2 2 2 2 2 2 2 2 2 2 2 2 2 2 2 2 2 2 2 2 2 2 2 2 2 2 2 2 2 2 2 2 2 C C C 2 C C C C Z Z Z Z Z A A C Z A A G A A A A G A A A A I A G A A A A I Y Y Y Y Y Y R R R Y R R Y R U T T &.&.&.&.&.T T T &.T &.&.T T T T T T %.%.%.%.r.%.r.r.r.r.r.r.r.r.r.r.r.r.r.y.t.y.y.r.y.y.r.%.&.-.&.%.&.&.&.-.-.-.-.#.U U P I P G S Z Z C g f f s y y < < > > > > > > > > > > > : : ; ; ; ; ; ; ; ; ; : : : ; : : : : * * * * : t t t : : : : : : : : 0 0 0 0 t i a i i a i i i i i i i i p p j z z z j j j j c c c c c c v b m m m m m m } } } } O. .}  .+.+.9.*.5.+.*.6.9.5.;.5.^.{. XdXgX`.{.3XdXdXDXJXFXgX0XgXFXFXFXFXFXFXJXJXHXHXJXJXJXJXJXJXJXKXKXKXKXKXJXJXJXJXJXJXJXJXJXJXJXJXJXJXJXJXJXJXJXJXHXHXJXHXJXJXHXHXHXHXFXFXFXFXFXFXLXLXHXFXFXFXHXHXJXJXJXJXJXJXJXJXJXJXJXHXDXhXdX).",
"l l r r r r e e e r r r r r l l l l l k k k W W W W W W W W W W W W W W W W W W W W W W W W W W W W W k k W W W W Q Q W Q Q Q Q ^ ' ' ^ ^ ^ ^ ^ ~ ~ ~ ~ ~ ~ ~ ~ Q Q ~ ~ ~ ~ ~ ~ ~ ~ ~ ~ ~ ~ b b b b b b b c c c c c v v v v v v d s s s s d g g g F y y < < < < y f g g Z S F 2 < < < f f f f 2 f s 2 > > < < < < < < > > > > > > > > > > > > > > > > > < < < < 2 < 2 2 2 < < < 2 < 2 2 2 2 2 2 2 2 2 2 < 2 2 2 2 f C 2 2 2 2 2 2 2 2 2 2 2 2 2 C 2 C C C C C C C Z Z Z A A A A A A A I I G Y Y Y Y Y Y G I Y Y Y U U Y Y R T &.&.&.T T T T Y Y R T T R R &.&.%.%.%.%.&.&.&.r.r.%.&.%.%.&.T T &.%.r.y.y.y.y.y.y.p.p.p.p.y.t.t.t.p.p.p.p.p.p.f.f.p.p.p.a.p.r.&.&.%.r.r.r.%.&.-.-.-.-.Y U U Y P P P S S Z C C f f s y y 2 < > > > > > > > > > : : > > ; ; : ; ; ; ; ; : : : ; : : : : * * * * : t t 0 : : : 0 : : : : : : 0 t i a a a a a t i i i i i i i p p j z z z z j j j c c c c c c v b m m m ! ! ! ] ] ] ] ] ] ] | } 5. .;.+.*.5.5.9.6.8.3XdXhX{.|.gX3XhX{.dXfXhXhX0XMXDXDXFXFXFXFXFXFXJXJXJXJXJXJXJXJXJXJXJXJXKXKXKXKXJXJXJXJXJXJXJXJXJXJXJXJXJXJXJXJXJXJXJXJXHXHXHXHXJXJXHXHXHXHXFXLXFXFXLXFXLXLXLXFXHXHXHXHXJXJXJXJXJXJXJXJXJXJXJXHXDXPXdX{.",
"r r r r e e e e e e e r r r r r r r r l l k k k k k k k k k k k k l k k W W W W W W W W W W W W W W W W W W W W Q W W l l l l l W ~ ~ Q Q Q Q Q Q ~ ~ ~ ~ ~ ~ ~ ~ ~ ~ ~ ~ ~ ~ ~ ~ ! ! b b b b b b c c c c c c c z z z v v g d d s s s s s s f g F f g s f s y < y f g f f s f f f 2 f s 2 f f Z g 2 > < < < < < < < > > > > > > > > > > > 2 2 2 < < < < < < 2 2 2 2 2 2 2 2 2 2 2 2 2 2 2 2 2 2 2 < 2 2 2 2 2 2 2 2 2 2 2 2 2 2 2 2 C 2 2 2 C C C C Z Z C C Z Z Z A A A A A A A I Y Y Y Y Y Y Y Y Y Y I Y Y T T -.-.&.&.&.&.&.%.&.&.&.&.&.T T R T &.&.T T -.&.&.%.r.r.r.y.r.r.&.r.r.y.y.y.y.y.y.y.p.p.p.p.u.f.f.p.p.f.f.p.f.f.f.f.f.f.f.f.d.d.d.d.d.d.d.d.s.r.r.r.p.p.p.i.%.&.&.%.%.-.-.-.-.#.#.U G G Z Z Z C C f s 2 2 < < > > > > > > : : > > > > : ; ; : : : : : : : : : : : : : * * * : t t t * : : : : : 0 0 0 0 0 t a a a a a t t t t i i i i i i i p j z z z j j j j c c c c c c v b m ! m ! ! ! ] ] ] ] ] ] ] ] ] ] |  .} O.5.b. .+.!.!.^.^.{.|.dX|.}.|. X^. X XDXDXJXJXFXFXFXFXFXFXJXJXJXJXJXJXJXJXJXJXJXJXJXJXKXKXKXJXJXJXJXJXJXJXJXJXJXJXJXJXJXJXJXJXJXJXJXHXHXHXJXJXHXHXHXHXLXLXLXLXLXLXLXLXLXLXFXLXFXHXJXJXJXJXJXJXJXJXJXJXJXHXLXDXjXsX",
"r r r r e e e e e e e e e e e e e r r r r l l k k k k k l k l l l l l l k k W W W W W W W W k k W W k k W W W W W W l l l l l l W Q Q Q W W Q Q Q Q ~ ~ ~ Q ~ ~ ~ ~ ~ b b b b b b ! ! b b b b c c z c c z z z z z d d s s s s s s s s s g s g f g s s g F g g s s s f s f f f f f f f f f f f f f 2 2 < < < < < < < > > > > > > > > < < 2 2 2 2 2 2 < < < 2 2 2 2 2 2 2 2 2 2 2 2 2 2 2 2 2 2 2 2 2 2 2 2 2 2 2 2 2 2 2 2 2 2 2 C C C C C C C C C Z Z Z Z Z A A A A A I Y Y Y Y Y U Y Y R T T T T T -.T T T T T T -.T T R T &.&.&.&.T T -.-.-.T -.r.r.-.p.p.p.p.t.t.y.y.t.y.y.y.y.y.y.y.y.p.p.p.f.f.f.f.f.f.f.f.f.g.g.f.f.f.f.f.f.f.f.d.f.g.g.g.g.g.g.d.d.p.p.y.y.p.p.p.p.y.r.%.r.i.%.&.&.&.&.-.#.U G G A Z Z C f f f 2 2 < < > > > > > > > > > > > > ; : : : ; : : : : : : : : : : * * * : t t t * : : : : : 0 0 0 0 0 t i a a i a a t t t i i i i i i i p p p p p p j j j c c c c c c v b m m ] ! ' ] } } } } } } } } | m ]  .+.6.9.*.5.^.{.^.C.C.!.0XDX{.gXJXSX X0XFXFXDXFXJXHXFXFXFXFXFXJXJXJXJXJXJXJXJXJXJXJXJXJXJXKXKXJXJXJXJXJXJXJXJXJXJXJXJXJXJXJXJXJXJXJXJXJXHXHXHXJXJXHXHXHXHXLXLXLXLXLXLXLXLXLXLXFXFXFXHXJXJXJXJXJXJXJXJXJXJXJXHXLXDXPXjX",
"l r r e 9 9 e e e e e e e e e e e e r r r r r l l l l l l l l l l l l l l l l l W W W W W W W W W W W k k k k k k l l l l l W W W W Q Q W W W W Q Q Q ~ ~ Q Q ~ ~ ~ b b x b b ~ ~ n n b b v n c z z d d z g d d d s s s s f f y y y g g g f g 2 y f y g Z Z f s y s s f f f f f s s 2 s s 2 2 2 < < 2 < < < < < > > > > > > > > > 2 2 2 < < < < < 2 < 2 2 2 2 2 f f 2 2 2 2 2 2 2 2 2 2 2 2 2 2 2 2 2 2 2 2 f f C 2 2 2 2 2 2 2 C C C C C V C Z H H H H H A A A A G Y Y Y R R Y Y R -.-.-.&.%.%.-.-.&.&.&.&.&.&.r.r.&.-.-.&.&.&.%.&.&.&.&.r.r.r.r.t.t.t.t.y.y.p.p.p.p.p.p.p.p.p.p.p.p.p.p.f.f.f.f.f.g.g.g.g.g.g.g.g.g.k.k.g.g.g.g.g.g.g.g.g.g.g.g.g.g.g.d.f.f.p.p.p.a.f.p.p.r.y.p.p.i.i.i.r.%.&.-.-.Y G A H Z Z C Z f f f 2 2 < < < > > > > > > > > > > > : : : : : : : : : : : : : : : * : t t 0 : : : : : 0 0 t t t t t a a a a t t t t t t t i i i i i p p p j p j j c c c c v c b b b b m ' m ! | ] m m m q.m { } 5.0.O.} O. .O.+.*.5.!.8.).SXKXhX3X3X{.DXhXfXSXJXhXDXDXFXHXJXFXHXJXHXJXJXJXJXJXJXJXKXKXKXKXKXKXKXKXKXKXJXJXKXKXJXJXJXJXJXJXJXJXJXJXJXJXJXJXJXJXHXHXJXJXHXHXHXHXHXHXFXFXLXLXLXLXLXLXLXLXLXLXHXHXHXHXJXJXJXJXJXJXJXJXJXJXHXDXDXDX",
"W l r e 9 9 9 9 9 9 e e 9 9 9 9 e e e e r r r r r r r r r r r r l l l l l l l l k k W W W W k k W W l l k k k l l l l l l l l W W W W Q W W W W Q Q W W Q Q Q ~ ~ ~ b x x b b b b b n m M M M v v v M M v g v v d f f g g g g f s s Z Z Z S f f f s f f Z Z s < > < s s 2 2 f f 2 < < < 2 2 2 2 2 2 < < > > 2 2 < > > < 2 > > f f f < > < < < < 2 2 2 2 2 2 2 2 f 2 f 2 2 2 2 f f C C C Z Z Z C f f 2 2 2 2 f f C C 2 2 2 2 C C C C C C C C Z Z A A A A A A G Y Y Y Y R R -.-.T T -.&.&.&.r.r.t.r.r.r.r.r.r.r.r.t.t.t.t.p.p.p.p.r.r.r.r.t.t.p.p.p.p.p.p.p.p.f.f.f.f.f.f.p.p.d.d.p.f.f.f.f.f.g.g.g.k.k.j.j.k.k.k.k.k.k.k.k.k.k.k.k.j.j.k.k.k.g.g.g.g.g.g.g.d.d.f.f.f.d.p.p.p.y.y.p.p.p.s.p.p.r.%.%.&.-.Y G A A Z Z Z C C f f f 2 2 2 < < > > > > > > > > > : : : : > : : : : : : : : : : * : t t t : : : : : 0 0 t t t t a a a a t t t t t t t t i i i i i i p p j j j j c c c c v c b b b b m ' c ] b ] } } } } ] O.} } O.+.O.}  .O.+.+. .b. Xb.{. XgXDX X).gXMXDXJXFXKXDXDXFXHXJXFXHXHXJXJXJXJXJXJXJXJXKXKXKXKXKXKXKXKXKXKXJXJXKXKXJXJXJXJXJXJXJXJXJXJXJXJXJXJXJXJXHXHXJXJXHXHXHXLXLXLXFXFXLXLXLXLXLXLXLXLXLXLXHXHXHXHXJXJXJXJXJXJXJXJXJXJXJXHXLXDX",
"Q W l r e 9 9 9 9 9 e 9 9 9 e e e e e e e e r e e e e e r r r r l l l l l l l l k k W W W W k k W W l l l l l l l l l l l l k W W W Q Q Q Q W W Q Q W W Q Q Q ~ ~ ~ b x x b ~ ! ! n n v m ) D D D D v v v F F F g f f g g g g g f f s 2 f g g f f f s 2 2 2 2 s 2 s f f g f f s s f f 2 s s s s s s 2 s 2 2 < < < < 2 2 f Z Z f , > > > < 2 2 2 2 2 2 2 2 2 2 2 2 2 2 2 2 2 2 f f C C f 2 2 C C C 2 f 2 C C C C C C C 2 2 C C Z C C C C C Z A A G G G A G Y Y Y R R T T T r.r.T &.&.r.r.r.r.t.t.p.p.p.p.p.p.p.p.p.p.f.f.d.f.f.f.f.p.p.p.p.u.f.f.f.f.f.f.f.f.g.g.g.g.g.g.g.g.g.g.f.f.f.f.f.f.k.k.k.k.m.m.m.m.m.m.m.m.m.k.k.k.k.k.k.k.k.k.k.k.k.g.g.k.g.g.g.g.g.g.g.g.g.g.f.f.p.p.y.p.p.d.p.f.y.r.r.%.&.T R Y A A A Z Z Z Z C f f f 2 2 < < < > > : > : > > > > > > > : : : : : : : : : : : : t t t 0 : : 0 0 0 t y y a a a a t 0 t t t t t t i i a a i i i i p j j c z c c c c c c c b b b m m ' ] m  .} ] ] ] ] ] O.] ] ]  .O.}  .O.+.+.+.5.+.^.|.`. X^.`.dX3XMXSXKXJXFXDXDXLXHXJXHXHXHXJXJXJXJXJXJXJXJXJXKXKXKXKXKXKXKXKXKXJXJXKXKXJXJXJXJXJXJXJXJXJXJXJXJXJXJXJXJXJXJXJXJXJXHXHXLXLXLXFXFXFXLXLXLXFXFXFXFXLXFXHXHXHXHXJXJXJXJXJXJXJXJXJXJXJXJXHXHX",
"Q Q k l e 9 9 9 9 9 e 9 9 9 e e 9 9 9 9 9 e e e e e e e e e e r r l l l l l l l l l k k k k k k l l l l l l l l l l l l l l k W W W W W W W W W W W W x x Q Q ~ ~ Q b x x b b n n n M M v g g g g F F F Z Z F g g s s f s s s s f f g f f f f f f f f f f f f f f f Z Z Z Z Z Z g g f f f f f f f f s 2 2 2 2 2 2 2 2 2 2 2 2 < > > 2 < 2 2 2 2 2 2 2 2 2 2 2 2 2 2 2 f 2 2 2 2 2 2 f C C C 2 2 2 2 C C C C C C C C C C Z Z C C C C C C Z Z A G G G G G Y Y R R T T &.&.%.r.r.r.r.r.r.r.r.r.t.t.f.f.f.f.f.f.f.f.t.u.f.f.g.f.f.f.f.f.j.g.f.f.f.f.f.f.f.f.f.g.g.g.g.g.j.g.k.g.g.g.g.f.g.g.g.g.k.k.k.k.m.m.m.m.m.m.m.m.m.m.k.k.k.k.k.k.k.k.k.k.k.k.k.k.k.k.k.k.k.g.g.g.g.g.g.d.f.p.p.f.d.g.g.f.p.y.r.r.r.&.&.T Y I G S S Z F Z C C f f f 2 < < > > : > > > > > > > > > : : : : : : : : : : : : : t 0 0 : : 0 0 0 t y t a a a a t 0 t t t t t t i a a a i i i i j j z c c c c c c c c c b b b m m ! v m m ] ] ] ] ] ] ] m } | ] | O. .O.+.+.5.9.5.9.5.b.^.!. X XdXDXMXgXSXDXDXDXLXHXFXFXFXFXFXFXJXJXJXJXJXJXJXKXKXKXKXKXKXKXKXKXJXJXKXKXJXJXJXJXJXJXJXJXJXJXJXJXJXJXJXJXJXJXJXJXJXHXHXLXLXLXFXFXFXLXLXLXFXFXFXFXFXLXHXHXHXHXHXHXJXJXJXJXJXJXJXJXJXJXJXJX",
"~ Q W l r e e e e e e e 9 9 9 9 9 9 9 9 9 9 9 9 9 9 9 9 9 e e e e r r l l l l l l l l l l l l l l l l l l l l l l l l l l l l k W W W W W W W W W W W W W Q Q Q ~ ~ b b x x b b b M m m v d d d y g F g g Z Z g f f f f f f f f g g Z g f f f Z Z g g g f f f f f Z Z F F F Z Z f f f f f f f 2 2 2 2 2 2 2 2 f 2 2 < < < < < 2 2 2 2 2 2 2 2 2 2 2 2 2 f 2 2 2 2 f C C f 2 2 2 2 2 C Z Z C 2 2 C Z Z C C C C C C C Z Z Z Z C C C Z Z Z A A G I Y Y Y Y Y R T R T &.%.%.r.y.y.r.r.t.p.f.f.f.f.f.f.f.f.f.f.f.f.f.t.f.u.j.u.u.u.f.f.f.j.j.f.f.f.f.f.f.j.g.j.j.k.m.k.m.m.k.m.k.k.k.k.k.k.k.k.k.k.k.k.k.m.m.Z.Z.A.Z.Z.Z.A.A.Z.m.k.k.k.k.k.k.k.k.m.m.m.k.m.m.m.m.m.m.k.k.k.k.k.g.g.f.f.f.g.g.g.f.f.f.p.r.r.&.&.&.&.U U P I G S Z Z Z C f f 2 2 2 < > : : > > > > > > : : : : : : : : : : : : : : : 0 0 0 : : 0 0 t t t t a a a a t t t a t t t t t t i i i i p p j j z c c c c c c b M b M M m m ! ! m m ] ] M ] ] ! ! ) ] | ] }  .}  .+.5.!.O.+.5.5.5.!.{.hXhXDX X XgXDXSXSXDXgXDXHXLXLXHXHXFXFXJXJXJXJXJXJXJXJXJXJXKXKXKXKXKXKXKXJXJXJXJXJXJXJXJXJXJXJXJXJXJXJXJXJXJXJXJXJXHXHXFXFXHXHXFXFXHXHXHXHXLXHXHXHXHXHXLXLXHXHXFXFXHXHXHXHXJXJXJXJXHXHXJXJXJXJX",
"~ Q W l r e e e e e e 9 9 9 9 9 6 6 6 6 6 6 6 9 9 9 9 9 9 9 9 e e e e r r r l l l l l l l l l l l l l l l l l h l h l l l l l k k W W W W W W W k k k k k W Q Q ~ ~ Q b b b c b b b M D D F v d g F S F Z Z g f f f f f g g g f f f f s s 2 F F Z Z g f f 2 2 f Z S f Z f f 2 f 2 2 2 2 2 2 2 2 2 2 2 2 < 2 f f f 2 2 < 2 2 2 2 2 2 2 2 2 2 2 2 2 2 2 2 2 2 2 2 f C Z Z Z Z Z C C C C C C C C Z S Z Z S Z Z Z Z Z C Z Z Z Z Z Z Z Z A A G I Y U Y Y R T &.&.&.&.&.%.r.r.y.p.p.r.t.p.f.d.f.g.g.j.j.j.m.j.f.f.g.j.j.j.f.f.f.f.j.k.j.j.j.k.k.k.k.j.j.j.j.j.j.k.m.m.k.k.m.m.m.k.k.k.k.k.k.k.k.k.k.k.m.m.Z.m.Z.A.A.A.A.A.A.A.A.A.Z.Z.Z.Z.Z.Z.Z.m.k.k.m.m.m.m.m.m.m.m.m.m.k.k.m.k.g.f.f.f.g.g.g.g.g.g.p.p.r.y.r.%.&.&.-.U P P P S S Z Z C C f f f s < < : : > > > > > > : : : : : : : : : : : : : : : 0 0 0 0 0 0 t t t a i i a t a a a a a t t t t t i i p p p p c c c c c c b b m ! ! ! m m ! m ! ! m ] ] ] ] ! ] } O. .} | 0.@.} +.0.+. .O.+.+./.9.C.C.~.^.0XdX0XMXdXdXHXhXdXDXHXLXDXDXLXDXFXFXJXJXJXJXJXJXJXJXJXJXKXKXKXKXKXKXKXJXJXJXJXJXJXJXJXJXJXJXJXJXJXJXJXJXJXJXJXJXFXHXFXFXHXFXFXFXHXHXHXHXLXLXHXHXHXHXLXLXHXHXFXFXFXFXHXHXHXHXJXJXHXHXHXJXJXJX",
"^ Q W l r e e e e e 9 9 9 9 6 6 6 6 6 6 6 6 6 6 9 9 9 6 9 9 9 9 9 9 e e e r l l r r l l l l l l l l l l l r h h r r l l l l l l k k k k W W W W k k k k k x Q ~ ~ ~ Q b b b c z z c b v v v d v F F Z Z Z Z F Z Z g g f f f f f s s s s f S f s f g Z f f S S S Z < f 2 2 2 2 2 2 2 2 2 2 2 2 2 2 2 2 2 2 2 2 2 2 2 2 2 2 2 2 2 2 2 2 2 2 2 2 2 2 2 2 2 2 C f 2 C Z Z Z Z Z Z Z Z C C C C C Z Z Z G G Z Z Z Z Z Z Z Z Z Z Z A A A A A I Y Y Y U U T &.&.%.%.%.%.r.r.y.y.y.p.p.p.p.f.g.g.g.g.g.g.f.f.f.f.j.k.m.m.m.m.m.j.k.k.m.m.m.m.M.M.m.m.m.k.m.k.k.k.k.k.m.m.k.k.k.k.k.k.k.k.k.k.m.m.m.m.m.m.m.m.Z.Z.Z.Z.A.A.A.A.A.A.A.A.A.A.A.A.A.A.A.A.Z.Z.m.m.m.Z.Z.Z.m.m.m.m.m.m.m.m.g.g.f.f.g.g.g.g.g.g.f.d.p.p.p.y.%.&.&.#.P I G P P G Z Z C C C f f s y : : : > > > > > > : > : : : : : : : : : : : : 0 : 0 y t y i t t i a i a t t t a a a a a a i i i i p p N N N N c c c c b b m m M b M M M M m m ! ] ] ] ] { +.5.+.O. .} 9.9.4.} O.+.5.0.O././.dX`.dXfX0XdXdXfXSXMXgX0X0XDXJXDXJXDXDXDXDXFXFXJXJXJXJXJXJXJXJXJXJXJXKXKXKXKXKXKXKXJXJXJXJXJXJXJXJXJXJXJXJXJXJXJXJXHXHXHXHXJXJXJXJXHXHXHXHXHXHXJXJXHXHXHXHXHXHXFXFXHXHXFXFXFXFXHXFXHXHXJXJXHXHXJXJXJXJX",
"~ Q W l r e e r e e 9 9 9 6 6 6 6 6 6 6 6 6 6 6 9 9 9 9 9 9 9 9 9 9 9 e e e r r r r l l l l l l l l l r r r r r l l l l l l k k k k k k W W W W k k k k k Q Q ~ ~ ~ Q b b b b c z z c v v v D D S g s f F F Z F Z Z g g Z g f g f g Z Z Z f f f g g Z F Z Z f Z f 2 2 Z Z f f f f 2 2 2 2 2 2 2 2 2 2 2 2 2 2 f f f 2 2 2 2 2 2 f 2 2 2 2 f f 2 2 2 2 2 Z S S Z C Z Z Z Z Z Z Z Z Z C C C C Z Z Z C C Z A Z A A A Z A H A A A A A G G Y Y R T T &.&.%.%.r.r.r.r.r.r.r.y.y.u.p.u.f.g.g.j.j.k.k.k.m.k.m.m.m.m.m.m.k.k.A.m.M.M.M.M.m.m.M.m.m.M.M.M.k.k.k.k.m.m.m.m.m.k.k.k.k.k.k.m.m.m.Z.Z.Z.Z.Z.Z.Z.Z.Z.Z.A.A.A.A.A.A.A.A.A.A.A.A.A.A.A.A.D.A.A.A.A.A.A.A.Z.Z.Z.Z.Z.Z.Z.m.m.m.k.g.g.g.g.k.k.k.v.v.g.p.g.p.p.p.p.i.&.&.U I I I G G A Z Z Z C f f f s s < : : > > > : : : > : : : : : : : : : : : : 0 0 y y t y a a t a a i a t t t a a a a a a i i i p p p N N N N c c c c c c b b M M M m m m q.] ] ] ] ] ] } } ) | }  .O.!.8.0.O.+.5.!.b.9.b./.3X|.|.3XhXFXDXhX0XdXDXJXDXhXgXDXDXDXDXDXLXFXFXFXFXJXJXJXJXKXJXJXJXJXKXKXKXKXKXKXKXJXJXJXJXJXJXJXJXJXJXJXJXJXJXJXJXHXHXHXHXJXJXJXJXHXHXHXHXHXHXJXJXHXHXHXHXHXHXFXFXHXHXFXFXFXFXHXFXHXHXHXHXHXJXJXJXJXJX",
"Q Q W k r r r r r e e e 9 6 6 6 6 6 6 6 6 6 6 6 6 6 6 6 6 6 6 6 6 9 9 9 e e r r r r r r l l l l l l r r r r r e r W l l l l k k l l k k W W W W W W k k x Q Q ~ ~ ~ ~ b b b b b c z z z v F D S g f f f f f g f f g g f f f g g Z Z Z F Z f g Z Z Z F F F Z f C f f f Z S f f f f f 2 2 2 2 2 2 2 2 2 2 2 2 f f f f f f f f f 2 f 2 2 < f C C 2 f C C Z P G Z C Z Z Z Z Z Z Z Z Z C C C Z Z Z A A A A Z Z A A G A A A A A A G J J Y Y Y R T T T &.&.r.r.r.t.y.p.p.p.p.r.r.y.u.f.f.f.g.k.k.k.k.M.M.A.A.A.Z.M.M.M.m.k.M.M.M.M.M.M.M.M.M.M.M.M.A.A.M.M.M.M.M.M.M.M.m.m.k.k.k.k.k.Z.A.A.A.A.A.A.A.A.A.A.A.A.A.A.A.A.A.A.A.A.A.A.A.A.A.A.D.A.D.D.D.D.A.A.A.A.A.A.A.A.A.A.A.A.A.Z.m.m.m.k.k.k.k.k.k.k.k.g.f.f.p.p.p.p.i.&.&.Y Y I A G A A Z Z Z Z C f f f s < : : > > > > > > : : : : : : : : : : : : : : 0 t y y a y a a a y t a t t t t i i i i i i p p p c j z c c c c c c c c c v b m M m m m ] ] M m ] ]  .}  . .*.C.^./.^.b.!.^.|.!.!.{./.!.!.{.dXgX}.SXhXSXDXDXPXMXMXMXgXhX X0XgXgXhXMXhXSXDXDXFXFXFXHXJXJXJXJXJXJXJXJXJXJXJXJXJXJXJXJXJXJXJXJXJXJXJXJXJXJXJXJXHXHXHXHXJXJXJXJXJXJXJXJXJXJXJXJXJXJXHXHXHXHXHXHXLXLXFXFXLXLXLXFXFXFXHXHXHXJXJXHXJXHX",
"Q Q W k r r r r r r r e e 9 6 6 6 6 6 6 6 6 6 6 6 6 6 6 6 6 6 6 6 6 9 9 9 e e e e e r r r r r r r r r r e e e e e l e e l l l l l l k l l W W W W W k x k x Q Q ~ Q ~ b b b b b z d d d v F D F g f f f f f f g g g g f s f Z S S S F Z g Z F S F Z f f f F P C f Z Z Z f f f f f f f f f 2 2 f f f f f f f f f f f f f f f 2 2 f f Z C f f f 2 C Z S G G S S A A Z Z Z Z Z C C C C C Z Z G Z G I G A A A A G A G G G G J G Y Y Y R T T T T T -.&.&.r.t.p.p.f.f.f.f.f.f.f.f.f.f.j.k.k.k.k.M.M.A.A.A.A.A.M.M.A.A.A.M.M.M.M.M.M.M.M.M.M.M.A.A.A.A.A.A.A.A.A.A.A.A.Z.m.m.k.k.Z.A.A.A.A.A.A.A.A.A.A.A.A.A.A.A.A.A.A.A.A.A.A.A.A.A.A.D.D.D.D.D.D.D.D.D.A.A.A.A.A.A.A.A.A.A.A.A.A.A.Z.m.m.m.k.k.k.m.m.m.k.g.g.p.p.p.f.p.y.&.T -.U Y U Y P I G S S Z Z Z f f s s : : > > > > > : : : : : : : : : : : : : : 0 : y y y y a v v a t a a a a a i i i i p p p p z c j c c c c N c c c c v v v b M M M m ] ] ] ] }  . .5.6.!.{.fXDXhXdXDXDX|.3XfX{./././.SX3X{.KXDX}.dXdXDXSXDXDXDXDXGXDXDXSXJXDXSXhXDXDXDXDXDXDXDXDXDXFXJXJXJXJXJXJXJXJXJXJXJXJXJXJXJXJXJXJXJXJXJXJXJXJXJXJXHXHXHXHXJXJXJXJXJXJXJXJXJXJXJXJXJXJXJXJXHXHXHXHXLXLXFXFXLXLXLXLXFXFXHXHXJXJXJXHXHXHX",
"Q Q W W l r r r r l l r e 6 6 6 6 6 6 6 6 6 6 6 6 6 6 6 9 9 6 6 6 6 6 6 9 9 e e e e r r r r r r r r r e e e e e e e r w r l l l l l l l k k W W W W W W W W W W Q Q b b b n n c c c v v v F F g g g g Z F F f f g Z Z Z Z Z Z g f f f Z Z Z g g g g f f f f f f f f Z f f f f f f f f f f f f f f f f f f f 2 2 2 2 f f f f f f F Z Z C C f f C S S G G G G Z Z Z Z Z Z Z C C C Z Z Z A G A P A A A P Y Y G A G G G G G Y Y R T T -.-.T T w.r.r.r.r.t.p.f.f.f.f.g.j.k.k.m.k.j.j.k.m.M.M.Z.A.Z.A.A.A.A.A.A.A.A.A.A.A.A.A.A.A.A.A.A.A.A.A.A.A.A.A.J.A.A.A.A.A.A.A.A.Z.A.A.A.A.A.A.A.A.D.D.A.A.A.A.A.A.A.J.J.J.J.D.D.D.A.A.D.D.J.D.J.J.J.J.J.J.J.J.D.A.A.Z.Z.A.A.A.A.A.A.A.A.A.A.A.Z.m.m.k.k.k.k.k.m.m.g.g.g.f.f.f.a.p.y.%.&.&.&.R U U U P I G G S Z Z C f f s 2 > > > > : : : : : : : : : : : : 0 0 : t t y y y y y a c v z a t a a a a a i p p p p p p p j j c c c c c c b b v v c b M M M M m ] ] ] } O.+.+.9.9.8.`.0XdXdX{.0XgX{.dXdXdXdX^.|.hXhX0XGXDXhXgXdXFXLXFXLXLXJXDXJXDXDXHXHXJXJXFXJXJXJXJXJXFXDXMXhXSXDXJXJXJXJXJXJXJXJXJXJXJXJXJXJXJXJXJXJXJXJXJXJXJXJXJXJXJXJXJXJXJXJXJXJXJXJXJXJXJXJXJXJXJXHXHXHXHXHXHXFXFXLXLXLXLXLXLXHXHXHXHXHXHXHXHX",
"Q Q W W l r r r r l k l r 9 6 6 6 6 6 6 6 6 6 6 6 6 6 6 9 6 6 6 6 6 6 6 9 9 e e e e e e r r r r r r e e e e e e e e l e e h l l l l l l l k W W W W W k k k W W W Q b b n n n v M D D v v F g f g f g g g Z Z F F S S F Z F S S P S S Z Z g g f f Z F F F S f f f f f f f f f f f f f f f f f f f f f f 2 2 2 2 f f f 2 f C Z Z Z Z Z F S Z Z S S P P P S A A S Z Z Z Z Z Z Z Z Z A A A G P G I G G I I Y I A A G G Y Y Y T T -.&.&.&.&.r.r.r.t.p.p.p.f.f.f.f.f.j.k.m.m.k.k.k.k.M.M.M.M.H.H.Z.Z.A.A.A.A.A.A.A.A.A.A.A.A.A.A.A.A.A.A.A.A.A.A.A.A.J.J.A.A.A.A.A.A.A.A.A.A.A.A.A.A.A.A.D.D.A.A.A.A.A.A.J.J.J.K.J.D.D.D.A.D.J.J.D.D.J.J.J.J.J.D.K.K.J.D.A.A.A.A.A.A.A.A.A.D.D.A.A.A.A.Z.m.k.m.m.m.m.m.m.g.g.g.g.g.f.p.a.p.y.%.&.T R Y U U I I G G A S F Z C g f s 2 : > > : y : : : : : : : : : : 0 1 : t t y y y a y a a a i p d a a i i i a d p p p p p p j j z z c c c c b b c v c b M M M M m m m ) ] | O.5.5.9.9.b.~.^. XgX|.0XhX{.gXDX X|.^.|.dXFX{.DXSXDXDXgXDXDXDXDXDXDXHXLXDXFXHXHXFXFXFXFXHXHXHXHXFXFXHXJXJXJXJXJXJXJXJXJXJXJXJXJXJXJXJXJXJXJXJXJXJXJXJXJXJXHXJXJXJXJXJXJXJXJXJXJXJXJXJXJXJXJXJXJXHXHXHXHXHXHXFXFXLXLXLXLXLXLXHXHXHXHXHXHXHXHX",
"Q Q W W l r l l l l k l l e 9 6 6 6 6 6 6 6 6 6 6 6 6 6 6 6 6 6 6 6 9 9 9 9 e e e e e e e e e e e e e e e e e e e e h r r r r h h h h l l k k x W W k k k k k k k k b b b m ) [ [ D c d F F F g g g g g g Z F F F S Z Z S S S S F g f F F g f S L F S S Z Z f f f f C Z Z f f f f f f f f C C f f f f f f f f f f C f f f Z Z Z Z Z P ..Z C Z G P P P G A A A Z Z Z Z Z Z Z A G A A P U P A A I I G I P Y I A A G Y Y T T -.&.r.r.r.r.r.r.y.p.f.f.f.g.k.k.k.k.m.m.m.M.A.A.k.M.M.A.A.A.A.A.A.A.A.A.A.A.J.J.J.A.A.A.A.A.A.J.J.J.J.J.J.J.J.J.J.J.J.J.J.J.J.J.A.A.A.A.A.D.D.D.D.A.D.A.A.J.J.J.J.D.J.D.D.D.D.K.K.J.J.D.D.D.J.K.K.D.D.J.K.K.K.L.L.L.L.L.L.F.D.A.A.A.A.A.A.A.A.A.A.A.A.A.A.Z.Z.m.m.m.m.m.m.k.k.k.g.g.g.d.f.f.y.y.%.&.&.T R R U Y I I I G S F Z Z g f s > > , > : < : : : : : : : : : y 1 y y y y y a a t y y t y a d s i a a a p d p a p z p N p p c c z z c c c c v v b b m m M ! ] ] ] ] ] |  .+.6.b.{.gXSXMX0X0X0X3XhXDXKXKXDXhXhXfXdXfX0X{.dXFXKXDXDXDXFXFXHXFXFXFXLXDXFXLXHXHXFXHXJXJXJXJXJXJXKXKXKXJXJXJXJXJXJXJXJXJXJXJXJXJXJXJXJXJXJXJXJXJXJXJXJXJXJXJXJXJXJXJXJXJXJXJXJXJXJXJXJXJXJXJXHXHXHXHXHXHXHXHXFXFXHXHXLXLXHXHXHXHXHXHXHXLX",
"Q Q W W l r l l l l W k l e 9 6 6 6 6 6 6 6 6 9 6 6 6 6 6 6 6 6 6 6 9 9 9 9 9 9 e e e e e e e e e e e e e e e 7 7 e r l r r h h h h h h l l k x W W k l k k k k k k j j b m D D M v D F D D F g g g g g Z Z Z Z Z Z f F S S Z f f f Z S F g f Z S Z Z f f f 2 2 < 2 f f Z F F F F Z f f f C C f f f f f f f f f 2 2 f C Z Z C Z Z S S S Z P #.P P S Z Z Z Z Z Z Z Z Z Z Z S G P P P P I I U U Y U Y G G Y Y Y Y U Y T %.r.r.r.r.r.y.y.p.u.f.f.g.g.k.k.k.m.m.m.Z.Z.A.A.A.M.A.A.M.H.A.A.A.A.A.J.J.J.J.J.J.J.J.J.J.J.J.J.J.J.J.J.J.J.J.U.J.J.J.K.K.J.K.K.J.A.A.J.K.J.J.J.J.J.J.J.J.J.J.K.K.J.K.K.K.K.K.L.L.L.L.L.L.L.K.L.L.L.L.J.D.K.L.L.L.L.L.L.L.L.L.K.L.D.D.A.A.A.A.A.A.A.A.A.Z.A.A.A.A.A.Z.m.m.m.m.m.k.k.k.k.k.g.f.d.d.p.y.%.&.&.&.R R Y Y P P P G S Z Z Z g f y < > > y < : : : : : : : : : y y y y y y y a a y y y t t a a s p i i p d d p a p z N N p p c c z z c c c c v b b b m m m ! ' ] ] } } | 0.6.6.;.9.;./.gXgXdXdXgXDXFXFXDXhXSXhXSXDXKXFXgX`.MXFXSXDXDXFXJXHXFXHXFXFXFXLXLXHXHXFXHXJXJXJXHXJXJXJXJXJXJXJXJXJXJXJXJXJXJXJXJXJXJXJXJXJXJXJXJXJXJXJXJXJXJXJXJXJXJXJXJXJXJXJXJXJXJXJXJXJXJXJXJXHXHXHXHXHXHXHXHXFXFXHXHXHXLXHXHXHXHXHXHXHXLX",
"Q Q W W l r l l l k W W l r e 9 9 9 9 9 e e e 9 9 6 6 6 6 6 6 6 6 6 6 6 9 9 9 9 9 9 e e e e e e e e e e e w e w e e r l r r l h h h h h l j k k W x k l k k k k k k x c c n D D D F v g g F g f f g g g g g f f Z g 2 Z S S Z Z F Z f Z Z g f F S S S Z Z C f f f f C Z Z Z f C Z F Z Z C C f f C C C f f f f f C C Z Z Z Z C Z Z S Z S ....P S Z Z Z Z Z Z Z Z S Z A A A G P P U U Y I &.U Y U I Y Y Y R R U T T %.r.T r.t.p.p.p.u.u.p.f.f.f.k.k.k.m.m.m.M.A.A.A.A.A.A.A.A.A.A.A.A.J.J.K.K.K.K.L.L.L.L.U.U.U.U.L.U.U.K.K.K.K.K.U.U.U.U.J.U.L.L.K.K.K.J.J.L.L.L.L.U.U.U.U.U.K.U.K.K.U.U.U.U.L.L.L.L.L.L.L.L.L.L.L.L.L.L.L.L.L.L.L.L.L.L.L.L.L.L.L.L.L.L.L.L.J.D.D.K.J.D.D.A.A.A.A.A.A.A.A.A.Z.m.m.m.m.m.m.k.k.k.g.g.g.d.a.p.y.y.%.&.&.R R Y U U P P S S F Z C f s y : : y y : : : y y y : : y y y y t t y y y a y y y t t a a d p i i p a p p p p p p p p p c N c c c c c c v b b M m m m ' ' ] ] } } | ] O.*.;.5.8.0X XhXMXgX0X3X3X0XfXhXFXhXfXDXSXSXDXDX|.0XdXDXDXDXHXJXHXHXHXFXFXFXFXHXHXHXHXJXJXHXHXJXJXJXJXJXJXJXJXJXJXJXJXJXJXJXJXJXJXJXJXJXJXJXJXJXJXJXJXJXJXJXJXJXJXJXJXJXJXJXJXJXJXJXJXJXJXJXJXHXHXJXJXJXJXJXJXHXHXFXFXHXHXHXHXHXHXHXHXLXLX",
"Q Q W k l r r l l W W W k l e e e e e e r r r r e 9 6 6 6 6 6 6 6 6 6 6 6 6 9 9 9 9 9 9 e e e e w e 6 e e w e 6 e e e r r r h l h h h h l l j k k k k k k k k k k b ) } X.D d y d g v g F F F g g Z g g g g Z f Z F Z Z f f f f Z f g S S F S S Z f f f S S S S S F Z Z F F P S F F F Z C f f f f f f f f f f f C f f C Z Z Z Z Z S P ..G Z C Z Z Z Z Z Z S G G S S A A G P P P P P U U -.R Y A Y Y Y Y R T &.&.&.T T r.p.u.u.u.p.u.u.f.f.f.f.k.k.k.m.M.Z.A.A.A.A.A.A.A.A.A.M.J.A.J.J.L.L.L.L.L.L.L.L.L.U.U.L.L.L.L.L.L.U.U.U.U.U.U.U.U.U.L.U.K.K.U.L.L.L.L.L.L.L.U.U.U.U.U.L.L.L.L.L.L.L.L.L.L.L.L.L.L.L.L.L.L.L.L.L.L.L.L.L.L.L.L.L.L.L.L.L.L.L.L.L.L.L.L.L.L.K.J.D.D.A.A.A.A.A.A.A.A.A.A.A.Z.Z.m.m.m.m.m.m.k.k.g.g.d.d.d.a.i.y.%.&.&.T R U U U P G S S F Z C f s y y s y : : : < y y y : : y y y y y y y y a y y y y a a d d p p p i i a d d d p p p p p c c c c c c c c b b b M m m ! ' ] { ] ] } | O. .+.9./.6.8.{.0X0XgXSXFXSXMXDXFXJXKXgXFXJXGXJXFXFXhXhXSXDXDXDXLXLXHXHXFXLXLXFXHXHXHXHXJXJXHXHXJXJXJXJXJXJXJXJXJXJXJXJXJXJXJXJXJXJXJXJXJXJXJXJXJXJXJXJXJXJXJXJXJXJXJXJXJXJXJXJXJXJXJXJXJXJXJXJXJXHXJXJXJXJXJXJXHXHXFXHXHXHXHXHXHXHXHXHXLXLX",
"Q Q W k l r r l l W W W l l l e e r l l l l l l l e e 9 9 6 6 6 6 6 6 6 6 6 6 6 6 6 6 6 6 6 6 6 w w w w e e e e e e e e e h l l h h h h h l l l l k x x k l l j z ! ! p a d g g g g v F Z g g g F F F g g F F Z Z S F g f f f f S L Z S F F S S Z Z C f f F Z S S S S S S P P S Z F Z F Z f f f f f f C C C C f f f C Z Z Z S S $...S Z Z Z Z Z Z Z Z A A P P G A A A A P P U U U Y U Y Y I Y &.&.T T r.r.r.r.r.r.r.t.u.u.u.f.f.f.f.f.f.j.k.k.k.M.M.A.A.A.A.J.K.K.A.A.A.J.K.A.U.U.U.L.L.L.L.L.L.L.L.L.L.U.L.L.L.U.U.U.U.U.U.U.U.U.U.U.U.U.U.U.U.U.I.P.P.P.P.I.I.L.I.I.U.U.U.U.K.U.U.L.L.L.L.L.L.L.L.P.P.L.L.L.L.P.L.L.P.L.L.L.L.L.L.P.P.P.P.L.L.L.L.L.L.P.L.L.L.K.K.J.J.D.A.A.A.A.A.D.A.A.A.A.A.Z.m.m.m.m.m.m.m.k.k.g.g.g.d.d.a.i.i.%.&.&.&.-.#.#.#.P P G S S F Z f f f f < : > : < 1 y y : : y t y t t y y y y 1 1 y y a d d d p d p a i p d d p p p p p c c c c c c c c b M b b M m m ! ] ] } | | } 9.!.5.!.5.8.~.9.^.3XdXFXSXMXhXSXgXDXSXDXSXDXDXDXDXFXFXDXSXDXDXDXDXDXLXLXFXFXLXLXLXHXHXHXHXJXHXHXHXJXJXJXJXJXJXJXJXJXJXJXJXJXJXJXJXJXJXJXJXJXJXJXJXJXJXJXJXJXJXJXJXJXJXJXJXJXJXJXJXJXJXJXJXJXJXJXJXJXJXJXJXJXJXJXJXHXHXHXHXLXLXLXLXHXHXHXHXLXLX",
"Q W W k r e e r l W W W l l l e e r l l k W W W k l l r e e 9 6 6 6 6 6 6 6 6 6 6 6 6 6 6 6 6 6 6 6 6 6 e e e e e e e e h l l l h h h h h h l l l l b ~ k j l l j ) c d v L L g F g g g f f s s g L Z F S F Z Z F P g Z f f f f f Z Z S Z Z Z S F F S S Z Z F F S P P S P $.S S S S Z F F F F F Z Z Z Z Z Z Z Z Z Z S P S Z Z Z Z Z Z Z Z Z Z Z Z Z A A A Z Z G A A A A U U U U U U Y Y Y -.&.T R R -.%.r.r.r.r.t.t.u.u.u.u.f.f.f.f.f.k.k.k.k.M.A.A.A.A.J.J.K.U.K.A.A.A.J.J.A.U.L.L.L.L.L.L.L.L.L.L.L.L.L.L.L.L.U.U.U.U.U.U.J.U.U.U.U.U.J.J.I.P.P.P.P.P.P.P.P.P.I.I.I.I.L.U.J.A.J.J.U.U.L.P.P.P.P.P.P.P.P.P.OXP.P.L.P.P.L.P.L.L.L.L.P.P.L.L.L.L.L.L.L.L.P.P.P.P.L.L.L.K.D.D.D.A.D.D.D.A.A.A.A.Z.Z.Z.m.m.m.m.m.m.m.k.k.g.g.g.d.d.s.i.i.%.&.&.&.&.#.#.#.....P G S F C g f f s < : : < 1 y y y y y t y t t y y y y y y y a a d a a a a a a p p d p p p p d p c c c c c c c c M M b M M m ! ! ] ] ] | }  .5.8.!./.{.`.}.3X|.).gXgXGXKXFXFXDXhXhXhXhXDXDXDXDXDXFXFXDXDXJXHXDXDXDXFXFXLXLXLXLXHXHXHXHXJXJXHXHXJXJXJXJXJXJXJXJXJXJXJXJXJXJXJXJXJXJXJXJXJXJXJXJXJXJXJXJXJXJXJXJXJXJXJXJXJXJXJXJXJXJXJXJXJXJXJXJXJXJXJXJXJXJXJXJXHXHXHXHXLXLXLXLXHXHXHXHXLXLX",
"Q Q W k r e e r l W W W k l r e e r l k W Q Q Q W W k l l r e e 9 6 6 6 6 6 6 6 6 6 6 6 6 6 6 6 6 6 6 6 e e w w 6 6 e e h h l h r r h e h w u u h j b b b b j j z p m c v v g g s s g Z g L L F F F ..X.L Z Z Z F P g Z Z f f f g S f F S F Z C C f f f C F P P S S P ..P F Z Z F Z Z Z F Z S S Z S S S S S S S S S Z Z Z Z Z Z C C Z Z Z Z A A A A A G G A A I I I G G U U #.U U U U Y &.%.%.T T &.r.r.r.t.t.t.t.u.u.f.f.f.j.k.j.j.k.k.M.H.A.A.A.J.J.U.J.U.U.L.L.J.J.J.P.J.U.L.I.P.P.P.I.I.L.I.I.I.L.I.L.L.L.L.U.U.U.U.U.U.U.U.L.U.L.L.U.U.I.L.I.I.P.P.P.P.P.P.P.I.I.P.I.U.J.J.J.J.U.U.P.P.P.P.P.P.P.P.P.P.OXP.P.P.P.P.L.L.L.P.P.P.L.P.L.L.L.L.P.P.L.L.L.L.P.P.P.P.P.L.L.J.J.D.D.D.D.D.D.A.A.A.A.Z.k.m.m.m.m.m.m.m.k.g.g.g.d.d.d.s.i.i.%.%.%.&.&.$.#.#.#.....P S F C C f f y < < : 1 1 y y y y y y y y y y y y y y s s a a a a a a a a p z d p d z z z d c c v c c c c b M M M M m m ! ] ] ] ] } O. .*.9. X{.dX{.`.SXfX XdXhXhXJXKXJXFXJXDXhXFXDXDXDXDXDXDXFXFXDXDXDXDXDXDXDXDXLXLXLXLXFXJXFXFXJXHXHXHXJXJXJXJXHXJXJXJXJXJXJXJXJXJXJXJXJXJXJXJXJXJXJXJXJXJXJXJXJXJXJXJXJXJXJXJXJXJXJXJXJXJXJXJXJXJXJXJXJXJXHXHXHXHXJXJXHXHXHXHXLXLXFXLXHXHXHXHXLXLX",
"Q Q W l r e r r l k k k k l r e e r l W Q Q Q Q Q Q W W k l l r e 9 9 6 6 6 6 6 6 6 6 6 6 6 6 6 6 6 e e e e e r r r l l l l h e r h l l l k k x x j j j b n b c c c z m v L [ F g g g f F g g F S ..L S Z F S S S L F Z F F F Z f S S ..P S S F F F Z Z Z P P P P P S S S F F F Z C C Z Z Z Z S Z Z Z Z Z Z Z Z Z Z S Z S Z Z Z Z Z Z Z A A A A G G G G P U U P P P I I #.U -.U R R T T i.%.-.&.&.p.f.t.t.t.t.t.u.u.u.f.j.j.k.k.k.k.k.Z.A.A.A.J.J.J.U.U.U.U.U.L.U.J.J.K.P.J.P.P.P.P.P.P.P.P.P.I.I.I.I.I.I.I.I.L.L.U.L.U.U.L.I.I.I.I.P.P.P.P.P.P.I.I.P.P.P.P.P.P.P.P.I.I.P.I.I.U.U.U.L.I.P.P.P.P.P.P.P.P.P.P.P.P.P.L.L.L.L.L.P.P.P.L.L.L.L.L.L.L.L.P.L.L.P.P.P.P.P.P.P.P.L.L.K.J.D.D.D.D.D.A.A.A.A.Z.H.k.m.m.m.m.m.m.m.k.v.g.g.d.d.d.a.i.i.i.r.%.&.&.$.-.#.#.#.#.P S Z C g f f y y 1 : : y s s y y y y y y y y y y a s s a y a a a a a a p z d p p z z z d c c c c c c M M M b M M m ! ] ] ] ] } } +.O.+.6.{.`.|.gX|.gX0X0XgXSXhXdXKXJXDXJXFXMXFXDXFXDXDXDXDXFXFXDXDXDXDXFXFXFXFXFXFXLXLXFXHXFXFXFXFXHXHXHXHXJXJXHXJXJXJXJXJXJXJXJXJXJXJXJXJXJXJXJXJXJXJXJXJXJXJXJXJXJXJXJXJXJXJXJXJXJXJXJXJXJXJXJXJXJXJXJXHXHXHXHXHXHXHXHXHXHXHXLXLXFXFXHXHXHXHXLXLX",
"Q W k r r e r l l k k k l l r e r r l W W Q Q Q Q Q Q Q W W k l l r e 9 9 9 6 6 6 6 6 6 6 6 6 6 6 6 9 e e e h h e e e e h h h h h h h l l j k k j j u u j b b c z i z v v v v g g g g f f f f g S P F g g F S S S S S S S S S S S P S L P S Z S Z S f Z S P P G S S F Z F S Z C C C Z Z Z Z Z Z Z Z Z Z Z Z Z Z Z S S S S Z Z Z Z Z S G G G G G G G G I Y U U I I P Y U U R -.&.Y T T R T r.r.p.p.f.p.u.p.t.y.u.f.f.f.j.j.k.M.M.M.M.A.A.A.A.J.J.U.U.U.L.I.I.U.U.U.U.I.I.P.L.P.P.P.P.Y.Y.Y.Y.Y.Y.P.P.P.P.I.I.I.I.I.I.I.I.I.I.P.P.P.P.P.P.P.P.P.I.I.I.P.P.P.P.P.P.P.P.P.P.I.I.P.I.I.I.P.P.I.I.P.P.P.P.P.P.P.P.P.P.P.P.P.L.L.L.P.P.P.L.L.L.L.L.L.L.P.P.P.P.P.P.P.P.P.P.P.L.L.L.L.K.J.J.A.A.D.A.A.A.A.A.Z.M.m.m.m.k.m.m.m.m.m.v.g.g.g.d.p.p.p.p.i.r.%.&.&.-.-.-.#.U U P S F g d s s y 1 1 1 y s s y y y y y y a a a a s s s a a a a a a a a p d d d p p z z N c c v v v b b M M M m m ! ] ] | [ } [  .+.+.+.5.!.b./. X}. XgXMXdXgXhX|.0XFXJXKXGXFXDXKXFXDXDXDXFXFXFXDXDXDXFXFXFXHXHXHXHXHXHXHXHXHXFXFXHXHXHXJXJXJXJXHXHXHXHXJXJXJXJXJXJXJXJXJXJXJXJXKXKXJXJXJXJXJXJXJXJXJXJXJXJXJXJXJXJXJXJXJXJXJXJXJXJXJXJXHXHXHXHXHXHXHXJXFXFXHXHXLXFXFXFXHXHXLXLXLXLX",
"W W l r e e r r l l l l l l r e r r l W W W Q Q Q Q Q Q Q Q Q W k l l r e e 9 6 6 6 6 6 6 6 6 6 6 6 6 6 6 6 7 7 7 7 7 7 9 e e e 9 9 7 h l l h h u u u 0 u j M ) m p i z v v g d d f f f f f Z L L Z f f g S S Z Z Z S S S S S S P ..P S S Z C Z f ....Z P S S S S Z S S S S F C Z F Z Z C C C C Z Z Z S S S G P P P G Z Z P P P P P G S P P P I P I I Y &.U I I I Y U Y &.&.R R T R Y R r.p.f.p.p.p.f.f.r.t.u.f.k.k.k.k.M.A.A.A.A.A.A.A.A.J.J.U.U.U.L.I.I.I.I.U.I.P.P.P.P.P.P.P.@XY.Y.Y.Y.Y.Y.Y.Y.Y.Y.Y.P.Y.Y.Y.Y.Y.Y.Y.Y.Y.Y.Y.Y.Y.Y.Y.P.Y.P.P.P.P.Y.P.P.P.P.P.P.P.P.P.I.P.P.P.P.P.P.P.I.I.P.P.P.P.P.P.P.P.@XY.@X@X@XT.P.P.P.P.P.L.L.L.L.L.L.L.P.P.P.T.@X@X@XOXP.P.P.L.L.L.P.L.K.J.J.A.D.D.A.A.A.A.A.Z.m.m.m.k.m.k.m.k.k.k.g.g.g.d.p.a.p.p.p.i.i.%.%.&.&.-.-.-.U P P S g f s s y y 1 1 y s s y y y y y y a a a a s s a a a a a a a a a p z d d p p z z c c c c v b b b b M M m m ] } O.} +.X.*.X.X.+.*.*.b.).!.}.`. XDXGXSXFXFXGX0XhXMXFXFXFXFXJXFXFXDXDXFXFXFXDXDXDXFXFXFXFXFXHXHXHXHXHXHXFXFXFXFXHXHXHXLXJXJXJXJXHXHXJXJXJXJXJXJXJXJXJXJXJXJXKXKXKXKXJXJXJXJXJXJXJXJXJXJXJXJXJXJXJXJXJXJXJXJXJXJXJXJXHXHXJXHXHXHXHXHXHXFXHXHXHXFXFXFXHXHXLXLXLXLX",
"W r r r e e e r l l l l l r r r r l l W W W Q Q Q Q Q Q Q Q Q Q W W k l l r e e 9 6 6 6 6 6 6 6 6 6 6 6 9 9 9 9 9 7 7 7 9 9 e 7 7 7 w w h h h 7 u u j j j j z z j M n t z z z g g F F F ....S g g f g Z F f f Z F S S S Z F F F F S S Z Z C Z S S P ..P P S S S S S S F F Z Z S Z F Z Z Z Z Z Z Z Z S S G P #.P #.P P P U #.U G A G P P G A G G A G I U U I Y U Y Y R R &.T R R T T w.u.f.f.f.u.u.g.f.r.u.u.k.k.m.m.m.M.A.A.A.A.A.A.A.A.J.J.U.L.L.L.L.L.I.I.I.I.P.P.P.P.P.P.Y.@XY.@X@XY.Y.Y.Y.Y.Y.Y.Y.Y.Y.Y.Y.Y.Y.Y.Y.Y.Y.Y.Y.Y.Y.Y.Y.Y.Y.Y.Y.Y.Y.Y.Y.Y.P.P.Y.Y.Y.Y.P.P.P.P.P.P.P.P.P.P.P.P.P.P.P.P.P.P.P.P.@X@X@X#X#X#X@X@XT.P.P.P.L.L.L.P.P.P.P.P.@X@X#X#X#X#X@XP.P.P.L.L.L.L.L.K.J.D.D.A.A.A.A.A.A.A.A.Z.H.k.k.k.k.k.k.k.k.g.g.d.f.p.f.f.p.p.p.y.r.r.%.&.&.-.R U P P S g f s s y < < y s s y 1 1 < y y a a a s s s a a a a a a a p p p z z z p d c c c c c c v b b b M M m m ! ] } O.+.O.+.} X.X.+.*.b.!.C.~.~.`.hXGXKXSXGXGXGXSXFXSXSXDXFXJXGXJXFXDXFXFXFXFXHXHXHXHXFXFXFXHXFXFXHXHXFXFXHXHXFXFXFXFXHXHXJXJXJXJXJXJXJXJXJXJXJXJXJXJXJXJXJXJXKXKXKXKXKXKXJXJXJXJXJXJXJXJXJXJXJXJXJXJXJXJXJXJXJXJXJXJXJXJXJXJXHXHXJXHXHXHXHXHXLXLXFXFXFXHXFXFXLXLX",
"r r r r e e e r l l l l l r r r r r l W W W Q Q Q Q Q Q Q Q Q Q Q Q W W k l l r e e 9 9 9 9 9 6 9 6 6 6 6 6 6 7 7 7 7 7 e e 7 e w w w u u q u h u u h j j z z j i z v c d d s s f f g g g f s f f f g g Z F Z f f Z f f f f g f Z S S S Z F S P P S P Z S S P P P S S S S Z Z Z Z Z Z Z Z Z Z Z S G P P P P P P P G P P P G A G G G G Z I I I I I I Y U U U U A Y R R R R R T T p.f.f.u.u.u.u.u.f.t.y.f.f.j.k.k.M.Z.Z.A.A.A.A.A.A.A.J.K.U.U.L.L.U.L.L.U.U.I.I.P.P.P.P.P.P.OXY.@X@X@X%X%X%X%X%X%X%X%XY.Y.Y.Y.Y.Y.Y.Y.Y.Y.Y.Y.Y.Y.Y.Y.Y.Y.Y.Y.Y.Y.Y.Y.Y.Y.P.P.Y.Y.Y.Y.Y.Y.Y.Y.Y.P.P.P.P.P.P.P.P.P.I.P.P.P.P.P.@X@X@X@X@X@X@X@X@XP.P.P.P.P.P.P.P.P.@X@X@X#X#X#X#X#X#X@XP.P.L.L.L.L.L.L.L.J.J.A.D.A.A.A.A.A.A.A.Z.k.m.k.m.k.k.k.k.m.k.g.d.p.f.f.p.a.s.p.p.i.y.r.%.&.&.U U P I S g g s s < < y s s y 1 1 1 y y a a a s s s a a a a a a a p p p z z z p d c c c c c c b b b b b M m ! ] ] ] } +.5.+.5.X.X.+.*.b.!.}.).}. X XFXDXhXSXSXMXSXgXSXMXSXDXFXGXJXFXDXFXFXFXFXHXHXHXHXFXFXFXHXFXFXHXHXLXLXLXLXFXFXFXFXHXHXJXJXJXJXJXJXJXJXJXJXJXJXJXJXJXJXJXJXKXKXKXKXKXKXKXKXJXJXJXJXJXJXJXJXJXJXJXJXJXJXJXJXJXJXJXJXJXJXJXJXHXJXJXJXHXHXHXHXLXFXFXFXFXFXFXFXLXLX",
"r r r e e e e r l l l l l l r r r l l W W W W W W W Q Q Q Q Q Q Q Q Q Q Q W k l l r e e e r e e 9 9 6 6 6 6 6 6 6 6 7 9 9 e e e u 7 7 h u q h h h l j j j j j j z c z c v z s s s f g g f s g g f f f f g F S Z Z f f f f Z Z F S S Z S S S L P G S S Z Z S S G S S S S S S S S S S Z Z S G G G G G P P P P G P A A I P I A A G I G G I I I I U U U Y U Y Y Y R %.&.&.T R &.y.f.f.f.u.u.f.f.u.u.u.u.f.k.k.k.Z.A.M.A.D.A.A.A.J.J.J.K.K.K.L.U.I.L.L.L.L.L.I.I.P.Y.@XY.P.P.P.Y.@X@X%X%X%X%X%X%X%X%X%X%X%X%X%X%X%X%X%XY.Y.Y.Y.Y.Y.Y.Y.Y.Y.Y.Y.Y.Y.P.Y.Y.P.P.P.P.Y.Y.Y.Y.P.P.Y.Y.Y.P.P.P.P.P.P.P.I.I.L.I.P.P.OXOXY.Y.P.P.T.@X@X@X@XOXP.P.P.P.P.P.P.P.@X@X@X#X#X#X#X@X@X@XP.P.P.P.P.P.P.L.K.K.J.J.D.A.A.A.A.A.A.A.A.Z.Z.k.k.k.k.k.k.k.k.g.g.d.d.d.d.d.d.p.p.p.p.i.i.%.%.&.U U P I S g g s s g y s f y y 1 y y a a s s s s s y a a a a a a a a p d z z d c c c c c c c b b b M b M m ! ] ] ] }  .O.+.+. .6.+.9./.^. XC.{.dX^. XhXDXGXFXDXKXMXFXFXSXhXhXhXSXFXJXFXFXFXFXJXHXHXHXFXFXHXHXFXLXLXLXLXFXFXLXLXLXFXFXJXHXJXJXJXJXJXJXJXJXJXJXJXJXJXJXJXJXJXJXKXKXKXKXKXKXKXKXJXJXJXJXJXJXJXJXJXJXJXJXJXJXJXJXJXJXJXJXJXJXJXHXJXJXJXJXHXHXHXHXLXLXFXFXHXHXLXLXLXLX",
"r r r e e 9 e r r r l l l l l r r l l W W W W W W W Q Q Q Q Q Q Q Q Q Q Q Q Q W k l l r e e e 9 9 r l l l l e 6 6 6 6 7 7 7 9 7 7 7 u h u u u h h k b ~ x u 0 i p p p p a v D v v g g f f Z g g f f g Z Z g Z F S F S F S L L L S S F Z S L S F Z Z G G S Z S S S Z Z F F S S P ..P P S S S G P P S S P P G S G A G I I I G G G G G G G G I U U U U U U Y U U U R R T &.y.y.y.p.u.f.u.u.f.f.u.u.f.k.Z.k.k.k.A.A.D.L.L.J.D.L.A.L.P.P.P.L.I.I.P.P.P.P.P.P.P.Y.Y.Y.@XY.P.P.P.@X@X%X%X%X%X%X*X%X%X%X*X*X%X%X%X%X%X%X%X%X%XY.Y.Y.Y.Y.Y.Y.Y.Y.Y.Y.Y.Y.Y.Y.P.P.P.P.Y.Y.Y.Y.P.P.Y.Y.Y.P.P.P.P.P.P.P.I.I.L.P.P.P.OXOXY.@X@X@X@X@X@X@X@XP.P.P.P.P.P.P.P.@X#X@X@X#X#X#X@X@X@X@XP.P.P.P.P.P.P.L.K.K.J.J.J.D.A.A.A.A.A.A.A.Z.Z.m.m.k.m.k.k.k.m.k.g.g.d.d.d.d.d.d.p.p.p.p.i.y.%.%.&.U P P I S Z g g F y s f y y y y y a a s s s s s y a a a a a p p a p d z z z c c c c c c c b b b M b M m ! ] ] ] }  .O.+.+.+.!.b.{.^. X0X|.0XgXdXhXgXgXgXSXFXKXMXSXSXSXSXSXMXSXFXFXFXFXFXFXHXHXHXHXFXFXHXFXFXLXLXLXDXDXLXDXLXLXFXFXJXJXJXJXJXJXJXJXJXJXJXJXJXJXJXJXJXJXJXJXKXKXKXKXKXKXKXKXJXJXJXJXJXJXJXJXJXJXJXJXJXJXJXJXJXJXJXJXJXJXHXHXJXJXJXJXHXHXHXHXLXLXFXFXHXHXLXLXLXLX",
"r r r e e 9 e r r r l l l l l r r l l k W W W W W W Q Q Q Q Q Q Q Q Q W Q Q Q W W W k l l r e 9 9 9 6 6 6 9 e h l k k k k l h e h l l h h u u 7 7 7 h j b ! n j p p p p a a g D D D F Z g F s g F F Z g F P P Z f f g f f Z Z S S S Z S P S S S G G Z Z S S S Z Z Z Z Z Z Z Z S P P Z Z Z Z S G S Z Z Z Z A $.P G G G A A G G I P P P P P Y U U U U U U Y U R &.&.%.y.y.p.p.p.u.u.u.f.f.u.f.k.k.k.Z.Z.H.H.A.D.J.K.L.L.A.K.J.P.P.P.P.P.P.P.P.P.P.P.P.Y.Y.Y.Y.@XY.P.P.Y.@X@X@X%X%X%X%X%X%X*X*X*X*X*X*X%X*X%X%X%X%X%X%X%X%X%X%XY.Y.Y.Y.Y.Y.Y.Y.Y.Y.Y.Y.Y.Y.Y.Y.Y.Y.Y.Y.Y.Y.Y.Y.Y.P.P.P.Y.Y.Y.Y.P.P.P.P.Y.@X@X@XY.@X@X@X@X@X@X@X@X@XT.T.T.T.T.T.@X@X#X#X#X#X#X#X@X@X@XP.P.L.L.L.P.P.P.L.L.K.J.J.J.J.A.A.A.A.A.A.A.Z.Z.Z.Z.Z.m.m.m.k.m.m.m.g.g.g.d.d.d.p.a.p.p.p.y.y.y.%.%.&.U U P I S g Z S y f s s y y y y s s s s s s s y a a a a a a p p p p d z c c c c c c c c v M b b M M m ! ] ] ] }  . .+.+.8.{.)./.0X`.~.|.hXKXSXKXFXhXfXfXhXhXgXhXDXFXFXDXFXhXMXGXJXJXJXJXGXJXJXJXHXJXJXHXFXLXLXLXFXFXFXFXLXLXFXFXJXJXJXJXJXJXJXJXJXJXJXJXJXJXJXJXJXJXJXJXKXKXJXJXJXJXJXJXJXJXJXJXJXJXJXJXJXJXJXJXJXJXJXJXJXJXJXJXHXHXHXHXJXJXJXJXHXHXHXHXLXLXLXLXHXHXHXLXLXLX",
"r r e e e 6 e e r l l r l l l l l l l l k W W W W W Q Q Q Q Q Q Q Q Q W Q Q Q Q Q W W W W k l l e 9 6 6 6 6 6 6 7 7 9 e h l W ~ ~ ~ Q h l h h q 7 7 7 0 0 0 u j p z z z : y s s s s f g P X.Z S S F F F F F Z f f f f f f Z Z F S S Z S Z Z Z S S S Z G S G S Z Z S S S F F F S S S S S S S Z Z Z Z S P P U G P P P A Z A G I P P I I I Y U U U U U U Y U R T &.&.%.T T r.r.y.y.u.u.f.j.k.k.Z.Z.Z.H.Z.Z.A.A.L.L.L.L.K.A.J.P.P.#X@X@X@X@X@X@X@X@X@X@X@X@X@X@X@XP.P.P.@X@X@X@X%X%X%X&X*X*X*X*X*X*X*X*X%X%X%X%X%X%X%X%X%X%X%X%XY.Y.Y.Y.Y.Y.%X%XY.Y.Y.Y.Y.Y.Y.Y.Y.Y.Y.Y.Y.Y.Y.Y.Y.P.Y.P.Y.Y.Y.Y.P.P.P.Y.@X@X@X@X@X@X@X@X@X@X@X@X@X@XT.P.P.T.@X@X#X#X#X&X&X#X#X#X@X@X@XP.P.L.L.L.L.P.L.L.K.K.J.J.J.J.D.A.A.A.A.A.A.Z.Z.Z.Z.Z.m.m.m.m.m.m.m.g.g.g.d.d.d.p.a.p.p.p.y.y.y.y.%.&.$.U U P S Z Z S s s s s s s s s s s s s s s s y a a a a a a d p p p d z c c c c c c c c v b b b M M m ! ] ] ] } }  .O.+.5.hX/.9.~.{.dXgXhXhXgXgXSXFXGXSXMXSXSXFXKXJXFXDXDXFXFXSXDXFXFXGXGXJXJXJXJXJXJXHXFXLXLXLXFXFXFXFXLXLXFXFXHXJXJXJXJXJXJXJXJXJXJXJXJXJXJXJXJXJXJXJXKXKXJXJXJXJXJXJXJXJXJXJXJXJXJXJXJXJXJXJXJXJXJXJXJXJXJXJXHXHXHXFXHXHXHXHXFXFXLXLXLXLXLXLXHXHXLXLXLXFX",
"r r e e e 9 9 e r l l l l l l r r r l k k k W W W W W W Q Q Q Q Q Q Q Q Q Q Q Q Q W W W Q W W W l r e 9 9 7 9 6 6 6 6 6 e l W Q Q Q ~ ^ l l l h h h u h j j j p p d d z v v v D D  .X...$...[ L [ S S D S S S S S P S f S S S S S S S S S F S S S S S S S S S S S S S S Z Z Z Z S G S G G G Z Z Z Z C C P P P I G G G G G A A I I I I P U U R $.-.R R U %.R &.&.&.r.y.p.f.g.g.f.f.k.k.k.k.k.k.Z.A.A.J.J.L.L.L.L.L.L.L.P.Y.Y.@X@X@X#X@X@X@X@X%X%X%X%X%X%X%X%XY.Y.P.Y.Y.Y.Y.@X%X%X*X*X*X*X&X*X*X*X*X*X*X*X*X*X%X%X%X%X%X%XY.Y.Y.Y.Y.Y.Y.%XY.Y.Y.Y.Y.Y.Y.Y.Y.Y.Y.Y.@X@X@X@XY.Y.Y.Y.Y.Y.Y.Y.Y.Y.Y.Y.Y.@X@X@XY.P.Y.Y.Y.Y.T.T.T.T.Y.Y.P.P.P.P.@X#X#X#X#X&X&X#X#X#X@X@X@XT.P.L.L.L.P.P.P.L.L.K.K.J.J.J.J.D.D.A.A.A.A.A.Z.Z.Z.m.m.m.m.m.m.k.k.k.g.g.d.d.d.p.a.a.p.p.p.y.i.y.i.%.&.U U Y I S F F g f s s s s s s s s s s s s a a a a s s a p d d d d z c c c c c c c c c c M M M M m ! ! ) ) ] | } } O.+.*./.+.C.dXSXhXdXDXSXfX0XDXDXSXSXDXDXDXJXGXFXDXDXDXJXFXSXDXDXHXGXGXGXGXGXJXHXHXHXHXHXFXFXFXFXHXHXHXFXHXHXJXJXJXJXJXJXJXJXJXJXJXJXKXKXKXKXKXKXKXKXKXKXJXKXKXKXKXKXKXJXJXJXJXJXKXKXKXKXKXJXJXJXJXJXJXJXJXJXHXHXHXHXHXHXHXHXLXLXLXLXLXLXHXHXHXHXJXJXJXJX",
"r r r r e 9 9 9 e r l l r l l r r r l l k k W W W W W W Q Q Q Q Q Q Q Q Q Q Q Q W W W W W W W W W l l l e 9 9 9 9 9 7 9 r l W ~ ^ ! Q k k W l j k k j j i i i i a p p d 0 d v d s g g s f f F S S ..D F F F S S $.L F F S S S S S S S S S S S S P ....P S S S S S S Z Z Z S Z Z Z Z Z Z C C Z Z A A G P U P I G P U Y U U I I I I P Y U U R &.&.&.&.&.&.T r.p.y.f.g.g.m.m.k.k.k.k.m.Z.Z.k.k.Z.A.J.J.L.L.L.L.J.J.K.P.@X#X@X@X@X@X@X@X@X@X%X%X%X%X%X%X%X%X%X%XY.Y.Y.Y.Y.Y.Y.@X%X*X*X*X*X*X&X*X*X*X*X*X*X*X*X*X%X%X%X%X%X%X%X%XY.Y.Y.%XY.%X%XY.Y.Y.Y.Y.Y.Y.Y.Y.Y.Y.@X@X@X@X@X@X@XY.Y.Y.Y.Y.@XY.Y.Y.Y.@X@X@XY.P.Y.Y.Y.Y.T.T.Y.Y.Y.Y.@X@XP.Y.@X@X#X&X&X&X=X=X&X@X@XP.P.P.P.P.L.L.P.L.P.L.L.K.K.K.J.J.J.J.D.D.D.A.A.A.Z.Z.Z.Z.Z.m.m.m.m.k.k.k.g.g.d.d.d.d.d.a.a.p.a.p.i.i.i.%.%.&.U Y P P S F Z s s s s s s s s s s s s s a a a a s s p p p d d d c c c c c c c c c c c M M M M m ! ! ) ) ] | } } O.+.*. .*.C.3XgX3X3X X|. XdX0XgXSXDXDXFXJXSXSXSXDXFXJXFXFXFXFXHXGXGXJXGXGXGXHXHXHXHXHXHXFXFXFXLXHXHXFXFXHXHXJXJXJXJXJXJXJXJXJXJXJXJXKXKXKXKXKXKXKXKXJXKXJXJXKXKXKXKXKXKXJXJXJXJXKXKXKXKXJXJXJXJXJXJXJXJXJXJXHXHXJXJXJXJXJXJXJXJXJXJXJXJXKXKXJXJXJXJXJXJX",
"l l r r e 9 6 6 9 e r l r r r r r r l l l k W W W W W W W W Q Q W W W W W W W W W W W W W W W W W W W l l l e 9 9 9 9 e l k W ~ ~ ~ ~ ~ ~ ~ b k j l j j j j z z z z z z ) ) M d y y g F D F [  ...F [ [ [ ..[ ........$.L P P P P P P P P S S P S F S S S Z Z Z Z Z Z C Z S S Z Z S S Z C C Z Z A G P P I I G G U U U U U U Y I P U U U -.&.&.&.&.%.r.r.r.f.p.f.m.m.m.m.m.m.k.k.m.Z.A.Z.Z.A.A.A.J.J.J.J.J.L.L.P.Y.@X#X#X%X#X%X%X%X%X%X%X%X%X*X%X%X%X%X%X%XY.Y.Y.%X%X%X%X%X%X*X=X*X*X*X*X=X&X&X&X*X*X*X*X*X*X*X*X*X*X*X*X*X*X%X%XY.Y.%X%X%X*X%XY.%XY.Y.%X%X%X%X%X%X%X%X%X%X%X@X@X@X@X@X@X@X@XY.Y.@X@XY.@XY.P.Y.Y.Y.Y.Y.Y.@X@X@X@X@X@X@X@X#X@X*X&X&X&X&X&X*X@X@XP.P.P.P.P.L.L.P.P.P.L.L.L.L.K.K.J.J.K.J.D.D.D.A.A.A.Z.A.A.Z.Z.m.m.m.m.m.k.k.g.d.d.d.d.d.d.p.p.a.a.s.i.i.%.%.&.U U U P P S F g s s s s s s s s s s s s s s a a s s p p p z d z c c c c c c c c c c b M M m m m ! ! ! ) ] ] } } O. .X.5.9.8.}.}.hXfXfXfXhXSXSXSXDXFXFXSXDXhXhXFXKXFXFXFXJXGXGXGXGXGXJXJXGXGXJXJXGXHXJXHXHXHXHXHXHXHXJXJXJXJXJXJXJXJXJXJXJXJXJXJXJXJXKXKXKXKXKXKXJXJXJXJXJXJXJXJXKXKXKXKXKXJXJXKXKXKXJXJXJXJXJXJXJXJXJXJXJXJXJXJXJXJXHXHXHXHXLXLXHXHXLXLXJXJXJXJXJXJXJXJX",
"l l r r e e 9 6 6 9 e r r r r r r r r r l l k k k k W W W W W W W W W W W W W W W W W W W W W W W W W W W l l h h h h h l W ~ ~ ~ ~ ~ ~ ~ ~ Q k b b x z j i i i n n c c { D v ) D v v ) _ D v d g F g v F F F F S P S S S S S S S S S S S S S S S F S F F F F Z C C Z Z Z Z Z Z Z C C C I G A Z I G A Z Z A G I I I I I Y -.R Y Y U -.R &.&.%.%.%.r.y.y.g.g.y.g.k.m.m.m.k.k.m.Z.Z.A.A.A.D.A.D.J.L.L.L.P.Y.Y.Y.Y.@X#X#X@X*X%X%X%X%X%X%X%X%X%X*X*X%X%X%X%X%X%XY.%X%X%X%X%X%X&X=X=X=X=X=X=X=X&X&X&X*X*X*X*X*X*X*X*X*X*X*X*X*X*X*X%X*X%X%X%X%X*X%XY.%XY.Y.Y.%X%X%X%X%X%X%X%X%X%X@X@X@X@X%X%X%X%X@X@X@X@XY.Y.Y.P.Y.Y.Y.Y.Y.@X@X@X@X@X@X@X#X#X#X@X*X*X@X#X#X#X@X@X@X@X@XP.P.P.P.L.P.P.L.P.P.L.L.L.K.K.J.J.K.D.J.D.D.A.A.A.A.A.Z.Z.Z.m.m.m.m.m.k.g.g.d.d.d.d.d.d.d.d.a.s.s.s.i.%.&.-.U Y U P P S F g s s s s s s s d s s s s s a a s s p p z z d z c c c c c c c c c c b b M m m m ! ! ! ) ] ] } } }  .X.*.9.;.8.^.|.). XhXFXFXDXDXFXFXDXDXSXSXMXDXFXFXFXFXFXFXFXFXHXGXJXJXGXGXGXJXGXJXJXHXHXFXFXHXHXHXJXJXJXJXJXJXJXJXJXJXJXJXJXJXJXJXJXKXKXKXKXJXJXJXJXJXJXJXJXKXKXKXKXKXKXKXJXJXKXKXJXJXJXJXJXJXJXJXJXJXJXJXJXJXFXLXDXDXDXDXDXDXDXDXDXDXDXDXDXDXDXLXLXLX",
"l l r r e e 9 6 6 6 9 e r r r l r r r r l l l l k k W W W W W W W W W W W W W W W W W W W W W W W W W W W l l l l l l l W Q ~ ~ ! ~ ~ ~ ! ~ ~ ~ ~ ~ ~ ~ ~ ! ! m n M n c z d z d d s d d p s d g v F d F F F S F S S S S S S S S Z S S Z F S S S F F Z F Z Z Z C f S P Z Z Z Z C Z Z A A G G G I I P P P P U U Y Y U U Y Y Y Y U Y -.&.-.i.i.p.p.f.f.m.u.m.f.f.m.m.m.m.m.Z.A.A.A.A.A.A.A.D.K.L.L.P.Y.@X@X#X#X#X#X#X*X&X&X&X&X&X&X%X%X%X%X%X%X&X&X%X&X&X%X%X%X%X*X%X%X*X=X=X=X=X=X=X=X=X=X=X=X=X=X*X*X*X*X*X*X*X*X*X*X*X*X*X*X*X*X*X%X*X%X%X%X*X%X*X%X%X%X%X%X%X%X%X%X%X%X%X@X@X@X@X%X%X@X%X%X@X@X@X@X@XY.Y.Y.@X@XY.Y.@X@X@X@X@X@X#X#X#X#X@X@X#X#X#X#X@X@X@X@X@X@X@XP.P.P.P.L.P.L.P.L.L.L.L.L.L.K.J.J.J.J.J.D.D.A.A.A.A.A.A.A.Z.Z.m.m.m.k.m.k.g.g.g.g.g.d.g.d.d.d.a.s.s.i.r.&.&.-.U U P P S F Z g s f s s s s s s s s s s a a s s p p d z z z c c c c c c v v v v M M M m m m ! ! ) ) ] [ } ] | O.O.+.5.;.^.{.`.{.0XMXSXMXgXMXMXMXDXDXSXDXDXhXDXFXHXFXFXFXFXFXFXJXJXJXJXJXGXGXGXGXGXHXHXHXJXJXJXJXJXJXJXJXJXJXJXJXJXJXJXJXJXJXJXJXJXJXKXKXKXKXJXJXKXJXKXKXJXJXJXJXJXJXJXKXKXKXJXJXJXJXKXJXJXFXHXJXJXHXHXDXDXDXDXSXPXhXhXhXjXjXhXhXhXhXhXhXPXPXPXPXDXLX",
"l l r r e e 9 6 6 6 6 9 9 e e r r r r r r r l l l l k k W W W W W W W W W W W W W W W W W W W W W W W W W l l l l l W W Q ~ ~ ~ ~ ~ ^ ^ ! ^ ! ! ! ! ! ! ! ! m n c c M M z d d z d p d z g v F D F g F F S S F S S S S S S S S S S S S F F F S F F S C Z S Z Z S Z P ..S Z Z Z C C Z G I P P P P #.#.#.#.P P P P U I I U Y Y U &.&.&.&.r.p.p.p.f.f.k.f.f.g.f.k.A.m.m.m.Z.A.A.D.D.D.J.A.J.U.L.P.P.Y.@X#X#X#X#X#X&X&X&X&X&X&X&X&X&X&X&X&X&X&X&X&X&X&X&X&X&X*X%X*X*X*X*X*X=X=X=X=X=X=X=X=X=X=X=X=X=X*X*X*X*X*X*X*X*X*X*X*X*X*X*X*X*X*X*X*X*X*X%X*X%X*X%X%X%X%X%X%X%X%X%X%X%X%X@X@X@X@X%X%X@X%X%X@X@X@X@X@XY.Y.Y.@X@XY.Y.@X@X@X@X@X@X#X#X#X#X#X@X#X#X@X#X#X#X#X@X@X@X@XP.P.P.P.P.P.L.P.L.L.L.L.L.L.K.J.J.J.J.D.D.D.A.A.A.A.A.A.A.Z.Z.m.m.m.k.m.m.g.g.g.g.g.g.g.g.g.d.d.a.s.i.i.%.&.&.-.U U P P S F Z g f s s s s s s s s s s a a s s p p d z z z c c c c c c v v v v M M M m m m ! ! ) ) ] ] | ] [ O.O.5.9.5./. XdXhXFXFXSXgXSXFXGXGXDXMXDXFXFXhXMXDXFXFXFXFXFXFXFXJXJXJXJXJXJXJXGXGXGXGXGXGXGXGXGXGXJXJXJXJXJXJXJXJXJXJXJXJXJXJXJXJXJXJXKXKXKXKXJXJXKXKXKXKXJXJXJXJXJXJXKXKXKXKXKXJXKXKXKXJXHXFXHXHXHXDXDXPXSXhXhXjXdXdX X X X X X.X XsXdXdXjXjXhXPXPXDX",
"l l r r e e 9 6 9 9 6 6 9 9 e e e e r r r r l l l l k k W W W W W W W W W W W W W W W W W W W W W W W W W l W W W W Q Q ~ ~ ~ ~ ~ ~ ^ ^ ! ^ ! ! ! ! ! ! ! ~ n n m n c z z z z z z p d v v D D ) D ..[ X...[ S S S S S S S S S S S P S Z C Z F S Z C Z Z Z S S Z S P P Z Z Z S S G P P P U P P P P P P I P P I I I U U I Y -.&.%.%.%.r.p.a.p.d.g.g.k.u.k.m.k.k.k.Z.Z.A.A.D.K.K.K.J.J.J.J.L.P.P.Y.@X#X@X@X#X#X&X&X&X=X=X=X=X=X=X=X=X=X=X=X=X=X=X=X=X&X&X&X*X=X=X*X=X=X=X=X=X=X=X=X=X=X=X=X=X=X=X=X=X=X=X=X*X*X*X*X=X=X*X=X*X=X*X*X*X*X*X*X*X*X*X*X*X*X%X%X%X%X%X%X%X%X%X%X%X@X@X@X@X%X%X@X%X%X@X@X@X@X@X@X@X@X@X@X@X@X@X@X@X@X@X@X@X@X@X@X#X#X#X#X@X#X#X#X#X@X@X@X@X@X@XP.P.P.P.P.P.L.L.L.L.L.L.K.J.K.J.J.J.D.D.A.A.A.A.A.A.A.Z.Z.m.m.k.k.k.k.k.g.g.g.g.g.g.g.d.d.d.d.a.p.i.r.%.&.&.U U P P P S F g s s s s s d d s d d s a a d s a s d d z z c c c c c c v v v v M m m m m ! m m ! ] ] ] ] ] | } O.+.5.5.{.|. XDXGXgXfXMXSXDXFXMXhXFXFXJXFXSXDXDXDXFXFXFXFXFXGXGXJXJXJXGXJXJXJXJXJXJXGXGXJXJXJXJXJXJXJXJXJXJXJXJXJXJXJXJXJXJXJXJXJXJXJXKXKXKXKXJXJXJXKXKXKXKXJXKXJXJXKXKXKXKXJXJXKXKXKXJXHXFXHXLXDXPXhXjXjXdX X.X{.{.^.^.!.!.!.!./.^.^.XX.X.XsXdXjXhX",
"l l r r e e 9 6 9 6 6 6 6 9 9 e e e e r r r l l r r l l W W W W W W W W W W W W W W W W W W W W W W W W W l W W W Q Q Q ~ ~ ~ ~ ~ ~ ~ ~ ~ ~ ~ ~ ~ ~ ~ ~ ~ ~ n n n b M n z z z z z p d d v v D D D D .. .....S S S S S S S S S S S S S Z C Z F F F F Z Z Z Z S S P Z Z Z Z S G P P P G G I I P P P P P P U U U U U U U U &.&.%.r.&.p.p.y.p.p.f.f.m.f.k.k.j.k.m.Z.A.A.A.J.L.L.L.K.J.J.J.J.P.P.P.@X@X#X#X@X#X#X&X&X&X&X=X=X=X=X=X=X=X=X=X&X=X&X&X&X&X&X&X&X*X=X=X=X=X=X=X=X=X=X=X=X=X=X=X=X=X=X=X=X=X=X=X=X*X*X*X*X=X=X*X=X*X=X=X=X*X*X*X*X*X*X*X*X*X*X%X%X%X%X*X%X%X%X%X%X%X%X%X%X%X%X%X%X%X%X@X@X@X@X@X@X@X@X@X@X@X@X@X@X@X@X@X@X@X@X@X@X#X#X#X#X@X@X#X#X@X@X@XP.T.T.T.P.P.P.P.P.P.L.L.L.L.L.L.K.K.K.J.J.J.D.D.A.A.A.A.A.A.A.Z.Z.Z.m.m.k.k.k.k.k.g.g.g.g.g.g.d.d.d.d.a.s.i.i.i.%.&.-.U U P P S S F f f f s s d d d d d s a a d d a a d d z z c c c c c c v v v v M m m m m ! m m ! ] ] ] ] ] } } } } X.5.b.).|.gXMXSXFXFXFXGXDXMXSXFXFXDXDXDXFXFXFXFXFXFXFXFXGXGXJXJXGXGXJXJXGXJXJXJXGXGXJXJXJXJXJXJXJXJXJXJXJXJXJXJXJXJXJXJXJXJXJXJXJXJXKXKXJXJXJXJXKXKXJXJXJXJXJXKXKXJXJXJXJXJXJXJXJXJXJXFXHXHXDXhXjXdX X{.^.^.!.8.5.5.5.7.5.7.E.E.E.E.!./.^.{. XdX",
"l l r r e e 9 6 6 6 6 6 6 9 9 9 9 e e e r r l l l l l l l W W W W W W W W W W W W W W W W W W W W W W k W W W W W W Q Q ~ ~ ~ ~ ~ ~ ~ ~ ~ ~ ~ ~ ~ ~ ! ! ~ ~ ~ ~ M b z j j j z p p i p z v D ) | ) D D F F F S S S S S L P L S S S S S F Z Z Z Z Z Z Z C C C Z Z Z Z Z Z S G U P U I P P P P U P #.P P #.#.U U I Y U &.%.%.r.r.y.c.g.g.m.m.k.f.k.u.j.k.k.Z.A.A.A.A.D.K.L.L.L.L.K.K.K.U.L.P.P.P.@X@X@X@X%X%X%X%X%X&X&X=X=X=X=X=X=X=X=X=X=X&X&X&X&X&X&X=X=X=X=X=X=X=X=X=X=X;X;X=X=X=X=X=X=X=X=X=X=X=X=X=X=X=X=X=X=X=X=X=X=X=X=X=X=X*X*X=X*X*X*X*X*X*X*X%X%X%X%X*X*X&X&X&X&X&X%X%X%X%X%X%X%X@X@X@X%X@X@X@X@XY.Y.@X@X@X@X@X@X@X@X@X@X@X@X@X@X@X@X#X#X@X@X@X@X@X@XP.P.P.P.P.P.P.P.P.P.P.L.L.L.L.L.L.K.U.K.K.D.J.D.D.A.A.A.A.A.A.A.A.Z.Z.m.m.m.k.k.k.g.g.g.g.g.g.g.g.g.g.d.d.a.i.i.i.i.&.&.U U U P P G S Z f g f f d d s s s s s s s s a d d d c d c c c c c c c c v v b M M m ! ! ! ! ! ] ] ] ] | } }  . .X.;.8./.}.DXGXDXMXFXGXSXhXSXDXFXFXFXDXFXFXFXFXFXFXFXFXFXJXJXJXJXJXJXJXGXGXGXJXJXJXJXJXJXJXJXJXJXJXJXKXKXKXKXKXJXJXJXJXJXJXJXKXKXKXKXKXKXKXJXJXJXJXJXJXJXJXJXJXJXJXJXJXJXJXJXJXJXHXHXHXLXDXDXhXdX X}.^.!.8.5.5.5.5.5.5.7.9.9.9.8.8.8.E.E.E.E./.^.",
"l l r r e e 9 6 6 6 6 6 6 9 9 9 9 9 e e e e r r r r l l l l l W W W k k W W W W W W W W W W W W W W k k k k k k W W Q Q ~ ~ ~ ~ ~ ~ ~ ~ ~ ~ ~ ~ ~ ~ ~ ~ ! ! ! n c z j j j p p z z z c n D D D ) ) D D F F F Z S S S S S S S L L S Z Z F Z Z Z Z Z Z Z C C C Z Z Z Z Z S P P A P P $.I S U G Z G #.U U U U Y -.&.i.r.i.r.r.y.p.f.f.g.m.m.Z.m.A.k.k.m.H.k.H.A.A.D.K.L.L.L.L.L.U.K.L.P.P.P.P.P.@X@X%X*X&X&X&X&X&X&X=X=X=X=X=X=X;X;X=X=X;X;X=X=X=X=X;X;X;X;X;X;X;X>X>X=X=X>X>X;X;X=X=X&X=X=X=X=X=X=X=X=X=X;X;X;X;X=X=X=X=X=X*X*X*X*X*X*X*X*X*X*X*X*X*X*X%XY.Y.%X%X*X%X%X%X%X%X%X%X%X%X%X%X@X@XY.Y.@X@X@X@XY.Y.Y.@X@X@X@X@X@X@X@X@X@X@X@X@X@X@X#X#X#X@X@X@X#X#X@XY.P.P.P.P.P.P.P.P.P.P.L.L.L.L.L.L.K.U.K.K.D.J.D.D.A.A.A.A.A.A.A.A.Z.Z.Z.Z.m.m.k.k.g.g.g.g.g.g.g.g.g.g.g.d.d.s.i.i.i.%.%.&.U U U P P G Z Z g g d d d s s d s s s s s a d d d c d c c c c c c c c v v b M M m ! ! ! ! ! ] ] ] ] | } }  . .X.*.;.;.C.fXGXFXFXgXgXDXGXFXFXDXJXFXFXFXFXFXFXFXFXFXHXFXJXJXJXJXJXJXJXGXGXGXJXJXJXJXJXJXJXJXJXJXJXJXKXKXKXKXJXJXJXJXJXJXJXJXKXKXKXKXKXKXKXJXJXJXJXJXJXJXJXJXJXJXJXJXJXJXJXJXHXHXHXHXLXDXPXhXdX X{.^.8.5.5.5.4.4.5.5.5.5.7.9.9.8.8.8.E.E.E.E.8.E.",
"l l r r e e 9 6 6 6 6 6 6 9 9 9 9 9 e e e e r r r l l l l l l l W l l l l l k k k k W W W W k k W W k k l l l l k W W Q ~ ~ ~ ~ ~ ~ ~ ~ Q Q ~ ~ ~ ~ ~ ~ ! ! ! n c z b b n n n n ) ) ) ) D n ) ) ) D F F F F S Z F F S F F S S S Z Z F F Z Z Z Z Z Z Z Z Z Z Z S Z Z I I G G P Z P #.G Z G U #.U U U U Y Y Y &.r.r.r.r.r.p.f.g.g.g.k.m.Z.k.A.m.Z.Z.A.A.k.k.M.A.A.A.J.L.L.L.L.P.P.P.P.@X@XP.@X@X*X&X=X=X=X=X=X=X=X=X=X=X;X=X=X;X=X=X;X=X:X;X;X;X=X=X=X=X=X=X=X=X=X&X;X;X=X=X=X*X*X*X%X*X&X=X=X=X=X=X=X=X=X=X=X*X*X=X=X=X=X*X*X%X%X*X*X*X%X%X%X%X%X%X%XY.Y.Y.Y.%X%X%X%X%X%X%X@XY.Y.Y.Y.@X@X@X@XY.@X@X@X@XY.Y.Y.Y.@XY.Y.@X@X@X@X@X@X@X@X@X@X@X@X#X#X@X#X#X#X#X@XY.P.P.P.P.P.OXP.P.P.P.L.L.L.L.L.L.K.J.J.U.D.J.J.J.D.D.A.A.A.A.A.A.A.A.A.Z.Z.m.m.m.k.m.k.g.g.g.g.g.g.g.g.g.d.a.p.y.y.i.i.%.&.-.U U P P S F g g d d d d d d d s s s s d d d d c c c c c c c c c v v v b M m m ! ! ! ! ' ] ] ] ] | } }  . .X.*.5.6.C./.}.gXhXMXMXDXKXGXFXDXJXFXFXFXFXFXFXFXLXLXHXHXJXJXJXHXGXJXGXGXGXGXGXJXGXGXJXGXGXJXJXJXJXJXKXKXJXJXJXJXJXJXJXJXJXJXKXKXKXKXKXKXKXJXJXJXJXJXJXJXJXJXJXJXJXJXJXJXJXJXHXHXHXHXDXPXgXdX.X{.!.8.4.<.+.<.<.<.4.4.5.5.5.7.7.9.9.8.8.8.7.7.9.9.",
"l l r r e 9 9 6 6 6 6 6 6 6 6 9 9 9 9 e e e r r r r r l r r l l l l l l l l l l l l l l l l l l k k l l l l l l l k W Q W W ~ ~ Q ~ ~ Q Q Q b ~ ~ ~ ~ ~ ! ! ! ~ n n ! ) ) ) ) ) { { | } } ) ) ) F F F F F F S S F S S F S S F Z Z Z Z Z Z Z Z Z Z Z Z Z Z S G G S S I I G G Z A P Z G G P I G I I U U Y U T &.%.y.p.g.m.g.g.g.g.A.Z.A.Z.k.k.m.A.A.A.A.k.A.J.L.L.L.L.P.P.P.P.@X@X@X@X@X@X@X@X*X&X;X;X;X;X=X=X=X=X=X;X;X;X=X=X;X=X=X=X=X=X;X=X;X=X=X=X;X;X;X;X=X;X;X;X=X=X=X=X=X&X*X%X*X*X&X=X=X=X=X=X=X;X=X=X=X=X=X=X=X*X*X*X%X%X*X%X%X%X%X%X%X%X%XY.Y.Y.Y.Y.Y.Y.@X@X@X@X@XY.Y.Y.Y.Y.Y.Y.Y.Y.Y.@X@X@X@XP.P.P.Y.Y.Y.Y.@X@X@X@X@X@X@X@X@X@X@X@X#X#X@X@X@X@X@X@XY.P.P.P.P.P.OXP.P.P.P.L.L.L.L.L.L.J.J.J.U.D.J.D.J.A.A.A.A.A.A.A.A.A.A.A.A.Z.Z.m.m.m.m.m.k.g.g.g.g.g.g.g.g.d.d.a.i.y.r.i.r.%.&.-.U U P G Z Z g d d d d d d d s s s s d d d d c c c c c c c c v c v v b m m m ! ! ! ! ' ] ] ] ] { } } }  .X.*.b.C.`.).^.`.dXFXKXDXDXFXFXFXFXJXFXFXFXFXFXFXLXLXHXHXJXJXJXHXHXHXHXJXJXJXGXGXGXGXGXGXGXGXJXJXJXJXJXJXJXJXJXJXJXJXJXJXJXJXKXKXKXKXKXKXKXJXJXJXJXJXJXJXJXJXJXJXJXJXJXJXJXHXLXHXHXHXDXhXdX X{./.8.5.5.0.+.+.+.<.<.4.5.5.7.5.7.7.9.8.8.7.7.7.9.7.",
"l l e e 9 9 6 6 6 6 6 6 6 6 6 6 6 6 9 9 e e e e r r r r l l l l l l l l l l l l l l l l l l l l l l k k l l l l k W W W W W W Q Q Q Q Q Q Q ~ ~ ~ ' ' ~ ! ! ~ ~ ~ ! ~ ! ! ) ) ! m n v n v v v v F F F F F F S Z Z Z F S S S F F Z Z Z Z Z Z Z Z C Z Z Z S P P G S Z S S G Z G P G A G G I A A A Y Y R T %.y.y.p.g.m.m.g.f.f.k.k.m.A.M.m.m.Z.A.D.D.A.A.A.J.U.L.P.T.T.@X#X#X#X#X*X%X%X%X%X%X*X&X;X;X;X;X;X;X=X=X;X;X;X=X=X;X;X;X;X;X;X:X=X;X;X;X;X;X;X;X;X;X;X=X=X;X;X=X;X;X=X=X=X&X&X=X=X=X=X=X=X=X=X=X;X=X=X=X=X=X=X=X*X*X*X*X*X*X*X%X%X%X%X%X%X%X%X%X%XY.Y.%X%X@X%X@X@X@XY.Y.Y.@X@X@X@XY.Y.Y.Y.@X@XP.P.P.P.P.P.Y.Y.@X@X@XP.P.@X@X@X@X@X@X@X@X@X@X@X@X@X@X@X@X@X@X@X@XOXP.P.T.P.P.P.L.L.L.L.L.L.U.J.K.D.F.D.J.A.D.A.A.A.A.A.A.A.A.A.A.Z.Z.Z.m.k.k.k.k.k.v.g.g.g.g.d.g.g.d.p.p.y.y.y.y.%.%.&.U U P P S F g d d d d d d d d s d d d d d d c c c c c c c c v v v b b M m ! ! ! ! ] ] ] ] ] ] ] } } }  .X.+.8./.3X|.|.0XdX0XSXSXSXSXDXFXFXJXHXHXHXHXFXFXFXHXHXHXHXFXFXFXJXJXHXHXHXHXGXGXGXGXGXGXGXJXJXJXJXJXJXJXJXJXJXJXJXJXJXJXJXJXKXKXKXKXKXKXKXJXJXJXJXJXJXJXHXHXHXHXHXFXHXHXHXLXLXDXDXSXhXdX X{.!.8.5.5.4.4.5.<.<.<.4.5.5.7.7.7.5.7.9.8.9.9.9.9.9.7.",
"h e e e 9 6 6 6 6 6 6 6 6 6 6 6 6 6 9 9 9 9 e e e e r r r r l l l l r r l l l l l l l l l l l l l l l l l l l l l k W W W W W Q W W Q Q Q ~ ~ ~ ~ ~ ~ ! ~ ! ~ ~ ~ n ~ ~ ! ! ! m n n v v F D D D F F F D D D S F F Z S S S S F S F F F F F F Z Z Z S G G G P P S Z Z Z Z P Z P I Z Z A A A A Y Y T &.%.%.y.p.g.g.k.k.k.k.j.k.k.m.m.f.m.m.Z.A.J.D.A.A.A.J.L.P.Y.Y.@X@X#X&X&X&X&X&X&X&X&X&X&X=X;X;X;X;X;X:X;X;X:X:X:X:X:X=X;X;X:X:X;X;X:X;X;X;X;X;X;X;X;X;X;X;X=X=X;X=X=X=X=X=X=X=X&X=X=X=X=X=X=X=X=X=X;X;X=X=X=X=X=X=X=X=X=X=X=X=X*X*X%X*X%X*X*X%X*X%X%X%X%X%X%X%X%X%X%X%X@X@X@X@X%X%X@X@XY.Y.Y.Y.@X@XY.P.P.P.P.Y.Y.Y.@X@X@XP.P.@X@X@X@X@X@XY.Y.Y.@X@X@X@X@X@X@X@X@X@X@XOXP.P.P.P.P.P.L.L.L.L.L.L.U.U.U.D.D.D.J.A.D.A.A.A.A.A.A.A.A.A.A.A.Z.Z.m.m.k.k.k.k.m.g.g.g.g.g.g.g.d.d.p.a.y.y.y.y.%.&.R U U P P S F v d d d d d d d d d d d d d d c c c c c c c c v v v b b M m m ! ! ] ] ] ] ] ] ] [ } }  .O.+.*.8./.3XfXhX0XSXSXgXhXhXhXDXDXFXFXHXHXHXHXFXFXFXHXHXHXHXFXFXFXFXJXHXHXHXHXJXJXJXJXJXJXJXJXJXJXJXJXJXJXJXJXJXJXJXJXJXJXJXJXKXKXKXKXKXKXKXJXJXJXJXJXJXHXHXHXFXLXLXLXFXFXHXHXLXDXDXhXdX X{.^.8.7.5.5.4.4.5.4.4.<.4.5.5.5.7.7.5.7.9.8.9.9.9.7.7.7.",
"e e e 9 6 6 6 6 6 6 6 6 6 6 6 6 6 6 6 6 9 9 e e e e e e r r r r r r r r r r r r l l l l l l l l l l l l l l l l l l W W W W W Q Q Q Q Q Q ~ ~ ! ~ o.o.! ! ! ~ ~ ~ n n n n n m m m m v v v v v v v v F F F F S S S F F S S F F F Z F S S S S Z S S Z Z P P I S Z Z Z Z A G I P S Z S G G G U &.&.%.y.y.p.f.g.k.m.m.k.k.k.k.k.k.M.k.k.j.A.A.J.K.A.A.D.L.L.P.Y.T.T.@X#X#X&X&X=X=X=X=X=X=X=X=X;X;X>X>X;X;X>X;X;X>X>X>X:X:X:X:X:X:X:X:X:X:X:X;X;X;X;X;X;X;X;X;X;X;X;X=X=X=X=X=X=X=X=X=X=X=X=X=X=X=X=X=X=X=X=X=X=X=X=X=X=X=X=X=X=X=X=X=X*X*X*X*X*X*X%X%X%X%X%X%X%X%X%X%X%X%X%X@X@X@X@X%X%X%X%X@X@X@X@X@X@X@X@X@X@X@X@XY.@X@X@X@XP.P.@X@X@X@X@X#X#X#X@X@X@X@X@X@XY.P.P.@X@XOXOXP.P.P.P.P.P.L.L.L.L.L.L.U.U.U.U.K.D.J.D.D.A.A.A.A.A.A.A.A.A.A.A.A.Z.Z.m.m.m.m.m.m.k.k.g.g.g.g.g.g.d.d.d.a.y.y.i.%.%.&.U U P P S F F v d d d d d d d d d d d c c c c c c c c c c v v v v M M m m ! ! ] ] ] ] ] ] [ }  .O.O.+.*.*.9.!.^. XhX0XhXSXMXhXMXMXSXSXDXDXFXFXFXFXFXFXFXFXHXHXFXFXFXFXJXJXHXHXHXHXHXHXHXHXHXHXJXHXJXJXJXJXJXJXJXJXJXJXJXJXJXJXJXJXKXKXKXKXKXKXKXJXJXJXJXHXHXFXFXFXLXLXLXLXHXFXHXHXHXDXhXjXsX{./.8.5.7.7.5.5.4.4.4.4.<.5.5.5.7.7.7.5.7.7.8.7.7.9.7.5.7.",
"e e 9 9 6 6 6 6 6 6 6 6 6 6 6 6 6 6 6 6 9 9 e e e e e e r r r r r r r r r r r r r r l l l r l l r r r r l l l l l l k W W W W W Q Q Q Q Q Q ~ ~ ~ ~ ~ ~ ~ ! ! ~ ~ n n n n n n n n n v v v F D D D D D D D F S F F F F S F F F F Z F F S S S Z Z Z S G S S S Z C Z Z Z Z G $.Z S A G G P U &.%.&.r.y.u.u.f.k.k.m.m.j.j.k.k.k.M.A.j.m.D.A.A.D.D.A.K.L.P.P.T.Y.Y.Y.@X#X#X&X=X=X=X=X=X=X=X=X=X;X;X;X>X>X>X>X>X>X>X>X>X8X>X:X>X>X:X:X:X:X>X>X;X;X;X;X;X;X;X;X;X;X;X;X;X=X=X=X=X=X=X=X=X=X=X=X=X=X=X=X=X=X=X=X=X=X=X=X=X=X=X=X=X=X=X=X=X*X*X*X*X*X*X%X%X%X%X%X%X%X%X%X%X%X%X%X@X@X@X@X%X%X%X%X@X@X@X@X@X@X@X@X@X@X@X@XY.Y.@X@X@XP.P.@X@X@X@X@X@X@X@X@X@X@X@XY.@XP.P.P.OXP.OXP.P.P.P.P.P.P.L.L.L.L.L.L.L.U.U.U.K.D.J.D.D.A.A.A.A.A.A.A.A.A.A.A.A.A.Z.Z.m.m.m.m.m.m.k.g.g.g.g.g.g.g.d.d.d.a.i.i.i.%.&.#.U U P P S F v c d c d d d d d d d d c c c c c c c c c c v v v v M M m m ! ] ] ] ] ] ] ] } } O.O.+.+.*.;.5.8.~.3XhXgXhXDXFXFXGXFXFXFXFXFXFXFXFXFXFXFXFXFXFXHXFXFXFXFXJXJXJXHXHXHXHXHXHXHXHXHXHXHXJXJXHXHXJXJXJXJXJXJXJXJXJXJXJXJXKXKXKXKXKXKXKXKXJXJXJXHXHXFXFXFXLXLXLXLXLXLXHXHXDXhXjXdX.X^.E.5.7.7.7.5.4.<.4.4.4.<.4.5.5.7.7.7.5.7.7.7.7.7.7.7.7.5.",
"e e 9 6 6 6 6 6 6 6 6 6 6 6 6 6 6 6 6 6 9 9 e e e e e e e e e e r r r r r r r r r r r r r l l l l l l l l l l l l l l W W W Q Q W W Q Q Q Q ~ ~ ~ ~ ~ ~ ~ ~ ~ b b b ~ ~ m n m n M M M M M D ) ) ) ) D D F F F F Z F F F F F F F Z F F F F F Z Z F L I Z Z Z Z Z Z A Z A I I G P P P P U %.:.%.y.u.u.f.f.Z.m.A.Z.k.k.A.A.k.A.k.j.k.M.A.D.J.D.L.L.L.P.@X@X#X@X@X@X#X@X&X&X=X=X=X=X=X=X=X=X;X;X;X>X>X>X>X>X>X>X>X>X>X8X>X8X8X8X8X>X:X:X>X>X>X:X:X:X:X:X:X;X;X;X;X;X;X;X;X;X;X;X;X;X;X=X;X;X=X=X;X;X=X=X=X=X;X;X;X=X=X=X=X=X=X=X=X=X=X*X*X%X%X%X%X%X%X%X%X%X%X%X%X%X%X%X%X%X@X@X@X@X%X%X%X@X@XY.Y.Y.@X@X@X@X@X@X@X@X@XY.@XY.@XY.Y.@X@X@X#X@X@X@X@X@X@X@X@XY.P.P.P.P.P.P.P.P.P.P.P.P.P.P.P.P.L.L.L.U.U.U.U.K.J.K.J.D.J.A.A.A.A.A.A.A.A.A.A.A.A.Z.Z.Z.Z.m.m.m.m.m.m.k.g.g.g.g.d.d.g.g.d.p.a.p.i.%.&.$.$.$.#...L F F v g v L | d d d d d d d d z c c v v v v v v M M M M M m m ! ] ] ] ] ] ] ] } }  .O.O.+.5.9.6.9.).3XSXgXgXFXFXFXDXDXFXFXJXJXFXFXFXHXHXHXFXFXFXFXFXHXHXHXHXHXHXFXHXHXHXHXFXFXHXHXHXHXHXHXHXHXJXJXJXJXJXJXJXJXJXKXKXKXJXJXJXJXJXJXJXJXHXHXHXFXFXDXDXDXLXLXLXLXDXDXDXDXPXjXdX X{.!.7.5.5.5.5.5.5.5.<.<.<.<.4.4.5.5.5.5.5.7.7.9.9.7.7.5.5.5.",
"e 9 9 9 6 6 6 6 6 6 6 6 6 6 6 6 6 6 6 6 9 9 e e e e e e e e e e e e r r e e r r e e e e r r l l l l r r l l l l r l l k W W Q Q W W Q W Q Q ~ ~ ^ o.{ ! ~ ~ b b x x b n n n n n M M m m D D ) ) ) ) D D F F F F Z F F F F Z F F F F Z Z Z Z Z Z Z S S Z Z Z Z Z Z S S I P S S P P P #.&.%.i.y.p.g.k.k.m.m.A.k.Z.k.Z.A.k.M.k.A.l.A.J.L.L.L.L.P.OX@X@X#X#X@X@X@X@X#X&X&X=X=X=X=X=X=X=X=X;X;X;X:X>X>X>XyX>X>X>X8X8X8X:X8X8XyX8X8X8XyX8X:X;X:X>X>X>X>X>X>X>X>X;X;X;X;X;X;X;X;X;X;X;X;X;X;X;X=X=X;X;X=X=X=X=X;X;X;X=X=X=X=X=X=X=X=X=X=X*X*X%X%X%X%X%X%X%X%X%X%X%X%X%X%X%X%X%X@X@X@X@X%X%X%X@X@XY.Y.Y.Y.Y.Y.Y.@X@X@X@XY.@XY.@X@XY.@X@X@X@X#X@X@X@X@X@X@X@X@XY.P.P.P.P.P.P.P.P.P.P.P.P.P.P.P.P.L.L.L.U.J.U.U.U.K.J.J.D.J.A.A.A.A.A.A.A.A.A.A.A.A.A.Z.Z.Z.Z.m.m.m.m.m.m.m.v.v.g.g.g.g.g.g.d.d.a.i.i.%.&.&.$.$.....S F v v v v g d d d d d d d d z c c v v v v v v v M M M M m m ! ] ] ] ] ] ] ] | }  .O.O.+.;.9.6.!.fX0XhXhXMXFXFXFXDXDXFXFXFXFXFXFXHXHXHXHXFXFXFXFXFXFXHXHXHXHXFXFXHXHXHXHXJXJXJXJXJXJXJXHXHXJXJXJXJXJXJXJXJXJXJXKXKXKXJXJXJXJXJXJXJXHXHXFXHXFXFXLXDXDXLXLXDXDXDXDXLXDXhXdX X).!.9.5.5.5.5.5.5.5.<.<.<.<.4.4.5.5.7.7.5.7.7.7.7.7.7.5.4.4.4.",
"e 9 9 6 6 6 6 6 6 6 6 6 6 6 6 6 6 6 6 6 6 6 9 9 e e e e e e e e e e e e e e e e e e e e e e r r r r r r r r r r r l l l k W W W W W W W Q Q ~ Q ~ ! ~ Q b b b x x x b n n n n m m m ) ) ) ) ) ) D D F v F F F F F F F F F F Z F F F F Z F F Z Z Z S S Z Z Z Z Z Z S P P P P P P P #.&.:.i.y.p.f.k.k.Z.Z.Z.k.A.m.M.A.m.m.M.A.k.A.L.L.P.P.P.OX#X#X#X#X#X#X&X&X&X&X&X&X=X=X=X=X;X=X=X=X;X:X:X>X>X:X>XyX;X>X8X8X8X8X8X8XyX8X>X>X:X:X:X>X>X>X8X>X>X>X>X>X>X>X>X>X;X;X;X;X;X;X;X;X;X;X;X;X;X;X;X;X;X;X=X=X=X=X;X;X;X=X=X=X=X=X=X=X=X=X=X*X*X%X*X*X*X*X%X%X%X%X%X%X%X%X%X%X%X%X@X@X@X@X@X@X%X@X@XY.Y.Y.@X@XY.Y.@X@X@X@XY.Y.@X@X@X@X@X@X@X@X#X#X@X@X@X@X@X@X@XY.Y.P.P.P.P.P.P.P.P.P.P.P.P.P.P.P.L.L.L.U.U.U.U.U.L.L.J.J.J.J.A.A.D.A.A.A.A.A.A.A.A.A.A.Z.A.Z.Z.m.Z.Z.m.m.m.m.k.m.v.v.v.v.g.g.g.d.s.i.%.%.&.&.$.$.....D F v g s s d d z z d c c c c c v v v v v v M M M M M m m ! ] ] ] ] ] ] ] ] | }  .O.X.+.5.8.`.{.SXSX XgXMXhXFXFXDXDXFXFXFXFXFXFXFXFXHXJXFXFXHXHXHXHXHXHXHXHXHXHXHXHXFXFXFXFXDXDXDXDXDXDXDXDXLXFXJXHXJXJXJXJXJXJXKXKXKXJXJXJXJXJXJXHXHXHXHXFXFXLXDXDXDXDXDXDXDXDXDXhXdX X{.!.9.5.5.5.5.5.5.5.5.<.<.<.+.<.5.5.5.7.5.5.5.5.5.7.7.5.5.4.<.<.",
"e 9 9 6 6 6 6 6 6 6 6 6 6 6 6 6 6 6 6 6 6 6 9 9 9 e e e e 9 e e e e e e e e e e e 9 9 9 e e e e e e e e e e r r r r l l l k W W k W W W Q Q Q Q Q ~ ~ b x x b x b b b ~ ! ! ) ) ) ) ) ) ) ) ) ) D D v v F F F F F F F F S Z Z F F Z F Z F F Z F Z S S Z Z Z Z Z S P P P #.P P U P &.:.i.p.p.f.f.f.g.k.k.m.Z.k.Z.D.M.f.A.A.k.A.K.P.P.P.P.OX#X#X#X#X#X#X&X&X=X=X=X=X=X=X=X;X;X;X;X=X;X:X:X>X>X>X>X>X8X>X>X8X8X8X8X8XyX8XyXyX8X8X8X>X>X>X8X8X>X>X>X8X8X8X8X>X>X;X;X;X;X;X;X;X;X;X;X;X;X;X;X;X;X;X;X=X=X=X=X=X=X=X=X=X=X=X=X=X=X=X=X=X*X*X%X*X*X*X*X%X%X%X%X%X%X%X%X%X%X%X%X@X@X@X@X@X@X@X@X@XY.Y.Y.@X@XY.Y.@X@X@X@XY.Y.@X@X@X@X@X@X@X#X#X#X@X@X@X@X@X@X@XY.Y.P.P.P.P.P.P.P.P.P.P.P.P.P.P.P.L.L.L.U.U.U.U.U.L.L.J.J.J.J.A.A.D.A.A.A.A.A.A.A.A.A.A.A.A.A.A.Z.Z.Z.Z.m.m.m.m.m.m.v.v.v.c.g.d.d.a.p.i.,.=.=.*.$.$...[ D v v v g v v v v d c c c c c v v v v v v M M M M M m m ) ] ] ] ] ] ] ] ] | } O.O.8.C.^.}.}.0XMXhX3XgXDXMXDXFXDXDXDXFXFXFXFXFXFXFXFXFXFXFXLXLXFXFXHXHXHXFXHXJXHXHXFXFXDXDXDXDXSXSXSXDXSXDXDXDXLXFXFXHXHXJXJXJXJXJXKXJXJXJXJXJXJXHXJXHXHXFXLXLXDXDXDXDXDXDXDXDXDXdX X{.~.8.5.5.5.5.5.5.5.<.+.+.<.<.+.<.<.5.5.5.7.5.5.5.7.7.5.4.4.<.<.<.",
"e 9 9 6 6 6 6 6 6 4 4 4 6 6 6 6 6 6 6 6 6 6 9 9 9 9 e e 9 9 9 9 9 9 9 9 9 9 9 9 9 9 9 9 9 9 9 9 9 9 e e e e e e e r l l l l l l W W W W W W Q x k Q b b x b b b b ~ ~ ~ ) ) ) ) ) ] ) m D D ) ) D F v F D F F F F F F F F F Z Z Z F F F Z Z Z Z S S S S Z Z Z Z G P P P G P P #.U %.p.a.f.f.f.k.k.k.Z.A.D.M.k.A.Z.A.A.A.A.A.A.D.L.L.P.OX@X#X#X#X#X#X&X=X=X=X=X=X=X=X=X=X;X;X;X;X;X:X:X:X:X>X>X>X>X>X>X8X8X8X8X8X8X8X8XyXyXyXyXyXyX>X>XyX8X>X>X>X8X8X8X8XyX8X>X;X>X>X;X;X;X;X;X;X;X;X;X;X;X;X=X=X=X=X=X=X=X=X=X=X=X=X=X=X=X=X=X=X=X=X*X%X*X*X*X*X*X*X*X%X%X%X%X%X%X%X%X%X%X@X@X@X%X%X%X@X@XY.Y.Y.@X@X@X@X@X@X@X@X@X@X@X@X@X@X@X@X@X@X@X@X@X@X@X@X@X@X@XY.Y.P.P.P.Y.Y.Y.P.P.P.P.P.P.P.P.P.P.L.L.U.U.U.U.U.K.K.J.J.J.J.A.D.A.A.A.A.A.A.A.A.A.A.A.A.A.A.A.Z.Z.Z.Z.m.m.m.m.m.m.m.v.v.g.g.g.g.a.s.i.i.%.=.&.$.$.....L F v v v g g g d d d v v c c v v v v v v M M M m m m ! ) ] ] ] ] ] ] ] | |  .+.9.b.`.{.{.fXgXMXhX0XhXMXDXDXDXSXDXFXFXFXFXFXFXFXFXFXFXFXFXFXFXFXFXFXFXFXFXHXHXHXFXFXDXDXDXSXSXhXhXhXhXMXSXDXDXDXDXDXDXHXHXJXJXJXJXJXJXJXJXJXJXJXJXHXFXFXFXFXFXLXLXDXDXDXDXLXPXjX0X X^.!.7.5.5.4.4.<.<.<.<.<.<.<.<.+.+.<.0.5.5.5.5.5.5.5.5.<.<.<.+.+.+.",
"9 9 6 6 6 6 4 3 4 3 4 4 4 4 6 6 6 6 6 6 6 6 9 6 9 6 9 9 9 9 9 9 6 9 9 9 6 6 6 6 6 6 6 6 6 6 6 6 6 6 9 9 9 9 e e e e r l l l l l k k k W k W b x k k b b x x x x x b ~ ! ) ) ) ) ) ) m M D D D D D D D F F D F F F F F F F Z F Z F F F F F F Z Z Z S S S Z Z Z Z S P P I G P U #.&.i.a.d.u.k.k.k.Z.A.A.A.A.Z.A.J.D.A.A.Z.K.L.L.P.OX#X#X#X#X#X&X#X&X&X=X;X;X;X;X;X=X=X;X=X;X;X;X;X:X:X:X:X:X>X>X>X>X8X8X8X8X8X8X8X8X8XyXyXyX8X8X8X8X>XyXyXyX>X>X>X>X>X8X8X8X8X8X8X>X>X>X>X>X;X;X;X;X;X;X;X=X=X&X*X&X=X=X=X=X=X=X=X=X=X=X=X=X=X=X=X=X=X*X%X*X*X*X*X*X*X*X%X%X%X%X%X%X%X%X%X%X@X@X@X%X%X%X@X@XY.Y.Y.@X@X@X@X@X@X@X@X@X@X@X@X@X@X@X@X@X@X@X@X@X@X@X@X@X@X@XY.Y.P.P.P.Y.Y.Y.P.P.P.P.P.P.P.P.P.P.L.L.U.U.U.U.U.J.L.J.J.J.J.A.D.A.A.A.A.A.A.A.A.A.A.A.A.A.A.A.A.Z.Z.Z.Z.Z.m.m.m.m.m.m.v.v.g.g.d.d.a.p.i.%.%.&.$.$.....L F F v g g g g d d d v v c c v v v v v v M M M m m ! ) ] ] ] ] ] ] ] | } |  .;.9.^.}.`.}.gXhXSXMXhXSXDXFXMXSXDXJXGXFXFXDXDXDXDXDXFXFXFXDXDXDXFXFXDXDXFXFXHXHXHXFXDXSXhXhXSXhXhXhXhXhXhXhXhXhXMXMXDXDXDXDXFXJXJXJXJXJXJXJXJXJXJXJXHXFXFXFXFXFXLXLXDXDXLXLXDXhXdXsX{./.8.5.5.4.0.<.+.+.+.+.+.+.+.+.+.+.<.<.<.5.5.5.5.5.5.5.<.<.+.+.+.+.",
"9 6 6 6 6 4 4 3 4 3 3 3 4 4 6 6 6 6 6 6 6 6 6 6 6 6 6 6 6 6 9 9 6 6 9 9 9 9 6 6 6 6 6 6 6 6 6 6 6 6 9 9 9 9 e e e e r l l l l l k k k k k W b b k k x b x x b b ~ ! ) ) ) ! n m ) m M ) [ ) D D D D D D D F F D F F F v Z Z F F F Z F F Z F Z Z S S S S Z S S Z S P P G I U U $.i.a.g.f.f.f.k.A.L.L.L.L.A.A.J.J.A.A.J.L.P.P.#X#X#X#X#X&X-X&X&X&X&X;X;X;X;X;X;X;X:X:X:X:X:X:X:X:X:X:X>X>X>X>X>X>X>X>X8X8X>X8X8XyXyXyX8X8X8XyXyXyXyXyX8X>X>XyXyXyX8X>X>X>X>X>X>X>X>X;X;X;X;X;X;X;X;X;X;X=X&X;X=X*X*X=X=X=X=X=X=X=X=X=X=X=X=X=X=X=X=X=X*X*X*X*X*X*X*X*X*X%X%X%X%X%X%X%X%X%X%X%X%X%X%X%X%X@X@XY.Y.Y.@X@X@X@X@X@X@X@X@X@X@XY.Y.@X@X%X%X%X@X@X@X@X@X@X@X@X@X@XY.Y.Y.Y.P.Y.P.P.P.P.P.P.P.P.P.P.L.L.L.L.L.L.L.L.L.L.L.U.J.J.J.D.D.A.A.D.A.A.A.A.A.A.A.A.A.A.A.A.A.A.A.Z.Z.Z.m.m.m.m.m.m.m.g.g.g.d.a.p.i.:.%.=.&.$.#.....S F v g g g d d d d g v c c c v v v M M M M m m m D ) ] ] ] ] ] ] [ | } |  .5.b.{.gXdX XSXgXSXhXhXMXMXhXMXDXFXGXGXHXFXDXDXFXDXFXFXFXDXDXDXDXDXDXDXDXLXLXHXHXFXFXDXhXhXhXhXhXhXhXhXhXhXhXhXhXhXhXhXMXDXDXDXDXFXJXJXJXJXJXJXJXJXJXJXJXHXFXFXLXLXLXLXLXDXDXDXjXdX.X^.E.5.<.4.<.<.+.+.+.+.+.+.+.+.+.+.+.+.<.<.5.5.5.5.5.5.5.<.+.+.+.O.O.",
"6 6 6 6 6 4 4 3 3 3 3 3 3 3 6 6 6 6 6 6 6 6 6 6 6 6 6 6 6 6 9 9 6 6 6 6 6 6 6 6 6 6 6 6 6 6 6 6 6 6 6 6 6 9 e e e e r l l l l l l k k k k k k k k Q b ~ b b ~ ~ ~ ~ ~ ~ ~ ~ n n m m [ | [ [ [ ) D D D F F F F F v v v g g g Z F F F F F F Z Z Z S S S S Z Z Z S S G P G I U -.&.a.g.g.g.f.k.A.D.L.D.A.A.J.L.K.A.L.L.J.D.L.P.@X@X#X#X&X&X&X&X&X&X=X;X;X;X;X;X;X;X:X>X:X:X:X:X:X:X:X:X>X>X>X>X>X>X>X>X8X>X>X8X8X8X8X8X8X8XyX8XyX8X8X8XyX>X>XyXyX8X>X>X8X8X>X>X;X;X;X>X>X;X;X;X;X;X;X;X;X;X;X>X;X&X=X=X=X=X=X=X=X=X&X&X=X=X=X=X=X=X=X=X*X*X*X*X*X*X*X%X%X%X%XY.Y.Y.%X%X%X%X%X%X%X%X%X%X%X%X@XY.Y.Y.@X@X@X@X@X@X@X@X@X@X@XY.Y.@X@X@X%X@X@X@X@X@X@X@X@X@X@X@XY.Y.P.Y.P.P.P.P.P.P.P.P.P.P.P.P.L.L.L.L.L.L.L.L.L.L.L.U.J.J.D.D.D.A.A.D.A.A.A.A.A.A.A.A.A.A.A.A.A.A.A.A.Z.Z.Z.m.m.m.m.m.m.v.g.g.d.a.p.i.i.%.=.&.$.$.....[ F F v d d d d d d v v c c c c v v M M M M m m m D ) ] ] ] ] ] ] } }  .| X.5.C.{.gXhXdXhXgXDXSXDXDXSXMXFXFXFXFXFXFXFXDXDXDXFXFXFXFXDXDXDXDXDXDXDXDXLXLXHXHXFXDXSXhXhXhXhXhXhXhXhXhXhXhXhXhXhXhXhXhXhXMXDXDXDXDXFXFXHXHXJXJXJXJXJXJXJXFXFXLXLXLXLXLXLXDXPXjX0X{.!.8.5.+.<.+.+.+.+.+.+.+.+.+.+.+.+.+.+.+.<.5.5.5.5.5.<.<.+.+.+.O.O.O.",
"6 6 6 6 3 3 3 3 3 3 3 3 3 3 4 4 6 6 6 6 6 6 6 6 6 6 6 6 6 6 6 6 6 6 6 6 6 6 6 6 6 6 6 6 6 6 6 6 6 6 6 6 9 9 9 9 e e r l l l l l k l k k k k k k k k Q ~ ~ ~ ~ ~ ~ ~ ~ ~ ~ ~ m n n ) | ) ) ) ) D M M M M F D D F F F F F Z Z F S Z Z Z F F F S S S S S Z S S S S S G P P #.-.&.r.d.g.k.k.m.Z.A.D.D.A.A.A.A.A.A.A.K.L.P.@X@X#X#X#X#X#X#X&X&X=X=X;X;X;X;X;X;X:X:X>X>X:X>X>X:X:X:X:X>X>X>X>X>X>X>X>X>X>X8X8X8X8XyXyX8X8XyXyXyXyX8X8X>X>X8X>X>X>X8X>X>X>X8X8X8X>X>X;X;X>X>X;X;X;X;X;X;X&X&X;X>X>X;X;X=X=X=X=X&X*X*X*X*X&X&X&X=X=X=X=X=X*X*X*X*X*X*X*X*X*X%XY.Y.Y.Y.Y.@X%X%X%X%X%X%X%X%X@X%X%X@X@X@X@X@X@X@X@X@X@X@X@X@X@X@X@X@X@X@X%X%X%X%X%X@X@X#X@X@X@X@X@X@XY.Y.P.P.P.P.P.P.P.P.P.P.L.L.L.L.L.L.L.L.L.L.U.L.L.K.J.J.J.D.D.D.D.D.D.A.D.D.A.A.A.A.A.A.A.A.A.D.A.Z.Z.Z.Z.Z.Z.Z.m.m.m.v.v.g.g.g.d.p.p.i.i.%.%.$.$.#.....S D F g d d d c c c c c c v v v v v v M M M m m m m ] ] ] ] ] | } }  .]  .;.~.0XhXMXMXFXhXgXSXJXSXhXSXDXDXFXFXDXDXFXFXFXFXDXDXDXDXDXDXDXDXDXDXDXDXFXDXHXHXDXSXhXhXhXhXhXhXSXDXDXDXDXDXSXhXhXgXgXgXgXhXhXhXDXDXDXDXDXLXFXJXJXJXJXJXJXHXFXFXFXFXLXDXDXDXhXdX X^.!.9.+.+.+.+.+.+.+.+.+.+.+.+.+.+.+.+.+.+.+.<.<.4.<.<.<.+.+.+.O.O.} } ",
"9 9 6 4 4 4 4 3 4 3 4 4 3 3 4 4 6 6 6 6 4 4 4 4 6 6 6 6 6 6 6 6 6 6 6 6 6 6 6 6 6 4 6 6 6 6 6 6 6 6 6 6 6 6 9 9 e e r l l l l l l l k k k k k k l k b b ~ ~ ~ ~ ~ ~ ~ ~ ~ ~ n n ! } D M n m m M M M D D D D D D D F F F F F S P S Z F F F Z S S S S S Z S Z S S G P P U $.&.&.p.g.g.k.m.Z.A.A.D.J.D.D.J.Z.A.A.L.P.P.@X@X#X#X#X#X#X#X&X&X=X;X;X;X;X;X;X;X;X;X>X>X>X:X>X>X:X:X:X:X>X>X>X>X>X>X>X>X>X>X8X8XyX>X>XyXyXyX>X8XyXyXyX:X;X8X8X>X:X>XyXyX8X>X>X8X8X8X>X>X;X;X;X;X;X;X;X;X=X%X*X;X;X;X;X;X;X=X=X=X&X*X*X*X*X*X&X&X=X=X=X=X=X*X*X*X*X*X*X*X*X%X%X%X%X%X%X%X%X%X%X%X%X%X%X%X%X@X%X%X@X@X@X@X@X@X@X@X@X@X@X@X@X@X@X@X@X@X@X@X%X%X%X%X@X@X#X@X#X@X@X@X@XY.Y.P.P.P.P.P.P.P.P.P.P.L.L.L.L.L.L.L.U.L.U.U.K.J.J.J.J.J.D.D.D.D.D.D.A.D.D.A.A.A.A.A.A.A.A.A.D.A.Z.Z.Z.Z.Z.Z.Z.Z.m.m.m.m.v.g.g.g.d.a.i.i.i.%.&.$.$.....G F F v g d d c c c c c c v v v v v v M M M m m m m ] [ } } | } }  . .*.5.9./.fXgXSXSXFXhXhXDXJXSXhXDXDXDXFXFXDXDXDXFXFXDXDXDXDXDXDXDXDXDXDXDXFXFXDXLXHXLXDXhXhXhXhXhXhXDXDXHXJXJXHXHXLXDXMXhXhXgXgXgXhXhXhXhXMXDXDXDXDXDXFXJXJXJXHXFXFXFXFXFXLXLXDXDXhXdX X^.8.5.+.+.+.+.+.+.+.+.+.+.+.+.+.+.+.+.+.+.+.<.<.<.<.<.+.+.+.@.O.} } } ",
"e e 9 6 6 6 6 6 6 6 6 6 4 4 6 6 6 4 6 4 4 3 3 3 3 3 4 4 4 4 4 6 6 6 6 6 6 6 6 6 6 4 8 8 6 6 6 6 6 6 6 6 6 6 9 9 e e r l l l l l l l k k k k k k b ~ ~ ~ ! ! ! ~ ! ~ ~ ~ ~ ~ n ! ! ] M M m ) ) m D D D ) ) ) ) D D D D D [ [ D F S F F F F Z S S S S S Z S S S P P P #.#.&.&.r.g.g.k.m.m.A.A.D.K.J.Z.k.k.A.K.P.@X@X@X@X@X#X@X#X#X#X&X=X;X=X;X:X:X;X;X;X;X;X;X>X>X>X>X>X>X>X>X>X>X>X>X>X>X>X>X>X>X8X8X8X8X>XyXyX>X8XyX>XyXyX>X;X>X>X;X;X>XyXyX>X>X>X>X>X>X>X>X>X;X;X>X;X>X>X>X>X>X>X;X;X>X;X;X;X;X;X;X=X=X=X=X=X=X=X=X&X=X*X=X=X=X=X*X*X*X*X*X*X*X*X*X%X%X*X*X*X*X%X%X%X%X%X%X%X%X%X@X%X%X@X@X@X@X@X@X@X@X@X@X@X@X@X@XY.Y.@X@X@X@X%X%X%X%X@X@X#X#X@X#X@X@X@X@XT.Y.P.Y.P.P.P.P.P.P.P.P.P.P.L.L.L.L.J.J.J.J.K.K.J.J.J.J.J.J.F.D.D.D.D.D.D.A.A.A.A.A.A.A.A.A.D.A.A.A.Z.Z.Z.Z.Z.Z.Z.m.Z.m.m.v.g.g.g.d.s.i.i.=.=.=.$.#...G F F v v d g c c v v c c v v v v v v M M M m m m m ] | | } | } } }  .5.8.!.`.gXSXFXFXDXSXDXDXFXMXMXFXDXFXFXFXDXDXFXFXFXFXDXDXDXDXDXDXDXDXDXDXFXFXFXHXHXDXMXhXhXhXhXMXDXDXHXJXJXJXJXJXJXFXLXDXDXMXhXhXhXhXhXhXhXhXMXDXDXDXDXDXDXDXLXDXLXLXFXFXLXDXDXDXhXdX|.^.9.5.+.+.+.O.O.O.O.O.O.O.O.O.O.O.O.O.O.O.@.+.+.+.+.+.+.+.@.@.} } } o.",
"r e e 6 6 6 6 6 6 6 6 6 6 6 6 6 6 4 3 3 3 3 3 3 3 3 3 3 3 4 4 4 4 6 6 6 6 6 6 6 6 4 8 8 6 6 6 6 6 6 6 6 6 6 9 9 e e r l l l l l l l l l k k k k k k b b ~ ~ ~ ~ b b b ~ ~ ! ! ! n b m m m ) ) ) ) ) ) ) ) ) ) D D F D D D D D F F S F F F Z S S S S S Z S S P P P P #.#.&.%.p.g.k.k.m.A.A.D.K.L.M.k.A.K.L.P.T.@X@X@X@X#X@X@X#X#X&X=X;X;X;X;X;X:X;X;X;X;X;X;X>X>X>X>X>X>X>X>X>X>X>X>X>X>X>X>X8X8X8X8X8X8X>X>X>X8X8X8XyX8X>X>X:X;X;X:X:X:X:X>X>X>X>X>X>X>X>X>X;X;X;X;X;X>X>X>X>X;X;X;X;X;X;X;X;X;X;X;X=X=X=X=X=X=X=X=X&X&X*X*X=X=X=X*X*X*X*X*X*X*X*X%X%X%X%X%X%X%X%X%X%X%X%X%X%X%X%X@X%X%X@X@X@X@X@X@X@X@X@X@X@X@X@X@X@XY.@X@X@X@X%X%X%X%X@X@X#X#X@X@X#X@X@XY.T.P.P.P.P.P.P.P.P.P.P.P.P.P.L.L.L.L.J.J.J.J.J.J.J.J.J.J.J.J.D.D.D.D.D.D.D.A.A.A.A.A.A.A.A.A.D.A.A.A.Z.Z.Z.Z.Z.Z.Z.Z.Z.m.m.v.v.g.g.g.a.s.s.i.=.=.$.#...G F F F v g c c c c c c c v v v v v v M M M m m m D L ] ] ] ] { } }  .;.C./.}.0XgXMXMXSXDXFXFXFXSXSXFXDXFXFXFXDXDXFXFXFXFXDXDXDXDXDXDXDXDXDXDXFXFXFXJXHXDXhXhXhXhXhXSXDXDXJXJXJXJXJXJXJXJXJXHXLXDXDXDXhXhXhXhXhXhXhXhXMXDXDXDXDXDXDXDXLXLXLXFXLXDXDXDXhX0X}.^.5.+.+.O.O.O.O.O.O.O.O.@.@.@.@.@.@. .O.O.O.@.+.+.+.O.@.@.@.@.@.@.@.@.",
"r r e e 9 9 9 9 9 9 6 6 6 6 6 6 6 6 6 4 3 3 3 3 3 3 3 3 3 3 3 3 3 3 6 6 6 6 6 6 6 4 8 8 6 6 6 6 6 6 6 6 6 6 9 9 e e r r h l l l l l l k k k l l k k k k b ~ ~ b x x ~ ~ ! ! ! ! ! n ! ! ! ) ) ! ) ) ! ) ) ) ) D m M M F F F F F F F Z Z F S S S S S Z S S P P P P #.#.#.&.r.d.m.k.m.A.A.A.L.L.A.D.J.L.L.P.P.T.@X#X#X#X#X&X=X=X=X=X;X;X;X:X:X:X:X;X;X:X:X>X>X>X:X>X>X>X>X>X>X>X>X>X:X>X>X>X8X8X8X8X8X8X8X>X:X:X>X8X8X8X>X>X>X>X>X:X>X>X:X;X:X>X>X>X>X>X>X>X:X;X;X;X;X>X>X>X>X;X>X>X;X;X;X;X;X;X;X;X;X=X=X=X=X=X=X=X=X&X&X=X=X*X=X*X*X*X*X*X*X*X*X*X*X*X%X%X%X%X%X%X%X%X%X%X%X%X%X%X%X%X%X%X@X%X%X@X@X@X@X@X@X@X@X@X@XY.Y.@X@X@X@X%X%X%X%X@X@X#X#X#X#X#X#X@XY.Y.Y.P.P.P.P.P.P.P.P.P.P.P.P.P.L.L.L.U.U.J.J.J.K.L.L.K.K.K.J.J.J.A.D.D.D.D.A.A.A.A.A.A.A.D.A.D.D.D.D.D.S.S.Z.Z.Z.Z.Z.Z.Z.Z.m.m.v.v.g.d.s.i.i.=.&.$.$...S F F F F v g c c g g v v v v v v v v M M m m m D L L L L ] ] { } }  .O.5./.`.|.0XgXSXSXDXDXDXhXhXDXFXDXDXDXDXDXDXFXFXFXFXDXDXDXDXDXDXDXDXDXDXDXDXDXHXDXhXhXhXhXhXMXDXDXFXFXFXFXFXHXHXLXFXFXFXHXLXLXLXDXDXhXhXgXgXgXgXhXhXhXhXDXDXDXDXDXLXLXFXLXLXDXDXgX X{.!.5.+.+.O.O.O.O.O.O.O.O.} @.} } } } } } } @.O.O.O.@.@.@.O.@.o.@.@.@.2.",
"r r r e e e e e e e 9 9 9 9 9 9 6 6 6 4 6 6 6 4 4 3 3 3 4 3 4 4 3 3 3 4 4 4 3 3 3 3 3 3 4 4 6 6 6 6 6 6 6 6 6 6 9 e r l l l l l l l l l l l l l l l k k b ! b b x b ! ! ! ! ! ! ) ) ) ) ! ! ! ! ! ! ! ) ) ) D m v v v M v F D D F F Z Z F S S S S Z S S S P P P ..#.#.-.&.p.g.m.Z.A.D.F.L.L.A.A.J.L.L.P.P.@X@X@X#X#X#X#X=X=X=X;X;X;X;X;X:X:X:X:X;X;X:X:X>X>X>X>X>X>X>X>X:X:X:X:X:X:X>X>X>X>X8X8X8X8X8X>X>X>X>X>X8X8X>X>X8X8X8X>X>X>X>X>X>X>X>X>X>X>X>X>X>X;X;X=X;X;X>X>X>X>X;X>X>X:X;X;X;X;X;X;X;X;X=X=X=X=X=X=X=X=X&X*X*X=X*X=X*X*X*X*X*X*X*X*X*X*X*X%X*X%X%X%X%X%X%X%X%X%X%X%X%X%X%X%X@X@X@X%X@X@X@X@X@X@X@X@X@X@XY.Y.@X@X@X@X%X%X%X%X@X@X@X#X#X#X#X@X@XY.Y.Y.P.Y.P.P.P.P.P.P.P.P.P.P.P.L.L.L.U.U.J.J.K.K.L.L.K.K.K.J.J.J.A.A.D.D.D.A.D.D.D.A.A.A.D.A.D.D.D.D.D.D.D.D.S.Z.Z.Z.Z.Z.Z.Z.m.v.v.g.d.a.s.i.=.=.$.$...G S F F F g g g v g g v v v v v v v v M M m m m m L L ] ] ] ] ] | }  .5.9.C.|.0XfXMXSXSXDXDXDXSXSXDXFXDXDXDXDXDXDXFXFXFXFXDXDXDXDXDXDXDXDXDXDXDXDXDXDXDXhXgXgXhXhXMXDXDXDXDXDXDXDXLXLXFXFXFXFXLXFXLXLXFXDXDXDXSXhXgXgXgXgXhXhXhXMXDXDXDXDXLXLXLXDXDXhXdX|.^.8.5.O.O.O.O.O.O.O.O.O.} } } } } o.o.o.} } } } } } o.o.} @.@.@.@.+.<.<.",
"r r l r e e e r r e e e e e e e 9 6 6 6 6 6 6 6 6 6 4 3 3 3 4 4 3 3 3 3 3 3 3 3 3 3 3 3 4 4 4 4 4 4 6 6 6 6 6 6 9 e r l l l l l l k l l l l l l l l k l b ~ b ! ) ) ~ b b ~ ! ! ) ) ) ! ! ! ! ! m m ! m ) D M M v v M M v F D F F Z Z Z F F S S S S S S P P P ..#.#.$.&.%.a.c.m.A.A.A.A.D.Z.L.P.L.L.P.@X@X@X#X#X#X#X#X&X=X=X=X;X;X;X;X;X:X>X>X>X>X>X>X>X>X>X>X>X>X>X>X:X;X;X;X;X:X:X:X:X>X>X>X>X>X8X8X8X>X>X>X8XyX8X>X>X8X8X8X>X>X>X>X>X>X>X>X>X>X>X>X>X;X;X=X=X;X;X>X>X>X;X;X;X>X>X;X;X;X;X;X;X;X;X=X=X=X=X=X=X=X=X=X&X=X=X=X=X=X*X*X*X*X*X*X*X*X*X*X*X*X%X%X%X%X%X%X%X%X%X%X%X%X%X%X%X@X%X@X@X@X@X@X@X@X@X@X@X@X@X@X@X@X@X@X@X#X#X%X%X@X@X@X@X@X@X@X@XY.Y.Y.Y.Y.Y.Y.Y.Y.P.P.P.P.P.P.P.P.L.L.L.U.U.U.U.K.K.L.L.K.K.K.J.J.J.J.J.D.D.D.A.D.D.D.D.D.D.A.A.D.D.D.D.D.D.D.D.D.S.Z.Z.Z.Z.Z.Z.m.v.c.c.c.d.s.i.=.=.=.$.#...S S F F g v v v v v v v v v v v v v M M m m m D L ] ] ] ] ] ] | }  .;.6.~.fXSXFXGXKXDXDXDXSXDXFXFXFXDXDXDXDXFXFXFXFXFXFXDXDXDXDXDXDXFXFXFXFXDXDXDXDXhXgXgXgXgXgXSXDXDXDXDXDXDXDXLXLXLXLXFXFXHXFXFXFXFXFXFXLXLXDXMXhXgXgXgXgXhXhXhXMXDXDXDXDXDXDXDXhXdX{.^.8.5.+.O.O.O.O.O.} } } } } o.} } { { { { } } } } } o.o.o.o.o.o.2.<.4.3.",
"l l l r r l l l r r r r r e e e e 9 9 9 6 6 6 6 6 6 6 6 4 4 3 3 3 3 3 3 3 3 3 3 3 3 3 3 3 3 4 4 3 4 4 4 6 6 6 6 6 e e r h l l l l l l l l l l l l l k k b ~ b ~ ~ ~ ~ b b n ! ! ! ~ ~ ~ n n n n ! m m m m m m v v v M M v F D D F Z Z Z F F S S S S L P P P P ..#.$.$.&.i.d.c.m.A.Z.Z.Z.A.J.D.L.L.P.T.@X#X#X#X#X#X#X#X&X=X=X=X;X;X;X;X;X:X>X>X>X>X>X>X>X>X>X>X>X>X>X:X:X;X=X=X=X;X;X:X:X:X>X>X>X>X>X8X8X8X8X8X8XyX8X>X:X>X>X>X>X>X>X>X>X>X>X>X>X>X>X>X>X;X;X=X&X;X;X>X>X>X;X;X;X;X;X;X;X;X;X;X;X;X;X=X=X=X=X=X=X=X=X=X&X=X=X=X=X=X=X*X*X*X*X*X*X*X*X*X*X*X%X%X%X%X%X%X%X%X%X%X%X%X%X%X%X%X@X@X@X%X@X@X@X@X@X@X@X@X@X@X@X@X@X@X@X%X#X%X%X@X@X@X@X@X@XY.Y.Y.Y.Y.Y.Y.Y.Y.Y.Y.P.P.P.P.P.P.P.P.L.L.L.U.U.U.U.K.K.K.L.J.K.K.J.J.J.J.J.D.D.D.D.D.D.D.D.D.D.A.A.D.D.D.D.D.D.D.D.D.D.S.Z.Z.Z.Z.Z.m.v.v.g.c.d.a.s.=.=.=.$.#...P S F F v g v v v v v v v v v v v v M M m m m D L ] ] ] ] ] ] | }  .5.9.`.0XMXSXDXFXDXDXDXSXJXFXFXFXDXDXFXFXFXFXFXFXFXFXDXDXDXDXDXDXFXFXFXFXDXDXHXDXhXgXgXgXgXhXSXDXDXDXDXDXDXDXDXLXLXFXFXFXFXFXFXHXFXFXFXFXLXLXFXLXMXhXhXgXgXgXhXhXhXDXDXDXDXDXhXhX X{./.9.5.+.O.O.O.O.@.} } } } { } { { { { { { { } } { { { { { o.o.2.<.3.7.7.",
"l l r r l l l l l l l r r e e e e e 9 9 6 6 9 e e e 9 6 6 6 4 4 4 4 4 4 3 3 3 3 3 3 3 3 3 3 3 3 4 4 4 4 6 6 6 6 7 9 e e e l l l l l l l l l l l l l k x b ~ b Q ~ b b b b ~ b b n n ~ ~ n n m m n ! ! ! ! m M M M M M M v F m F F F F F F S S S S S S S P P P ..#.$.&.&.i.d.c.m.k.k.A.L.P.L.L.P.P.P.@X#X#X#X#X#X#X&X&X=X=X=X;X:X;X:X:X:X:X:X>X>X:X:X>X>X>X>X>X>X>X>X:X:X:X;X=X;X;X:X:X:X:X:X:X>X>X>X>X8X8XyXyXyXyXyX>X:X:X>X>X>X>X>X>X>X>X>X>X:X>X>X>X>X>X;X;X;X;X;X>X>X>X;X;X;X;X;X;X;X;X;X;X;X;X;X=X=X=X&X&X&X=X=X=X=X*X*X*X*X=X*X*X*X*X*X*X*X*X*X*X*X*X*X*X*X*X*X*X*X*X*X*X*X*X*XY.Y.%X%X%X%X@X@X%X%X%X@X%X%X%X%X%X%X@X%X%X%X%X%X%X%X@X@X@XY.Y.Y.Y.Y.Y.Y.Y.Y.Y.Y.Y.P.P.P.P.P.P.L.L.L.L.L.L.U.L.L.L.K.J.J.K.K.J.J.K.J.K.K.F.F.D.D.D.D.D.D.D.D.D.D.D.D.D.D.D.D.D.D.D.D.S.S.S.S.Z.Z.Z.Z.Z.v.v.v.g.d.a.s.:.=.=.$.$.....L F F F v v v v v v v v v v v M M m m m m D D L ] ] ] ] ] [ | }  .5.9.}.fXMXhXMXSXDXSXSXFXFXFXFXFXDXDXFXFXFXFXFXFXDXDXFXFXFXFXDXDXDXDXLXDXDXDXHXDXgXgXgXjXgXhXSXDXDXDXDXDXDXDXDXFXFXFXFXFXFXHXFXFXHXHXFXJXJXHXLXDXDXDXhXgXdXdXgXhXhXMXDXDXDXSXhXdX X{.!.9.5.+.O.O.O.O.} } } { { ] { { { { { ] ] { { { { { { { o.o.2.<.1.7.7.7.",
"l r r r l l l l l l l r r e e e e e 9 9 6 9 e r l l e e e 7 6 6 6 6 6 6 4 4 4 4 4 3 3 3 3 3 3 3 3 3 4 4 6 6 4 6 7 9 e e e l h l l l l l l k l l k k k ~ Q b k Q ~ b b b b ~ b b n b ~ ~ n n m m n ! ! ! ! m m M M M M M v F M D F F F F F F S S S S S S P P ..#.#.$.&.&.a.c.m.m.A.F.L.L.L.P.P.@X@X@X#X#X&X&X&X&X&X&X=X=X=X=X:X:X:X:X:X:X:X:X>X>X:X:X>X>X>X>X>X>X>X>X>X:X:X:X:X:X:X:X>X>X>X:X>X>X>X>X8X8XyXyXyXyXyXyXyXyXyXyXyX8X>X>X>X8X>X>X>X>X>X>X>X>X>X>X>X:X;X;X>X>X>X;X;X;X;X;X;X;X;X;X;X;X;X=X=X=X=X=X=X=X=X=X=X=X*X*X*X*X*X*X*X*X*X*X*X*X*X*X*X*X*X*X*X*X*X*X*X*X*X*X*X*X*X*XY.Y.%X%X%X%X%X%X%X%X@X@X@X%X%X%X%X%X@X%X%X%X%X%X%X%X@X@XY.Y.Y.Y.Y.Y.Y.Y.Y.Y.Y.Y.Y.P.P.P.P.P.P.L.L.L.L.L.L.U.L.L.L.L.J.J.K.K.J.J.K.K.K.K.F.F.D.D.D.D.D.D.F.D.D.D.D.D.D.D.D.D.D.D.D.D.S.S.S.S.S.Z.Z.Z.Z.v.v.v.g.d.a.a.i.=.=.$.#.....[ S F F F M M v v v v v v v v M M m m m m D D L ] ] ] ] ) [ | } X.*.9.{.0XgXfXgXMXSXSXDXFXFXFXFXFXDXDXFXDXFXFXFXFXDXDXFXFXFXFXDXDXDXDXFXDXDXDXDXDXgXgXgXgXgXhXSXDXDXDXDXDXDXDXDXLXFXFXFXFXFXFXFXHXLXLXLXFXHXFXDXDXDXhXhXgXdX0X3X XdXgXhXhXhXhXjXdX X{.!.9.5.+.O.O.O.} } } { { ] ] { { { { ] ] ] ] { { { { o.@.+.<.<.3.7.7.7.7.",
"e r r r r r l l l l l r h r r e e e 9 9 6 9 e r l l l l r e e 6 6 6 6 6 6 4 4 4 4 4 4 3 3 3 3 3 3 3 4 6 6 7 9 9 9 e e e e e h h h h l l l l l l k k k ~ ~ b b Q ~ b b b b b b b n n ~ ~ n ~ m m ~ ~ ! ! ! ! M m M M m m D D D D D F F F S S S S S S S S P P ..$.$.&.%.%.c.m.N.A.K.L.L.L.P.OX#X#X#X#X#X&X&X=X=X&X=X=X=X=X=X:X:X:X:X>X:X:X:X:X>X>X>X>X>X>X>X>X>X>X>X>X>X>X:X:X:X:X>X>X>X>X>X>X>X>X>X>X>X>X>X>X>X>X>X>X>X>X>X:X>X>X>X>XyXyXyXyXyXyXyX>X>X>X>X>X>X>X>X>X;X;X;X=X&X=X;X;X;X;X;X;X;X;X;X;X=X=X=X=X=X=X=X=X=X=X=X*X*X*X*X*X*X*X*X*X*X*X*X*X*X*X*X*X*X*X*X*X*X*X*X*X*X*X*X*XY.Y.%X%X%X%X@X@X@X@X@X@X@X@X%X%X%X%X@X@X%X%X%X%X@X@X@XY.Y.Y.Y.Y.Y.Y.@X@XY.Y.Y.Y.P.P.P.P.P.P.I.L.L.L.L.L.L.U.L.L.L.L.L.L.L.L.J.J.K.K.L.L.K.K.K.K.D.D.D.D.D.D.F.D.D.D.D.D.D.D.D.D.D.D.S.S.S.S.S.S.Z.Z.m.m.v.c.g.g.d.a.s.>.=.=.#.....P L F F F F M v v M M m M M v M M M M m m D D L ] ] ] ] ] ] | }  .+.5.).3XfXfXhXSXSXDXFXDXFXFXFXFXDXDXDXDXDXDXFXFXDXDXDXDXFXFXFXDXFXFXFXFXDXDXDXhXgXgXgXgXgXhXDXDXDXDXDXDXDXDXDXLXLXLXFXFXFXFXFXLXLXDXDXDXDXDXDXhXgXdXdXdXdX X|.{.}. XdXdXdXdXdX X}.^.!.9.5.+.O.O.} } } } { { ] ] { { { ] ] ] ] ] ' ] { o.@.+.<.1.7.7.E.7.7.7.",
"e e e e e e h h l l l r h r r e e e 9 6 6 6 e r l l l l l r e e e 7 7 6 6 6 6 6 8 6 6 4 4 3 3 3 3 3 3 4 4 4 4 4 6 9 9 e e e e e h h h h h h l l l k b ~ ~ k k b b b b b b b ~ ~ ~ n ~ ~ ~ ~ m m ~ ~ ! ! ! ! m m n M m m D D D D D D F F S S S S S S S S P P #.$.&.%.=.i.v.m.A.D.K.D.L.OX@X#X#X#X#X#X#X&X=X=X=X=X=X;X=X;X;X:X:X:X>X>X:X:X:X:X>X>X>X>X>X>X>X>X>X>X>X>X>X>X>X>X>X>X>X>X>X>X>X>X>X>X>X>X>X>X8X8X8X8X8X>X:X;X;X:X:X:X;X;X;X;X;X:X>X>X>X>X>X>X>X>X>X>X>X;X;X;X;X;X;X;X;X;X;X;X;X;X;X;X=X=X=X=X=X=X=X=X=X=X=X=X=X*X*X*X*X*X*X*X*X*X*X*X*X*X*X*X*X*X*X*X*X*X*XY.%X%X%X%X%XY.Y.Y.Y.@X@X%XY.Y.@X@X@X@X@X@X%X%X%X%X@X@X%X%X%X%X@XY.Y.Y.Y.P.Y.Y.Y.Y.@X@XY.Y.Y.Y.P.P.P.P.P.P.I.L.L.L.L.L.L.U.L.L.L.L.L.L.L.L.J.J.J.K.U.L.K.K.K.K.D.D.D.D.F.D.F.D.D.D.D.D.D.D.D.D.D.D.S.S.S.S.S.S.S.Z.Z.m.v.v.g.g.d.a.a.s.:.=.#.....P P D F F F F v v F D D m M v M M M M m m D D D L ] ] ] ] ] { |  .O.;.^. XfXgXSXFXFXFXFXFXDXFXFXFXDXDXDXDXDXDXDXFXDXDXDXDXFXFXFXDXFXFXFXFXDXDXSXgXgXgXgXgXgXhXDXDXDXDXDXDXDXDXDXLXLXLXFXFXHXFXFXDXDXDXDXDXhXgXgXjX X XdXdXjXdX|.{.).{.{.|.}.{.{.{.{.^.!.8.5.+.O.O.} } { { ] ] ] ] ] ] ] ] ] ] ] ) ! ] o.@.+.<.5.7.7.E.E.E.3.3.",
"e e e e r r h h r r r r r r r r e e 9 6 6 9 e r l l l l l r r r e e e e 7 7 7 6 6 6 6 8 8 4 4 4 6 3 3 3 3 3 3 4 6 9 e e e e e e h h h h h h h h l k W Q ~ b k b Q Q Q b b ~ ~ ~ ~ ~ ~ ~ ~ ~ ~ ~ ~ ~ ~ ~ ~ ~ n n n n m ) ) ) ) D D D F F S S S S S G G P P P #.$.&.=.i.d.m.Z.D.F.L.L.P.OX#X#X#X@X#X#X&X&X=X=X;X;X;X;X;X;X:X:X:X:X>X>X>X:X>X:X>X>X>X>X>X>X>X>X>X>X>X>X>X>X>X>X>X>X>X>X>X>X>X>X>X>X>X>X>X8X8X8X8X8XyX>X>X:X:X>X>X>X;X;X;X;X;X;X>X>X>X:X:X:X;X;X;X;X;X;X;X=X&X&X=X;X;X=X;X;X;X;X;X;X=X=X=X=X=X=X=X=X=X=X=X=X=X=X=X=X=X*X*X%X*X*X*X*X*X*X*X*X*XY.Y.Y.Y.Y.Y.Y.%X%X%X%XY.Y.Y.Y.Y.Y.Y.Y.Y.Y.Y.Y.Y.Y.@X@X%X%X%X%X%X%X%X%X%X%XY.Y.Y.Y.P.P.P.Y.Y.Y.@X@X@X@X@XY.Y.P.P.P.P.P.I.L.L.L.L.L.L.L.L.L.L.L.L.L.L.L.L.L.L.K.U.K.K.K.K.K.F.F.F.F.D.D.F.F.F.F.D.D.D.D.D.D.D.D.D.D.S.S.S.S.Z.Z.Z.Z.m.v.c.d.c.c.x.z.>.=.$.#.....P L D F F F M M M D m M v v M M m m m D D D D L L ] ] ] { { | |  .*.C.|.0XgXgXSXMXMXSXSXFXDXDXDXDXDXDXDXDXDXDXDXFXFXFXFXFXFXFXFXFXFXFXFXDXDXSXgXjXjXgXgXSXSXDXDXDXDXDXDXDXDXLXDXLXLXLXLXJXFXDXDXDXhXhXgXdXgXdX X}.{.}. X X X X X|.{.^.^.{.{.{.{.^./.!.9.5.+.+.+.} } { ] ] ] ] ] ) ) ] ) ) ) ] ! ' { } O.<.4.7.7.7.E.E.E.3.1.",
"9 e e e e e r r r r r r r r r r e e 9 6 6 6 9 r l l l l l r r r r e e e e e e 9 9 7 7 6 6 6 8 8 6 6 3 3 4 4 4 8 6 7 9 e e e e e h h h h h h h h l l k W b b k k k k b b b b ~ ~ ~ ~ ~ ~ ~ ~ ~ ~ ~ ~ ~ ~ ~ ~ m n n n ! ) ) ) ) ) D D D F S S S S S G G P P P #.$.&.=.i.g.m.A.F.K.L.L.P.OX#X#X#X@X#X#X&X&X&X=X;X;X;X;X:X:X:X:X:X:X>X>X>X>X>X>X>X>X>X>X>X>X>X>X>X>X>X>X>X>X>X>X>X>X>X>X>X>X>X>X>X>X>X>X>X>X>X>X>X>X8X>X>X>X>X>X>X>X:X:X>X>X>X>X8X8X>X;X;X>X>X;X;X;X;X;X;X;X;X;X;X;X;X;X;X;X;X;X;X;X;X;X;X;X=X=X=X=X=X=X=X=X=X=X=X=X*X*XY.Y.*X*X*X*X*X*X*X*X*X*X%X%XY.Y.Y.Y.%X%X%X%XY.Y.Y.Y.Y.Y.Y.Y.Y.Y.Y.Y.Y.Y.%X%X%X%X%X%X%X%X%X%X%X%X@XY.Y.Y.P.P.P.Y.Y.@X@X@X@X@X@X@XY.P.Y.P.P.P.I.L.L.L.L.L.L.L.U.L.L.L.L.L.J.L.L.L.L.K.U.U.K.K.K.K.F.F.F.F.D.D.F.F.F.F.D.D.D.D.D.D.D.D.D.D.S.S.S.S.Z.Z.Z.Z.m.v.v.c.c.c.c.z.>.=.=.$.#...P L D F M F M M F F M v v v M m m m m m m D D D L ] ] ] [ { [ [  .+.6.).|.0X0XfXhXMXMXSXDXDXDXDXDXDXDXDXDXDXDXDXFXFXFXFXDXFXFXFXFXFXFXFXDXDXSXgXdXjXgXgXSXSXDXDXDXDXDXDXDXDXLXLXLXDXDXDXDXDXDXMXhXgXdXdX X X{.^.!.!./.`.|.}.{.{.{.}.}.{.^.^.^.^.^./.!.8.5.5.+.O. .} ] ] ! ! ] ! ) ! ! ! ! ! ! ! ! { o.@.<.1.7.7.7.E.E.7.7.7.",
"9 9 e e e e r r r r r r r l r r e e 9 6 6 6 e r l l l l l r r r r e e e e e e e e e 9 9 7 6 6 6 6 8 6 4 4 6 6 6 6 7 9 e e e e e h h h h h h h h h l k x b k b b b b b b b b ~ ~ ~ ~ ~ ~ ~ ~ ~ ~ ~ ~ ~ ~ ~ ~ ~ n n ! ! ) ) ) ) ) D D D F S S S S G G P P P P $.$.&.%.s.m.Z.D.F.L.L.P.OX@X#X@X#X*X*X*X&X&X&X=X;X;X;X;X:X:X:X:X>X>X>X>X>X>X8X>X8X8X8X>X8X8X>X>X>X>X>X>X>X>X>X>X>X>X>X>X>X>X>X>X>X>X>X>X8X>X>X>X>X>X8X8X>X>X>X>X>X>X>X>X:X>X;X;X;X>X>X>X>X>X>X>X:X;X;X;X;X=X;X;X>X>X>X>X>X>X;X;X;X;X;X;X;X=X=X=X&X=X=X=X=X=X=X*X*X*X*X*X%X%X*X*X*X*X*X*X*X*X*X*X*X*X*X*X*X*X*X%X%X%X%XY.%XY.%XY.%X%X@X@X%X%X%X%X%X%X%X%X%X%X%X%X%X%X%X%X@X@X@XY.Y.Y.Y.Y.@X@X@X@X@X@X@X@XY.Y.Y.Y.P.P.I.L.L.L.L.L.L.L.J.J.L.L.L.L.J.J.L.L.U.U.L.L.U.U.U.U.U.L.F.F.F.F.F.F.F.F.F.F.D.D.D.D.D.D.D.D.S.S.S.S.Z.Z.Z.Z.Z.m.v.c.c.c.c.x.s.=.=.$.#...P L D F F F F F M M v v v M D m D D m D m D D D L ] ] ] { { [ [ [ X.*.!.`.|.|.3XfXfXMXSXSXSXSXSXDXDXDXDXDXDXDXDXFXFXFXFXFXFXFXFXFXFXFXFXDXDXSXgXdXjXgXgXSXDXDXDXDXDXDXDXLXLXLXLXDXDXDXMXhXhXhXgXdX0X|.{.^.!.b.8.9.9.!.^.|.{.^.^.^.^.{.{.{.{.{.{.{.^.^.!.8.9.+.O.} } ] ] ! ! ! ! ! ! ! ! m m m m m ' { @.+.<.4.7.7.7.7.7.7.7.",
"9 9 9 9 e e r r r e r r r l r r e e 9 6 6 6 9 r l l l l l r r r r e e e e e h h h e e e e e 9 7 7 6 6 8 6 6 6 6 6 7 9 e e e e e e e h h h h h h h l l k k k k k k k b b b b b b b b ~ ~ ~ ~ ~ ~ ~ ~ ~ ~ ~ ~ ~ n n ! ! ) ) ) ) ) D D D F S S S S G G P P P P $.#.$.%.a.m.S.D.F.L.P.OX@X#X@X#X#X*X*X&X&X&X&X=X;X;X;X;X:X:X:X:X>X>X>X>X>X8X8X8X8X8X8X>X>X>X>X>X>X>X>X>X>X>X>X>X>X>X>X>X>X>X>X>X>X8XyX8X8XyXyX8X8XyXyX8X>X>X>X>X>X>X>X>X>X>X>X>X>X>X>X>X>X8X>X>X>X>X>X>X>X;X;X;X;X;X;X;X>X;X;X;X=X=X=X=X=X=X=X=X=X=X=X=X=X=X=X=X*X*X*X*X*X*X*X*X*X*X*X*X*X*X*X*X*X*X*X*X*X*X*X%X%X%X*X*X%X%X%X%X%X%X@X@X%X%X%X%X%X%X%X%X%X%X%X%X%X%X%X%X%X@X@X@XY.Y.Y.Y.@X@X@X@X@X@X@X@X@XY.Y.Y.P.P.P.L.L.L.L.L.L.L.J.J.L.L.L.K.K.K.L.L.U.U.L.L.U.U.U.U.U.L.F.F.F.F.F.F.F.F.F.F.D.D.D.D.D.D.D.D.S.S.S.Z.Z.Z.Z.Z.Z.m.v.v.v.v.c.x.s.:.=.$.$...P L D F F F F M M v M M M M D D D D m D m D D D L L ] ] ] ] [ [ [  .*.9./.`.`.}.3XfXhXMXSXSXSXSXDXDXDXDXDXDXDXDXFXFXFXFXDXFXFXFXFXFXFXDXDXDXSXgXdXdXgXgXhXDXDXDXDXDXDXDXLXLXLXFXDXDXMXhXgXgXjXdX X|.{.^.8.5.5.6.6.9.~.{. X.X{.^.^.).{. X|.|.|.|.{.{.).^.~.8.9.+.} } ] ] ! ! ! ! ! ! ! m m m m b n m { o.@.+.1.4.7.7.7.7.7.7.",
"9 9 e e e e e e e r r r r r h e e e e 6 6 6 7 e h l l l l l l l r r e 9 9 e r r r r e e h h r r e 9 7 6 6 6 6 6 7 9 e e e e e e 9 9 h h h h h h l l l k k l k k k k x x b b Q Q b b ~ ~ ~ ~ ~ ~ n n ~ ~ ~ ~ ~ n n ! ) ] ) ) ) ) ) D D D S S S S G P P P ....#.$.$.=.a.m.D.F.L.L.P.@X@X@X#X&X&X&X&X&X&X&X=X;X;X;X:X:X:X:X>X>X8X8X>X8X8X8X8X8X8X8X8X8X8X8X>X>X>X>X>X>X>X>X>X>X>X>X>X>X>X>X>X8X8X8XyX8X8XyXyXyXyXyXyX8X>X>X>X>X>X>X>X>X>X>X>X>X>X>X>X>X>X>X>X>X>X>X>X:X:X:X;X;X;X;X;X;X;X;X;X;X;X;X=X=X=X=X=X=X=X=X=X=X=X=X=X=X&X&X=X=X=X=X*X*X*X*X*X*X*X*X%X%X*X*X&X&X&X*X*X%X%X%X%X%X%X%X%X@X%X%X@X@X%X%X%X%X%X%X%X%X%X%X%X%X%X%X%X%X%X@X@X@X@X@X@XY.@X@X@X@X@X@X@X@X@XY.@X@XP.P.P.L.L.L.L.L.L.L.L.L.L.L.L.L.L.L.L.L.L.L.L.L.L.L.L.L.L.L.F.F.L.L.F.F.F.F.F.D.D.D.F.F.D.D.D.D.S.S.S.S.Z.Z.Z.Z.m.v.v.v.v.v.c.x.s.:.=.$.$...P S D D D D F v v v M M M F D m m m m m m D D L L L ] ] ] ] ] [ ] [ } 5.~./.).|.|.3X0XfXgXhXSXSXSXSXDXDXDXDXDXDXDXDXFXFXFXDXFXFXFXFXFXDXDXDXhXgXdXdXjXgXSXDXDXDXDXDXDXHXDXDXDXSXhXhXhXhXhXgXjXdX X{.!.8.6.;.0.5.5.9.8.^.{.{.{.XX^.^.}.dXdXjXdXdX X X{.{.^.!.8.5.+.+. .} ] ! m m n m m m m m b b b b b ! { o.<.<.4.4.4.3.7.7.",
"6 9 9 9 e e e e e e r r r r e e e e e 6 6 6 6 e r l l l l l l l r r e 9 9 9 e r r r e e h h h h l e e e e e e e e e e e 9 9 e 9 9 9 h h h h h h h l k k k l l l k k k k k k Q Q b b ~ ~ Q Q ~ ~ n n ~ ~ ~ ~ n n ~ ! ) ] ) ) ) ) ) D D D S S S S G P P P P ..#.$.&.:.a.m.D.F.L.P.OX@X@X#X#X#X&X&X&X&X&X=X;X;X;X:X:X:X>X:X>X>X8X8X8X8X8X8X8X8X8X8X8X8X8X8X>X>X>X>X>X>X>X>X>X>X>X>X>X>X>X8X8X8X>X>X>X8X8X>X8XyXyX8XyX8X>X>X;X;X;X;X:X>X>X>X>X8X8X>X>X>X>X:X:X;X;X;X;X;X;X;X;X;X;X:X>X;X;X;X=X=X;X;X=X=X;X=X=X=X=X=X=X=X=X=X=X=X&X&X=X=X*X*X*X*X*X*X*X*X*X*X%X%X*X*X&X&X&X*X*X%X%X%X%X%X%X%X@X@X%X%X@X@X%X%X%X%X%X%X%X%X%X%X%X%X%X%X%X%X%X@X@X@X%X@X@X@X@X@X@X@X@X@X@X@XY.Y.@XP.P.P.P.L.L.L.L.L.L.L.L.L.L.L.L.L.L.L.L.L.L.L.L.L.L.L.L.L.L.L.F.L.L.L.F.F.F.F.F.D.D.D.F.F.D.D.D.D.S.S.S.S.Z.Z.S.Z.m.v.v.v.v.v.c.x.s.:.=.&.$...P P L D D D F v v v M M F F D D m m m m m m D L L L ] ] ] ] ] ] ] | X.8./.^.).}.|.|. X0XdXfXgXhXMXSXSXSXDXDXDXDXDXDXFXFXDXDXFXFXFXFXDXDXDXDXhXgXdXdXfXgXMXDXDXDXDXDXHXHXDXSXhXhXgXgXgXgXgXjXdX X|.{./.!.9.5.0.0.+.0.5.8.!./.^.^.~./.{. XgXhXSXhXhXdX0X X^.!.8.5.+.+.O. .} } { ) ! m m m m m m m m m m m ! { { o.+.<.<.<.1.7.",
"6 9 9 9 9 e e e e e r r r e e e e 7 7 7 7 6 6 7 e h l l l l l l r r e 9 9 9 e r r r e h h h h l h h h e e e e e e e w w 7 7 7 w 9 9 h h e e h h h l k k k l l l k k k k x x Q Q b b ~ ~ Q ~ ~ ~ b b ~ ~ ~ ~ n n n ! ) ] ) ) ) ) ) D D D S S S S G P P P ..#.$.$.&.i.d.Z.F.F.L.OX@X@X@X#X#X#X&X&X&X&X=X=X;X;X:X:X:X>X>X>X8X8X8X8X8X8X8X8X8X8X8X8X8X8X8X8X8X8X>X>X>X>X>X>X>X>X>X>X>X>X>X8X8X8X8X>X>XyX8X>X8X8XyXyX8X>X>X:X;X;X;X;X:X:X:X:X;X;X;X:X;X;X;X:X;X;X;X;X;X;X;X;X;X;X;X:X>X;X;X;X;X;X;X;X=X=X;X=X=X=X=X=X=X=X=X=X=X&X&X&X=X=X*X*X*X*X*X*X*X*X*X*X*X*X*X*X&X&X&X&X*X%X%X%X%X%X%X%X%X@X%X%X%X%X%X%X%X%X%X%X%X%X%X%X%X%X%X%X%X%X%X%X%X%X%X@X@X@X@X@X@X@X@X@X@XY.Y.Y.P.P.P.P.P.L.L.L.L.L.L.L.L.L.L.L.L.L.L.L.L.L.U.U.L.L.L.L.L.L.F.F.L.L.L.L.F.F.F.F.F.F.D.D.F.F.F.D.D.D.S.S.S.S.Z.Z.S.Z.v.v.v.v.v.v.c.h.s.:.=.&.#...P P P L L D F F M M F F F F D D m m m m m m m L L L L ] L L ] ] ] | X.8.C.~.^.{.|.|.|. X0X0XdXfXhXhXMXSXSXSXDXDXDXDXFXFXDXDXFXFXFXFXDXDXDXSXhXgXdXdXfXhXMXDXDXDXDXDXDXDXMXhXhXgXgXgXgXgXgXdXdX3X X{.^./.8.5.5.0.O.+.O.5.9.8.8.E.8.8./.{.dXhXDXDXDXhXgX3X{.~.C.9.5.5.5.<.+.O.O.} | { ' ' ! ! ! m ! ! ! ! ! ! ! ! { o.@.+.<.<.",
"6 9 9 9 e e e e e e e e e e 7 7 6 6 6 6 6 6 6 6 e r l l l l l l r e e 9 9 9 e r r r r h h h l l h h h h h h h e e e 7 7 7 7 w w 9 9 9 9 9 9 e h h l l k k l l l k k k k k k x x b b ~ ~ Q Q ~ ~ b b ~ ~ ~ ~ n n n ! ) ) ) ) ) ) ) D D D S S S S G P P P ..#.$.$.%.s.c.Z.F.L.oX#X@X#X@X#X#X#X&X&X&X&X=X;X:X:X:X>X>X>X>X>X8X8X8X8X8X8X8X8X8X8X8X8X8X8X8X8X8X8X>X>X>X>X>X>X>X>X>X>X>X>X>X>X>X8X8X8XyXyX8XyX8X8X8X8X8X>X>X>X>X>X>X:X:X:X:X;X;X;X:X:X;X;X;X;X>X>X>X>X:X;X;X;X;X;X;X;X;X;X>X;X;X;X;X;X=X=X;X=X=X=X=X=X=X=X=X=X=X&X&X&X=X=X*X*X*X*X*X*X*X*X*X*X*X*X*X*X&X&X&X%X*X*X*X%X%X%X%X%X%X%X%X%X%X%X%X%X%X%X%X%X%X%X%X%X%X@X@X%X%X%X%X%X%X%X%X@X@X@X@X@X@X@X@X@XY.Y.Y.P.P.P.P.P.P.L.L.L.L.L.L.L.L.L.L.L.L.L.L.L.L.L.U.U.L.L.L.L.L.L.F.L.F.F.F.F.F.F.F.F.F.F.F.D.F.F.F.D.D.D.S.S.S.S.S.Z.S.Z.v.v.v.v.v.v.c.a.s.:.%.&.#.#...P ..[ L D D F M M F F F F D D m m m m m m m m D D L L L L ] ] ] [  .5.6.b.~.{.|.|.|.|. X X0X0XdXgXhXhXMXSXSXSXDXDXFXFXDXDXFXFXFXFXDXDXDXSXhXgX0XdXfXhXSXDXDXDXDXDXhXhXhXhXgXgXgXgXgXgXjXjXgXgXdX X`./.!.9.5.0.O.+.O.O.+.+.+.5.5.5.8.^.{.0XhXDXDXhXgXdX|.^./.!.8.8.9.9.5.5.+.+.+.O.} | ] ] ! ! ' ] ] ] ! n b n ~ ! ' { @.+.",
"6 9 9 9 9 9 e e e e e e e 6 6 6 6 6 6 6 6 6 6 6 6 e r h l r r r r e e 9 9 9 e r r h l h h h r h h h h r h h h h e e 7 7 7 7 7 7 9 9 h h 9 9 9 9 h l k k W l k k l k k k k k Q Q W W Q Q ~ Q ~ ~ ~ ~ ~ ~ ~ ~ ~ ~ n ! ! ) ) ) ) ) ) D D D S S S G G P P P #.#.$.$.:.a.v.Z.F.L.OX#X#X#X@X%X%X%X*X&X=X=X=X;X;X:X>X>X>X>X>X>X8X8X8X8X8X8X8X8X8X8X8X8X8X8X8X8X8X8X8X8X>X>X>X>X8X8X8X8X>X>X>X>X>X>X8X8XyXyX8XyX8X8X>X8X8X8X>X>X>X>X:X;X:X:X:X:X:X:X:X:X:X:X;X;X>X>X>X>X>X:X:X:X;X;X;X;X;X;X;X;X;X;X;X;X=X=X=X=X=X=X=X=X=X=X=X=X=X&X&X&X=X*X*X*X*X*X*X*X*X*X*X*X&X*X&X&X&X&X%X%X%X&X&X&X%X%X%X%X%X%X%X%X%X%X%X%X%X%X%X%X%X@X@X%X@XY.Y.@X%X%X%X%X%X%X%X%X@X@X@X@X@X@X@XY.Y.P.P.P.P.P.P.P.P.L.L.L.L.L.L.L.L.L.L.L.L.L.L.L.L.L.L.L.L.L.L.L.L.L.L.L.F.F.F.L.L.L.L.F.F.F.F.F.D.D.D.D.D.D.S.S.S.S.Z.Z.S.Z.Z.v.v.v.v.v.c.a.a.:.%.&.$.......L L L L D F F F M F F D D D D D D D m m m D m m m m L L L L L L | ;.5.b.).{.|.|.|.|.|. X X X0XdXgXgXhXMXSXSXSXDXDXDXDXFXFXFXFXFXDXDXDXSXhXgXdXdXfXhXMXSXDXDXSXhXgXgXhXhXhXgXgXgXgXgXgXgXgXgXdXdX|.^.!.8.5.+.+.O.O. .} } O.O.+.5.9.8.^.}.dXhXSXjX0X3X|.{.{.^.!.!.!.C.8.8.8.8.9.5.5.+.O.@.} { | } } ] ! ! n n b b ! ! { { ",
"6 9 9 9 9 9 e e e e e e e 6 6 6 6 6 6 6 6 6 6 6 6 6 e r r r r e e e e 9 9 9 e e r r h e h e e e h h h r h h h h e e 7 6 7 7 7 7 9 9 9 9 9 9 9 9 h h l k W k k k l l k k k k x x k k Q Q b b Q Q ~ ~ ~ ~ ~ ~ n n n ~ m ) ) ) ) ) ) D D D S S S S G P P P #.$.$.$.:.a.v.D.F.oXoX#X#X#X@X%X%X%X%X&X=X=X=X;X:X:X>X>X>X>X>X>X8X8X8X8X8X8X8X8X8X8X8X8X8X8X8X8X8X8X8X8X>X>X>X>X8X8X8X8X>X>X>X>X8X8X8X8XyX8XyXyXyXyXyXyX8X8X>X>X>X>X>X:X:X>X>X>X>X:X:X;X;X>X8X8X>X>X>X>X:X:X:X;X;X;X;X;X;X;X=X=X;X=X;X;X=X=X=X=X=X=X=X=X=X=X=X=X=X&X&X&X=X=X*X*X*X*X*X*X*X*X*X*X&X&X&X&X&X&X%X%X%X%X%X%X%X%X%X%X%X%X%X%X%X%X%X%X%X%X%X%X%X%X%X%X@XY.Y.%X%X%X@X@X%X%X%X%X@X@X@X@X@X@X@XP.P.P.P.P.P.P.P.P.P.L.L.L.L.L.L.L.L.L.L.L.L.L.L.L.L.L.L.L.L.L.L.L.L.L.L.L.F.F.F.F.L.L.L.F.F.F.F.F.D.D.D.D.D.D.S.S.S.S.Z.Z.S.Z.Z.v.v.v.v.v.v.x.a.i.%.&.$.#...P L L L L D F D F M M F D D D D D D D D D m m m m m m m D L L D L | X.9.C.`.}.|.|.|.|.|. X X X X0XdXgXgXhXMXMXSXDXDXDXDXDXFXFXFXFXFXDXDXSXhXgXdXdXgXgXgXgXhXhXhXgXgXgXgXgXgXgXhXhXhXhXhXhXhXgXjXdX X{./.!.8.5.+.+.O.O.} } } } O.+.5.5.b.^.{.dXdX X X|.{.{.^.^.^.^.^././.~.!.!.!.8.8.9.5.5.+.+.+.+.O.} { ' ! n b c b b ~ ~ ",
"6 9 9 9 9 9 9 9 9 9 9 e e 6 6 6 6 6 6 6 6 6 6 6 6 6 6 e r r e e e e e 9 9 9 e e e e e e e e e e e e e e r l h h e e 7 7 7 7 7 7 9 9 9 9 9 9 9 9 e h l k k k k k l l k k k k x W k k Q Q b b Q Q ~ ~ ~ ~ n n n n n ~ ! ) ) ) ) ) ) D D D S S S S P P P P #.$.$.&.s.d.m.D.L.oXOX#X#X#X#X*X&X&X&X&X=X=X:X:X:X:X>X8X>X>X8X8X8X8X8X8X8X8X8X8X8X8XyX8X8X8X8X8X8X8X8X8X8X8X8X8X8X8X8X8X8X8X8X8X8X8X8X8X8X8XyXyXyXyXyX8X8X>X>X:X>X>X>X>X8X>X>X:X;X:X:X:X:X>X>X>X>X>X>X>X:X:X:X;X;X;X;X;X;X;X=X=X;X;X;X;X=X=X=X=X=X=X=X=X=X=X=X=X=X&X&X&X*X*X*X*X=X=X=X*X=X=X=X=X&X&X&X&X&X&X%X%X%X%X%X%X%X%X%X%X%X%X%X%X%X%X%X%X%X%X%X%X%X%X%X&X%X@X@X%X%X@X%X%X%X%X%X@X@X@X@X@X@X@X@XY.P.P.P.P.P.P.P.P.P.P.P.L.L.L.L.L.L.L.L.L.L.L.L.L.L.L.L.L.L.L.L.L.L.L.L.L.F.F.L.L.L.L.F.F.F.D.F.F.F.D.D.D.D.D.S.S.Z.Z.Z.Z.Z.Z.Z.v.v.v.v.v.v.c.a.s.:.%.&.$.....[ L D D D D D D D D F F M m D D D D D D D D m m m m m m L D D L [  .5.b.).{.|.|.|.|.|.|.|.|. X X0XdXdXgXgXhXMXSXDXDXDXDXFXFXFXFXFXDXDXSXhXfXdXdXdXdXjXjXgXgXgXgXgXgXgXgXhXhXDXDXDXDXMXhXgXjXjXjXdX|.^./.!.8.9.5.+.+.} } } }  .O.+.5.5.8./.{.{.{.{.{.{.{.{.{.{.{.{.{.{.{.`.`.^./.~.!.!.8.8.9.9.9.5.+.o.{ ' m b c z z c b ",
"6 9 9 9 9 9 9 9 9 9 9 e e 6 6 6 6 6 6 6 6 6 6 6 6 6 6 e e e e e e e e 9 9 9 7 7 e e w w e e e e e e e e e e e e e e 7 7 7 7 7 7 7 7 9 9 9 9 9 9 e h l l k k W W l l k k k k W W k k Q Q b b Q Q ~ ~ ~ ~ ~ n n n n m m ) ) ) ) ) ) D D D S S S S P P P P #.$.$.&.s.c.Z.F.oXoX#X@X@X#X%X*X&X&X&X&X=X=X:X:X:X:X>X8X>X>X8X8X8X8X8X8X8X8X8X8X8X8XyX8X8X8X8X8X8X8X8X8X8X8X8X8X8X8X8X8X8X8X8X8X8X8X8XyXyX8X8X8X>X>X>X>X:X;X;X;X;X;X:X:X:X;X;X;X:X:X:X:X:X>X;X;X:X>X>X>X:X:X;X;X;X;X;X;X;X;X;X;X;X;X;X=X=X=X=X=X=X=X=X=X=X=X=X=X=X&X&X&X*X*X*X*X=X=X=X=X=X=X=X=X&X&X&X&X&X&X%X%X@X@X%X%X%X%X%X%X%X%X%X%X%X%X%X%X%X%X%X%X%X%X&X&X%X%X%X%X*X%X%X%X%X%X%X@X@X@X@X@X@X@X@XP.P.P.P.P.P.P.P.P.P.P.L.L.L.L.L.L.L.L.L.L.L.L.L.L.L.L.L.L.L.L.L.L.L.L.L.L.F.F.L.L.L.L.L.F.F.D.D.D.F.D.D.D.D.D.S.Z.Z.Z.Z.Z.Z.Z.Z.v.v.v.v.v.v.c.a.a.i.=.&.$.....[ L D D D D D D D D F F M M D D D D D D D D m m m m m m L m D L ]  .;.8.^.`.}.|.|.|.|.|.|.|. X X X3X0XdXfXgXhXMXSXDXDXDXDXDXFXFXFXDXDXSXhXgX X X X XjXfXgXgXgXgXgXgXgXhXDXDXLXLXDXDXhXhXgXjXdXjXdX X{.)./.!.8.9.5.5.O.O.} } } O.+.+.+.5.8././.).{.{.{.{.{.}.|. X X0X X X X|.{.{.`.^.^./.!.!.8.8.8.5.+.o.{ ' b z z j z z ",
"6 6 9 9 9 9 9 9 9 9 9 9 9 6 6 6 6 6 6 6 6 6 6 6 6 6 6 6 7 7 e e e e e 6 7 7 7 7 7 7 7 7 e e e e e e e h h h 9 9 q 9 7 6 6 7 6 6 7 7 7 7 9 9 9 9 e h l l l k W W k k k k k k k k k k Q Q b b b Q b b b b ~ ~ ~ n n n m ! ) ) ) ) ) D D S S S S P P P P ..#.$.$.&.s.v.Z.F.oX#X#X#X@X#X&X&X&X&X&X&X=X;X;X;X:X>X>X>X>X>X8X8X8X8X8X8X8X8X8X8X8X8X8XyXyXyX8X8X8X8X8X8X8X8X8X8X8X8X8X8X8X8X8X8X8X8X8X8XyXyXyX>X>X>X>X>X;X;X>X>X>X;X>X>X;X;X;X;X;X;X:X>X>X;X;X;X:X>X>X>X>X>X;X;X;X;X;X;X;X;X;X>X>X;X;X;X;X;X;X;X=X=X=X=X=X=X=X=X=X=X&X=X=X=X=X=X=X=X=X=X=X=X=X=X=X=X*X*X*X*X*X*X%X%X%X%X%X*X%X%X%X%X%X%X%X%X%X%X%X%X%X%X&X&X&X&X%X%X%X&X*X*X%X%X%X%X%X@X@X@X@XY.@X@XP.P.Y.P.Y.P.P.P.P.P.L.L.L.L.L.L.L.L.L.L.L.L.L.L.L.L.L.L.L.L.L.L.L.L.L.L.F.F.F.L.L.F.F.F.F.F.D.D.F.F.F.D.D.S.S.S.S.Z.Z.Z.Z.Z.Z.Z.v.v.c.c.c.c.v.c.x.a.s.=.&.$.#.....[ L F D D D D D F M M M M m D L L D D D D m m m m m m L L D D [ | X.8.^.`.{.|.|.|.|.|.|.|.|.|. X X3X0X0XdXgXgXMXSXSXDXDXDXFXFXFXDXDXMXgX3X{.{.{. XdXdXjXjXgXjXgXhXDXDXHXHXFXDXDXDXMXhXhXgXjXfXfXdX0X|.{.`.!.8.8.9.5.+.O. .} @.O.+.O.+.0.5.8.!.~./.^.{.|.0XdXdXdXdXdXdXdX0X0X X X X|.{.^.^./.!.8.9.5.+.} { m c j j p j ",
"6 6 9 9 9 9 9 9 9 9 9 9 9 6 6 6 6 6 6 6 6 6 6 6 6 6 6 6 7 7 e e e e e 6 7 7 7 7 7 7 7 7 e e e e 9 9 9 9 9 9 9 9 9 7 6 6 6 6 6 6 6 6 7 7 7 7 9 9 e h h l l l k W Q k k k k k k k k k Q Q b b b ~ b b b b ~ ~ ~ n n n m ! ) ) ) ) ) D D S S S P P P P P P #.$.$.&.a.v.S.F.oX#X#X#X@X%X*X*X&X&X&X&X=X;X;X:X:X>X8X8X>X>X8X8X8X8X8X8X8X8X8X8X8X8X8X8X8X8X8X8X8X8X8X8X8X8X8X8X8X8X8X8X8X8X8X8X8X8X8X8XyXyXyXyXyX>X>X>X>XyXyXyXyX>X>X>X>X>X>X;X>X:X>X>X>X:X:X:X:X>X>X>X>X>X>X>X:X;X;X;X;X;X;X;X;X;X;X;X;X;X;X;X=X=X=X=X=X=X=X=X=X=X&X=X=X=X=X=X=X=X=X=X=X=X*X=X=X=X=X=X*X*X*X*X*X*X%X%X%X*X%X%X%X%X%X%X%X%X%X%X%X%X%X%X%X%X%X%X%X%X%X%X%X%X%X%X%X%X%X@X@XY.Y.Y.@X@X@XP.Y.P.Y.P.P.P.P.L.L.L.L.L.L.L.L.L.L.L.L.L.L.L.L.L.L.L.L.L.L.L.L.L.L.L.F.F.L.L.L.F.F.F.F.F.D.D.F.D.F.D.D.S.S.S.S.Z.Z.Z.Z.Z.Z.m.v.v.c.c.c.c.c.c.x.a.i.=.&.$.#.....[ D F D D D D D M M M M M m D L L D D D D D D m m m m ] ] L D L [ X.8.^.`.`.}.|.|.|.|. X|.|.|. X X X X3X0XdXdXgXgXhXMXSXDXFXFXDXSXMXhXdX X{.`.{. X0XdXdXgXhXhXSXDXDXLXJXHXFXDXDXDXMXhXhXgXgXfXdXfXdX0X X{.^./.!.8.9.5.+.O.O.@.O.O.O.O.O.+.5.8.!.!./.`.{.|.dXdXdXjXgXfXfXjXjXdXdXdXdX X|.{.{.^.!.E.9.5.+.} { ! b j j j ",
"6 6 9 9 9 9 9 9 9 9 9 9 9 6 6 6 6 6 6 6 6 6 6 6 6 6 6 6 7 e e e 6 6 6 6 6 6 7 7 7 6 7 7 9 e e e 9 9 9 9 9 9 9 9 9 7 6 6 6 6 6 6 6 6 6 6 7 6 7 7 9 e h l l l k k k k k k k k k k k k Q Q b b b b ~ ~ b b ~ ~ n n n n m ) ) ) ) ) ) D D D S L P ..P P P ..#.$.$.&.x.v.D.oX+X#X#X@X@X*X*X*X&X&X&X&X=X;X;X:X>X>X>X8X8X8X8X8X8X8X8X8X8X8X8X8X8X8X8X8X8X8X8X8X8X8X8X8X8X8X8X8X8X8X8X8X8X8X8X8X8X8X8X8XyXyXyXyXyXyXyXyXyX>X>X>X>X:X>X>X>X>X>X>X>X>X>X>X>X>X:X:X;X;X;X;X;X;X;X;X;X;X;X;X;X;X;X;X;X;X;X;X;X;X;X;X=X=X=X=X=X=X=X=X=X=X=X=X=X=X=X=X=X=X=X=X=X*X=X=X=X=X=X=X*X*X*X*X*X%X%X%X*X*X*X%X%X%X%X%X%X%X%X%X%X%X%X%X%X%X%X%X%X%X%X%X%X%X%X%X%X%X%X@X@XY.Y.Y.Y.@XY.Y.P.Y.P.P.P.P.P.P.P.P.P.L.L.L.L.L.L.L.L.L.L.L.L.L.L.L.L.L.L.L.L.L.L.L.F.F.L.L.L.K.F.F.F.F.D.D.D.D.F.D.D.S.D.S.Z.Z.Z.Z.Z.Z.Z.v.v.v.c.c.c.c.v.v.x.a.s.:.%.$.#.....P L L D D D D D m M M M M m m D L D D D D D D m m m L ] [ ] D D [  .9./.`.{.{.|.|.|.|.|.|.|.|. X X X X X X0X0XdXdXgXhXhXSXDXSXMXhXgXfXdX X`.^.`.|.0XdXgXhXDXDXDXDXDXDXLXLXFXDXDXDXMXhXhXhXgXgXfXdXdXdX0X|.|.{.^.!.!.8.6.*.+.O. .O. . . . .O.5.8.C.!.^.).{. X XdXdXgXgXgXgXgXgXgXgXgXdXdX X.X{.^./.E.9.5.+.O.} ] m c N ",
"6 6 6 6 9 9 9 6 6 6 6 6 6 6 6 6 6 6 6 6 6 6 6 6 6 6 6 6 6 7 7 7 6 6 6 6 6 6 6 6 6 6 6 6 7 7 7 7 9 9 9 9 9 9 9 9 9 7 6 6 6 6 6 6 6 6 6 6 7 7 7 7 7 9 h h h l l l l k k l k k k k k k W W b b b b ~ b b b b b n n n n m ! ) ) ) ) ) D D S S P P P P P P ..P #.$.%.c.Z.F.oX#X#X#X#X*X%X&X*X&X&X&X&X=X;X;X:X>X>X>X8X8X8X8X8X8X8X8X8X8X8X8X8X8X8X8X8X8X8X8X8X8X8X8X8X8X8X8X8X8X8X8X8X8X8X8X8X8X8X8X8XyX>XyXyXyXyXyXyXyXyX>X>X>X>X>X;X>X:X>X>X>X>X>X>X;X;X;X;X;X;X;X;X;X;X>X;X;X;X;X;X;X;X;X;X;X;X;X;X;X;X;X;X=X=X=X=X=X=X=X=X=X=X=X=X=X=X=X=X=X=X=X=X=X=X=X=X=X=X=X=X*X*X*X*X*X%X%X%X*X*X*X%X%X%X%X%X%X%X%X%X%X%X%X%X*X*X%X%X%X%X%X%X%X%X%X%X%X%X%X@X@XY.Y.Y.@X@XY.Y.P.Y.P.P.P.P.P.P.P.P.P.L.L.L.L.L.L.L.L.L.L.L.L.L.L.L.L.L.L.L.L.L.F.F.F.F.L.L.L.F.F.F.F.F.D.D.D.D.F.D.D.D.D.S.Z.Z.Z.Z.Z.Z.v.v.v.v.c.c.c.c.v.v.x.a.s.:.%.$.#.....P L L D D D D D F M M M M M M m m D D D D D D m m m L ] | [ ] D L  .9./.).`.`.}.|.|.|.|.|.|.|.|.|. X X X X X3X0X0XdXdXgXhXMXhXgXfXdXdX3X|.^.^.^.{.dXgXhXDXDXDXDXDXDXDXDXDXDXDXDXDXMXMXhXhXgXgXgXfXdXdXdX0X X X{.^.^.!.8.6.5.+.O. .}  .} } |  .0.9.!.!./.^.{.}. XdXdXgXgXhXhXhXhXhXhXhXgXdXdX X.X{./.E.9.5.<.@.o.{ m b ",
"6 6 6 6 9 9 9 9 6 6 6 6 6 6 6 6 4 6 6 6 6 6 6 6 6 6 6 6 6 6 6 6 6 6 6 6 6 6 6 6 6 6 6 6 7 7 7 7 7 7 7 7 7 7 7 7 9 9 7 6 6 6 6 6 6 6 6 6 7 7 7 7 6 9 h h h h l l l l l l l l k k k k b b b b W Q ~ ~ b b b ~ n n n n m m ) ) ) ) D D D S [ P P P P P P #.U #.$.=.v.S.F.oX+X#X#X#X*X*X*X&X&X&X&X=X;X;X;X:X:X>X8X8X8X8X8X8X8X8X8X8X8X8X8X8X8X8X8X8X8X8X8X8XyXyXyXyXyXyXyXyXyXyXyXyXyXyX8X8X8X8XyXyX6X>X>XyXyX>X6X>X>X>X>X>X>X>X>X>X>X>X:X:X>X>X>X>X;X;X;X;X;X;X;X;X:X:X:X;X;X;X;X;X;X;X;X;X=X=X;X;X;X;X;X;X=X=X=X=X=X=X=X=X=X=X=X=X=X=X=X=X=X=X=X=X=X=X=X=X=X=X*X=X=X*X*X*X*X*X*X*X%X%X%X%X%X%X%X%X%X%X%X%X%X%X%X%X%X%X%X%X*X&X&X&X%X%X%X%X%X%X%X@X@XY.Y.Y.Y.@XY.Y.@X@XP.P.P.P.P.P.P.P.L.L.L.L.L.L.L.L.L.L.L.L.L.L.L.L.L.L.L.L.L.F.K.L.K.K.F.F.F.F.F.F.F.F.F.F.F.F.D.D.D.D.D.S.S.Z.Z.Z.Z.m.m.v.v.v.v.c.c.c.v.v.c.a.s.:.=.$.......[ L L D D D F F F F M M M m M m D D D D D D m m m m L ] [ [ L D [ X.9.~.).{.{.}.|.|.|.|.|.|.|.|.|.|.|. X X X X X X3X3X3X0X0XdXdXdX0X3X X|.^.^.{. XjXhXSXDXDXDXDXDXDXDXDXDXDXDXDXSXSXMXhXhXhXhXgXgXdXdXdXdXdX3X X|.{.^.C.9.5.;.+.O. .} } } ] ] } +.5.9.!./.^.{.{.|. X0XdXgXhXhXhXhXhXhXhXhXjXdX X{.{./.!.8.5.5.+.} ] ! ",
"6 6 6 6 6 6 6 6 6 6 6 6 6 6 6 6 4 4 6 6 6 6 6 6 6 6 6 6 6 6 6 6 6 6 6 6 6 6 6 6 6 6 6 6 6 6 7 7 7 7 7 7 6 6 7 7 7 7 7 7 6 6 6 6 6 6 6 6 7 7 7 7 7 9 h h h h l l l l l l l l k k k k k k b b Q Q ~ ~ b b ~ ~ n n n n m m m m ) ) D D D L [ P P P P P P #.#.#.&.:.m.D.F.oXOX#X@X#X*X*X*X&X&X&X=X;X;X;X;X;X:X>X8X8X8X8X8X8X8X8X8X8X8X8X8X8X8X8X8X8X8X8X8X8XyXyXyXyXyXyXyXyX8XyXyXyXyXyX8XyX8X8XyXyX6X>X>X>X>X>X>X>X>X>X>X>X>X>X>X>X>X>X>X;X;X>X>X>X>X>X>X>X>X;X:X:X;X;X;X;X;X;X;X;X;X;X;X;X=X=X=X=X=X=X;X;X=X=X=X=X=X&X&X&X=X=X=X=X=X=X=X=X=X=X=X=X=X=X=X=X=X=X*X=X=X*X*X*X*X*X*X*X%X%X%X%X%X%X%X%X%X%X%X%X%X%X%X%X%X%X%X%X%X*X*X%X%X%X%X%X%X%X%X@XY.Y.Y.Y.@X@XY.Y.@X@XP.P.P.P.P.P.P.P.L.L.L.L.L.L.L.L.L.L.L.L.L.L.L.L.L.L.L.L.L.L.F.F.F.L.F.F.F.F.F.F.F.F.D.F.F.D.D.D.D.S.D.S.Z.Z.m.m.Z.m.v.v.v.v.v.c.c.c.v.v.c.a.s.:.=.$.......P L L S F F F F F F F F M m m m D D D D D D m m m m m D ] L D D [  .6.!.).{.}.|.|.|.|.|.|.|.|.|.|.|.|.|.|.|.|.|.}.}.{.{.}.}.}.|.|. X X X X}.{.{. XdXhXSXDXDXDXDXDXDXDXDXDXDXDXDXDXDXSXSXMXhXhXhXgXgXjXdXdXdXdX0X X{.^.!.8.8.6.5.5.+.O. .} | ] ] } @.+.5.9.!./.^.).{.|. X0XdXgXhXhXhXhXhXgXgXdX X}.{.^.~.!.8.5.<.+.} ] ",
"6 6 6 6 6 6 9 6 6 6 6 6 6 6 6 6 4 4 4 4 6 6 6 6 6 6 6 6 6 6 6 6 6 6 6 6 6 6 6 6 6 6 6 6 7 7 7 7 7 7 7 7 7 7 9 7 7 7 9 9 9 9 7 7 7 7 7 6 7 7 7 7 9 h h h h h h h l l l l l l k k k k k k b b Q Q b b b b ~ ~ ~ n n n m m m m ) ) ) D D [ ..P P P P P #.#.#.$.=.s.m.D.F.oXOX#X@X#X*X*X&X&X&X&X=X;X;X;X;X;X;X:X>X8X8X8X8X8X8X8X8X8X8X8X8X8X8X8X8X8X8X8X8X8X8X8XyXyX8X8X8X8X8X8XyXyXyXyXyXyX8X8X8XyXyX>X>X8X>X>X>X>X>X:X>X>X>X>X>X>X>X>X>X;X;X>X>X>X>X:X>X>X>X>X>X>X>X>X;X;X;X;X;X;X;X;X;X;X;X=X=X&X*X*X;X;X;X=X=X=X=X&X&X&X=X=X=X=X=X=X=X=X=X=X=X=X=X=X=X=X=X=X*X*X*X*X*X*X*X%X*X*X%X%X%X%X%X%X%X%X%X%X%X%X%X%X%X%X%X%X%X%X%X%X%X%X%X%X%X%X%X@X@X@X@XY.Y.Y.@X@XY.Y.@X@XP.P.P.P.P.P.P.P.P.L.L.L.L.L.L.L.L.L.L.L.L.L.L.L.L.L.L.L.L.L.F.F.L.L.K.F.F.F.F.F.D.D.D.D.D.D.D.D.S.Z.Z.Z.Z.m.m.m.m.m.v.v.v.v.c.c.c.c.v.v.c.a.s.:.=.$.#.....[ P L S S F F F F D D D M m m m D D D D D D m m m m m m D D D D  .X.9.~.).}.|.|.|.|.|.|.|.|.|.|.|.|.|.|.|.|.}.{.`.`.`.).).^.).{.}.|.3X0XdXdX X|. XdXgXhXSXDXDXDXDXFXFXDXDXDXDXDXDXDXSXSXSXMXhXhXhXhXhXgXgXdX0X X|.{.^.^.~.!.UX8.9.5.+.+.O.| [ ] ] | } } O.5.9.C.!.^.^.{.|. XdXdXgXhXgXgXdXdX X|.{.^.!.!.8.8.9.5.+.O.} ",
"6 6 6 6 6 6 9 6 6 6 6 6 6 6 6 6 4 3 3 3 3 3 4 4 8 8 6 6 6 6 6 6 6 6 6 6 6 6 6 6 6 6 6 6 7 7 7 7 6 6 6 6 6 6 7 7 7 7 e e e 9 9 9 9 7 7 6 7 6 7 7 9 9 e e h h h h h l l l l l l k k k k k b b Q Q b b b b ~ ~ n n n n m m m m m D ) D [ [ [ L P P P P #.#.#.$.:.a.m.D.F.oXOX#X@X#X*X&X&X&X&X=X=X;X;X;X;X;X;X:X>X8X>X>X8X8X8X8X8X8X8X8X8X8X8X8X8X8X8X8X8X8X8X8XyXyX8X8X8X8X8X8XyXyXyXyXyXyX8X8X8XyXyX>X>X8X>X>X>X6X>X>X>X>XyX6XyXyXyX>X>X>X:X>X;X;X>X>XyXyXyXyX>X>X;X;X;X;X;X;X;X;X;X;X;X;X;X=X&X*X%X*X=X=X=X=X=X=X=X&X&X&X=X=X=X=X=X=X=X=X=X=X=X=X=X=X*X*X*X*X*X=X*X*X*X*X*X%X%X%X%X%X%X%X%X%X%X%X%X%X%X%X%X%X%X%X%X%X%X%X%X%X%X%X%X%X%X@X@X@XY.Y.Y.Y.Y.Y.Y.Y.P.P.Y.P.P.P.P.P.P.P.P.P.P.L.L.L.L.L.L.L.L.L.L.L.L.L.L.L.L.L.L.F.L.K.F.F.K.K.K.F.F.F.F.D.D.D.D.D.D.D.D.D.Z.Z.Z.Z.Z.m.m.m.m.v.v.v.v.v.c.c.c.c.v.v.c.a.s.>.=.$.#.....P P S S F F F F F D D D M M M M m D D D D D m m m M M M m m m D  .*.8.^.{.}.|.|.|.}.}.}.|.|.|.|.|.|.|.|.|.|.}.`.).^.).).^.^.^.`.{. XdXgXMXhX0X X|.dXgXhXSXDXDXDXDXFXFXFXDXDXDXDXDXDXDXDXDXSXSXMXMXMXhXhXgXdX X}.{.{.^.^.^.^.~.!.C.8.6.;.+.} | ] ] ] ] ' ] [ O.*.9.8.!.^.^.{.|. XdXdXdXdX X X{.^././.!.!.E.8.8.9.5.+.O.",
"6 6 6 6 9 9 6 6 6 6 6 6 6 6 6 4 3 3 3 4 3 3 3 3 3 3 4 4 6 6 6 6 6 6 6 6 8 8 6 6 6 6 6 6 6 6 6 6 6 6 6 6 6 6 6 6 7 7 e 9 e e e e 9 9 7 6 7 6 7 7 7 7 e e e e h h h h h h h l k k k k k k k b b b b b b b ~ ~ ~ ~ n n n n m m ) ) D D D S G S P P P P P U #.&.i.d.v.S.F.L.@X#X@X%X#X@X&X&X=X=X;X;X;X;X;X;X;X:X>X>X>X>X8X8X8X8X8X8X8X8X8X8X8X8X8X8X8X8XyXyXyXyXyX8X8X8X8X8X8X8XyXyXyXyXyXyXyX8X8X8X>X>X>X8XyX>X>XyXyX>X8XyXyXyXyXyXyXyXyXyXyX>X:X:X:X6XyXyXyXyXyX6X>X:X:X;X;X;X;X;X;X;X;X;X;X=X=X&X*X*X=X=X=X=X=X=X=X&X=X=X=X=X=X=X=X=X=X=X=X=X=X=X=X=X*X%X%X%X*X=X*X*X*X*X*X*X*X%X%X%X%X%X%X%X%X%X@X@X%X%X%X%X%X%X%X%X%X%X@XY.Y.Y.%X%X%X%X@X@X@X@X@X@XY.P.P.P.P.P.P.P.P.P.P.P.P.P.P.P.P.P.L.L.L.L.L.L.L.L.L.L.L.L.L.L.L.L.L.L.L.L.F.L.F.K.K.K.F.F.D.D.D.D.D.D.D.D.D.S.Z.Z.Z.Z.Z.m.m.m.v.v.v.v.v.v.v.c.c.c.v.v.c.a.s.i.=.*.$.....P L S S F F F M M D D m M M M M M m m D D D m m v M M v M M M D X.5.!.).{.}.}.}.|.}.}.}.}.}.|.|.|. X|.|.}.{.`.).).).).^.^.^.^.`.{.3XdXgXhXhXjX X|.|.dXhXMXSXDXDXDXFXFXLXDXDXDXDXDXDXDXDXDXDXFXFXFXSXhXgX0X|.|.{.{.{.{.{.{.^.^.~.!.!.8.9.5.O.} [ ] ) D D m m ! { O.O.5.8.~.^.^.{.{.|.|.}.{.).^.^.^.^.^.!.!.8.8.8.9.5.+.",
"6 6 6 6 9 9 6 6 6 6 6 6 6 6 6 4 3 3 3 3 3 3 3 3 3 3 3 3 4 6 6 6 6 6 6 6 8 8 6 6 6 6 6 6 6 6 6 6 6 6 6 6 8 8 6 6 6 7 e 9 e e e e e e 9 9 9 7 7 7 7 7 7 7 9 e e h h h h h h l j k k k k k k b b b b b b b ~ ~ ~ ~ n n n n m m m ) D D D F S S S P P P U U #.&.i.g.v.S.F.L.@X@X@X%X@X@X&X&X=X=X;X;X;X;X;X;X;X:X:X>X>X>X>X>X8X8X8X8X>X>X8X8X8X8X8X8X>X8XyXyXyXyX8X8X8X8X8X8X8X8X8X8XyXyXyXyX8X8X8XyX>X>X>X8XyX>X>X>XyXyXyXyX8XyXyXyXyXyXyXyXyXyXyX6X>XyX6X:X:X>XyXyXyXyX:X:X;X;X;X;X;X;X;X;X;X=X&X&X&X=X=X=X=X=X=X=X=X&X=X=X=X=X=X=X=X=X=X=X=X=X=X=X=X=X*X%X*X*X*X*X*X*X*X*X*X*X*X%X%X%X%X%X%X%X%X%X@X@X@X@X%X%X%X%X%X%X%X@X@XY.Y.Y.@X@X@X@X@X@X@X@X@X@XY.P.P.P.P.P.P.P.P.P.P.P.P.P.P.P.P.P.L.L.L.L.L.L.L.L.L.L.L.L.L.L.L.L.L.L.L.L.F.F.K.K.K.F.F.D.D.D.D.D.D.D.D.S.Z.Z.Z.Z.Z.Z.m.m.v.v.v.v.v.v.v.v.v.v.c.c.v.v.c.a.s.i.=.*.$.....P L S F F F F F M D D m M M v M M m m m m m m v v v v v v M M L X.8./.`.}.{.}.}.|.}.}.}.}.|.|.|.|.|.|.}.{.`.^.^.).`.).^.^.).`.}.|. X0XdXgXhXgX3X}.|.0XgXhXSXDXDXDXDXFXLXDXDXDXFXFXFXFXFXFXFXDXMXhXgXgX0X X X X|.}.{.{.{.{.{.{.`.^./.!.8.8.5.O.} | ) D D m m m m ! m } +.5.8.b.!./.^.^.^.^././.~.~././.!.!.Q.8.8.9.5.+.",
"6 6 6 6 6 6 7 6 6 6 6 6 6 6 8 4 3 3 3 3 3 3 3 3 3 3 3 3 4 6 6 6 6 6 6 6 8 8 6 6 6 6 6 6 6 6 6 6 6 6 8 8 8 8 6 6 6 6 6 7 e r r r r r r e e e e e 7 7 w w 7 w w e h h h h h h l k k k k k k b b b b b b b ~ ~ n ~ n n n n m m m ) D D D F S P S P P P U U #.&.i.g.v.S.F.L.@X@X@X%X@X@X#X&X&X&X;X;X;X;X;X;X;X;X:X>X>X>X>X>X>X>X>X>X>X>X8X8X8X8XyX8X>X8XyXyXyX8X8X8XyX8XyXyX8XyX8X8X8X>X8X8X8X8XyXyX8X8X8XyXyXyXyX>XyX>X>X>X>X>XyXyXyXyX>X8XyXyXyXyXyX:X6XyXyX>X:X:X;X:X:X:X;X;X:X:X:X:X;X;X=X=X=X=X=X=X=X=X=X=X=X=X=X=X=X=X=X=X=X=X=X=X=X=X=X=X=X=X*X*X*X=X=X=X&X*X*X*X*X*X*X*X*X*X%X%X%X%X%X%X%X%X@X@X@X@X%X%X%X%X%X%X%X@X@XY.Y.Y.@X@X@X@X@X@X@X@X@X@XY.P.P.P.P.P.P.P.P.P.P.P.P.P.P.L.P.P.L.L.L.L.L.L.L.L.L.L.L.L.L.L.L.L.L.L.L.L.K.K.K.K.F.F.D.D.D.D.D.D.D.A.D.D.Z.Z.Z.Z.Z.Z.m.m.m.v.v.v.v.v.v.v.v.v.v.c.v.v.c.a.s.s.=.*.$.#...P L S S F F F M M D D D M M v v v v v v v M v v c v v v v M M L +.b.^.`.{.{.{.}.}.|.|.|.|.|.|.|.|.|.}.`.).^.^.^.^.).^.).`.{.{.|.|. X3X0X0XgXgXdX|.}. XfXhXSXSXDXDXFXFXFXLXFXFXFXFXDXDXFXDXSXMXgXgXdXdX0X0X0X0X X X|.|.|.|.|.|.{.{.`.^.!.C.9.5.O.} ] ] ) m m m m m M ) ] } } +.5.9.8.8.8.8.8.b.!.!.!.!./././.!.!.8.8.5.",
"6 6 6 6 6 6 6 6 6 6 6 6 6 8 8 4 3 3 3 3 3 3 3 3 3 3 3 3 4 6 6 6 6 6 6 6 8 8 6 6 6 6 6 6 6 6 6 6 6 6 8 8 8 8 6 6 6 6 6 7 e e r r h h h r h r h h e 7 w w 7 w w w e e h h h h j k k k k k k b b b b b b b ~ ~ n n n n n n m m ! ) D D D F S S S P P P U U -.&.i.d.v.S.F.P.@X@X@X%X@X@X#X#X&X&X;X;X;X;X;X;X;X;X:X>X>X>X>X:X:X:X:X>X>X>X>X>X>X>X8X8X>X8XyXyX8X8X8X8XyXyXyXyX8X8X8X>X>X>X8X8X8X8X8XyX8X8X8X8XyXyXyX>X>X>X>X>X>X>X8X8X8X8XyXyXyXyXyXyXyXyXyXyXyXyX6X6X>X>X>X>X>X>X:X:X;X;X;X=X&X&X=X=X=X=X=X=X=X=X=X=X=X=X=X=X=X=X=X=X=X=X=X=X=X=X=X=X*X*X=X=X=X=X=X*X*X*X*X*X*X%X%X%X%X%X%X%X%X@X@X@X@X@X@X@X%X%X%X%X%X%X%X@X@XY.Y.Y.@X@X@X@X@X@X@X@X@X@XY.P.P.P.P.P.P.P.P.P.P.P.P.P.L.L.P.P.L.L.L.L.L.L.L.L.L.L.L.L.L.L.L.L.L.F.F.F.K.K.K.K.F.F.D.D.D.D.D.D.A.D.D.A.Z.Z.Z.Z.Z.Z.m.m.m.v.v.v.v.v.v.v.v.v.c.c.v.v.c.a.s.i.=.*.$.#...P L S F F F F F M M D D M M v v v v v v v v v c c c v c c v M [ ;.b.~.^.^.`.{.}.|.|.|. X|.|. X X|.}.{.).^.^.^.^.^.).`.{.}.}.}.|.|.|. X X3XdXgXdX X}.|.dXgXMXDXDXDXFXFXFXLXFXFXFXDXSXSXSXSXgXgXgXgXjXdXdXdXdX0X0X0X0X0X0X0X X X|.{.{.`.^./.b.9.5.O.} | ] ) ! m ! ) ] ] ] ] v m ]  .O.+.*.5.9.9.8.E.!./.^.).{.^.^./.!.8.",
"6 6 6 6 6 6 6 6 6 6 6 6 6 8 3 3 3 3 3 3 3 3 3 3 3 3 3 3 4 6 6 6 6 6 6 6 6 6 8 8 8 8 6 6 6 6 6 6 6 6 6 8 8 8 6 6 6 6 6 9 e h h l h l l l l l l h h e e w 7 7 7 7 w w h h h h l k k k x x k b b b b b b b n n n n n n n n n n m m D D D D D S P P P P U U $.%.s.g.D.D.K.OX@X#X#X*X&X&X#X#X&X=X;X;X;X;X;X;X;X;X:X:X:X:X:X:X:X:X:X:X>X>X>X>X>X>X8X>X8X8XyXyX>X>X>X>X8X8X8XyXyXyX8X8X>X>X>X>X8X8X8X8XyX8XyXyXyXyXyX8X>X>X>X>X>XyXyXyXyXyXyXyXyXyXyXyXyXyXyXyXyXyXyX6X6X6X>X>X>X:X>X;X;X;X=X-X-X;X;X;X;X;X;X=X-X-X=X=X-X=X-X-X;X;X;X;X-X-X=X=X=X=X=X=X=X&X=X=X-X-X&X&X&X&X*X*X*X%X%X%X%X%X%X%X@X@X@X@X@X@X@X@X%X%X%X%X@X@X@X@X@X@X@X@X@X@X@X@X%X@X@XY.Y.Y.P.P.@XP.P.P.P.P.P.P.P.P.P.P.L.L.L.L.L.L.L.L.L.L.L.L.L.L.L.L.L.L.L.F.L.L.L.L.K.F.F.F.F.F.D.D.D.D.D.D.D.S.Z.Z.Z.Z.Z.Z.Z.Z.m.m.v.m.v.v.v.v.v.v.v.v.v.c.v.v.x.a.s.>.>.*.$.#.P P L L S F F F M M F D D F v v v v v v v v v v v c v c c g v D [ +.5.8.~.^.^.`.}.|.|.|. X X X X X|.{.).^.^.).).`.`.}.|.|.|.}.}.}.|. X X X X X X3X3X{.{.|.dXgXSXDXDXJXFXFXFXDXSXhXgXgXgXgXgXfXgXgXgXjXdX0X0X0XdXdXgXgXgXdXdX X X X X}.{.`.^./.C.9.5.O.} { ] ! ) ] ] ] ] ] ] ] m M m ] } +.+.5.5.8.8.!.^.{.{.{.{.{.).~.~.",
"9 9 6 6 6 6 6 6 6 6 6 6 6 8 3 3 3 3 3 3 3 # # 3 3 3 3 3 3 4 8 8 6 6 6 6 6 6 8 8 8 8 6 6 6 6 6 6 6 6 6 8 8 8 6 6 6 6 6 9 e e h l h l l l l l l l l h h e e e e e e e w w h h h j k k x x k b b b b b b b b b b b b n n n n n m m D D D F S S P P P P U U -.&.s.v.D.F.L.OX#X#X#X*X&X&X#X#X&X=X;X;X;X;X;X;X;X;X;X:X:X:X:X:X:X:X:X:X>X>X>X>X>X>X>X>X8X8X8X8X>X>X>X>X8X>X8X8X6XyXyX8X8X8X8X8X8X8X8X8XyX8XyXyXyXyXyX8X>X>X8X8XyXyXyXyXyXyXyXyXyXyXyXyXyXyXyXyXyXyX6X6XyXyX:X>X>X>X>X;X;X;X:X;X;X;X;X;X;X=X;X=X-X=X=X=X-X=X-X-X;X;X;X;X-X-X=X=X=X=X=X-X-X=X=X&X=X=X&X&X&X&X*X*X*X%X%X%X%X%X%X%X%X%X%X%X@X@X@X@X%X%X%X%X@X@X@X@X@X@X@X@X@X@X@X@X@X@XP.P.P.P.P.P.P.P.P.P.P.P.P.P.P.P.P.P.L.L.L.L.L.L.L.L.L.L.L.L.L.L.L.L.L.L.L.F.L.F.F.F.F.F.F.F.F.D.D.D.D.D.D.D.S.Z.Z.Z.Z.Z.Z.Z.Z.Z.m.m.m.m.v.v.v.v.c.c.v.v.v.c.c.c.a.a.s.>.=.*.$.#.P P L L S F F F M M F D D F v v v v v v v v v v v v v c c c v M D [ X.;.8.!.~.^.`.{.}.|.|.|.|. X|.}.).^.^.).`.{.{.}.|.|.|.}.}.|.|.|. X3X3X3X3X3X3X3X{.`.{.|.dXgXMXSXSXSXSXMXhXhXgXgXgXgXgXfXfXfXdXdXdXdXdXdXjXgXhXhXhXhXgXgX0X X X X|.{.{.`.^./.C.9.;.O.} ] ) ] { | } } } | ] ) m m M | O.+.5.5.5.9.8.!./.^.{.{.{.{.^.^.",
"e e 9 6 6 6 6 6 6 6 6 6 6 8 3 3 3 3 3 3 # # 3 3 3 3 3 3 3 3 4 4 6 4 4 4 4 4 6 6 8 8 8 8 6 6 6 6 8 8 8 8 8 8 6 6 6 6 6 7 e e h h l l l l l l l k l l l h h h h h h h e e h h h l k k k k k b b b b b b b b b b b b b n n n n m m m D D D S S P P P P P U U &.a.m.D.oX+X#X#X#X*X&X&X&X#X&X&X=X;X;X;X;X;X;X;X;X;X:X:X:X:X:X:X:X>X>X>X>X>X>X>X>X>X>X8X8X8X8X>X>X>X>X>X>X>X>X6X6X8X8X8X8X>X>X8X>X8X8X>X>XyXyXyXyXyX>X>X>X>X8XyX>X8XyXyXyXyXyXyXyXyXyXyXyXyXyXyXyXyXyXyXyXyX6X>X>X>X;X;X;X;X;X;X;X;X;X;X;X-X-X-X-X=X=X=X=X-X-X-X-X-X-X-X-X-X=X;X=X-X-X-X-X=X&X=X&X&X&X=X&X&X*X&X&X&X%X%X%X*X%X%X%X%X%X%X%X@X@X@X@X%X%X%X%X%X%X@X%X@X@XY.Y.Y.Y.@XY.Y.P.P.P.P.P.P.P.P.P.P.P.P.P.L.L.P.P.P.P.L.L.L.L.L.L.K.L.K.K.L.L.L.L.L.L.L.F.F.F.D.D.F.F.D.D.D.D.D.D.D.A.D.D.S.Z.Z.Z.Z.Z.Z.Z.m.Z.m.m.m.m.v.v.v.v.c.c.v.v.v.c.c.c.a.a.s.>.>.=.$.#.P P L L S F F F F M F D D F v v v v v v v v v c v v v c v g v v v M D  .*.9.C.~.^.).{.}.|.|. X X|.{.^.^.^.).`.{.}.|.|.|.}.}.}.}.|.|.|. X X X X|.|.|.{.^./.^.|.0XfXgXgXhXhXhXgXgXgXgXgXgXgXfXfXdXdXdXdXgXgXhXhXMXMXhXhXgXgXgXdX0X X X X|.{.{.{.^./.C.9.*.O.} ] { }  . .O.O. .| ] ) m M ]  .+.5.5.6.6.5.9.8.!./.^.{.{.{.{.",
"e e 9 9 6 6 6 6 6 6 6 6 8 3 3 3 3 3 3 # # @ # # 3 3 3 3 3 3 3 3 3 3 3 3 3 3 3 3 3 3 4 4 8 8 8 8 8 8 8 8 4 4 4 4 6 6 6 7 e e h h l l l l l l l k k k l l l l h h h h h w e e h l j k k k k k b b b x x x b b b b b b n n n n m m m D D D S S P P P P P U U &.a.Z.D.+X#X#X#X@X*X&X&X&X#X&X&X=X;X;X;X;X;X;X;X;X;X:X:X:X:X:X:X:X>X>X>X>X>X>X>X>X>X>X8X8X8XyX>X6X>X>X>X>X>X6X6X6X>X>X8X>X>X>X>X>X>X8X>X>X8X8XyXyXyX>X>X>X>X>X>X>XyXyXyXyXyXyXyXyXyXyXyXpXyXyXyXyXyXyXyXyXyXyXyXyX>X>X;X;X;X;X;X;X;X;X;X;X-X-X-X-X=X=X=X=X-X-X-X-X-X-X-X-X-X-X;X;X;X-X-X;X=X&X=X&X=X&X=X*X*X*X=X=X&X*X%X%X*X*X*X%X*X%X*X%X@X@X@X@X%X%X%X%X%X%X@X@X@XY.Y.P.P.Y.Y.Y.P.P.P.P.P.P.P.P.P.P.P.P.P.P.L.L.P.P.P.L.L.L.L.L.L.L.K.L.K.K.L.L.L.L.L.L.L.F.F.D.D.D.D.D.D.D.D.D.D.D.D.A.D.D.S.Z.Z.Z.Z.Z.Z.Z.m.Z.m.m.m.m.v.v.v.v.c.c.c.c.v.c.c.c.a.a.s.>.=.=.$.#.P P L L S F F F M F D D D F v M v v v v v v v c v v v c v g v g c c d D | +.5.8.!.~.^.`.{.{. X X}.`.^.^.^.^.`.`.}.|.|.}.{.{.{.{.}.}.}.}.}.}.}.}.{.{.`.^.!.!.`.}. X0XdXfXgXgXgXgXgXgXgXgXgXfXfXgXgXhXMXMXMXSXDXSXMXhXgXgXdXdXdX0X0X0X X X|.}.{.{.^./.8.9.0.O.| | }  .+.+.+.+.} | ] ] m m ] O.5.6.5.9.5.0.5.8.!.!./.^.{.{.",
"e r e e 7 6 6 6 6 6 6 6 3 3 3 # # # # # @ @ @ @ @ @ @ @ # # 3 3 3 3 3 3 3 3 4 4 4 4 4 4 4 4 8 8 8 8 8 8 4 4 4 4 8 8 6 7 9 e e l l l l k k k k k k k k l l l l h h h h h h h h u h l j j j j x x x x x x b b b b b b M n n n n m M D F F S S S P P P P U U &.d.Z.D.F.+X#X#X@X*X&X&X&X&X&X=X=X=X=X;X;X;X;X;X;X;X;X;X;X:X:X:X:X:X:X>X>X>X>X>X>X>X>X6X6X6X6X6XyX6X>X>X>X>X>X>X>X>X>X>X>X>X>X>X>X>X>X>X>XyXyXyX6XyX6X>X>X>X>X>X>XyXyXyXyXyXyXyXyXyXyXyXpXyXyXyXyXyXyXpXpXyXyXyXyXyX>X>X:X;X;X;X;X;X;X;X;X;X-X-X&X&X&X-X-X-X=X;X-X;X;X;X;X;X;X-X;X;X;X;X;X;X-X-X=X=X-X=X%X%X*X&X&X&X*X@X%X*X*X*X%X%X*X*X*X%X@X@X%X%X%X%X%X%X%X%X%X%XP.P.P.P.P.OXOXP.P.P.P.P.P.P.P.P.L.L.L.I.P.P.L.L.P.L.L.L.L.L.L.L.L.K.K.L.L.K.K.F.F.F.F.F.F.F.D.D.D.D.D.D.D.D.D.D.D.D.D.D.S.D.Z.Z.Z.Z.Z.m.m.m.m.m.m.m.v.v.v.v.v.c.c.c.c.c.c.c.c.a.a.s.s.=.=.$.$...L L L S F F F F F F L D F v v v v v v v v v v v c v c v v c c z z p p d M [ O.5.8.~./.).{.{.|.{.).).^.^.^.^.).).).).).`.).).`.).`.`.`.`.`.`.`.).).^./.!.C.b./.).{.|.3XdXdXdXdXgXgXgXgXhXhXSXDXDXDXDXDXSXSXMXMXhXhXgXfXdXdXdX0X0X0X3X X|.|.|.}.{.{.~.8.5.+. .} }  .O.+.+.+.+.O.} ] ] q.] ] O.+.5.5.6.5.5.5.8.8.!.!././.",
"e r r e 7 6 6 6 6 6 4 3 3 # # @ # @ @ @ @ @ @ @ @ @ @ @ @ @ # # 3 3 3 3 3 3 4 4 4 4 4 4 8 8 8 8 8 8 8 8 4 4 4 4 8 8 6 7 7 e e l l l l k k k k k W k k k k k l l l l h h h h u u h h j j j j j j x x x x b b b b c b M n n n M m M D D F S S S P P P P U #.&.d.Z.Z.+XoXOX#X@X*X&X&X&X&X&X=X=X=X=X;X;X;X;X;X;X;X;X;X;X:X:X:X:X:X:X>X>X>X>X>X>X>X>X>X>X>X>X6XyX6X:X>X>X>X>X>X>X>X>X>X>X>X>X>X>X>X>X>X>XyXyX6X6XyX6X>X>X>X>XyXyXyX>XyXyXyXyXyXyXyXyXyXpXyXyXyXyXpXyXpXyXyXyXyXyXyX>X>X:X>X:X:X:X;X;X;X;X;X-X-X&X&X&X-X-X-X-X;X;X;X;X;X;X;X;X-X=X;X>X;X;X:X>X;X-X=X-X=X&X*X&X-X&X&X*X%X%X%X*X%X%X%X%X*X*X%X@X@X%X@X@X%X%X%X@X%X%X@XP.P.P.P.P.P.P.P.P.P.P.P.P.P.P.P.L.L.L.P.P.P.L.L.L.L.L.L.L.L.L.L.L.L.L.L.K.K.K.F.F.F.F.F.D.F.D.D.D.D.D.D.D.D.D.D.D.D.D.S.D.D.Z.Z.Z.Z.Z.m.m.m.m.m.m.v.v.v.v.v.v.c.c.c.c.c.c.c.c.a.a.s.s.:.=.$.$...L L L S F F F F F F L D F v M v v v v v v v v c c c c c c z d d d p p d p d m  .+.9.C./.^.`.{.{.).^.^./.^.^.^.^.^.^.^.^.^.^.^.^.^.^.^.^.).).^.^.^.^././.!.8.b.!./.^.{.|.3X0XdXgXhXMXSXDXDXDXDXDXDXDXSXSXMXMXhXhXgXgXfXdXdXdXdXdX0X0X0X3X X X|.|.|.^.!.9.*.+. .} } O.+.+.+.+.+.@.} ] ] [ [ }  .O.+.5.5.+.+.5.9.8.C.!.!.",
"e r r r e 7 6 6 6 6 3 3 # # @ @ @ @ @ @ @ @ @ @ @ @ @ @ @ @ @ @ # # 3 3 3 3 3 3 3 3 4 4 4 4 8 8 8 8 8 4 4 4 4 4 4 4 8 6 6 9 e h l l k k k k W W k k k x x x k k l l l l l h h h h l j j j j k x x x x x b b b b b b M n n n M M M D D D D S S P P P P U #.&.a.Z.F.D.+X#X#X#X*X&X&X=X&X&X=X=X=X=X;X;X;X;X;X;X;X;X;X;X;X:X:X:X:X:X:X:X>X>X>X>X>X>X>X>X>X>X:X6X>X;X;X>X>X>X>X>X>X>X>X>X>X>X>X>X>X>X:X>X>XyX>X>X6X6X6X6X6X6XyXyX6X>XyXyXyXyXyXyXyXyXyXyXpXyXyXyXyXyXyXyXyXyXyX>X>X>X:X:X>X>X>X>X;X;X;X;X;X-X;X&X&X&X-X-X;X;X;X;X;X;X;X;X;X;X;X*X;X>X>X:X;X;X;X;X-X-X=X;X;X=X-X&X&X*X*X*X%X%X%X%X%X%X*X*X%X@X@X@X@X@X@XOXP.P.P.%X@XP.P.P.P.P.P.P.P.P.P.P.P.P.P.P.P.L.U.L.P.P.P.L.L.L.L.L.L.L.L.L.L.L.K.L.K.K.K.F.F.F.F.D.D.D.D.D.D.D.D.D.D.D.D.D.D.D.D.D.D.S.D.Z.Z.Z.Z.Z.m.m.m.m.v.v.v.v.v.c.v.c.c.c.v.v.c.c.c.c.a.a.s.s.:.=.$.$...P L L L F F F F F D D D F M M M v v v v v v c d d d d d d p p p p a a p p a d v ] O.5.8.~./.^.).^././././.^.^.^.^.^././././././.^.^.^.^.^.^.^.^.^.^.^././.!.8.8.!./.).}. XgXhXSXDXFXFXFXFXDXDXDXDXSXSXMXhXhXhXgXgXgXfXdXdXdXdXdXdXdXdXdX0X0X X X|.{.^.b.5.+.O.} | } O.+.+.+.+.O.} ] [ } } O.O.O.+.5.*.+.+.5.5.9.8.C.!.",
"e r r r e e 6 6 4 3 3 # @ @ @ @ @ @ @ @ @ @ @ @ @ @ @ @ @ @ @ @ @ # # # # # # # # # 3 3 4 4 4 4 4 4 4 4 3 3 3 3 4 4 4 8 6 6 9 e l l l l l k W W W W x x W W x k k k l l l l l h h l j j j x x x x x x k z z c c b b M n n n M M M D D D D S S P P P P U U &.a.Z.S.oXoXoX#X#X*X&X&X&X&X&X=X=X=X=X=X=X=X;X;X;X;X;X;X;X;X:X:X:X:X:X;X;X;X:X;X;X;X;X;X>X>X>X:X:X:X-X;X:X:X:X:X:X:X>X>X>X>X>X>X:X>X>X:X>X6X6X6X>X6X6XyX6X6X6X>X:X:XyXyXyXyXyXyXyXyXyXyXyXpXpXyXyXpXyXyXyXyXyXyXyX>X>X:X:X:X:X>X>X>X>X:X:X;X-X-X-X-X-X;X;X;X-X;X;X;X;X-X-X;X;X:X-X-X:X:X;X:X:X:X:X;X-X-X;X:X;X-X&X*X*X*X*X%X@X%X%X%X%X*X%X@X@X@X@X@XOX@XP.P.P.P.@X@XP.P.I.I.I.P.P.P.P.P.P.P.I.I.L.L.L.U.U.P.P.P.L.L.L.L.L.L.L.L.L.K.L.L.L.K.K.K.F.F.D.D.D.D.D.D.D.D.D.D.D.D.D.D.D.D.D.D.Z.Z.Z.Z.Z.Z.Z.Z.m.m.m.v.v.g.g.v.v.c.c.v.c.c.c.v.v.v.c.c.c.a.a.s.s.>.=.$.$...P L L L F F F F D D D D F M M M M v v v v c c d d d d d a a a a a a a a a a a d c L  .;.8.!./././././././././././././././.~././././././.^.^.^.^.^.^.^.^.^./.!.C.!.^.`. XdXgXhXSXDXDXDXDXDXDXDXDXDXSXMXMXhXhXgXgXgXfXfXdXdXdXfXfXfXfXfXdXdXdXdX3X X{.^.~.8.5.+. .| } } O.O.+.+.+.O.} } } @.+.+.*.5.5.5.5.5.5.9.9.8.!.!.",
"e r r r r e 6 6 4 3 # @ @ @ @ @ @ @ @ @ @ @ @ @ @ @ @ @ @ @ @ @ @ @ @ # @ # # # # # 3 3 3 3 4 4 3 3 3 3 # # 3 3 3 3 4 8 6 6 9 e r l l l l k k k k W W W W W W W k k k k k l j l l l j j j j x x z z z z z z z z c b b M n n M M M D D D S S S P P P P U #.&.d.S.D.oXoXoX#X#X&X&X&X&X&X&X&X&X=X&X=X=X=X;X;X;X-X;X;X;X;X;X:X;X:X;X;X;X;X;X>X:X;X=X;X;X;X:X;X;X:X;X;X:X:X:X:X:X:X:X:X>X>X>X>X:X:X:X>X>X>X>X>X6X6X6X6X6X6X6X>X>X>X>X6XyXyXyXyXyXyXyXyXyXyXyXpXyXyXyXyXyXyXyXyXyXyX6X6X:X:X:X6X6X>X:X:X:X:X-X-X-X-X-X-X-X-X;X;X&X;X:X:X:X:X:X:X:X:X:X:X;X:X:X:X:X:X-X-X;X>X:X-X&X&X&X&X&X%X%X*X*X%X%X%X%X%X%X@X@X@XOX@XOXOXOXOXOXOXP.P.I.I.I.I.I.P.P.P.P.P.I.I.L.L.U.U.U.P.P.P.L.L.L.L.L.L.L.L.K.K.K.K.K.K.K.L.L.F.F.D.D.D.D.D.D.D.D.D.D.D.D.A.A.D.D.D.Z.Z.Z.Z.Z.m.m.Z.m.m.m.v.v.v.v.v.v.g.c.c.c.c.c.c.c.c.c.c.c.a.a.s.s.:.=.$.#...P L L F F F F F F D F D F v M v M v v v v c c c d d a a a a a a y a y a a a a a p z v ]  .6.8.!./././././././././././././.^.^.^.^.^.^.^.^.{.{.}.}.}.|.|.|.`./.!.!.~.^.{. X0XdXhXMXSXSXDXDXDXSXSXSXSXMXhXhXgXgXgXgXgXgXgXfXgXgXgXgXgXgXgXfXdXdXdX3X X{.^.!.8.5.O.] } } }  .O.O.+.O.} } } O.0.5.5.5.5.5.5.5.9.9.8.8.b.b.",
"e r e r r e e 6 4 3 # @ @ @ @ @ @ @ @ @ @ @ @ @ @ @ @ @ @ @ @ @ @ @ @ @ @ @ # # # # # # # 3 3 4 3 3 3 3 # # 3 3 3 3 4 8 6 7 e e e l l l l k k k k W W W W W W W x x k k k k k j l l h h j j j j j z z z z z z z z c b b n n n n M D D D S S S S P P P U U &.c.S.D.oXoXoX#X#X&X&X&X&X&X&X&X&X&X&X&X&X=X=X;X;X;X;X;X;X;X;X;X;X;X;X;X;X;X;X:X;X=X=X;X;X-X-X;X;X;X;X:X:X:X;X;X;X;X;X:X:X:X:X:X:X>X>X:X:X>X>X>X>X>X>X>X:X:X:X>X>X>X>X>X6XyXyXyXyXyXyXyXyXyXyXyXyXyXyXyXyXyXyXyXyXyXyX6X:X:X:X6X6X>X:X:X:X:X-X-X-X-X-X-X-X-X:X>X@X;X:X6X6X6X>X>X>X>X>X:X:X:X:X:X:X:X:X-X-X:X:X-X-X&X&X&X&X&X&X*X*X%X%X%X%X%X%X@X@X@XOX@XOXOXOXOXOXP.P.P.P.I.I.I.I.P.P.P.P.P.I.L.U.L.U.U.U.P.OXoXL.L.L.L.L.L.L.L.K.K.K.K.K.K.K.L.L.F.F.D.F.D.D.A.D.A.D.A.A.A.A.A.A.A.Z.Z.Z.Z.Z.Z.Z.m.m.m.m.m.m.v.v.v.v.g.g.g.g.c.c.c.c.c.c.c.c.c.h.a.a.s.s.:.=.$.#...P L L F F F F F F F F D F v v v v v v v g c c c d d a a a y y y y y y a a i a a a p p z v  .*.9.C.!./.^.^.^.^.^.).`.`.`.`.`.{.{.{.}.}.}.}.|.|.|.|. X X X X|.)./.!.!.!./.`.|. X0XdXfXhXMXMXSXSXSXSXSXMXMXhXhXgXgXgXgXgXgXgXgXgXgXgXgXgXgXgXdXdXdX3X3X X{.^.!.9.+.} } | } | } } }  .O.O.@.O.5.5.9.9.5.6.5.5.9.8.!./././.",
"e e r r e r e 6 6 3 # @ @ @ @ @ @ @ @ @ @ @ @ @ @ @ @ @ @ @ @ @ @ @ @ @ @ @ # # # # # # # # 3 3 3 3 # # # # # # 3 3 4 4 8 6 7 e e r l l l l k k k k W W W W Q Q Q Q Q Q Q k k k l j j h j j j j j j j z z z z z z z c c c n n n M D D S S S S S P P P U #.%.c.Z.D.oX+X+X#X#X&X&X&X&X&X&X&X&X&X&X&X&X=X=X;X;X;X;X;X;X;X;X;X;X;X;X;X;X;X;X;X:X-X-X-X-X-X-X=X;X;X;X-X-X-X-X-X-X-X-X=X;X:X:X:X:X>X>X:X:X>X>X>X:X>X:X:X;X:X:X:X>X>X>X6X6X6X6XyXyXyXyXyXyXyXyXyXyXyXyXyXyXyXyXyXyXpXyXyX6X:X6X6X6X>X:X:X:X:X-X-X-X-X-X-X-X-X-X:X6X-X6X6X>X>X>X6X6X6X6X>X:X>X:X:X>X>X:X;X-X;X:X-X-X&X&X&X&X&X&X*X*X%X%X%X%X@X@XOXOXOXOXOXOXOXP.P.P.P.P.P.P.P.P.I.I.I.P.P.P.P.I.L.L.L.L.L.L.L.P.L.oXL.L.L.L.L.L.L.K.K.K.K.K.K.K.L.F.F.F.D.D.D.D.D.D.A.A.Z.A.Z.Z.A.A.Z.Z.Z.Z.Z.Z.Z.Z.Z.m.m.m.m.m.v.v.v.v.g.g.g.g.c.c.c.c.c.c.c.c.c.a.a.a.s.i.:.=.*.$...L L L F F F F F F F F F F M v v v v v v g c c d d d a i a y y y y y y i a a a a a p p p d M ] O.5.8.!././.).{.{.{.|.|.|.|.|.|.|.|.|. X X X3X3X3X3X X X3X3X|.{.^.!.C.C.!.~.`.{.|. X0XdXgXhXhXMXSXSXMXMXMXhXhXhXhXhXhXhXgXgXgXgXgXgXgXgXgXgXfXdXdXdX0X3X|.{./.8.6.+.} [ ] ] ] ] ] [ } } O.+.5.9.8.8.8.9.5.5.9.8.!./.^.`.",
"e r e e e r e 7 6 3 3 # @ @ @ @ @ @ @ @ @ @ @ @ # # # # # @ @ @ @ @ @ @ @ @ # # # # # # # # # # # # # # @ @ # # # # 3 4 8 6 7 e e e l l l l k k k k W W W W Q Q Q Q Q Q ~ Q b b k k l j l j u i i j p p p j j j j j z z c c v n M D D S S S S S S G P U #.%.c.Z.D.oX+X#X#X#X*X*X&X#X&X&X&X&X&X&X&X&X=X=X;X;X;X;X;X;X;X;X;X=X;X;X;X;X;X;X;X-X=X-X&X&X-X-X=X=X=X=X-X-X-X-X-X-X-X-X-X-X;X;X:X:X>X>X:X:X>X>X:X;X:X;X;X;X;X;X;X;X>X>X>X>X>X6XyXyXyXyXyXyXyXyXyXyX6X6XyXyXyXyX>XyXpXyXyXyXyX6X6X6X6X:X:X:X:X-X-X;X-X;X-X-X-X-X-X6X6X6X6X>X>X>X6X6X6X6X6X6X6X:X:X>X>X>X:X-X-X;X-X-X-X&X&X&X&X&X*X*X%X%XOXOXOXOXOXOXOXOXOXP.P.P.P.P.P.P.P.P.P.I.I.I.I.I.I.I.P.L.L.L.L.L.L.L.L.L.L.L.L.L.L.L.L.K.K.K.K.K.K.K.K.K.L.L.F.F.D.D.D.D.D.D.D.A.A.A.A.A.A.A.A.Z.Z.Z.Z.Z.Z.Z.Z.m.m.m.m.m.v.v.v.g.g.g.g.g.c.c.c.c.c.c.c.d.c.a.a.a.s.i.>.=.*.$...P L F F F F F F F F F F F M v v v v v v g c c d d d a a t y y y y t t y y t t a a a a p p a z m } ;.6.8.!./.).{.|. X|. X X X X X X X X X X X X X X X X X X|.|.{.^.!.C.C.C.~.^.`.{. X0XdXgXgXhXhXhXMXMXMXMXhXhXMXMXMXhXhXhXhXgXgXgXgXgXgXgXgXdXdXdXdX3X X|.^.!.8.5.+.} ] ] ] q.m M } ] } 5.5.8.!.!.~.8.5.+.;.9.8./.^.^.",
"e e e e e e e 6 6 4 3 3 # # # # # # # # # # 3 3 3 3 3 3 3 # # # @ @ # # # # # # # # # # # # # # # # @ @ @ @ @ @ # # 3 4 4 6 7 w e e r l l l l k k W W W W W Q Q Q Q Q Q Q ~ ~ ~ Q b k j j i i u i i i i p p p p p p j z z c v v M F D S S S S S S P P U #.%.c.Z.F.oXoX#X#X#X*X&X%X%X%X%X*X*X&X&X&X&X=X;X;X;X;X;X;X;X;X=X=X-X=X=X-X;X;X;X;X=X=X-X&X&X-X-X-X-X&X&X&X-X-X-X-X-X-X-X-X-X-X;X:X:X:X:X:X>X>X:X:X;X;X;X;X;X;X-X;X;X-X;X;X:X>X>X6X6X6X6X6X6XyXyX6X6X6X6X6XyX6XyXyXyXyXyXyXyXyXyXyX6X6X6X:X:X:X;X;X;X;X;X;X;X-X-X-X6X6XyXyXyXyXyX6X6X6XyXyX6X6X:X:X>X6X6X>X;X;X;X-X:X:X-X&X&X&X&X&X%X#XOXOXOXOXOXOXOXOXP.P.P.P.P.P.P.P.P.I.I.I.I.I.I.L.L.L.L.I.L.L.L.L.L.L.L.L.L.L.L.L.L.L.L.L.L.K.F.F.F.F.F.F.F.F.F.F.D.D.D.D.D.D.D.D.D.S.Z.A.Z.A.A.A.A.Z.Z.Z.Z.Z.Z.Z.m.m.m.m.v.v.v.g.g.d.g.g.g.c.c.c.c.c.c.c.d.c.a.a.a.s.i.>.=.=.#.P P L F F v F F F F F F F F F M v v v v g c c c d p p a a y y t t 1 1 t y y y y y y i i a a a a a z ]  .5.9.C./.^.^.{.|. X|.|. X X3X X X X X X X X X X X X X|.|.{.).^.!.C.C.!./.^.).}.|.3X0XdXgXgXhXhXhXhXMXSXSXSXSXMXMXMXMXhXhXhXhXhXgXgXgXgXfXfXjXdXdX0X X}.^.!.8.5.+.} ] ) m m m ] [ +.9.8.!.^.^./.b.5.+.5.6.8.!./.^.",
"w e e e e 6 6 6 6 4 4 3 3 # 3 3 3 3 3 3 3 4 4 4 3 3 3 3 4 4 3 3 # # 4 4 3 # # # # # # # # # # # @ @ @ @ @ @ @ @ @ @ # 4 4 6 6 7 e e e h l l l k k k k W W W Q Q b b Q Q Q Q ~ ~ ~ Q b k j j u u i i i i a a p p p p j j z z c n F D D F S S S S S G P P #.%.g.Z.F.oXoX#X@X#X&X%X%X@X#X#X*X*X*X*X&X&X=X;X;X;X;X;X;X=X=X-X-X-X-X-X-X=X-X;X;X=X=X-X&X#X-X=X;X;X-X&X-X-X-X-X-X-X;X;X;X;X;X;X;X;X;X;X;X;X:X:X;X;X:X:X;X;X;X-X-X-X-X-X-X;X;X:X>X:X:X:X6X:XyX>X6X6X6X6X6X>XyXyXyXyXyXyXyXyXyXyXyXyX6X6X:X:X:X6X6X;X6X-X-X;X:X;X;XyX:XyXyXyXyXyX6X6XyXyXyXyXyX6X>X>X6X6X>X;X-X;X-X:X:X-X&X&X&X&X%X%XOXOXOXOXOXOXP.P.P.P.P.P.P.P.P.P.P.P.I.I.I.I.I.I.L.L.L.L.L.U.L.L.L.L.L.L.L.L.L.L.L.L.L.K.L.K.F.F.F.F.F.F.F.F.F.F.F.F.F.F.F.D.D.D.D.D.D.Z.Z.Z.Z.Z.Z.Z.Z.Z.Z.Z.Z.Z.Z.m.m.m.m.v.v.v.g.g.d.g.d.d.c.c.c.c.c.c.d.d.c.a.a.a.s.i.>.=.&...P P L S F Z F F F F F F v v F F v v v g c d c d d p a a a y t t 1 1 1 1 t t t t y y t y i a a a a a g m ]  .5.8.!./.^.`.{.|.|.|. X X3X X X X X X X X X X X X|.|.}.{.)./.!.C.C.!./.^.`.{.|. X0XdXgXgXhXhXMXMXMXSXSXSXSXSXMXMXhXhXhXhXhXhXgXgXfXfXfXfXfXdX0X0X X}.^.!.8.5.+.} | ] ) m ] } +.6.9.!.^.^./.!.9.5.5.9.8.!./.^.",
"6 6 6 6 6 6 6 6 6 6 6 6 3 3 3 3 3 3 3 4 4 8 6 6 6 4 4 4 8 8 4 4 4 4 4 4 4 3 3 # # # # # # # # # # # @ @ @ @ @ @ @ @ @ 3 4 8 6 7 e e h h l l l l k k k W W W W W b b Q Q Q Q ~ ~ ~ ~ ~ b x j i i u u u i a i p p p p j j z z c M D D F F S S S S S G P P #.%.c.S._.oXOX#X#X#X#X#X%X@X#X#X%X%X*X*X&X=X-X;X;X;X;X=X=X&X&X&X&X#X#X#X&X&X&X-X=X-X&X#X#X&X-X-X;X-X-X&X&X&X-X-X-X-X;X;X;X;X-X-X-X;X;X:X:X:X:X:X:X;X;X;X;X;X;X-X-X-X-X-X-X-X:X:X:X:X:X:X:X:X6X>X:X6X6X>X>X=X:X;XyXyXyXyXyXyXyXyXyXyXyX6X6X:X:X6X6X;X6X-X-X:X6X:X;XyX:XyXyXyXyXyXyXyXyXyX6X6X6X6X6X6X>X:X:X-X-X:X-X;X;X-X&X&X&X*X%XOXOXOX@XOXOXP.P.P.P.I.I.I.I.I.L.L.I.I.I.I.I.I.I.I.L.L.L.L.L.L.L.L.L.L.L.L.L.L.L.L.L.L.K.D.D.F.F.F.F.F.D.D.D.D.F.F.F.F.F.D.F.D.D.D.D.D.D.S.Z.Z.Z.Z.Z.Z.Z.Z.Z.Z.Z.Z.m.m.m.m.m.m.v.v.g.g.g.g.d.d.c.c.c.c.c.c.d.d.c.x.x.a.s.s.=.=.$.P P P L S F g F F F F F F v v M D v v v g c d c d p a a a t t t 1 1 B B B t t t t t t y y t t i i i a p z c m } 5.9.C.~.^.).{.}.|.|.|. X X3X3X3X3X X3X X X X X X|.|.{.`.)./.!.C.C.!./.^.).`.}.|.0XfXgXgXhXhXMXSXSXSXSXSXSXMXMXMXMXhXhXhXhXhXgXgXgXgXgXfXfXdX0X3X X{.^.!.8.5.+.O.} | ] } +.5.8.C./.^.)./.!.8.9.5.6.8.!./.^.",
"6 6 6 6 6 6 6 6 6 6 6 6 8 8 8 8 8 8 8 8 6 8 6 6 6 6 6 6 6 8 8 8 8 8 8 8 8 4 4 3 3 3 3 3 3 3 3 3 # # # # @ @ @ @ @ @ # 3 4 8 6 7 w e e e h h l l k k W W W k W W Q b Q Q Q Q ~ ~ ~ ~ ~ ~ b j j i u u u u i i p p p p j j j z c M D D F F F S S S S S P P #.%.c.S.oXoXoX#X#X#X#X#X%X@X@X#X@X@X*X*X&X=X-X-X;X=X=X&X&X*X*X*X&X#X#X#X#X@X#X&X-X#X#X#X#X-X=X=X-X&X&X*X&X&X-X-X-X-X-X;X;X-X=X;X=X-X-X=X;X:X-X-X;X;X;X;X;X;X;X-X-X-X-X-X;X:X>X>X:X;X;X;X:X;X:X:X>X>X>X:X;X;X&X=X6XyXyXyXyXyXyXyXyXyXyX6X6X6X:X:X:X:X:X6X:X:X6X:X:XyX:XyXyXyXyX6X6XyXyXyX6X>X6X6X6X6X>X:X;X-X-X:X-X-X-X-X-X&X&X%XOXOXOXOXP.OXP.P.P.I.I.I.I.I.L.L.L.L.L.I.I.I.I.I.I.I.L.L.L.L.L.L.L.L.L.L.L.L.L.K.K.K.K.F.F.D.F.F.F.F.F.F.D.D.D.D.D.F.D.F.F.D.D.D.D.D.D.D.Z.Z.Z.Z.Z.Z.Z.Z.Z.Z.Z.Z.Z.Z.Z.m.m.m.m.m.m.v.g.g.g.g.g.d.c.c.c.c.d.d.d.d.c.x.a.a.a.s.=.=.$.P S S F S F g F F F F F F v v v F v v v c c d d d p a a a t t 1 1 1 B B B 1 1 t t t t t t y y t t y a p p z N g ] +.9.8.!.^.`.{.}.}.|.|.|. X X3X3X3X3X X X X X X|. X|.{.`.)./.!.C.C.!././.^.`.}.|.0XdXgXgXhXhXSXSXSXSXSXSXSXMXMXMXMXhXhXhXhXgXgXgXgXgXfXfXfXdX0X3X X{.^.!.8.5.+.O.O.} *.6.9.!./.^.).^./.!.8.9.5.6.8.!./.^.",
"6 6 6 6 6 6 6 6 6 6 6 6 8 8 6 6 8 8 6 6 6 6 6 6 6 6 7 7 6 6 6 6 6 6 6 6 6 8 8 4 4 4 4 4 4 4 4 4 4 4 3 3 # # # # @ @ # 3 4 6 7 7 w e e e e l l l l k k W W W W W x x Q Q Q ~ ~ ~ ~ ~ ~ ~ b k j i u u i u i i p p p j j j j z c n m D F F F S S S S G P P #.%.c.D.F.L.OX#X#X#X#X#X#X#X#X@X#X#X#X#X&X-X;X;X=X-X&X#X#X@X#X#X#X#X#X@X#X#X@X-X-X@X#X#X@X#X-X&X&X#X&X&X&X@X&X&X&X-X-X-X-X-X-X-X-X-X-X-X=X;X-X@X&X;X;X;X-X;X;X-X&X&X-X-X;X:X>X>X:X;X;X;X;X;X:X;X:X>X>X>X:X:X:X;X:XyX6X6X6X6XyXyXyXyXyXyX6X6X:X6X6X6X:X6X6X:X6X:X:XyX6X6XyXyXyX6X6XyXyXyX6X:X6X:X6X6X:X;X-X-X-X-X-X-X&X-X&X&X*X%XOXOXOXOXOXOXOXP.I.I.I.I.I.I.L.L.L.L.I.I.L.L.I.L.I.I.L.L.L.L.L.L.L.L.L.L.L.L.L.L.K.F.F.F.D.D.D.D.F.F.F.F.D.D.D.D.D.D.F.F.F.D.D.F.F.D.S.Z.Z.Z.Z.Z.Z.Z.Z.Z.Z.Z.Z.Z.S.Z.Z.Z.m.m.m.m.m.v.g.g.g.g.g.d.c.c.d.d.c.d.d.h.c.d.d.d.a.s.=.&.$.P S S S Z F g F F F F F F g v v F F v v g c d d d a a a a y t 1 B * * B B B B 1 1 1 1 t t y y t t y y y a p p z z M | 5.9.C.!.^.`.}.|. X X X X X X3X X3X3X3X X X X X|.}.}.{.`.^./.C.8.!././.^.`.{.|.3XdXfXhXhXhXSXSXSXSXSXSXSXSXMXMXhXhXhXhXgXgXgXgXgXgXfXfXdXdX0X3X X{.^.^.!.8.9.9.9.8.!.!./.^.{.`.^.!.!.C.8.5.6.8.b./.^.",
"6 6 6 6 6 6 6 6 6 6 6 6 8 8 6 6 8 8 6 6 8 8 6 6 6 6 7 7 6 6 6 6 6 6 6 6 6 6 6 8 8 4 4 4 4 4 8 8 4 4 4 4 4 4 # # # # 3 4 4 6 7 7 w e e e e l l l l k W W W W W W x x Q Q Q ~ ~ ~ ~ ~ ~ ~ b x j j i i i i p j j j z z z z z z b n m F F D F F S S G S P P #.%.c.D.L.L.OX#X#X#X#X#X#X@X@X@X@X#X@X#X&X=X;X=X-X&X#X#X#X@X#XOXP.OX#X@X#X#X@X#X&X@X#X#X#XOXOXOXOXOX&X&X@X#X#X#X#X&X-X&X#X-X-X@X&X:X-X-X#X=X=XOX#X-X;X-X-X-X-X-X&X&X&X-X-X;X:X:X;X;X;X-X;X;X;X-X;X;X>X>X:X:X:X;X:XyX:X:X:XyXyXyXyXyXyXyX6X6X:X6X6X;X6X:X:X;X6X:X6X:X6X6XyXyXyX6X6XyX6X6X6X-X6X:X:X6X;X;X-X-X-X-X-X&X&X-X&X&X*XOXOXOXOXOXOXOXP.I.I.I.I.I.I.U.L.L.L.L.I.I.L.L.L.L.I.L.L.L.L.L.L.L.L.L.L.L.L.K.L.K.F.F.F.F.D.D.D.D.F.F.D.D.D.D.D.D.D.D.D.D.D.D.D.F.D.D.Z.Z.Z.Z.Z.Z.Z.Z.Z.Z.Z.Z.Z.Z.S.Z.Z.Z.m.m.m.m.m.v.g.g.g.g.g.d.c.c.d.d.d.d.h.a.c.c.d.d.a.s.=.&.$.S G S S Z F g F F F F F F g v v v F v v g c d d d i a a y t B B B * * B B B B B B 1 B 1 1 t t t t t t y i t a p d z c ] +.6.8.!./.^.{.{.|. X X X X X X3X3X3X3X X X X X X|.}.{.`.^./.!.C.!.~./.^.`.{.|.3X0XdXgXgXhXMXSXSXMXSXMXSXSXMXMXhXhXhXgXgXgXgXgXgXfXfXfXjXdXdX3X|.{.{.^.~.!.!.!.!./.^.^.|.{.)./.!.!.!.!.9.9.8.8.~./.",
"6 6 6 6 6 6 6 6 6 6 6 6 8 8 8 6 8 8 6 6 8 8 8 8 6 6 6 6 6 6 6 6 6 6 6 6 6 6 6 8 8 4 8 8 8 8 8 8 8 8 8 8 8 4 4 4 4 4 4 8 6 6 7 7 w w e e e h h h l l k W W W W W x W W W Q Q ~ ~ ~ ~ ~ ~ b x z j j j j j j z z z z z c c b b n m m M F D F S S S S S P P #.%.n.D.L.oXOX#X#X#X@X#X#X@X@XY.@X@X#X#X&X;X=X&X&X#X@X#X#XOXOX#X@XOXOXOXOXOXOXOX@X#X#X@X#X#X@X#X@XOXP.OX#X*X&X*X%X@X@X&X&X#X#X@X@X&X@X-X#X#X@XA.P.@X&X-X-X&X&X*X%X*X&X-X;X;X;X-X;X;X;X;X;X;X:X-X-X=X:X:X:X:X:X:X:X:X-X:X6X:X6XyXyXyX6X6X6X:X;X;X-X;X-XyXyX;X6X;X;X:XyX6X6X6X6X:X>X6X6X6X6X6X-X:X6X:X-X;X-X-X-X-X-X&X&X&X&X&X%XOXOXP.OXOXP.P.I.I.I.I.I.U.U.U.U.U.U.U.L.L.I.L.L.L.I.L.L.L.L.L.L.L.L.K.K.J.J.K.K.D.F.F.F.F.D.D.D.D.D.D.D.A.A.A.D.A.A.A.A.A.A.D.F.D.D.S.Z.m.m.m.m.m.Z.Z.Z.Z.Z.Z.Z.Z.Z.Z.Z.Z.m.m.m.m.m.v.g.g.g.g.d.d.c.c.d.d.d.d.d.a.c.a.a.x.a.s.=.&.$.P G S S Z v g F F F F F F v v v v F v v v g c d a a y a y t B * B * * * * * * * * B B 1 1 t t t t t t y y y t a a p p c D  .5.8.b.!./.^.{.}.|.|.|. X X X X3X X X X X3X X X|.}.{.`.^./.!.C.!.~./.^.`.{.|.|.3X0XdXgXgXhXhXMXMXMXMXSXSXMXhXhXhXhXgXgXgXgXgXfXfXfXfXjXdX0X X X X{.`.^.^.^.^.{.{.{. X{.^.~.~.~././.C.8.9.8.C./.",
"6 6 6 6 6 6 6 6 6 6 6 6 8 8 6 6 8 8 6 6 8 8 8 8 6 6 6 6 6 6 6 6 6 6 6 6 6 6 6 8 8 8 8 8 8 8 6 6 6 6 6 6 8 8 8 8 8 8 8 8 6 6 7 7 w w e e e e h h l l k k W W W W x W W W b Q ~ ~ ~ ~ ~ ~ ~ b x z j j z z z c b b b b b b b n ! m m D D D F S S S S S P P #.%.c.D.L.oXOX@X@X@X@X@X@X@X@XY.@X@X#X#X&X-X-X-X#X@X#X@XOX@X#XOXP.P.P.P.OXOXP.L.L.@X#X@XOXP.L.U.K.L.P.@XOXP.OX#X@X@X@X#X#X@X@X#XP.U.OXOXP.U.#XU.K.L.#X@X*X@X%X%X%X&X&X-X;X-X-X-X-X;X;X;X;X;X:X-X&X-X;X:X:X:X:X;X;X-X-X:X:X6X6XyX6X6X6X6X:X:X;X;X-X-X;X6XyX-X:X-X;X;X6X6X6X6X:X6X6X6X6X6X6X6X-X:X:X;X-X;X-X-X-X-X-X&X&X&X&X*XOXOXP.P.P.P.P.I.I.I.I.I.I.U.U.U.U.U.U.U.U.L.L.L.I.I.I.L.L.L.L.L.L.L.L.J.J.D.D.A.A.D.D.D.D.D.D.D.D.D.D.A.A.Z.A.A.A.A.A.A.A.Z.Z.D.D.D.A.S.Z.m.m.m.m.m.m.Z.Z.Z.Z.Z.Z.Z.Z.Z.Z.Z.m.m.m.m.v.v.g.g.g.g.g.d.c.c.d.d.d.d.d.a.c.a.a.x.z.s.=.&.#.P G S S F v v v F F F F F g g v v v v v v g c d a a y y t 1 B B B * * * * * * * * B B 1 B t 1 t t t t y y y y a y a a p c M ] +.5.8.b.~.^.).{.}.|.|.|. X X X X X X3X3X3X3X X|.}.{.`.^./.!.C.!.!.~.^.`.{.}.|. X0XdXdXfXgXgXhXhXMXMXSXSXMXhXhXhXgXgXgXgXgXgXfXfXfXfXjXdX0X0X0X X X|.|.{.{.|. X X{.^././././.^.^.~.C.8.8.C.!.",
"6 6 6 6 6 6 6 6 6 6 6 6 6 6 6 6 6 8 8 8 6 6 6 6 6 6 6 6 6 6 6 6 6 6 6 6 6 6 6 6 8 8 8 8 6 6 6 6 6 8 7 7 7 7 7 7 7 7 7 7 8 8 7 7 9 9 7 7 7 e h l l l l k k k k k k k b b W Q ~ ~ ~ ~ ~ b b b b z x x b b b b n n n b b b n ! ! ) ) ) ) S [ S P S S S G P U %.v.D.L.oXOXOXOXOXP.@XY.@XOXOX#X#X#X#X&X&X#X@XL.P.#X#XL.L.#XP.#XL.A.A.J.A.A.L.#X#XL.L.L.L.L.L.J.K.L.OXOXOXOXOX#X#XOXL.#XOX@XOXOXK.L.#XP.A.J.M.M.A.L.OXP.OX@X#X#X#X&X-X-X-X-X-X-X-X&X@X-X-X=X=X#X&X=X;X;X;X;X-X-X-X-X:X:X-XyX6X-X;X;X;X:X;X;X;X-X-X-X6X6X-X-X;X;X;X;X:X>X6X>X6X6X:X:X:X:X:X:X;X;X;X-X-X-X-X-X-X&X&X%X%X%X#XOXOXI.I.I.I.I.I.L.L.I.I.I.U.U.U.U.K.K.K.K.K.U.U.L.L.L.L.U.K.K.K.K.L.K.D.D.D.D.D.D.D.D.D.D.A.D.D.D.D.A.Z.Z.Z.Z.Z.Z.Z.Z.Z.Z.Z.Z.S.S.S.Z.S.S.Z.Z.Z.Z.Z.Z.Z.Z.Z.Z.Z.Z.Z.Z.Z.Z.m.m.m.m.m.v.v.c.g.d.d.d.d.c.c.c.d.c.c.d.d.d.d.d.c.a.s.=.&.#.G G S F F g g g v F F F g g g g g g v v v v g d s a y y t 1 1 1 * * * * : * * : : : : : : t t t t t t t t y y y y y t i p c v M | 5.8.C.!.^.`.{.{.|. X X X X X X X X3X3X3X X X|.|.{.{.^.^./.!.C.!./././.^.{.|. X X0XdXgXgXgXhXMXMXSXSXMXMXhXhXhXhXgXgXgXgXgXgXfXfXfXdXjXdXdXdX0X0X0X0X X X|.{.).^./.^.^.^.^.`.)./.C.8.b.!.",
"6 6 6 6 6 6 6 6 6 6 6 6 6 6 6 6 6 6 8 8 8 8 6 6 6 6 6 6 6 6 6 6 6 6 6 6 6 6 6 6 8 8 8 6 6 6 6 6 6 8 7 7 7 7 7 7 7 7 7 7 8 8 7 7 9 7 7 7 7 e h h l l l l k k k k k k b b k Q ~ ~ ~ ~ ~ ~ b b b b b b n n ~ ~ ~ ~ n n n n ! ! ) ) ) [ [ [ [ L L P S S G P #.%.v.F.L.oXOXOXOXOXP.P.P.Y.OXOX#X#X@X@X@X@X#X#X#X#XOXL.OX#XL.OXD.A.L.A.m.D.L.K.L.L.L.L.A.F.D.Z.A.D.L.OXD.D.D.K.L.A.M.A.A.L.A.J.D.j.L.M.L.A.L.A.m.K.m.K.L.P.OX#X@X@X#X#X#X-X&X-X-X-X@X#X#X#X#X#X#X#X&X=X-X-X-X-X&X-X-X:X:X:X6X:X-X-X-X-X;X;X;X-X-X-X#X6X6X-X-X;X;X;X;X;X;X-X:X:X:X;X:X;X-X;X;X-X-X-X-X-X-X&X&X&X%X%X#X#XOXOXOXOXI.I.I.I.I.U.U.U.U.U.U.U.K.U.U.K.K.K.K.K.K.K.U.U.U.K.K.J.D.D.D.D.D.D.D.D.D.A.A.A.D.D.A.Z.Z.Z.Z.Z.Z.Z.Z.Z.N.N.N.N.M.M.M.M.m.m.m.m.Z.Z.S.A.Z.Z.Z.Z.Z.Z.Z.Z.Z.Z.Z.Z.Z.Z.m.m.m.m.m.m.v.v.c.c.d.d.d.d.c.c.c.c.c.c.d.d.d.d.d.d.z.s.=.&.#.G S S F F g g g v F F v g g g g g g g v v v g d s a t t 1 1 : * * * * : : : : : : : : : : 1 t t t t t t t y y y y y t t i p p z M ]  .5.8.!.~.^.`.{.{. X X X X X X3X3X X3X3X3X X|.|.{.`.).).^.!.C.!.~.~./.).`.}.|. X X0XdXgXgXhXMXMXSXMXMXMXMXhXhXhXhXgXgXgXgXfXfXfXgXgXgXfXdXdXdXdXdX3X X}.^.^.^.^.^.^.).`.{.`.^.!.b.b.C.",
"4 6 6 6 6 6 6 6 6 6 6 6 6 6 6 6 6 6 6 6 8 8 8 6 6 6 6 8 6 6 6 6 6 6 6 6 6 6 6 6 6 6 6 6 6 6 6 6 6 6 7 7 7 7 7 7 7 7 7 7 7 7 7 7 7 7 7 7 7 e h h l l l l l l k k k k k k k W ~ ~ ~ ~ ~ ~ ~ b b b n n n n ~ ~ ! ! ! ! ! ! ) ) { { { | | [ [ [ P P P S G G #.i.v.F.L.oXoXOXP.P.OXOXP.OXOXOX#X#X#X#X#X#X#XP.L.L.L.L.F.m.A.m.Z.F.m.k.D.F.A.k.A.A.A.A.A.m.m.A.A.D.K.K.K.K.K.K.m.A.M.k.A.m.D.m.k.u.f.A.k.k.A.f.t.m.k.K.oXL.L.L.OX#XOXOX#X#X#X#X&X#X#X#XOX#X#X#X#X#X#X&X&X-X&X&X&X-X-X;X:X:X-X-X-X-X-X-X-X-X;X-X-X-X-X:X;X-X-X-X-X-X-X-X-X&X;X;X;X-X:X-X-X-X-X-X-X-X-X&X&X%X%X#X#X#X@XOXOXOXOXOXI.I.I.L.U.U.U.U.U.U.U.K.K.J.J.J.J.J.J.J.K.K.K.K.K.J.K.J.D.D.D.A.D.A.A.A.A.A.A.A.D.A.Z.m.m.m.m.m.m.m.m.m.m.m.m.m.m.m.m.m.m.m.m.m.m.Z.Z.Z.Z.Z.Z.Z.Z.Z.Z.Z.Z.Z.Z.Z.Z.Z.m.m.m.m.m.m.v.v.c.c.g.g.d.d.c.c.c.c.c.c.c.d.d.d.d.d.z.s.=.%.#.P S S F Z g g g F F F g g g g g g g g g g g v d s a : : : : : * * * * * * * * * * * * : : : : t t t t 1 1 y y y y y a t a a a a d c M [ +.9.8.!.^.^.{.{.|. X X X X X X X X X3X X X|.|.{.{.`.`.^./.!.!.~.~./.^.`.{.}.|. X0X0XfXgXhXhXhXMXMXMXMXMXhXhXhXhXgXgXgXgXgXgXgXgXgXgXgXfXdXdX0X|.}.`.^.^.^.^.^.`.{.{.}.{.^.!.b.8.b.",
"4 6 6 6 6 6 6 6 6 6 6 6 6 6 6 6 8 8 8 8 4 4 4 4 8 8 8 8 8 8 8 6 8 8 8 8 6 6 8 8 8 8 8 8 8 6 6 6 8 6 8 7 7 7 7 7 7 7 7 7 7 7 7 7 7 7 7 7 7 7 h h h l l l l l l k k k k k k k b ~ ~ ~ ~ ~ ~ b b n n n ! ! ~ ~ ! ! ! ! ! ! ) ) { { } | | [ [ [ ..P P G G G #.i.v._.oXL.L.P.P.P.OXOXP.P.OX#X#X#X#X#X#XOXoXL.K.D.m.k.m.Z.m.m.m.f.g.m.A.m.m.m.D.D.Z.m.k.m.Z.Z.D.D.D.A.F.F.F.F.D.Z.m.m.A.D.A.A.D.A.f.g.f.g.A.f.p.p.f.j.L.L.K.D.D.L.OX#X#X#X#X#X#X#XOXOX@X@X@X@XOX#X@X#X@X*X&X%X&X&X-X;X:X:X#X-X-X-X-X-X-X-X-X-X-X#X;X-X-X-X-X-X-X-X-X-X-X;X-X:X;X-X-X-X-X-X-X-X-X-X#X#X%X#X@X#XOXOXOXOXOXOXOXP.I.I.I.L.L.U.U.U.U.U.K.K.K.J.K.K.K.K.K.K.K.K.K.K.J.J.J.J.D.D.D.D.D.A.A.A.A.A.A.A.A.Z.M.m.m.m.m.m.m.m.m.m.m.m.m.m.m.m.m.m.m.m.m.m.m.m.m.Z.Z.Z.Z.Z.Z.m.m.m.m.Z.Z.Z.Z.Z.m.m.m.m.m.m.v.v.c.c.g.d.d.d.c.c.c.c.d.d.d.d.d.d.d.d.z.s.=.%.U P S S F Z g g g F F g g g g g g g g g g g g c d s a : : : * * * * * = * * * * * * * * * * * * : 0 : t 1 1 1 t y y y y t t i a a a a a c L } ;.9.C.!./.`.{.}.}.|.|. X X3X3X X3X3X X X|.}.{.{.{.`.^./.~.!.!.~./.^.`.`.{.|. X X0XdXgXgXhXhXhXMXMXMXMXMXMXhXhXgXgXgXgXgXgXgXgXgXgXfXdX3X|.{.^.^.^.).^.).`.{.}.|.|.}.`.~.C.8.b.",
"3 4 4 4 6 6 6 6 6 6 6 6 4 4 4 4 8 8 8 6 4 4 4 4 8 6 6 6 8 8 8 8 8 8 8 8 8 8 8 8 8 8 8 8 8 8 8 6 8 8 6 7 7 7 7 7 7 7 7 7 7 7 7 7 7 7 7 7 7 7 h h h l l l l l l l k l k k k k b b ~ b ~ b ~ ~ ~ ~ ~ ~ ~ ~ ~ ~ ! ! ! ! ) ) ) ) { { { { | [ [ [ ..P P G G G U i.v.F.oXL.L.L.P.P.P.P.P.P.P.OXOX#X#XOX+XK.K.D.u.p.f.m.c.c.c.c.g.g.g.g.Z.Z.Z.Z.Z.m.g.y.f.g.Z.m.A.D.F.F.m.Z.D.m.M.Z.A.f.j.m.M.m.A.m.f.m.y.T g.y.d.t.t.f.j.m.A.D.A.M.D.m.K.K.oX+XoXOXOXL.OX#X#XL.OXK.#XP.#X@X%X*X&X&X-X;X;X:X-X-X-X-X-X-X-X-X-X-X-X&X-X-X-X-X-X-X-X-X-X-X-X;X-X;X-X&X-X&X&X-X&X&X-X&X#X#X#XOXOXOXOXOXI.I.I.OXOXOXI.I.L.L.L.L.U.U.K.J.K.K.K.K.K.A.A.A.A.A.A.D.D.A.A.A.D.F.K.K.K.D.D.A.A.A.Z.Z.Z.Z.Z.Z.m.m.m.m.m.m.v.v.v.g.v.m.m.v.c.c.c.c.c.v.v.v.v.v.v.m.m.Z.Z.Z.Z.Z.Z.Z.m.m.m.Z.Z.Z.Z.m.m.Z.Z.m.m.v.v.g.d.d.d.d.c.c.d.d.d.d.d.d.d.d.d.d.z.a.i.=.#.P P S S F Z Z Z Z F g g d g g g g g g c c c d d s a t : * * * * * = % = * * * * * * * * : : * : : 1 1 : t t t t t t t a i i a i i i i i p v L *.6.C.~./.^.{.|.|.|. X X3X3X3X3X3X3X X X|.|.{.{.{.`.)./.~.~.C.C.~./.^.`.{.}. X3X0XdXfXgXhXhXhXMXMXSXSXMXhXhXhXgXgXgXgXgXhXgXfXdX X|.}.{.`.`.`.`.^.^.^.`.|.|.|.|.|.`.^.!.8.8.",
"3 4 4 4 6 6 6 6 6 6 6 6 8 8 4 4 4 4 4 4 4 4 4 4 4 4 4 4 8 8 8 8 8 8 8 8 8 8 8 8 8 8 8 8 8 8 8 8 8 8 6 7 7 7 7 7 7 7 7 7 7 7 7 7 7 7 7 7 7 7 h h h h l l l l l l l l k k k k b b b b b b ~ ~ ~ ~ ~ ~ ~ ~ ~ ~ ! ! ! ! ) ) ) ) { { { { | [ [ | ..P P P G P U :.v.F.oXL.L.L.P.P.P.P.L.L.L.L.#X+XoX+XK.Z.m.m.m.m.d.r.-.%.p.a.c.c.c.c.a.r.r.a.y.%.i.c.c.a.a.v.m.m.S.S.S.S.m.D.Z.g.g.t.r.p.d.g.g.c.p.g.c.T &.&.r.p.p.r.f.m.m.A.f.m.Z.f.D.K.oX+X#XOXK.L.L.OXOXOXP.J.K.U.OX#X@X%X@X&X-X-X;X;X-X-X-X-X-X-X-X-X-X-X-X-X-X&X-X-X-X;X-X-X@X#X-X-X-X-X-X@X-X&X&X&X&X&X-X&X#X#X@X@XOXOXI.I.I.I.I.I.I.L.I.L.L.L.L.U.K.K.J.J.J.J.J.K.A.A.A.A.A.A.A.A.A.m.m.m.Z.A.A.A.A.A.A.A.A.Z.Z.Z.Z.Z.M.m.m.m.m.m.v.v.c.g.g.g.a.v.v.a.c.c.c.g.g.g.v.g.d.v.v.d.v.m.m.m.m.m.m.m.m.m.m.m.Z.Z.Z.Z.Z.Z.Z.m.m.v.v.g.d.d.d.d.c.c.d.d.d.d.d.d.d.d.d.d.a.a.=.=.$...P P S Z Z Z Z Z g g g d g g g g g g d d d d d s a t : : * * : * = % % = = = * * * * * * * * * * : : * * t t t t t t t t i i a i i i i i i p M } ;.9.C./.^.).}.|.|. X3X3X3X3X3X3X3X X X X|.|.}.{.`.`.^./.~.C.C.!.~./.`.`.{.}. X0X0XdXgXhXhXhXMXSXSXSXMXhXhXhXhXhXhXgXfXdX3X|.|.}.{.{.{.{.`.`.`.{.}.|.|.|.|.|.}.{.)./.C.8.",
"3 4 4 4 6 6 6 6 6 6 8 8 8 8 8 8 4 4 4 4 4 4 4 4 4 4 4 4 6 8 8 8 8 8 8 8 8 8 8 8 8 8 4 4 4 8 8 8 8 6 7 7 7 7 7 7 7 7 7 7 7 7 7 7 7 7 7 7 7 7 7 h h h l l l l l l l l k k k k b b b Q b b b b ~ ~ ~ ~ ~ ~ ~ ~ ~ ~ ! ! ) ) ) ) { { { { | [ | | [ L P G P P U :.v.F.oXP.L.L.P.L.L.L.L.L.L.L.K.L.oXoXg.g.f.f.m.p.r.r.&.r.s.z.a.s.a.a.r.%.%.r.a.c.v.a.%.p.a.i.i.p.d.d.m.v.p.d.v.c.m.m.S.d.p.c.p.g.a.g.i.Y Y %.-.r.r.&.p.p.m.m.m.t.f.f.j.M.D.oXA.D.k.A.K.K.K.P.A.M.M.L.OXOX#X#X#X&X-X-X-X-X;X;X-X-X-X-X-X-X-X-X-X-X-X-X-X&X-X;X-X-X@X#X&X-X-X-X-X@X-X&X&X&X&X&X&X&X#X#X#X#XOXI.L.L.L.L.L.L.L.U.L.L.K.K.K.J.J.J.A.A.A.A.A.A.A.A.A.M.M.M.A.A.m.k.A.A.A.Z.M.m.M.m.m.m.m.m.m.m.m.m.m.m.c.g.g.g.g.d.d.d.d.d.d.r.r.d.a.a.a.d.d.d.c.c.d.p.p.d.d.c.v.v.c.c.c.c.m.m.m.m.Z.Z.Z.Z.Z.Z.Z.m.m.v.v.g.d.d.d.d.c.d.d.d.a.d.d.d.d.d.d.d.a.a.=.%.$.$.P P S Z Z Z F Z g g g d d g g d g g d d d d s s a t : : : : t : * = = = = = * * * * * * * * * * : : * * t t t t t t t t i i i i i i i i i i a v L O.5.8.!./.`.{.}.|. X X3X3X3X3X3X3X3X3X3X3X|.}.{.`.`.)./.~.!.C.C.!./.^.`.`.}.|. X0XdXdXgXhXhXMXMXSXMXSXMXhXhXgXfXdX X|.}.}.{.{.{.{.}.}.{.{.}.|. X X|.|.|.|.|.}.{./.!.b.",
"3 3 3 3 4 4 4 4 4 4 8 8 8 8 8 8 4 4 4 4 3 3 3 3 4 4 4 4 4 4 4 4 8 8 8 8 8 8 8 8 8 8 4 4 4 4 8 8 8 8 8 8 7 7 7 7 7 7 7 7 6 6 6 6 7 7 7 7 7 7 7 7 e h h h h l l l l l l k k k k k k b b b b b ~ ~ ~ ~ ~ ~ ~ ~ ~ ! ! ! ) ) ) ) { { { [ [ [ [ [ [ L P P P P #.:.n._.oXoXoXoXoXoXoXoXF.F.F.F.D.oXD.r.y.d.d.i.-.&.%.&.&.&.%.&.&.&.&.&.#.i.i.-.U U -.&.&.&.i.a.s.a.c.c.n.v.v.i.a.c.n.i.%.s.i.&.i.n.n.n.%.&.Y A &.#.#.-.%.s.f.c.D.f.f.r.t.g.m.j.t.f.u.j.D.M.m.M.j.M.M.OXOXOXOX#X@X@X-X-X-X-X-X;X-X-X-X-X-X-X-X-X-X-X-X-X-X#X-X-X&X&X&X&X@X%X&X&X&X@X-X&X&X&X&X&X&X#X#X#X#XOXI.L.L.L.U.L.L.L.U.K.K.K.K.K.J.J.A.A.A.M.M.M.A.A.A.A.M.m.m.m.m.m.m.m.m.m.k.k.m.m.m.m.m.g.g.g.g.g.d.d.d.d.d.f.p.p.p.p.p.p.p.p.r.&.&.%.%.%.%.%.r.s.d.a.s.p.p.p.d.d.g.c.a.p.a.p.c.m.m.Z.Z.Z.Z.Z.Z.Z.m.m.v.v.c.g.d.d.d.d.d.d.d.d.a.a.d.d.d.d.d.d.a.a.:.=.&.$.#.P S Z g g F g g g g d d g g d g g d d d d s s y t : : * : t t * * * = = = = * * * * * * * * * * : * * * : t t t t t t t t t t i i i i i i p z z c | +.6.8./.^.`.{.|. X X X X3X3X3X0X0X0X0X0X|.}.{.`.`.)./.~.~.!.!.~.~./.^.`.{.}.|.3X0XdXfXgXhXhXMXMXMXSXhXgXfX0X3X}.}.{.`.{.{.}.{.`.{.|. X3X X X X X X|.|.|.}.{.).~.C.",
"3 4 4 4 6 6 8 8 8 8 8 8 3 3 3 3 3 3 3 3 3 3 3 3 3 3 3 3 4 4 4 4 4 4 8 8 8 8 4 4 4 4 4 4 4 4 8 8 8 8 8 8 6 6 6 6 6 6 6 6 8 8 6 8 6 6 7 7 7 7 7 7 e e h h h h h h l l j j k k k k k k Q Q ~ Q ~ ~ ~ ~ ~ ~ ~ ~ ! ! ! ) ) ) ] ! ) { | [ [ [ [ [ [ ..S S P P $.=.n._.S.S.v.c.a.a.a.s.a.x.n.n.S.S.S.V._._._._._._._.(.'.'.`.`.'.(.(.~.~.V.n.n.x.z.=.$.&.=.=.=.&.&.-.$.$.&.&.-.i.i.s.a.i.&.%.s.=.&.i.n.s.n.#.U &.#.#.&.-.&.i.p.m.c.t.t.T g.j.m.g.f.u.u.j.f.u.j.k.M.M.L.K.L.oXL.#X#X#X#X&X&X-X-X-X-X-X-X-X-X-X-X-X-X-X-X-X@X-X&X&X#X#X#X@X@X@X&X%X@X&X*X&X#X#X%X&X@X#XOXOXOXL.L.OXL.K.U.U.K.K.K.J.K.K.A.M.M.M.m.M.M.M.M.M.M.M.M.k.k.j.M.m.g.g.f.p.p.f.g.f.f.g.d.d.p.p.p.p.y.r.r.r.s.p.i.y.r.r.r.a.a.d.c.s.i.-.Y Y Y Y Y Y Y -.&.a.i.i.a.s.s.s.s.a.a.r.i.a.d.c.v.Z.Z.m.m.m.m.Z.m.v.v.c.d.d.d.d.d.d.d.d.d.a.a.a.a.a.a.a.a.c.x.s.:.&.$.#.P S F F Z S Z g g g g g d d d d d d d d d d a t : : : * * * * * = = = = = = = = = * * * * * * * * * * * * 5 w t t t t t t t t t t t t t t a a p d v D  .5.8.C./.^.{.{. X X X3X3X3X0X0XdXdXdX0X X}.}.{.`.`.`.^.!.b.!.~.~./.^.^.`.{.}.|. X0XgXhXhXhXMXhXgXgX0X X}.{.}.}.{.`.`.`.`.{. X X3X0X0X0X3X3X3X X X X|.|.}.{./.!.",
"3 3 3 3 4 4 8 8 8 8 8 4 3 3 3 3 3 3 3 3 3 3 3 3 3 3 3 3 3 3 4 4 4 4 4 4 4 4 4 4 4 4 4 4 4 4 4 4 4 8 8 8 8 8 8 8 6 6 8 8 8 8 6 8 6 6 7 7 7 7 7 7 7 7 h h h h h h l l l l j j j k k k b b Q b ~ ~ ~ ~ ~ ~ ~ ! ) ) ) ) ) [ ] ] ) [ [ [ [ [ [ _ [ ..S P ..#.$.*.=.:.n.V.V.V.z.>.:.>.z.s.=.&.#.$.$.#.#.#.#.#.#.#.#...#.......#.$.$.$.6.x.n.V.(.(.`.'.(.(.~.V.x.z.=.$.P P U &.$.-.#.#.#.-.&.&.=.-.#.-.#.z.%.&.-.U Y &.&.Y &.c.i.d.R p.T g.m.Z.g.r.f.r.u.u.f.t.k.M.M.A.K.A.K.OXOX#X#X#X#X#X-X-X-X-X;X-X;X-X-X-X-X-X-X-X&X&X#X&X&X#X#X#X@X@X@X@X@X@X&X*X@X#X#X@X&X#X#XOXOXP.L.L.L.L.K.A.A.K.K.A.A.K.K.A.M.M.M.m.m.k.k.M.M.M.M.M.m.m.N.g.r.r.r.p.p.p.p.y.y.y.r.r.&.&.R Y Y T T T &.&.&.-.T T Y Y -.#.Y Y Y Y Y Y Y Y Y Y U Y Y Y Y %.s.&.=.=.=.=.&.&.a.&.&.i.a.d.m.Z.m.m.m.m.m.v.v.v.c.d.d.d.d.d.d.d.a.a.a.a.a.a.a.a.a.a.x.c.z.s.%.$.#.P S F F F S F g g g g g d d d d d d d d d d a t : : : % % = * = = = = % % = = = % = = = = * * * * * * * * * 5 t t t t t t t t t t t t t t a a a a p c M L ;.9.C.!.^.`.{.}.|. X3X3X0X0X0X0XdXdX0X X|.}.{.{.{.`.^.~.!.!.!.!././.^.^.).{.}.|.3X0X0XdXfXdX0X X|.{.`.`.`.{.`.`.{.}.|. X0X0X0X0X0X0X3X3X3X3X3X X X|.|.}.).~.",
"3 3 3 3 3 3 8 8 8 8 4 4 3 3 3 3 3 3 3 3 3 3 3 3 3 3 3 3 3 3 4 4 4 4 4 4 4 4 4 4 4 4 & & 4 4 4 4 4 8 8 8 8 8 8 8 6 6 8 8 8 8 8 8 6 6 7 7 7 7 7 7 7 7 h h h h h h l l l l j j k k k k b b Q Q ~ ~ ~ ~ ~ n ! ) ) ) ) ) ) ) ) D ) ) [ ......X.*.6.6.b.6.=.$.=.>.*.$.S L ....X.$.$.$.$.&.&.=.&.&.&.&.=.=.=.=.=.=.=.$.$.$.*.*...#.*.*.$.*.$.$.$.$.$.$.$.*.*.=.6.x.V.(.).}.'.(.b.>.P P G #.&.=.=.&.$.&.-.i.=.-.Y G U &.c.&.U &.d.&.r.m.T p.d.m.d.r.p.r.r.g.w.u.j.f.D.m.M.M.D.L.OXOXOXOX#X#X-X-X-X-X-X-X-X-X-X-X-X-X-X&X&X&X@X&X&X@X#X#X@X#X@X@X@X@X%X%X#XOXOX#X%X#X#XOXOXP.L.L.L.L.D.M.A.M.m.M.M.m.m.m.m.m.k.k.k.k.k.m.m.m.m.m.m.Z.f.r.r.y.p.p.y.r.y.p.&.Y Y T &.-.Y Y R &.&.R A A A G A A A A H H H A G Y Y G A G G A A A G G U Y -.=.&.&.&.&.%.%.Y i.x.&.-.s.v.v.m.m.m.m.m.m.v.v.c.d.d.d.d.d.d.d.a.a.a.a.a.a.a.a.d.c.c.c.z.s.=.$.U P Z S S S S Z g g g g g d d d d d c c d d d a t : * % % $ % % % % % % % % = = = = = = = = = = = = * * * * * 5 t t t t t t t t t t t t t t a a a a a a z c L X.5.8.!./.^.`.}. X X3X0X0X0X0X0X0X0X0X X|.|.}.{.`.`.^./.!.C.C.!.!././.^.^.).`.{.{.{.|. X|.}.{.`.`.`.`.`.{.}.}. X0X0X0X0XdX0X0X0X0X0X0X3X3X3X3X3X X|.|.`.^.",
"3 3 3 3 3 3 4 4 8 8 4 4 3 3 3 3 3 3 3 3 # # # # 3 3 3 3 3 3 3 3 4 4 4 4 4 4 4 4 4 4 & & & & 4 4 4 4 8 8 8 8 8 8 8 8 8 8 8 8 8 8 6 6 6 6 6 6 7 7 7 7 h h h h h h h l l j j j l k k k b b b b ~ ~ b n ~ ! ) ) ) ) D D L L ..$.X. . .....X.X.X.X.........$.$.$.$.$.......X.X.$.X.$.#.#.-.-.#.#.#.#.#.#.#.#.U U U P #.#.#.#.P P ..#.$.$.....#.$.$.*.*.*.*.$.$.*.*.*.*.*.*.6.b.~.`.`.(.n.$.P G S P $.=.>.=.I G G U &.s.:.&.-.Y i.%.a.T a.p.d.y.y.r.r.y.p.T f.g.m.f.N.j.M.K.K.OXOXOXOX#X#X&X#X&X#X#X#X&X-X-X-X&X-X-X&X&X#X*X&X&X#X#X#X#X#X#X@X@X@X%X@X#XOXOX#X@X#X#XOXOXP.L.L.K.L.A.k.k.m.m.k.k.N.m.m.m.k.f.u.m.j.g.m.m.m.m.m.f.t.p.p.&.%.r.y.p.r.%.&.Y &.&.R Y Y Y U Y R U I G I I I Z Z Z H A A A Z A I I A A A A A A A A A A A G U #.#.#.#.>.%.&.Y #.=.s.&.a.c.v.v.v.m.m.m.v.v.c.d.d.d.d.d.d.d.a.a.a.a.a.a.a.a.d.c.c.c.x.z.=.$.#.P Z Z S F S Z g g g g d d d s d d d c g d s y t : * % $ $ $ $ $ $ % % % % = = = = = = = = = = = = * * * * * * t t 5 5 t t t t t t t t t t y y y y y y a d a v [ +.9.8.!./.`.}.|. X0X0X0X0X0XdXdX0X0X X X|.}.}.{.`.)././.!.!.!.!.!.~././.^./././.^.^.`.`.`.{.{.{.{.}.|. X3X0X0X0XdXdXdX0X0X0X0X0X0X0X0X3X3X3X3X X|.}.).",
"3 3 3 3 3 3 3 3 3 3 3 3 3 3 # # 3 3 3 3 # # # # 3 3 # # # # # # 4 4 4 4 4 4 4 4 4 4 & & & & & & 4 4 4 8 8 8 8 8 8 8 8 8 8 8 8 8 8 6 6 6 6 6 7 7 7 7 e h u h h h h l j l l j j k b l ~ x b b ~ n n b ! ) ) ) | X.>.>.>.>.=.x.z.*.#.......*.*.*.*.*.*.$.*.*.*.X.X.X.X.............#.#.#.#.U U #.Y #.-.-.#.U U U U U U P P P P P P P P P P ........*.$.$.$.$.$.$.$.$.$.*.*.*.*.*.*.>.b.(.5X5X(.&.Z A U $.P I A G $.,.:.=.U I a.&.i.&.%.i.i.%.T r.&.p.T y.g.N.f.y.j.k.m.M.D.L.L.oXOXOX#X#X#X#X#X#X#X#X&X-X-X&X&X-X&X&X@X@X@X#X#XOXOXOXOX#X#X@X@X@X#X#XOXOXOX#X#XOXOXP.L.L.K.K.K.A.k.j.k.M.m.g.m.f.j.u.k.m.u.u.j.g.r.f.m.f.c.g.r.T T T r.s.%.Y Y Y G Y Y -.-.-.&.&.-.U I A A U A A Z A A A A Z Z Z Z Z A Z Z 2 2 C C C C C C Z Z A A C A P $.P $.$.#.U A =.=.%.i.x.v.v.v.v.v.v.v.c.d.d.g.d.d.d.d.a.a.a.a.a.a.a.a.d.c.c.c.x.s.:.&.$.P Z Z S S S Z g d s s d s s s s s d g c d a y : : * % $ $ $ $ $ $ $ $ % % % % = = = = = = = = = = = = * * * * 5 5 5 5 5 5 t t t t t t t t t t a t t t t a a d c m O.;.8.!.^.).{.|. X X3X0X0XdXdXdXdX0X3X X|.|.}.{.{.`.)./.~.!.C.C.C.!.!./.~.!.C.!.~.~.^.`.`.{.|. X0X0XdXdXfXfXfXfXfXdXdX0XdXdXdXdXdX0X0X0X0X3X3X3X|.{.",
"3 3 3 3 3 3 3 3 3 3 3 3 3 3 # # # 3 # # # # # # # # # # # # # # 3 3 4 4 4 4 4 4 # # # # # & & & 4 4 4 4 8 8 8 8 8 8 8 8 8 4 8 8 8 8 6 6 6 6 7 7 7 7 9 7 q u h h h l j j l j j j x j z b b b n n ) ) } } | |  .X.$.$.$.$.$.$.$.$.$.$.$.$.*.*.*.*.*.*.*.*.*.X.X...............P S G G Y U I I Y Y Y Y Y U -.-.&.&.&.&.&.&.&.&.&.%.&.$.#.U P P P G S G P P P P #.$.*.=.=.>.>.=.*.$.*.*.*.$.=.x.(.<X1X(.>.#.U #.U #.$.=.=.&.I %.Y &.%.%.%.%.R %.&.p.a.-.r.f.m.p.u.f.g.f.A.A.K.K.oXOXOXOX#X#X#X#X#X#X&X&X-X&X#X#X&X&X@X@X@X@XP.P.@X@XOXOX#X#X#X#X#X#X#XOXOXOXOXOXP.P.L.L.U.K.D.A.M.m.j.t.k.m.f.m.r.u.f.u.f.f.p.f.t.T j.r.m.p.&.T &.s.i.%.&.R U G A G I P Y U Y P I A P %.I I U P G 2 A Z A G G A A A G G S S U P S Z Z Z Z Z Z C 2 2 Z Z Z S S P P P #.$.P A U &.:.a.c.c.v.v.v.v.c.g.d.g.d.d.d.d.a.a.a.a.a.a.a.a.d.d.c.c.x.s.s.=.$.P S S S S F Z g g s s s s s s s s s c d s t t : * * * % $ $ $ $ $ $ $ $ $ % % % % % % % % = = = = = = * * * * * * 5 5 5 5 0 0 t t t t t t t t t t t t t t i a p z m | *.9.C.!.^.).{.|.|. X3X0X0XdXdXdXdX0X3X X X|.}.}.{.`.^./.!.!.C.C.C.C.C.C.C.C.C.!./.^.`.}.0XdXfXfXgXgXhXhXhXgXgXfXdXdXfXfXfXfXfXfXdX0X0X0X0X3X X}.",
"3 3 3 3 3 3 3 3 3 3 3 3 3 3 # # # # # # # # # # # # # # # # # # 3 3 4 4 4 4 4 4 # # # # # # & & 4 4 4 4 8 8 8 8 8 8 8 8 4 4 8 8 8 8 6 6 6 6 7 7 6 6 7 7 q u u u h j j j j j j j j j j c M m D ) |  .+.+.X. .X.*.*.*.*.*.*.*.*.*.*.*.X.X.*.+.*.+.X.X.X.X.X.X...[ P P P P S S S S G U &.i.z.z.x.x.z.c.c.c.c.x.c.c.c.c.c.c.c.c.c.c.v.v.c.c.c.c.x.x.a.s.:.=.-.U I A A I U U &.%.:.>.s.>.=.*.>.$.$.=.>.(.,X,XV.V.$.#.$.$.$.$.#.U Y Y ,.%.$.Y Y %.&.s.&.i.p.y.c.y.p.r.u.t.M.M.D.K.oXOXOXOXOX#X#X#X#X#X#X#X#X#X&X#X#X#XOXOXOX@X#XOXOXP.P.OXOX#X#XOX#XOXOXOXOXOXOXP.P.L.L.U.K.K.D.m.m.m.j.t.t.f.p.f.&.r.p.T p.y.y.t.r.&.p.g.d.r.R %.s.%.&.U Y U Y -.#.G U P A Z Z Z A I P A A I P $.C Z Z Z A G S S A Z Z Z C Z Z Z Z Z Z S Z Z ..P S Z Z Z Z Z Z Z S P S U A G A U $.%.i.a.c.c.v.v.c.c.g.g.d.d.d.d.a.a.d.d.d.d.a.a.h.d.c.c.x.s.s.:.$.#.G I S S Z Z g s s s s s s s s s y d d y t : * * * * * % $ $ $ $ $ $ $ $ % % % % % % % % = = = = = = * * * * * * 5 5 5 5 5 5 t t t t t t t t t t t t t t i i i a d M [ O.5.8.b.!.^.`.}.|. X3X0X0X0X0XdXdX0X0X3X X X|.}.}.`.`.^./.~.!.!.C.!.!.C.C.~./.^.`.|. X0XfXgXgXhXhXMXMXMXMXhXgXgXfXfXgXgXgXfXfXfXfXfX0X0X0X X|.",
"3 3 3 3 3 3 3 3 3 3 3 3 3 3 # # # # # # # # # # # # # # # # # # 3 3 4 4 4 4 4 4 # # # # # # # & 4 4 4 4 8 8 8 8 8 8 8 8 4 4 8 8 8 8 6 6 6 6 7 7 6 6 7 9 q u u u h l j j j i i p m O.} ] ) [ | [  . .X.+.*.*.*.*.*.*.*.*.*.*.*.*.*.X.X.X.+.+.+.+.X.X.X.......G S G G G G $.=.z.x.n.x.x.x.x.n.n.n.x.z.z.z.a.s.s.s.s.s.s.i.i.i.i.s.s.a.n.V.S.S.V.V.v.v.S.Z.S.v.v.d.s.i.&.Y Y Y I A #.=.s.x.V.x.=.$.#.$.=.=.V.eXrX1X>.#.#.#.#.U Y P =.$.Y I %.&.%.&.&.&.&.m.d.r.d.T u.t.f.M.A.L.L.L.OXOXOXOX#X#X#X#X#X#X#X#X&X#X#XOXOXOXOXOXOXOXOXOXOXOXOXOXOXOXOXOXOXOXOXOXP.P.L.L.L.K.K.A.D.m.k.k.j.f.T r.f.r.p.r.r.u.Y r.t.r.&.&.p.p.r.r.i.s.%.-.U I U $.G A A G G G I I A C C Z A P A I I Z G S Z Z A S Z Z Z Z Z Z Z Z C f C Z Z Z C f f f f f f C Z Z S Z Z P P G Z G A G I U &.%.i.a.v.v.v.c.g.g.g.d.d.d.a.a.d.d.d.d.a.a.h.h.c.c.x.s.:.=.$.U I I S S Z g g d s s s s s s s s y s s y : : * % % * % % % % $ $ $ $ $ $ $ $ $ $ % % % % = = = = = = * * * * * * 5 5 5 5 5 5 5 5 t t t t t t t t t t t t i i i i a d d c L +.6.8.!./.).{.|.|. X X3X3X0X0X0XdX0X0X3X X X|.}.{.`.`.`.^.^./././././.).`.}.|. X0X0XfXfXgXhXMXMXMXMXMXMXhXhXgXgXgXgXgXgXgXfXfXfXfX0X0X3X|.",
"3 3 3 3 3 3 3 3 3 3 3 3 3 3 # # 3 3 # # @ @ @ # # # # # # # # # 3 3 # # # 3 # # # # # # # 3 # # 4 4 4 4 4 4 4 4 4 4 4 4 4 4 4 4 8 8 8 8 8 8 6 6 7 7 q q q q u u 5 j l j b } } *.*.*.+.O.O.O.X.X.X.+.+.+.*.*.*.*.*.$.*.*.*.*.*.X.X.X.X.+.*.*.X.X. .....S Z Z Z G $.:.x.x.n.x.z.n.x.s.:.&.=.=.=.=.:.:.=.%.%.=.:.:.:.:.:.:.:.=.=.=.=.&.$.$.$.$.$.$.i.i.a.v.Z.m.v.v.Z.Z.Z.S.c.a.i.&.U Y I I P $.s.n.V.z.$.$...#.>.x.'.<X].:.U P P I #.U U P &.U U &.R T &.a.y.y.d.r.f.r.t.A.M.D.L.L.oXOXOXOXOX#X#X#X#X#X#X#X#X@XOXOXOXOXOXOXOXOXOXOXOXP.OXOXOXOXOXoXOXP.L.L.L.L.L.L.K.K.D.A.A.M.u.u.g.r.r.T r.T r.R t.r.t.&.T p.t.&.r.t.r.T i.%.-.U A G G A A A A A U U I C Z A A A Z A A A A A G A Z Z A Z C C f f C Z Z F F F S S S F F F F Z Z Z Z Z Z S S S S S S A A A C I Y A Y &.s.a.a.c.c.a.d.c.c.d.d.a.a.a.d.d.d.d.d.d.h.h.h.h.x.s.s.:.&.#.P P S Z Z g d f d d s s s s s s s a a y : * % % % % % % % % $ $ $ $ $ $ $ $ $ $ % % % % % % = = = = = = * * * * * * * * 5 5 5 5 0 0 t t t t t t y y t t t t i i a a a p c m  .5.9.8.~.^.{.}. X X3X3X3X0X0X0XdXdX0X0X3X X|.|.}.{.{.{.{.{.{.`.`.{.{.}.|. X X X3X0XdXfXgXhXMXMXMXMXMXMXSXMXMXhXhXgXgXgXfXfXfXfX0X0X3X3X",
"4 3 3 3 3 3 3 3 3 3 3 3 3 3 # # 3 3 # # @ @ @ @ # # # # # # # # # # # 3 # 3 3 3 # # # # # 3 3 3 4 4 4 4 4 4 4 4 4 4 4 4 4 4 4 4 8 8 8 8 8 8 6 6 7 7 0 q q q u u u j x @.!.^.!.9.*.+. .X.O.X.+.+.+.+.+.+.+.+.*.*.*.*.*.*.*.*.*.X.X.X.X.X.X.X. ...S S F C U %.x.v.x.x.x.x.s.x.c.x.>.>.>.>.>.>.>.>.:.=.=.&.&.=.=.=.=.&.&.&.=.=.=.=.=.&.$.$.$.$.$.$.$.-.&.%.&.&.:.i.a.c.v.Z.S.S.V.v.n.x.s.:.$.#.P A P $.x.(.x.>.$.$.#.>.z.(.V.s.U G I P U U $.#.U -.U T &.i.%.s.%.r.r.r.t.j.M.A.K.L.oXOXOXOXOXOX#X#X#X#X#X#X#X#XOXOXOXOXOXOXOXOXOXOXP.P.P.I.OXOXoXL.L.L.L.L.L.K.K.K.K.K.D.A.j.m.w.r.&.r.r.R T r.T R r.%.p.R Y p.r.&.r.R Y T &.U Y A A I G G A G G A I A C Z A A Z Z Z Z Z Z Z Z Z Z Z Z Z Z f 2 2 < 2 2 2 2 s s s s f f f f f f C f f f 2 2 C C C C Z Z Z Z A I Y Y I Y -.s.s.a.c.c.d.d.c.d.a.a.a.a.d.d.d.d.d.d.h.h.h.h.h.h.s.:.%.$.P P S F F g d f d d s s s s s s d a a y : * % % % % % % $ $ $ $ $ $ $ $ $ $ $ $ $ $ $ $ $ $ % % = = = = * * * * * * * * * * 5 5 0 0 0 0 0 0 t t t t t t t t t t a a a a a z v D +.6.8.!.^.^.{.}. X3X0X0X0X0X0X0X0X0X0X0X3X X|.|.|.|.|.|.|.|.|.|.|. X X X3X3X3X3X0X0XdXfXgXhXMXMXMXMXSXSXMXMXMXhXgXgXgXfXfXfXdX0X0X0X",
"8 3 3 3 3 3 3 3 3 3 3 3 3 3 3 # # # # # @ @ @ @ @ @ # # # # # # # # # 3 3 3 3 # # # # # # # 3 3 # # 4 4 4 4 4 4 4 4 4 4 4 8 4 4 8 8 8 8 8 8 6 6 8 8 7 0 q q u u h j b <.9.6.5.+.O.O.O.X.X.X.+.+.+.+.+.+.+.+.*.*.$.*.*.*.*.*.*.*.*.*.X.X. .| [ S S Z P =.n.n.n.n.n.n.n.n.(.n.z.x.>.>.>.>.,.,.=.>.>.>.=.=.$.$.=.=.=.>.:.:.=.=.=.=.=.=.$.$.$.*.*.$.$.$.$.&.=.=.&.&.%.=.&.&.:.a.n.V.n.n.n.n.n.x.s.:.P P P P :.n.(.C.$.P #.*.>.z.x.>.P I P U U U U U Y T &.&.%.y.&.y.T r.p.r.m.M.D.K.L.OXoXOXOXOXOXOXOXOXOXOXOXOXP.I.P.OXOXOXOXOXOXOXP.P.P.I.L.L.L.L.L.L.L.L.K.K.K.K.K.D.A.A.f.k.r.T R T r.Y T R r.J J Y r.-.Y r.-.T T R &.s.U I A G U G Z C A A A A A Z Z A A A A Z Z Z Z H Z H C Z Z C Z Z C C f f f f f 2 2 2 2 < < < < < 2 2 < < < < > > 2 2 2 2 < > > , 2 2 2 C Z Z G U &.%.a.c.c.c.d.a.a.a.a.a.a.d.x.d.h.h.d.d.x.x.h.h.a.i.%.&.P P S F F g g s d d s d s s s s d a y 1 : * $ $ $ $ $ $ $ $ - - X X - - $ $ $ $ $ $ $ $ $ $ $ $ = = = = = = * * * * * * * * * * * * 0 0 0 0 t t t t t t y t t t t a a a a a p c D  .;.9.!.~.^.^.}.|. X0X0X0X0X0X0X0X0X0X0X0X3X X X X X X X X X X X3X3X3X3X X3X3X3X3X0X0XfXgXhXMXMXMXSXSXMXMXMXMXhXgXgXfXfXfXdXdX0X0X",
"8 3 3 3 3 3 3 3 3 3 3 3 3 3 3 # # # # @ @ @ @ @ @ @ @ @ # # # # # # # # # # # # # # # # # # # # # # 4 4 4 4 4 4 4 4 4 4 4 8 4 4 4 4 8 8 8 8 6 6 8 8 7 0 q q q q u j x } !.+.+.+.X.X.+.+.+.+.+.+.+.+.+.+.+.+.*.*.$.*.*.*.*.*.*.$.$.$.$.X.[ L S F $.s.c.c.i.s.c.n.n.n.n.n.z.z.z.z.z.>.>.=.#.#.#.$.*.*.$.$.$.$.*.=.$.$.*.*.&.&.=.=.=.=.$.$.$.*.*.$.$.=.=.$.$.$.&.$.$.&.=.=.&.&.=.%.&.i.x.n.V.V.V.n.x.x.:.-.U I U :.V.(.z.P P $.&.$.:.$.U P P #.U Y Y -.&.&.y.R &.%.T r.p.&.g.M.A.K.L.L.oXoXOXOXOXOXOXOXOXOXOXP.L.L.L.I.OXOXOXOXOXOXP.I.L.L.L.L.L.L.L.L.L.L.K.K.K.K.A.A.A.A.m.u.u.r.R Y T R J Y &.-.-.A Y Y Y r.-.R -.&.-.G G A G P Z C C Z U U U P I P I G A A A A A A A Z Z H C C Z C Z C C 2 2 2 2 2 2 2 2 2 2 < < < 2 2 2 2 < < < < > > > > > > > > > 2 , , , V , 2 2 , Z A U &.i.a.c.x.a.a.a.a.a.x.x.x.x.x.h.h.x.x.h.h.s.s.:.%.P P S F Z g g s s d s s s s s s a a y 1 % % - - - - - - - - - X X X - - $ $ $ $ $ $ $ $ $ $ $ $ = = = = = = * * * * * * * * * * * * 0 0 0 0 t t t t t t t t y y t t a y y y a p p v ] X.5.8.!.~.).{.}.|. X3X0X0X0X0X0X0X0X0X0X0X3X3X3X3X3X3X3X3X3X3X3X3X3X X3X3X3X3X3X0X0XdXfXgXhXMXMXSXSXMXMXMXMXhXgXgXfXfXfXdX0X0X",
"8 4 3 3 3 8 3 3 3 3 3 3 3 3 # # @ @ @ @ @ @ @ @ @ @ @ @ @ @ @ @ # # # # # # # # # # # # @ @ # # # # 4 4 4 4 4 4 4 4 4 4 4 4 4 4 4 4 8 8 8 8 6 6 6 6 7 7 0 q q q q j b 9.!.5.O.+.X.X.+.X.+. . .X.+.+.X.+.*.*.+.+.*.*.*.*.*.$.$.$.$.$.....Z S P z.c.N.N.n.z.n.n.n.s.>.:.>.z.z.>.>.>.>.>.>.$.*.>.>.*.*.*.=.>.>.=.=.=.=.&.&.=.=.&.$.$.$.$.=.:.>.=.&.=.>.>.=.*.$.=.>.>.>.%.&.&.%.&.&.&.=.=.:.s.s.n.x.n.n.n.n.c.:.U P Z P x.(.x.&.#.U $.#.%.&.U U Y Y I -.&.p.&.I i.%.%.i.%.Y f.j.m.M.D.A.A.A.D.K.L.OXOXOXOXOXI.I.L.L.L.L.P.OXOXL.L.L.L.L.L.L.L.L.L.L.L.L.K.K.K.D.D.D.A.M.m.m.m.T r.r.J Y J Y J Y R -.R i.A T Y Y -.Y &.-.U G G G P P $.$.$.U P G A S G A G G G A Z Z Z Z Z Z Z C C C V C C V 2 2 2 2 2 2 2 2 2 2 2 2 2 2 2 2 2 2 2 2 2 2 2 < < > > > < 2 2 2 < < , , , , , , , 2 2 2 2 C A P #.$.%.=.>.z.z.s.a.x.c.n.x.s.s.x.a.s.:.%.$.P S F Z g s s s s s s s s s s a a 1 : % % - - o - - - - - - - X X X X - - - $ $ $ $ $ $ $ $ $ $ $ = = = = = = = = * * * * * * * * 0 0 0 0 t t t t t t t t t t t t t t y y t a a d c m  .+.9.C./.^.{.{.|. X X3X0X0X0X0X0X0X0X0X0X0X0X0X0X0X0X0X3X3X3X3X3X3X3X3X3X3X3X3X3X0XdXfXgXgXMXMXMXMXSXSXMXMXMXhXgXfXfXdX0X0X",
"6 8 8 3 3 8 3 3 3 3 3 3 3 3 # # @ @ @ @ @ @ @ @ @ @ @ @ @ @ @ @ @ @ # # @ @ @ @ @ @ @ @ @ @ @ # # # 3 4 4 4 4 4 4 4 4 4 4 4 4 4 4 4 4 4 8 8 6 6 6 6 7 7 q q q q 0 j ~ 8./.8.5. . .X.*.+.X. . .+.X.*. .*.*.*.*.*.*.*.*.*.$.$.#.$.$.P S Z P =.x.n.n.a.c.(.(.n.x.z.>.6.>.>.>.>.z.z.z.>.>.$.$.$.*.=.>.=.=.=.>.=.=.=.>.>.:.:.=.=.&.&.=.s.x.n.n.n.n.z.x.x.x.x.:.=.&.$.$.$.=.:.=.$.$.=.=.%.&.=.,.h.s.n.x.x.x.c.x.x.c.z.&.$.P P >.V.n.$.U U U #.#.#.Y Y Y U U %.&.A T %.%.%.&.R r.p.f.k.k.m.A.A.L.L.L.L.L.L.OXoXL.L.L.L.I.I.L.L.L.L.L.L.L.U.U.U.K.L.L.K.K.K.D.D.A.A.A.A.M.M.m.m.f.r.R T T Y Y A A J Y -.T -.Y Y #.U A I G G U =.V.V.z.=.P P A S G G G S Z Z Z Z C C V V V C C C V V C C C C C C C C C C C C C C C C C C f f f 2 2 2 2 2 2 2 2 2 2 2 2 2 2 2 2 2 2 2 2 2 2 2 < > < < < < 2 2 2 2 2 2 C C #.$.>.x.z.z.x.x.x.x.z.x.x.s.>.=.$.P S F g g s s s s s s s s s s a y : * % $ - -   - - - $ $ - - X X X X X X - - $ $ $ $ $ $ $ $ $ $ = = = = = = = = * * * * * * * * 0 : * * w 5 w 5 w w t t t t t t t t t t t t i p p d d L  .5.8.!./.^.`.}. X X3X0X0X0X0X0X0X0X0X0X0X0X0X0X0X0X3X3X3X3X3X3X3X3X3X3X3X3X3X3X3X0X0XfXgXhXMXMXMXSXSXSXMXMXbXgXfXfX0X0X",
"6 6 6 8 8 4 4 3 3 4 3 3 3 3 # # @ @ @ @ @ @ @ @ @ @ @ @ @ @ @ @ @ @ # # @ @ @ # @ @ @ @ @ # @ # # # # 4 4 4 4 4 4 4 & & 4 4 4 4 4 4 4 4 8 8 5 5 5 7 7 7 0 0 0 0 7 l ) !.!.8.6.;. . .| +. . .X.X.X.| L ..*.$.*.*.*.*.*.*.$.X.#.#...S G #.z.V.(.S.S.S.S.S.x.6.6.6.6.x.x.>.z.6.>.>.>.>.>.>.$.*.>.>.>.>.>.>.=.=.:.>.:.s.x.n.V.n.a.:.s.x.c.c.c.v.v.a.x.x.x.z.s.s.s.s.:.=.%.&.$.=.=.$.$.&.&.%.&.-.%.%.i.i.s.s.a.a.x.i.x.x.>.$.G U >.(.V.$.#.U U U #.Y Y U Y -.&.Y Y R %.&.Y Y &.r.y.f.D.D.D.D.D.D.K.K.L.L.L.L.L.L.L.L.L.L.U.K.K.K.K.K.K.K.K.K.J.J.D.D.A.A.A.M.M.M.M.M.M.m.m.j.t.t.R R T Y Y A A A G -.U U Y I A G A #.V.'._.b.#.P S P P G S S S Z Z Z C C C C C C C Z C C Z H A A I I P P U U U #.#.$.$.$.$.$.$.$.$.$.$.$.$.$.$.$.$.$.S S P P C C C C 2 2 2 2 2 2 2 2 2 2 2 2 2 < > < 2 2 < < 2 2 2 2 > , , f P #.*.>.x.z.x.x.x.s.>.=.$...S F g g s s s s s s s s s s a y : * % $ - - o - - - - - - - - - X - X X X X $ $ $ $ $ $ $ $ $ $ = = = = = = = = * * * * * * * * * * * * 5 5 w 5 w w t t t t t t t t t t a a i i i a y d m | +.9.!././.).{.|. X3X0X0X0X0X0X0X0X0X0X0X0X0X0X0X3X3X3X3X3X3X3X3X3X3X3X3X3X3X3X3X0X0XdXfXgXhXMXMXSXSXSXMXMXbXgXfXfX0X",
"w 6 6 6 8 8 4 3 8 8 3 3 3 3 # # @ @ @ @ @ @ @ @ @ @ @ @ @ @ @ @ @ @ # # # @ @ @ @ @ @ @ @ # @ # # # # 4 4 4 4 4 4 4 & 4 4 4 4 4 4 4 4 4 8 8 5 5 5 5 7 7 0 0 0 0 7 l { ~./.9.+.+.+.6. X!.[ X.*.X.;.~.}.b.*.$.*.*.*.*.*.X.$.X.X.$.S S =.~.rX1X'.+XS.S.n.x.x.b.b.6.6.n.C.6.>.>.6.z.6.>.>.=.:.>.6.z.z.z.z.z.x.n.n.n.n.n.c.c.c.n.n.v.n.v.v.v.v.Z.m.v.v.Z.S.V.v.v.n.n.n.x.i.:.%.&.&.&.&.&.&.&.%.,.%.%.:.:.:.i.s.s.a.h.x.z.z.z.s.U G G z._.x.&.#.#.U U U U A Y Y -.U A %.R Y Y &.r.p.f.j.m.D.K.m.A.K.L.L.L.L.L.L.L.L.L.K.K.L.L.K.K.K.K.K.J.J.J.A.A.A.A.M.M.m.m.m.M.m.m.m.m.j.f.t.T T Y J Y G Y G H A -.U U G P $.s._.'.x.$.P ..P P P S Z C Z C C 2 2 2 V C C Z A G I U #.#.#.-.#.#.#.#.#.#.$.$.$.$.$.#.$.#.#.#.#.#.$.$.$.$.$.*.=.*.=.*.=.*.*.$.$.$.$.$.P P P P 2 f f 2 2 2 2 2 < > > > < < 2 2 f 2 2 < < 2 > > < > , , f S #.=.6.z.>.=.$...S S g g s s s s s s s s s s a y : * % $ - -   X - - $ - - - - - - - X X X X $ $ $ $ $ $ $ $ $ $ $ $ = = & & & & = = * * * * * * * * * * 5 5 5 5 w w B * t t t t t t t t t t t i i i i a p d L +.9.8.C./.^.{.|. X3X0X0X0X0X0X3X3X3X3X0X0X0X0X3X3X3X3X3X3X3X3X3X3X3X3X3X3X3X3X3X0X0X0XfXfXgXMXMXSXSXSXSXMXhXgXfXdX",
"w w 6 6 8 3 3 3 8 8 3 3 # # # @ @ @ @ @ @ @ @ @ @ @ @ @ @ @ @ @ @ @ @ @ @ @ @ @ @ @ @ @ @ @ @ @ # # # 3 # # & & & & & & & & & & 4 4 4 8 8 8 5 5 5 5 7 7 q 0 0 0 j j b !.!.*. .;.X.0X{.|.6.+.O.*.9.DXdXfXX.X.$.$.$.*.$.X.X.*.;.F #.>.|.MX4X].$XS.S.m.n.n.n.x.9.6.x.6.>.>.z.z.>.>.>.>.z.z.z.s.:.>.z.x.n.V.V.n.z.n.n.n.n.v.v.v.v.V.S.Z.S.S.S.S.S.S.S.Z.Z.Z.Z.Z.Z.m.Z.S.S.S.V.n.s.=.&.&.$.-.$.$.&.=.=.=.=.%.:.i.s.s.x.x.z.s.z.>.z.#.G U V.(.>.#.#.#.#.U U Y Y Y Y Y Y Y Y Y &.p.y.d.g.g.m.Z.A.A.A.Z.A.K.K.A.L.K.A.A.A.M.K.A.A.D.D.A.A.M.M.M.M.M.M.M.m.m.m.m.m.m.j.j.j.k.f.t.r.&.Y A A -.U G I A Z I P P >.V.n.>.P G P P P P I S Z C f 2 2 2 C C Z Z U U U U U #.#.$.&.&.#.U U U U P P P Z Z Z Z Z Z Z Z Z Z C C C Z Z Z Z Z Z Z S S P P P P $.$.*.*.$.$.$.$.U #.#.P S Z Z C 2 2 2 2 2 2 < , > 2 2 2 < > > > > , , ; ; , , , 2 f F P *.$...F g f s y s s s s s s s s s y : * % % + X X X - - $ $ X X - - X X X - - - - - - X $ $ $ $ $ $ $ $ & & & & & & = = = * * * * * * * * * * * * * 5 5 5 5 5 5 t t t t t t t t t t u i i i i a z v ] +.9.8.!.^.`.{.|. X X X X3X3X3X3X3X3X3X3X3X3X3X3X3X3X3X3X3X3X3X3X3X3X3X3X3X3X3X3X3X0XfXgXgXMXMXSXSXSXSXSXMXgXgX",
"w 6 6 6 6 8 3 3 8 3 3 3 @ @ @ @ @ @ @ @ @ @ @ @ @ @ @ @ @ @ @ @ @ @ @ @ @ @ @ @ @ @ @ @ @ @ @ @ @ @ @ # # # # # # # # # & & & & 4 & 4 8 8 8 5 5 5 7 7 7 7 0 0 0 i u j 5.5.+.}  .+.3X X|.^. .O.5.!.DXfXfX;.*.*.$.$.$.$.$.*.6.P L x.5XLXSX<X_.+XS.G.c.x.z.z.6.6.6.>.>.>.=.s.s.>.>.s.s.s.s.s.a.x.z.c.n.n.n.n.n.n.v.n.v.v.v.c.c.v.v.v.S.S.S.S.S.S.S.S.S.S.S.S.S.S.S.S.S.S.S.m.n.n.n.c.x.z.s.s.s.:.=.=.=.=.=.$.%.:.s.a.z.z.z.z.>.x.z.>.#.P $.'.n.=.=.$.#.U U Y Y Y Y Y Y Y Y &.-.s.s.c.v.v.m.Z.M.M.m.M.Z.Z.A.A.A.D.D.m.m.D.D.m.A.A.m.m.m.m.m.m.M.m.m.m.m.k.m.m.j.f.f.f.j.f.t.r.&.Y G H Y &.A G Z Z $.n.~.x.$.P P P P P P I S f f 2 2 2 C Z G P U U #.$.$.$.U U U I G G A C V C C C C C C C C C f f f C C C C C C C C C C C C C 2 2 2 2 2 2 2 C S P *._._.(.n.>.$.$.=.*.$.$.$.S Z C C f 2 2 2 , > , 2 < < > > > , > ; ; ; ; ; ; O o o , f P ..$...F s g g g g g d s s s y : * % % + X X X - - $ $ X X - - X X X X - - - - - - $ $ $ $ $ $ $ $ & & & & & & = = = = = = * * * * * * * * * * * * * * w 5 5 5 t t t t t t t t t t i i i p p d z c O.5.8.!./.^.`.}.}.|. X3X3X3X3X3X3X3X3X3X3X3X3X3X3X3X3X3X3X3X3X3X3X3X3X3X3X3X3X3X0X0X0XfXgXhXMXMXSXSXSXSXMXhX",
"w w 6 6 6 6 3 3 3 3 3 # # @ @ @ @ @ @ @ @ @ @ @ @ @ @ @ @ @ @ @ @ @ @ @ @ @ @ @ @ @ @ @ @ @ @ @ @ @ @ # # # # # # # # # & & & & & & & 4 5 5 5 7 7 7 w w w w 0 0 0 j i }  .O. .| X.!.|.).+.X.[ +.*.{.MX).....$.$.$.$.$.$.6.P P 6.(.0XSXBX5X+XoX_.S.s.6.=.6.6.5.>.*.:.z.n.n.n.n.n.s.s.s.s.c.n.n.n.n.n.n.n.n.N.S.S.S.S.S.S.S.S.S.S.S.S.S.S.S.D.D.D.D.D.D.D.S.S.S.S.S.S.S.S.Z.N.S.S.v.n.c.x.x.x.a.s.s.s.s.s.z.s.%.&.=.i.a.z.x.s.x.s.s.z.&.P U (._.x.>.$.#.U Y U U U Y Y Y Y -.T i.i.a.d.g.c.v.v.v.v.g.p.p.g.g.g.g.g.g.f.m.g.m.Z.Z.m.m.m.N.N.m.m.m.k.k.k.k.j.k.g.f.f.f.f.f.r.r.&.I I I I P S Z n.qX(.#.S P P $.#.P P Z Z Z Z C C Z Z P #.$.#.$.$.#.#.G G Z V 2 2 V V V V C C C C Z C C C C C Z C Z Z C C C C Z Z Z Z Z Z Z C C Z Z S Z Z Z Z 2 2 2 2 2 2 C P s.n.$.#.P P P U $.$.#.P P G S Z 2 2 , , , > < > > , > > ; ; ; ; ; , ; ; > > O > ; y F [ X.| F g s s d d d y : ; % % + X X X X X $ $ X X - X   X - - - - $ - $ $ $ $ $ $ $ $ $ $ $ $ & & & & & = = = = = * * * * * * * * * * * * * * 5 5 w w t t t t t t t t t t u i i p i p p p M [ +.6.C.~.^.^.{.|.|. X3X3X3X3X3X3X3X3X3X3X3X3X3X3X3X3X3X3X3X3X3X3X3X3X3X3X3X3X3X3X3X0X0XfXgXhXMXMXSXSXSXMX",
"w w 6 6 6 6 8 3 3 # # # @ @ @ @ @ @ @ @ @ @ @ @ @ @ @ @ @ @ @ @ @ @ @ @ @ @ @ @ @ @ @ @ @ @ @ @ @ @ @ @ @ @ @ @ # # # # @ & & & & & & & 5 5 5 7 7 w w w w w 7 7 7 j i ! O.}  .O.[ X.[ }  .]  . . .X.| | *.*.$.$.#.$.$.*.P S *.V.`.fXDXBX+XoX_._.V.>.5.5.5.5.;.>.x.x.x.x.x.x.z.z.%.a.c.v.v.m.S.S.S.m.S.N.v.S.S.S.S.S.S.S.S.S.S.F.G.D.S.S.D.D.D.D.D.D.D.D.D.S.S.S.S.S.S.S.S.Z.S.Z.Z.V.v.v.c.c.v.v.c.c.c.c.c.c.x.a.%.%.i.a.x.s.c.s.s.s.%.:.I U x.5XS.x.=.&.-.-.-.-.Y Y Y Y R &.&.s.r.r.i.i.s.p.p.a.d.d.a.c.v.d.s.i.s.%.r.T Y R R Y R T r.r.p.f.f.f.f.f.f.f.f.f.f.f.f.f.p.r.r.&.Y I A Z A >._.V.P P P #.P P P P P S Z Z C C I P U #.$.$.#.U G A Z Z C C V Z Z C C C V V V V C C Z Z Z Z Z Z A A A A Z Z Z Z Z Z Z Z Z Z Z Z Z Z C C Z Z Z Z C C 2 2 2 C C 2 C 2 Z C C Z A G A P #.P $.#.U P G Z 2 2 , , , , > , > ; ; = ; ; ; % , ; , > O > ; ; , > O s | *.X.[ v d y 1 ; % % % + X X X X     X X X                 X - - - - - $ $ $ $ $ $ $ $ $ $ $ $ & & & & = = = = * * * * * * * * * * * * 5 w w w t t t t t t t t t t t t u i i i p p a z m  .5.9.!.~.^.{.{.|. X3X3X X3X3X3X3X3X3X3X3X3X3X3X3X3X3X3X3X3X3X3X3X3X3X3X3X3X3X3X3X0X0XdXfXgXhXMXMXSXSX",
"w 6 6 6 6 8 8 3 3 # # @ # @ @ @ @ @ @ @ @ @ @ @ @ @ @ @ @ @ @ @ @ @ @ @ @ @ @ @ @ @ @ @ @ @ @ @ @ @ @ @ @ @ # @ # # # # @ # # # & & & & 5 5 5 7 w u u w w 7 7 7 0 j j b ] ] [ L } } } |  . . . . . .X.....$.$.$.:.=.>.$.P $.x.(.`.BXMX4X+X_._.(.6.;.8.!.9.5.>.>.=.s.c.n.n.n.n.n.s.s.a.d.d.c.c.v.v.S.S.S.D.S.D.S.D.D.S.S.S.S.D.D.F.F.D.D.D.D.F.F.G.G.D.F.D.D.D.D.D.S.S.S.S.S.S.S.Z.v.v.v.v.v.v.c.d.a.a.s.s.s.s.s.a.a.s.a.a.a.a.x.x.:.s.s.a.-.U i.<XS.n.x.%.&.&.%.&.-.Y Y Y c.a.%.&.T R Y Y G G G A A G A Y U -.&.a.c.S._.r.Y H A J J J J J J J J R R R R T T w.w.r.t.t.T Y Y I Z ,.S.(.z.P P P P P P P P P Z f 2 C C A U #.#.$.#.U I Z A C C H C C C H A A A C V V V H H A A G P I I I I P P Y Y U U U P I G A A A A A A A A A A A S A A Z C C V C C C C C C C C C C C C A A Z Z G P U U &.$.P G C 2 , , > ; ; ; ; ; ; ; ; ; ; ; ; ; ; ; ; ; ; ; ; ; ; ; : d [ *.5.[ y + % X $ X X + X     X               X X X - - - - - - - $ $ $ $ $ $ $ $ $ & $ & & & & & & = = * * * * * * * * * * * * 5 5 5 5 t t t t t t u t t t t t t t u i i p p a a c ] O.6.8.!.^.^.{.|. X X X3X3X3X3X3X3X3X3X3X3X3X3X3X3X3X3X3X3X3X3X3X3X3X3X3X3X3X3X3X3X0X0XfXgXgXMXMXSX",
"6 6 6 6 8 8 8 3 3 3 # # # # # # @ @ @ @ @ @ @ @ @ @ @ @ @ @ @ @ @ @ @ @ @ @ @ @ @ @ @ @ @ @ @ @ @ @ @ @ @ @ @ @ @ @ @ @ @ @ @ @ & & & & & 5 5 7 u u u u u w 0 0 0 j j b u m [ [ } } } }  . . . . .X.X.....#.$.$.=.$.=.P U s.S.(.1XBXBX1XoX_._.~.6.9.!./..X^.9.z.n.n.n.n.n.v.n.c.c.v.m.m.Z.N.Z.S.S.S.S.S.S.D.S.D.F.F.D.S.S.S.S.S.S.F.D.D.D.D.G.G.G.G.D.D.D.D.D.D.D.S.D.D.D.S.S.S.S.Z.m.m.m.m.m.v.v.v.v.v.c.c.c.c.d.d.c.d.d.a.a.a.a.n.s.i.c.i.-.A %.2XS.c.a.=.%.%.%.&.&.-.-.%.c.-.Y Y I G G G A G G G G G P P P P U U -.I G A G G A A A H H A A K K K K K K K J J H A A H &.V.]._.>.P Z P P P P P P P P G f C Z Z P #.$.#.U P A A Z A G G A H H C C C A H V V A A A A G A A I P U U U U U #.#.#.#.U U U U Y Y Y U U P U P I I I I P P P P A Z C C C C C C 2 2 2 2 C C V V C Z A G Z A G P G P U #.U G 2 2 > > ; ; ; ; ; ; ; ; ; ; ; ; ; ; ; ; ; ; ; ; ; ; ; ; O + : s  .*.D : * $   .   X X                       X X X X   - - $ $ $ $ $ $ $ $ $ $ $ $ $ & & & & & & * * * * * * * * * * * * * 5 5 5 5 * t t t t t t t u t t t t t t t i p p p a a M } *.9.!.^.^.{.}. X X X3X3X3X3X X X X3X3X3X3X3X3X3X3X3X3X3X3X3X3X3X3X3X3X3X3X3X3X3X3X0XdXfXgXhXMX",
"6 6 6 4 8 8 8 3 3 3 3 3 3 3 3 3 # # # # # # # @ @ @ @ @ # # @ # @ @ @ @ @ @ @ @ @ @ @ @ @ @ @ @ @ @ @ @ @ @ @ @ @ @ @ @ @ # @ # & & & & & 5 5 w u u u u u u u u 0 u i j 0 p v D } } } }  . . . .X.X.X.X...#.$.$.#.=.I I %.c.(._.0XDXfX'._.F.S.~.6.Q.XX.XPX!.9.x.a.d.n.m.N.N.m.m.g.g.m.m.m.m.m.m.m.Z.F.F.F.D.D.D.F.F.F.F.F.F.F.D.D.D.F.F.F.F.F.F.F.F.F.F.D.D.D.D.F.F.F.D.D.D.D.S.S.S.Z.m.m.m.m.m.m.m.m.m.m.m.v.v.v.v.v.v.v.c.a.a.i.s.v.a.a.a.s.-.G i.2XS.v.x.i.%.%.%.%.&.&.-.a.U Y I A A A G G G G G G G P P ..#.=.=.$.&.U G A G A A H H H H H A K H H H H H H H V V V H &.U I A A I P I P P P P P G Z C 2 Z P U $.&.&.U I A A A A G P I I A A A A A G G I Y Y Y Y U U U -.-.&.$.T R R R -.#.#.-.U U U Y U U U U U U U U Y Y Y U P P P P I A Z C C C C C C C C C C C 2 2 G A Z Z Z Z Z A G G G G P $.$.A 2 , ; ; ; ; ; ; ; ; ; ; ; ; ; ; ; ; ; ; ; ; ; ; ; ; % O X X X X y [ ] c % X   .                                     - - - - $ $ $ $ $ $ $ $ $ $ $ $ & & & & = = = = * * * * * * * * * * * * 5 5 w w t t t t t t t t t t t t t t u i i p i d M | +.9.!.^.^.{.{.|.|. X X3X X X X X3X3X3X3X3X3X3X3X3X3X3X3X3X3X3X3X3X3X3X3X3X3X3X3X0X0X0XdXgXhX",
"8 6 8 8 8 8 8 8 8 4 4 4 4 4 3 3 3 3 3 3 # 3 # # # # @ # # 3 # 3 # # @ @ @ @ @ @ @ @ @ @ @ @ @ @ @ @ @ @ @ @ @ @ @ @ @ @ @ @ @ @ # & & & & 5 5 w u u u u u u u u u u i j @.M z D } [ } }  . . . .X.X.X.X...#.$.&.#.-.A U s.x.S.'.dXMXfX_._.F.S.V.9./.XXjX.X!.6.>.S.N.v.v.S.N.N.m.m.Z.Z.D.D.D.D.D.D.D.F.D.D.D.D.D.F.F.F.F.D.D.D.S.D.D.D.D.D.F.F.F.F.F.F.F.D.D.D.D.F.F.F.D.D.D.D.S.S.S.Z.Z.m.m.m.m.m.m.v.v.m.m.m.v.v.v.v.v.v.n.v.c.c.d.i.d.a.a.s.s.-.Y a.4X_.n.c.s.i.i.%.%.=.%.a.&.U P I G G G G G S G G S Z P $.>.(.<Xz.&.P A A A A A A A H H H H H H H H H H H H H H A T &.R U I I I P P P P P P G S C 2 A P #.$.&.U I I A A G Y Y P U P P I I I I Y U U U U U U U U U $.&.-.R R R R R R U U Y Y Y Y Y Y U Y Y Y Y U U U U Y U U Y U Y Y P I A Z C C C C Z Z Z Z C C 2 2 Z Z Z A Z Z Z Z Z A A G Z Z I $.Z < ; ; ; ; ; ; ; ; ; ; ; ; ; ; ; ; ; ; ; ; ; ; % O O O o * % % o $ % t ] ] p . -                                   - - - - - $ $ $ $ $ $ $ $ $ $ $ $ $ & & = = = = * * * * * * * * * * * * * * w w w w t t t t t t t t t t t t u u t i p d c c ] +.8.!.^.^.{.{.|.|. X X3X X X X3X3X3X3X X3X3X3X3X3X3X3X3X3X3X3X3X3X3X3X3X3X3X3X3X3X0X0XdXfX",
"8 8 8 4 4 8 8 8 6 8 8 8 8 8 6 6 8 8 8 8 8 4 4 4 4 4 4 4 4 4 4 4 4 & # # # # # # # # # # @ @ @ @ @ @ @ @ @ @ @ @ @ @ $ $ $ @ @ @ & & & & & 5 5 u u u u u u u u i i u i j i m *.M ) [ | |  . . . .X.X.X.X...#.$.=.i.A Y s.i.n.~.`.fXBX1X'.D.S._.>.8.!.{.gXC.b.x.z.c.n.m.S.S.S.N.m.m.A.D.D.A.D.D.D.D.D.D.D.D.D.D.D.D.D.D.D.A.A.A.S.Z.S.S.D.D.A.D.D.D.D.D.D.D.D.D.D.D.D.D.D.D.D.D.S.S.Z.Z.Z.m.m.m.m.m.m.m.m.m.m.m.v.v.m.m.m.v.v.v.v.v.v.v.v.c.d.a.a.s.&.Y S.lX+XS.c.a.s.:.%.s.%.s.:.U P I G G G G S S S S S I P #.=.V.GX5Xz.$.U A V H V V V H H H H H H H H K A A H H A I R U Y Y I I Y Y U A P I Z C C C A #.$.$.#.Y Y Y Y Y Y Y U Y U Y Y Y U U U Y Y U U U U -.-.R R $.$.-.-.R R R R R R U Y Y Y Y Y Y Y Y Y U Y Y Y U U U U Y Y Y Y P Y U P I A Z Z I C A A A Z Z Z Z 2 C C Z A Z S A Z A A A G I I I I P C < < > , ; ; ; ; ; ; ; ; ; ; ; ; ; ; ; ; ; % O O % % % % % O % $ $ $ o : m D $ .       . . .                 X X - - - - - - $ $ $ $ $ $ $ $ $ $ = = & & & & = = = = * * * * * * * * * * * * 5 5 w w t t t t t t t t t t u u t t t t i i c v ] } <.5.!./.^.{.{.{.}.|. X X X X X3X3X3X3X3X X X3X3X3X3X3X3X3X3X3X3X3X3X3X3X3X3X3X3X3X0X0X0X",
"3 8 3 3 8 8 8 8 6 6 6 6 6 6 6 6 6 6 6 6 6 8 8 4 4 4 4 4 4 8 6 6 8 4 4 # 4 4 4 4 4 4 4 4 # # # @ @ @ @ @ # # # # # # # # # # # # & & & & & 5 5 w u u u h i i i i i i j j p t a } [ ) ) [ |  . . .X.X.X.X.$.$.$.:.%.G &.n.n.~.(.).BXBX5X_.S.m.S.:.6.8.9.6.x.x.z.h.n.N.S.S.S.S.S.m.m.Z.D.Z.Z.Z.Z.A.D.D.D.D.D.D.D.D.A.A.A.Z.Z.Z.Z.Z.Z.Z.Z.Z.Z.Z.Z.Z.S.S.S.S.Z.Z.S.S.S.S.S.S.S.S.Z.Z.Z.Z.N.m.m.m.m.m.m.m.m.v.m.m.v.v.v.v.v.v.v.v.v.v.v.v.v.v.m.v.c.d.i.i.-.-.1X4X_.S.c.a.s.i.s.i.s.i.U P I G G G S G G G S S S P P $.z.}.(.x.>.n.x.U A A H V V H H H H H H H A A A A H A Y T U R Y Y Y Y Y I I G Z C C Z G &.&.&.-.#.U U Y Y Y R U U U Y Y U U U U U U U U U #.#.-.-.R R -.$.-.-.-.R R R R R U U U Y U Y Y Y Y U Y Y Y Y U Y U U Y Y Y Y I P P P P I I Z G G A A A A S P A C Z G C Z Z P P A S G G G I I I P Z P S < 2 > > ; ; ; ; ; ; ; ; ; ; ; ; ; ; ; % % % O % % % % % O % $ $ $ X . t O.= .   . .   . .                 X X - - - - - - $ $ $ $ $ $ $ $ $ $ = = & & & & = = = = = = * * * * * * * * * * 5 5 5 5 5 5 t t t t t t t t u u t t t t t i c v { @.<.7.8.!./.^.^.`.`.{.}.|. X X X3X3X3X3X3X X X3X3X3X3X3X3X3X3X3X3X3X3X3X3X3X3X3X3X3X3X0X0X",
"3 3 3 3 3 3 6 6 6 6 6 6 6 6 6 6 6 6 6 6 6 6 6 8 8 8 8 8 6 6 6 6 8 6 8 4 4 4 8 8 4 4 4 4 4 & & # # # # # & & & & & & & & & & & & & & & & 8 8 5 w u u h l i j j j j j j j p c 0 d ) ) [ [ [ |  . .X.X.X.$.$.*.$.s.U Y >.x.b.~./.).BXBX'._.D.Z.v.s.9.6.9.b.x.x.x.c.i.d.N.S.Z.Z.S.Z.m.Z.A.S.D.D.D.D.A.A.A.A.Z.Z.Z.Z.Z.Z.Z.Z.Z.Z.Z.Z.Z.Z.Z.m.m.m.m.m.m.m.m.m.m.m.m.m.m.m.m.m.m.m.m.m.m.v.v.v.m.m.m.m.v.v.v.v.v.v.v.v.v.v.v.v.v.v.m.m.m.m.m.m.m.m.v.v.i.i.i.Y i.iX2X_.S.n.x.s.s.a.i.s.U P P G G G G G S S S S S S G #.&.x.V.n.n.c.a.a.a.%.Y A H H H H H H H H K H A A H A R %.&.T R Y Y Y Y Y G Z C C A G #.&.#.#.Y Y #.Y U U U U U U U R Y Y Y U U U U U U U #.#.-.-.-.-.-.-.-.-.R U R R U U U U Y Y U U Y Y U U U U Y U U U U U Y Y Y Y I P P P P P P A I I G G G A G P G Z A U Z Z Z Z Z A A P I A P P P P S S P P f < > > > , > > ; ; ; ; ; ; ; ; ; % % % % % % % % % % O % $ $ $ o o - : % .   . .       .                   X X - - - - - - $ $ $ $ $ $ $ $ & & $ $ $ $ = = = = = = = = * * * * * * * * * * 5 5 5 5 5 5 t t t t t t t t t t t t t i c v } @.<.5.9.8.E.!./.^.^.`.{.}.|. X X X X3X3X3X3X X3X3X3X3X3X3X3X3X3X3X3X3X3X3X3X3X3X3X3X3X3X3X",
"3 3 3 3 3 4 8 8 6 6 6 6 6 6 6 6 6 6 6 6 6 6 6 6 6 6 6 6 6 6 6 6 6 6 8 8 8 8 8 8 8 8 8 8 8 4 4 4 & 4 4 4 4 4 & & 8 8 8 8 & & 8 8 5 5 5 5 8 8 5 7 u u h j j j j j j j j j p t i c v M D ) [ [ |  .X.X.X.$.$.>.$.z.A &.z.*.6.b./.).BXfX_._.S.v.s.i.6.6.x.x.n.n.S.S.m.m.m.m.m.Z.S.S.S.S.A.Z.Z.A.A.A.Z.Z.Z.Z.Z.Z.Z.Z.Z.m.m.m.m.m.m.m.m.m.m.m.v.v.v.v.v.v.v.v.v.v.v.v.v.v.v.v.v.v.v.v.v.v.v.v.v.v.m.m.v.v.v.v.v.v.v.v.m.v.v.v.m.m.m.m.m.m.m.m.m.m.v.v.a.r.s.-.U n.iX$X_.S.V.v.a.c.i.x.U P I G G G S S S S S S G G G U $.i.n.S.v.s.r.a.i.&.r.r.T Y H H H H H H H H A A H J T r.&.&.R R R Y Y Y A C C A #.-.#.U U U Y -.U U U U R U U U U R Y Y Y Y U U U U U U #.#.-.-.-.-.-.-.-.-.-.U R R U U U U Y Y U -.-.U U U U U Y U U U U U Y Y Y Y I P P P P P I I U G I P I G G P G A G U P A A P P G G P U G P P P P Z S P P G C 2 > , , > > , , ; ; ; ; ; ; ; % % % % % % O % % % O % $ $ $ X X X $ % .     .       .                   X X - - - - - - $ $ $ $ $ $ $ $ & & $ $ $ $ = = = = = = = = * * * * * * * * * * * * 5 5 5 5 5 5 t t t t t t t t t t t i j c } @.<.1.7.7.7.8.E.!./.^.`.{.{.|. X X X X3X3X3X3X3X3X3X3X3X3X3X3X3X3X3X3X3X3X3X3X3X3X3X3X3X3X",
"3 3 3 3 3 3 8 8 8 8 6 6 6 6 6 6 6 6 6 6 6 6 6 6 6 6 6 6 6 6 6 6 8 8 8 8 8 8 8 8 8 8 8 8 8 8 8 8 8 8 8 8 8 8 5 5 5 5 5 5 5 5 8 8 8 8 5 8 8 8 5 7 u u u l j j j j j j j j j p p p z t M D ) [ |  . .X.X.$.$.$.=.$.G >.=.6.6.!./.}.MX3X`.S.m.v.i.s.x.x.z.x.c.v.m.S.S.D.D.F.D.D.D.D.D.S.A.S.Z.Z.Z.M.N.M.m.m.m.m.m.m.m.m.v.c.d.c.v.v.v.d.d.d.d.a.s.s.y.r.r.r.r.r.r.%.i.i.s.a.i.i.i.i.a.a.a.a.c.v.v.v.v.v.v.Z.v.v.v.v.m.v.v.v.v.m.m.m.m.m.m.m.m.m.Z.Z.m.p.%.%.-.&.$XpX$XS.S.v.c.x.s.i.#.P I G I U $.=.#.S Z S A G G %.&.a.S.Z.s.y.r.%.%.&.%.&.r.r.Y H H K H H H H H A H Y r.r.%.&.R T T R Y G V V A U #.#.#.#.U U Y #.Y Y U U U U T U U Y Y Y Y Y U U U U -.-.-.-.-.-.#.-.-.U -.U U Y U U U U U U Y Y U U #.Y U U U U U U U U U U U U Y Y Y Y P P P Y U Y Y I I I G G G G A H A I Y G A I I G G I U P U U #.#.P C P #.=.P G 2 2 < , , > , , , y ; ; > ; ; < ; % % % O X % % % X y %   X X $ % = .     . . . . . . . .                 - - - - - - - - - - $ $ $ $ $ $ $ $ $ $ & & & & & = = = = = = = * * * * * * * * * * 5 5 5 5 0 5 5 5 t t t t t u i j z ) @.+.<.7.7.7.7.7.8.8.!.!.^.`.{.{.|.|. X X3X3X3X3X3X3X3X3X3X3X3X3X3X3X3X3X3X3X3X3X3X3X3X3X3X3X",
"3 3 3 3 3 3 8 8 8 8 6 6 6 6 6 6 6 6 6 6 6 6 6 6 6 6 6 6 6 6 6 6 8 8 8 8 8 8 8 8 8 8 8 8 8 8 8 8 8 8 8 8 8 8 5 5 5 5 5 5 5 5 8 8 5 5 5 5 8 8 5 5 u u u l j j j j j j j j j j p d j p v D ) [ [ [  .X.X.X.$.$.*.G G =.=.>.6.!./. XBX}.~.n.m.c.i.:.z.z.z.a.x.c.v.v.m.Z.S.S.D.D.D.D.D.S.S.S.Z.Z.Z.M.M.m.m.m.m.m.m.m.v.v.c.c.d.d.a.s.i.%.r.i.i.i.s.s.i.i.s.s.s.s.s.s.a.a.c.v.a.a.a.s.s.s.s.i.i.s.a.a.d.c.v.v.v.v.v.v.v.v.m.m.v.v.m.v.m.m.m.m.m.m.Z.Z.Z.c.i.r.s.Y i.mXiX_.v.c.n.x.s.i.$.Y I I U U U U =.$.#.$.Y G %.c.a.m.m.v.r.%.&.T &.T &.&.y.&.T A H K H H H H H H A R s.y.r.&.R T T R I A V A U $.#.#.#.Y #.Y Y Y Y Y U U U U R R R Y Y Y Y Y Y Y U U -.-.-.-.-.-.-.-.#.U Y Y Y Y U Y P P Y Y Y Y U U U U Y Y Y Y Y Y Y Y Y Y Y Y Y Y Y Y P P P Y U Y P I G I I G G G A C C A A H Z A G G I P I U #.U U U U S A P #.U P C 2 2 , , > > , ; ; ; ; > ;.L | d % % % % % % a 1 % $ .   X X $ % = .     . . . . . . . .                 - - - - - - - - - - $ $ $ $ $ $ $ $ & $ & & & & & & = = = = * = * * * * * * * * * * 5 5 5 5 0 5 5 5 t t t t t u i j m } +.<.1.7.7.7.7.7.7.8.8.E.!.^.^.XX{.{.|. X X3X3X3X3X3X3X3X3X3X3X3X3X3X3X3X3X3X3X3X3X3X3X3X3X3X",
"3 3 3 3 3 3 8 8 8 8 8 8 6 6 6 6 6 6 6 6 6 6 6 6 6 6 6 6 6 6 6 6 8 8 8 8 8 8 6 6 6 6 8 8 8 8 8 8 8 8 8 8 8 8 5 5 5 5 5 5 5 5 8 8 8 5 5 5 5 5 5 5 u u u l i j j j j j j j z j j j j z z D D ) [ [ | X.X.X.$...>.C #.$.$.*.6.b.~.3XjX).n.x.S.c.a.:.>.s.z.z.V.S.S.S.v.m.Z.S.D.D.D.D.A.Z.Z.Z.Z.m.m.m.m.m.m.m.g.c.c.d.d.d.a.s.i.i.%.%.&.&.%.i.i.s.s.s.a.d.g.g.g.g.g.g.c.v.v.V.c.c.v.v.v.v.v.v.a.s.i.i.s.a.a.h.a.c.v.v.v.v.v.m.v.v.v.v.v.v.m.m.m.m.Z.Z.Z.Z.g.y.%.R Y 1XiX$X_.v.n.x.s.i.&.U Y I A I U R I Y &.s.a.S.c.d.y.y.y.r.T R Y J J H A A A J R Y H H K K H H H H A &.c.s.r.&.R T R R A V H P #.#.#.Y Y Y Y Y Y Y Y Y U Y Y Y Y Y Y Y Y Y U U U U U Y U U U Y Y U U U U U Y Y Y Y Y P P P P P U U U U U U P U Y Y Y Y P P I I I I Y Y P P P P P Y U U Y I I I I I U U U G G I I G A A G I I I P P $.#.U U U P A P P U &.U Z 2 , , > > , , ; % ; ..~. .X.| % % % % X.~.X.+.a $ $ % o X $ % = .   . . . . . . . . .                     X X - - - - - - $ $ $ $ $ $ $ $ $ $ $ $ $ $ & & & = = = = = * * * * * * * * * * 5 5 5 5 0 0 5 5 t t t t u u j c ] +.<.<.7.7.7.7.7.7.7.7.7.8.8.!./.^.^.{.{.{. X X X X3X3X3X3X3X3X3X3X3X3X3X3X3X3X3X3X3X3X3X3X3X3X",
"3 3 3 3 3 3 8 8 4 4 8 8 8 8 6 6 8 8 8 8 6 6 6 6 8 8 8 8 6 6 6 6 6 8 8 8 8 8 8 6 6 6 8 8 8 8 8 8 8 8 8 8 8 8 5 5 8 8 5 5 5 8 8 8 5 5 5 5 5 5 5 5 u u u l i j j j j j j j j j j j j c d D D D L [ |  .X.X.X.*.$.Z #.#.$.*.>.b.~.0X0X^.V.n.S.a.h.%.>.>.h.x.v.V.Z.Z.Z.Z.S.S.D.D.D.D.S.Z.m.Z.m.m.m.m.m.m.v.c.g.d.d.d.s.i.r.%.U -.&.&.%.i.i.a.a.d.d.c.c.c.v.v.c.c.c.c.v.v.V.S.v.v.v.v.v.v.v.v.v.v.c.a.a.a.%.%.%.s.a.d.c.c.v.v.v.v.m.v.v.v.v.v.m.m.Z.Z.m.S.Z.a.&.&.Y V.iX2X_.S.n.c.s.i.%.U Y Y Y Y I G %.T T r.%.y.p.p.y.r.r.p.r.T T R R Y R Y Y Y H J K H K H H H H H A i.v.s.%.&.T T R Y H V I U U Y U Y Y Y Y U Y Y Y Y Y Y Y Y U Y U Y Y U U U U U U U U U P I G A G G A A A A A A A A Z Z Z Z Z A A A A A A A A A A A I I I I I I I Y P P P P Y Y Y Y Y I I I I Y U U Y I I I I I G I I I P P G A U $.#.U P U G U #.G P P G C 2 , , > , > ; , ; D *.| | L % % % % X.X. . .v X %       - = $ . . . . . . . . . . .                     X X - - - - - - $ $ $ $ $ $ $ $ $ $ $ $ $ $ & & & & = = = * * * * * * * * * * * * 5 5 5 0 0 5 5 t t t t u u j n { <.<.1.7.7.7.7.7.7.7.7.7.7.7.8.E.!.^.^.^.{.{. X X3X3X3X3X3X3X3X3X3X3X3X3X3X3X3X3X3X3X3X3X3X3X3X",
"3 3 3 3 3 3 4 4 4 4 4 4 4 4 4 4 8 8 8 8 6 6 6 6 6 6 6 8 6 6 6 8 6 6 8 8 8 8 8 8 8 8 8 6 8 8 8 8 8 8 8 8 8 8 8 8 8 8 5 5 5 5 5 5 8 8 8 8 8 5 5 5 u u u h j j j j j j j j j j j j j c z z D D D L [ | ..X...6.P Z #.....$.6.9.~.3X4X~.n.n.S.a.i.r.a.a.c.c.v.m.Z.m.Z.Z.D.D.A.S.S.Z.Z.Z.m.m.m.m.v.v.c.c.d.d.p.i.i.i.&.&.T -.r.i.i.s.i.s.a.d.c.c.v.v.m.m.v.v.v.c.g.p.Z.Z.S.m.v.v.v.v.v.v.n.n.x.c.c.c.x.a.x.a.i.=.%.i.s.a.d.d.d.c.v.v.v.v.v.m.m.m.Z.Z.m.Z.Z.v.&.i.Y T iX2X$XS.S.V.s.h.a.T A A A J Y Y T T &.r.r.y.y.r.r.r.r.r.r.r.y.y.r.r.T T T T R Y Y J A H H H H V Y S.c.i.&.&.T T R A V I Y Y Y Y U U U U U Y Y Y Y Y Y Y Y U U U U U U U #.U U U U Y P I G A A A A A A A A A A A A Z Z H Z C C C C C H C C V C C Z H A A A A A A G A I I P P U U P P P I Y Y Y Y U U U U U I Y I I I G I P U I A I U $.$.P P P P $.=.U P P Z 2 2 , , > > > , ; , [ X.+.[ % % % % d +.X.*.y % $ X   . - * $ . . . . . . . . . . . . .                     X X - - - - - - $ $ $ $ $ $ $ $ $ $ $ $ & & & & & & = = = = * * * * * * 5 * 5 5 5 5 5 5 5 5 5 5 0 u u i j ! o.+.1.7.7.7.7.7.7.7.7.7.7.7.7.7.7.E.E.!.^.{.{.{..X X X X3X3X0X0X3X3X0X3X3X3X3X3X3X3X3X3X3X3X3X3X",
"3 3 3 3 3 3 4 4 4 4 4 4 4 4 4 4 8 8 8 8 6 6 6 6 8 8 8 8 6 6 8 8 6 6 8 8 8 8 8 8 8 8 8 8 8 8 6 6 8 8 8 8 8 8 8 8 8 8 5 5 5 5 5 5 5 5 8 8 5 5 5 5 7 u u h j j j j j j j j j j z z c c c c D v  .[ [ [ ..X...x.S P #.P P $.6.z.b.(.(.n.S.S.x.s.s.a.a.d.c.v.m.Z.Z.m.m.Z.S.S.S.Z.m.m.m.m.m.m.m.v.c.d.d.d.a.s.p.i.&.&.-.&.&.&.i.s.a.a.s.a.d.d.g.c.v.v.m.m.v.v.v.v.i.s.a.Z.Z.S.v.v.c.n.v.n.n.n.n.n.z.s.s.s.s.s.s.s.i.%.&.%.a.d.d.d.g.c.v.v.v.v.v.v.v.m.m.m.Z.Z.i.&.&.Y $X2X5XG.S.n.h.&.J A A J R Y T T T T r.r.r.r.y.y.r.r.r.r.r.r.r.r.r.r.T T T T T T R Y Y J H H H H Y V.h.%.&.&.T R I A H I Y Y Y Y U U Y Y Y Y Y Y Y U Y U U U U U U U U U U I I G G A G A G G A A A A A A A A A A G G G A A A A A A A A A Z C C C V V C V V V H A A A G A I I Y Y I I P I Y Y Y Y Y U Y U U I U I U Y I I U #.#.Y Z A I U Y Y P P P #.P P P I < 2 , , > > > , , ; : s a : % % % % % a D D : % + X     $ 1 $ . . . . . . . . . . . . .                     X X - - - - - - $ $ $ $ $ $ $ $ & & $ $ & & & & = = = = = = * * * * * * 5 5 5 5 5 5 5 5 w 5 5 5 0 u u j b { o.2.3.7.7.7.7.7.7.7.7.7.7.7.7.7.7.7.8.E.!./.^.{.{.{.|. X X3X0X0X0X0X0X0X3X3X3X3X3X3X3X3X3X3X3X3X",
"3 3 3 3 3 3 4 4 4 4 4 4 4 4 4 4 8 8 8 8 6 6 6 6 8 8 8 8 6 6 6 6 6 6 6 8 6 6 6 6 8 8 8 8 8 8 6 6 8 8 7 7 8 8 8 8 8 8 5 5 5 5 5 5 5 5 5 5 5 5 5 5 5 7 u u u j j j j j j j x x x z c c c c v v *.*.L [ ....P x.Z P #.P P $.>.6.x.x.n.n.V.n.=.s.a.c.v.v.m.Z.Z.S.S.m.m.m.Z.S.Z.m.m.m.m.m.v.v.v.c.d.d.a.p.y.i.r.&.&.&.&.%.i.i.a.a.a.a.a.d.d.d.g.c.v.v.v.v.v.v.n.,.:.,.h.Z.h.h.h.c.n.n.n.n.n.x.x.x.z.s.>.s.s.s.s.s.s.s.i.:.%.%.i.a.d.c.c.c.v.v.v.v.v.v.m.m.Z.Z.g.R ,.I v.2X$X_.S.v.>.A H J R Y R T T T T &.r.r.r.r.y.y.u.u.u.u.y.r.r.r.r.r.w.T T &.&.T T T R Y Y J A A :.S.i.&.-.T R R A V A Y Y Y U U U U Y Y Y Y U U U U U P U U U U U P I I G G A A A A A A A G P G I I I I G G G I G G G G A A A A A A A A A A A Z Z C C C C V V 2 C H A A A G I I I I P P U U U U U U U U U U U U U Y Y P A I I A A A A I Y Y P P P U G P z.P S 2 2 > > > > , , ; ; ; ; % % % % % ; + : X % % X $ - X $ y $ . . . . . . . . . . . . .                     X X - - - - - - - - $ $ $ $ $ $ & & & & & & & & = = = = = = * * 5 * * * 5 5 5 5 5 5 5 5 t t 5 5 0 u u j ! o.2.<.3.7.7.7.7.7.7.7.7.7.7.7.7.7.7.7.7.E.E.!./.^.^.{.{.}.|. X X X0X0X0X0X0X3X0X0X0X3X3X3X3X3X3X3X",
"3 3 3 3 3 3 4 4 4 4 4 4 4 4 4 4 4 4 8 8 4 4 8 8 4 4 8 8 6 6 6 6 6 6 8 8 8 8 8 8 8 8 8 8 8 8 6 6 8 8 7 7 8 8 8 8 8 8 8 8 8 8 5 5 5 5 5 5 8 8 5 5 5 7 u u h j j j j j j j z z x x j z c z c v D [ [ [ ......>.Z #.X.P P $.=.>.z.x.x.V.n.z.=.s.a.c.s.a.d.d.S.D.S.m.m.m.Z.Z.m.m.m.m.m.v.v.v.c.g.d.d.i.i.r.&.&.&.&.%.i.i.s.s.a.a.a.a.d.c.c.d.c.c.v.v.v.v.v.n.x.,.$.,.:.s.C.h.>.>.h.x.n.n.x.x.>.z.z.z.s.s.s.>.s.s.s.i.i.%.%.%.%.i.s.a.a.d.c.c.v.v.v.v.m.m.m.Z.v.&.%.R &.2X$X_.S.V.$.C A Y R J R R T T T r.r.y.r.r.y.y.u.u.u.y.u.y.r.r.r.r.w.T T T T T T T T T R Y Y Y V.V.%.&.-.R R Y H A Y Y Y Y -.U U Y Y Y Y Y U U U U P P P U U U P I G G G P G G A A A A A G G I P P P P P P P P G G G G A A Z A A G A A A A A A A A Z C C C V V 2 V C Z A A A G I I P U U U U U U U U U U U U U U U U Y I I U Y Y P I I Y I P P #.$.P P *.P P Z 2 > > > > , , ; > ; ; ; % % % % % + % % % X X % + X = a $ . . . . . . . . . . . . .                     X X - - - - - - - - $ $ $ $ $ $ $ $ $ & $ & & & = = = = = = * * 5 * * * 5 5 5 5 5 5 5 5 t t 5 5 5 u j j { o.2.1.3.7.7.7.7.7.7.7.7.7.7.7.7.7.7.7.7.7.E.E.E.!./.^.{.{.{.|. X X X X0X0X0X0X0X0X0X0X3X3X3X3X3X3X",
"3 3 3 3 3 3 3 3 4 4 3 3 4 4 4 4 4 4 4 4 4 4 4 4 4 4 4 4 6 8 6 6 8 8 8 8 8 8 8 8 8 8 8 8 8 8 8 8 8 8 8 8 8 8 8 8 8 8 5 5 5 5 5 5 5 5 5 5 5 5 8 8 5 7 u u j j j j j j j j j j j k j j z z z v F D [ [ ....$.#.I P ..P ..$.>.>.s.z.z.z.z.z.i.z.n.n.v.n.v.v.c.v.v.m.m.m.m.m.m.m.m.v.c.c.g.d.c.c.d.a.i.i.%.&.&.&.%.i.s.s.s.s.a.s.x.c.c.c.v.a.v.s.i.i.x.x.x.x.x.,.>.#.$.>.C.V.UX;.,.>.>.z.6.>.>.>.>.>.>.>.s.s.>.>.:.:.:.i.:.:.:.:.i.s.a.a.d.c.g.c.c.v.v.m.m.m.v.i.&.R U 1X_.G.n.$XU A Y T R Y Y R T T r.r.r.r.f.f.f.f.f.f.f.f.f.u.u.y.t.r.r.w.w.w.T T T T T T T R Y Y A _.#.=.U T R A A A R Y =.=.$.$.U Y Y Y Y Y U U U P P P U U P P G G G G P P P P P P P G A A G P P P P P P P U U P G P P G S Z S G G G G G G A A A A A A A Z Z Z C C V V V V Z A G I U U U U U Y U U U U Y U -.-.U Y U Y Y Y U U U U U U P I I A U U P P P A P P 2 2 > , ; ; ; ; > > : ; ; % % % % % % % + X + + + X * a X . . . . . . . . . . . . . . . . . . .                     - - $ $ $ $ $ $ $ $ $ $ $ $ $ $ $ & & & = = & & & & * * * * * * 5 5 5 5 5 5 5 5 5 5 5 u k ~ { 2.<.3.7.7.7.7.7.7.7.7.7.7.7.7.7.7.7.7.7.7.7.7.7.E.E.!.^.^.{.{.|. X X X0X0X0X0X3X3X3X3X3X3X3X3X3X3X",
"3 3 3 3 3 3 3 3 4 4 3 3 4 4 4 4 4 4 4 4 3 3 4 4 4 4 4 4 4 4 4 4 8 8 8 8 8 8 8 8 4 4 4 4 8 8 8 8 8 8 8 8 8 8 8 5 8 4 4 & 4 4 4 4 4 4 5 5 5 5 8 8 5 7 u u j j j j j j j j j j j k j z z z z v F D [ ......*.P S ..P ..$.=.>.>.s.z.z.z.z.z.c.n.v.n.v.v.v.v.m.m.m.m.m.m.m.m.m.m.m.c.g.g.d.d.d.d.a.s.i.%.&.&.&.%.i.i.a.a.s.s.&.i.z.n.a.s.i.:.:.%.&.%.:.:.:.>.=.=.U U ;.C.IXIXIXC.;.*.*.=.>.=.*.*.*.*.=.:.>.>.>.>.>.:.:.i.:.i.s.s.:.%.i.i.s.a.d.g.v.v.v.v.v.v.v.:.&.&.Y ]._.S.V.].$.A Y T Y Y R T T T r.u.u.f.k.k.k.k.k.k.k.k.k.g.f.f.u.u.t.t.r.r.r.&.T T T T T T R U Z (.#.=.Y U Y A A Y U U s.:.$.#.U Y Y Y Y Y U U U U U U U U P G G G I U U P P P G P P P G Z P P P P P P P P U #.#.G S #.P C Z G G G U P P P P G G G G A A A A A A Z Z C V V V V H A G I Y Y U U U U U U Y Y Y U U Y U U Y Y -.U U U U U U I G G G G I G P P $.#.f 2 2 > ; ; ; ; > > : ; ; % % % % % % % X X X X $ % * *   . . . . . . . . . . . . . . . . . . .                     - - $ $ $ $ $ $ $ $ $ $ $ $ $ $ $ $ & & = = & & & & * * * * * * 5 5 5 5 5 5 5 5 5 t 0 j b ! o.2.<.3.7.7.7.7.7.7.7.7.7.7.7.7.7.7.7.7.7.7.7.7.7.7.8.E.!.!.^.^.{.{.|. X X0X0X0X3X3X3X3X3X3X3X3X3X3X",
"3 3 3 3 3 3 3 3 4 4 3 3 4 4 4 4 4 4 4 4 3 3 3 4 4 4 4 4 4 4 4 4 8 8 8 8 4 4 4 4 4 4 4 & 4 4 4 4 8 8 8 8 5 4 4 4 4 4 & & 5 5 & & 8 8 5 8 8 8 5 8 5 5 u u u j j j j j j j j j j j j j z z z v F L ........6.Z S $.P ..$.>.>.>.i.s.z.z.z.z.c.v.n.n.v.v.v.v.S.Z.Z.Z.Z.Z.m.m.m.m.v.c.g.d.g.d.a.s.i.r.&.&.&.&.%.i.i.s.a.a.a.a.&.%.s.z.x.s.&.$.$.$.$.$.$.$.$.$.$.$.;.*.0.IXIXaXIXIXC.X.X.$.$.$.$.$.$.$.$.=.=.>.>.>.>.>.:.:.:.:.,.:.i.a.%.%.%.i.a.d.c.v.v.g.c.v.V.,.R %.Y S._.S.V.(.>.C Y T Y Y T T w.r.y.f.f.k.A.A.A.A.A.A.A.A.m.k.k.k.f.f.u.u.y.t.r.r.&.&.-.-.-.T Y U Z (.P $.U U I H I U U -.s.>.=.$.#.Y Y Y Y Y Y Y U U U U U P P G G I U #.U P I P G P P P S Z G A G G G P P P #.#...P C G P S S Z Z P A P P P P G G G I G I G G G A A Z Z Z C V V C C Z A G I U U U U U U Y Y U U U Y Y Y U Y U U U U U U U I A A P P P P G A P P S 2 f , ; ; ; ; : : : ; ; ; ; ; % % % % % % % : : : %   . .     . . . . . . . . . . . . . .                             - - - - $ $ $ $ $ $ $ $ $ $ $ $ & & & & & & & & * * * * * * * * 5 5 5 5 * * 5 t u j ~ { o.<.1.3.7.7.7.7.7.7.7.7.7.7.7.7.7.7.7.7.7.7.7.7.7.7.7.7.8.E.!.^.^.`.{.{.|. X X X3X3X X X3X3X3X3X3X3X",
"3 3 3 3 3 3 3 3 4 4 3 3 4 4 4 4 4 4 4 4 3 3 3 3 4 4 4 4 4 4 4 4 4 4 4 8 8 4 4 4 4 4 4 & 4 4 4 4 8 8 8 8 4 & 4 4 4 4 & & = & & & 5 5 5 8 8 8 5 5 5 7 u u u j j j j j j j j j j z j z z z z v F L ........6.C Z $.....*.6.:.>.i.a.a.a.z.a.a.c.c.n.v.v.v.v.m.m.m.m.m.m.m.m.m.m.v.c.d.d.a.a.s.i.r.%.&.&.&.%.%.i.i.a.a.a.x.z.s.=.&.$.$.$.#.U U $.$.#.U #.#.U U =.X.;.9./.aXIXaXaXIX`.9.X.X.X.X.$.X.#.$.$.*.=.>.>.>.>.:.:.:.:.i.i.:.:.%.r.%.%.i.p.d.d.c.v.c.v.v.%.R ,.Y a._.S.S.S.s.C Y T Y Y T T r.r.u.f.k.A.F.F.F.F.F.D.D.D.A.Z.m.k.k.k.f.f.u.u.u.r.r.r.&.&.&.-.R Y G _.P P U U A G Y -.U -.=.=.>.z.#.#.U U U U U U U #.#.#.P P P P U U U U U P I I G G P G S S A A A A A S S S G G S #.Z S G P Z Z Z Z S Z G G Z Z A G I I I G G I G A A Z Z Z H Z Z C V Z A A G I U Y U U Y Y U U U U U U Y G Y A U U U U U I G G U U U U P G P P G 2 F , ; ; ; ; : : : ; ; ; ; ; % % ; > : : s v y : X . . .     . . . . . . . . . . . . . .                             - - - - $ $ $ $ $ $ $ $ $ $ $ $ & & & & = & & & * * * * * * * * * 5 5 5 * * 5 t i x ~ { 2.<.1.7.7.7.7.7.7.7.7.7.7.7.7.7.7.7.7.7.7.7.7.7.7.7.7.7.7.7.E.!.^.^.^.{.{.}. X X X3X3X3X3X3X3X3X3X3X",
"3 4 3 3 4 3 4 4 3 3 4 4 4 4 3 3 4 4 4 4 4 3 4 4 4 4 4 4 4 4 4 4 4 4 4 4 4 4 4 & 4 4 4 4 & & & & 4 4 4 4 & & & & & & & & 4 4 4 4 = = 5 5 5 5 & 5 5 0 u u u u j j j j j j j j j j j j z z z v F S | [ ....x.f Z *.....*.z.>.s.a.a.a.a.a.s.s.a.a.c.v.v.v.v.v.m.m.m.m.m.m.m.m.m.v.g.d.d.s.s.s.i.r.%.&.%.r.%.i.i.s.s.a.s.s.s.>.=.$.$.$.$.#.#.$...P $.*.$.$...$.>.$.X.;.C.C.IXIXaXaXIX^.UXE q. .X.X.X.X.X.X.X.$.$.$.$.=.:.:.i.i.i.%.%.%.i.i.%.i.i.s.d.g.c.c.v.v.i.&.%.Y i.].S.(.x.x.A H Y Y Y R T y.f.f.k.Z.F.F.L.+X#X+XL.L.L.D.A.A.Z.m.k.k.f.f.u.u.y.r.r.r.&.%.-.&.A >.(.G G U A V H #.#.U #.=.$.=.>.6.*.#.P P #.#.$.&.$.#...P P P U #.#.U U P P P P G G G G G G Z Z S C C Z Z Z Z S S S G G Z Z Z Z Z Z Z Z Z Z C C Z A I I G A A G G A A A A A A A Z Z C C C A A I I Y Y U U U U U Y Y Y Y Y I Y U Y Y Y Y U Y I I U #.#.#.U P P P P C f 2 ; ; > > : : : : ; ; ; ; , O ; > g g D D > O . .     . . . . . . . . . . . . . . . . . .                         - - - - - - $ $ $ $ $ $ $ $ $ $ & & & & = = & & * * * * * * * * * * * * * 5 t t j b { o.<.1.3.7.7.7.7.7.7.7.7.7.7.7.7.7.7.7.7.7.7.7.7.7.7.7.7.7.7.7.7.8.E.!.^.^.^.{.{.}. X X0X3X3X3X3X3X3X3X",
"4 4 4 4 4 3 4 3 3 3 3 4 4 4 3 3 4 4 4 4 4 3 4 4 4 4 4 4 4 4 4 4 4 4 4 4 4 4 4 4 4 4 4 4 & & & & 4 4 4 & & & & & & & & & & & 4 4 = = 5 5 5 5 & & 5 5 0 u u u j j h h j j j j j j j j z z z v v S | ......>.C Z $.....=.z.s.a.h.a.a.a.a.a.a.a.c.c.v.v.v.v.v.v.v.m.m.m.m.m.m.m.c.d.d.a.s.i.r.%.%.&.%.s.s.=.&.%.%.=.:.i.s.s.&.$.#.#.#.U P #.P #.*.6.6.*.*.*.P =.*.*.$.;.;.6.^.IXaXaXIXIXUXE E E E E X.X.X.X.X.#.$.#.$.&.=.:.=.%.%.%.%.i.i.i.i.i.i.p.d.d.c.c.c.s.&.%.Y &.$XS.V.n.>.#.H A Y Y R T u.f.g.Z.A.L.L.oX#X#X#X#XoXL.L.D.A.A.Z.m.k.k.f.u.u.u.t.r.r.r.&.T R U (.>.P P U A C A #.#.#.#.#.#.$.6.9.`.9.X.P ;.#.#.*.$.X...P P P U #.#.U U P P P P P P P G A Z Z C Z C C Z 2 C C C C C C C C f f f f C C C C C C C C C Z A G A A G A G P G G A A A A A Z Z C Z A G I I U U U U U U Y Y Y U Y U U U Y Y Y U U U U U U U U #.$.#.P P #.S < Z ; ; > > : : : : ; ; ; ; > < f f g Z _ f O . . .     . . . . . . . . . . . . . . . . . .                         - - - - - - $ $ $ $ $ $ $ $ $ $ & & & & = = & & * * * * * * * * * * * * * * t t b ~ o.2.<.1.3.7.7.7.7.7.7.7.7.7.7.7.7.7.7.7.7.7.7.7.7.7.7.7.7.7.7.7.7.7.7.8.E.!.^.^.`.{.}.|. X X3X3X3X3X3X3X",
"4 4 4 4 4 4 3 3 3 3 4 4 4 4 3 3 4 4 4 4 4 3 3 3 3 3 3 3 4 4 4 4 4 4 4 4 4 4 & & & & & & & & & & & & 4 & & & # # & & & & & & & & = = & & & & & & 5 5 0 u u u u j h j j j j j j j j j z z z v v [ ........z.Z Z ......=.z.z.x.h.h.a.a.a.a.a.c.v.v.v.v.v.v.v.v.v.v.m.m.m.m.m.v.c.d.d.a.s.i.%.%.%.%.i.s.s.:.s.=.$.U $.$.$.$.#.#.#.#.#.#.$.$.$.6.b.V.n.6.*.$.*.$.*.<X>.$.;.X.0.UXIXIXaXIXIX/.;.E E  .X.X.X.X.X.X.#.#.#.#.$.&.&.&.%.%.%.:.i.i.i.i.i.r.p.f.d.d.c.s.&.%.U U 1XS.n.n.:.&.H H Y Y R &.u.g.m.A.D.L.oX#X#X-X#X#X#XP.L.L.J.D.A.Z.m.k.f.u.u.u.u.r.r.%.&.&.A U xX$.#.P U A H G #.#.#.#.U #.$.V.IXaXIXUXE X.$.=.$.*.$.$.$.#.$.#.#.#.U P P P P P P P G Z Z C C 2 C 2 2 C Z 2 P Z 2 2 2 2 2 2 2 2 2 2 C C Z C 2 2 2 C C C Z A Z Z Z G P P G G G A A A Z Z C C C Z A G I I P Y U U Y Y Y U Y Y -.-.Y Y Y Y U U U U U U U U #.$.#.U #.P < F ; ; > > > > > > ; ; ; ; f s f f g F F , . . . .   . . . . . . . . . . . . . . . . . . .                             - - - - - - $ $ $ $ $ $ $ $ $ $ & & & & = & & * * * * * 5 5 5 5 * * * * t u b ! o.2.1.3.7.7.7.7.7.7.7.7.7.7.7.7.7.7.7.7.7.7.7.7.7.7.7.7.7.7.7.7.7.7.7.7.7.8.!./.^.^.`.{.}.|. X3X3X3X3X0X",
"4 4 4 4 4 4 3 4 3 3 4 4 4 4 4 4 4 4 4 4 4 3 3 3 # # 3 3 3 3 3 3 4 4 4 4 4 4 & & & & & & & & & & & 4 4 & & # # # & & & & & & & & = & & & & & & & 5 5 5 u u u u j j j j j j j j j j j z z z v g S ........6.C P x.P ..=.z.z.x.h.a.a.h.c.c.c.c.v.v.v.v.v.v.v.v.v.v.v.v.v.v.v.v.c.d.d.p.i.i.=.i.s.s.&.:.:.=.=.:.=.&.P P U U U U P P *.=.=.$.x.V.~.~.~.b.*...*.;.).(.;.$.;.P *.0.9.^.IXIXIXIXIXUXE  .X...........P U P #.#.#.#.$.%.=.=.%.i.i.s.s.i.r.t.p.p.a.c.s.&.%.U U 2XS.S.z.:.$.Y H A Y R r.f.k.Z.A.F.oX+X#X#X-X-X#X#X#XOXL.L.L.D.A.Z.m.k.f.u.u.y.y.r.%.%.Y Z S.'...P P P A Z G #.#.#.#.#.$.=.].aXaXIXIX^.E ;.X.X.$.;.;.$.$.*.$.#.U U P P P P P G A Z C C 2 2 2 C 2 2 C < C 2 C f f f 2 2 2 2 2 < 2 2 2 2 2 2 2 C C 2 2 2 V C 2 C A P I I I P G G A Z Z Z C C C H A A A I I I Y U Y Y Y Y U -.-.U Y Y Y U U U U U U U U U U #.#.#.P 2 f ; , > > > > > > ; > ; ; D D F S F F ; O . . . . . . . . . . . . . . . . . . . . . . . .                             -   - - - - $ $ $ $ $ $ $ $ $ $ $ $ & & & & & * * * * * 5 5 5 5 * * * * t u b ) o.<.1.7.7.7.3.3.7.7.7.7.7.7.7.7.7.7.7.7.7.7.7.7.7.7.7.7.7.7.7.7.7.7.7.7.7.7.E.!.!./.^.`.{.}.|.3X3X3X3X0X",
"4 4 4 4 4 4 4 4 4 3 4 4 4 4 4 4 3 3 3 3 3 # # # # # # # 3 3 3 3 4 4 4 4 4 4 & & & & & & & & & & & & & & & & & & & & & & & & & & & & & & = = = = 5 5 5 t u u u j i i j j j j j j j j j z z g g D ......P x.f Z *.P $.>.s.z.x.x.h.d.c.c.c.c.v.v.v.v.v.v.v.v.v.v.v.v.v.c.c.c.c.d.d.a.y.r.i.a.x.z.s.=.&.$.$.#.#.#.#.#.U P P U #.$.$.=.z.n.n.(.(.(.(.V.*.$.$.;.*.`.>.V.X.#.*.X. .q.0.UXIXIXaXIXIX/.E E *.U P U ..U ..#.#.#.#.&.:.:.%.&.%.i.s.a.a.a.s.t.p.a.a.a.a.&.:.#.P 5XS.n.s.:.$.-.H A Y R &.f.k.A.D.L.OX#X#X#X-X-X-X#X#X@XP.L.L.K.A.A.M.k.j.u.u.u.y.r.&.&.I s.vX~.>.P P P Z Z #.#.-.#.$.=.=.=.;.'.aXIXIXIX^.UXE X.*.6.>.=.&.$.#.U P P G G G G S S Z C 2 2 2 2 2 < 2 < Z P ~.#.2 2 2 2 2 2 2 2 2 2 2 2 2 2 2 2 2 C f 2 2 2 2 2 2 C Z G G Y Y P G S A A A Z Z C C C Z Z A A A G I U U Y Y Y U -.-.-.U U U U Y U U U U U U U U U U $.P Z < s > > ; > : : : ; : 1 F *.D D F f > O + . . . . . . . . . . . . . . . . . . . . . . . .                             - X - - - - $ $ $ $ $ $ $ $ $ $ $ $ & & & & & & & & & & * * * * * * * t t j ~ { @.<.3.3.7.7.3.3.3.3.7.7.7.7.3.3.3.3.3.3.3.3.7.7.7.7.7.7.7.7.7.7.7.7.7.7.7.7.7.9.8.!.!.^.`.}.|.|. X3X3X3X",
"4 4 4 4 4 4 4 3 4 3 4 4 4 4 4 4 3 3 4 3 3 # # # # # # # 3 3 3 3 # # # 3 # # # # # # # # # # # # & & & & & & & # & & & & & & & & & & & & = = = = 5 5 5 u u u u j i i j j j j j j j j z z z z g g ......P x.f Z *...*.>.z.h.c.c.d.d.c.c.c.v.v.v.v.v.v.v.v.v.v.v.v.v.c.d.d.g.d.a.a.s.i.i.i.s.x.z.:.#.U P P P P P P P P U #.#.$.=.z.n.V.(.(.(.(.(.(.~.;.$.$.*.$.x.>.;.#.*.$.X.;.;.O.E UXIXIXIXIXIX^.6.E E X.U U U #.#.#.#.#.=.%.&.=.%.%.i.s.a.a.d.a.a.p.f.d.a.a.&.s.#.I 5XS.n.s.:.$.&.A H J Y T p.k.A.L.L.@X#X#X#X#X-X-X#X#XOXP.L.L.J.A.A.M.m.k.f.u.u.y.r.&.Y $.(.qXV.>.P P P Z Z #.-.-.-.$.=.*.*.*.>.V.IXaXaXIXIXUXX.;.>.b.&.$.U P G G G G G S Z Z C C Z C 2 2 2 2 2 2 S P f P 4X>.2 2 2 2 2 2 2 2 2 2 2 2 < Z Z < 2 2 2 C C C 2 2 2 C Z A G G G G S A A A A Z Z C Z Z Z Z A G G G I U Y Y Y Y U #.U U U U U Y U Y U U U U U U U U U P S 2 s > ; ; > : : : : > s +.X.g g 2 ; O O X o . . . . . . . . . . . . . . . . . . . . . . .                             - - - - - - $ $ $ $ $ $ $ $ $ $ $ $ & & & & & & & & & & * * * * * * * t i b ! o.2.<.3.3.3.3.3.3.3.3.7.7.7.7.3.3.3.3.3.3.3.3.7.7.7.7.7.7.7.7.7.7.7.7.7.7.7.7.7.7.5.9.8.!./.^.{.{.|.|. X3X",
"4 4 4 4 4 4 4 4 4 3 4 4 4 4 4 4 4 4 4 3 3 3 3 3 3 3 # # # # # # 3 3 # # # # # # # # # # # # # # & & & & & & & & & & & & & & & & & & & & = & & = 5 5 5 u u u u j i i j j i j j j j j z z z z d d _ ....P x.f Z *.$.>.s.s.h.n.v.d.d.c.c.c.v.v.v.v.v.v.v.v.v.v.v.v.c.d.d.a.d.a.s.i.i.s.a.i.s.z.s.=.$.$.#.#...P ....#.#.#.#.$.=.z.b.(.(.(._.(.(.(.(.~.>.$.$.*.$.*.=.#.=.*.*.*.6.MX).X.0.^.Q.IXIXIXIXIXC.E E E U U #.#.#.#.#.>.=.%.=.%.%.s.s.a.a.c.c.d.a.d.c.c.x.&.s.U I 5XS.n.s.=.$.&.I V A Y T p.f.A.L.L.@X#X#X#X#X#X#X#X@XP.P.L.K.J.A.A.M.m.k.f.u.p.y.%.&.Y U 1X,XV.*...#.P Z Z #.-.-.-.$.$.$.*.*.;.;.UXIXIXaXIXIX`.6.>.*.$.#.G G S A A A A A Z Z Z S Z C f 2 2 2 C z.C 2 f C Z ~.2 2 2 2 < < < < 2 2 2 2 2 f C 2 2 2 2 C C C C 2 2 2 C Z Z A G S A S S S A A Z Z Z Z Z A A A G G G I U U Y Y Y U R -.#.U U U U U U U U U U U U U Y I P 2 s > ; ; : : : : : ; F *.g < 1 : ; O O X o o o o . . . . . . . . . . . . . . . . . . . .                             - - - - - - $ $ $ $ $ $ $ $ & & & & & & & & = & & & & & * * * * * * t t j { { o.<.1.3.3.3.3.3.3.3.3.7.7.7.7.3.3.3.3.3.3.3.3.7.7.7.7.7.7.7.7.7.7.7.7.7.7.7.7.7.7.7.7.7.8.Q.!.^.^.{.{.|. X",
"4 4 4 4 4 4 4 3 4 3 4 4 4 4 4 4 4 4 3 # 3 # # # # # # # # # # # # # # # # # # # # # # # # # # # & & & & & & & & & & & & & & & & & & & & & & & & 5 5 5 u u u u j j j i i i j j j j j z z z z d d D ......9.f Z *.$.>.s.s.h.c.c.g.g.c.v.v.v.v.v.v.v.v.v.v.v.v.v.v.c.d.a.a.a.a.s.i.%.a.x.s.>.s.>.=.$.$.$.#.........#.#.#.#.$.=.x.n.~.(.(.(.(.(.(.(.(.>.*.$.*.*.;.$.$.*.P $.X.X.6.}.fX;.0.0.UXIXIXIXIXIX`.9.E E U X.#.#.#.#.=.>.s.&.&.%.s.s.a.a.a.c.c.d.d.g.c.x.&.h.U I 5XV.n.s.=.$.$.Y V A Y T p.k.A.K.L.@X#X#X#X#X#X#X@XT.P.P.L.K.K.A.A.M.m.k.j.f.p.y.%.T U #.'.qXb.*...$.P Z Z #.-.-.$.$.$.$.$.$...$.*.;.`.aXaXIXaX/.*.#.#.G G G A A A A A A Z Z P P S C f f f 2 >.Z 2 2 Z 2 f f 2 2 2 2 < < < < 2 2 2 2 2 2 2 2 2 2 2 C Z Z C C C C 2 2 C V C Z Z S Z Z Z Z A Z Z Z Z Z A A G G I I Y U Y U U U -.-.U U U U U U U U U U U U U U I G P C 2 > : : ; : : : ; ; D | : ; y 1 ; O O X o o o o . . . . . . . . . . . . . . . . . . . .                         X X - - - - - - $ $ $ $ $ $ $ $ & & & & & & & & = & & & & & * * * * * * t i b @.o.2.1.3.3.3.3.3.3.3.7.7.7.7.7.7.3.3.3.3.3.3.3.3.7.7.7.7.7.7.7.7.7.7.7.7.7.7.7.7.7.7.7.7.7.9.8.E.!./.^.).{.|.",
"4 3 4 4 4 4 4 4 4 3 3 3 3 3 3 3 3 3 3 # 3 3 # # # # # # # # # # # # # # # # # # # # # # # # # # & & & & # # & & & & & & & & & & & & & & = = & & 5 5 5 u u u u j i i j j j j j j j j j z z z d d D [ ..P 6.f Z &.&.s.x.x.d.c.v.v.v.v.v.v.v.v.v.v.v.v.v.v.v.v.v.v.c.d.a.a.a.a.a.a.a.s.s.s.:.&.$.#.#.#.#.#.#.#.#.#.$.&.&.&.&.=.>.>.n.V.(.(.(.(._.(.~.z.*.$.$.$.$.$.#.=.=.....*.....6.;.X. .E 0.UXIXIXIXIXIXUX;.E X.$...X.;.6.s.h.a.s.i.s.a.a.a.a.d.g.c.g.c.n.x.%.x.P P 5XV.V.s.=.$.#.U V A J T u.k.A.K.P.@X@X#X#X#X&X#XY.Y.P.P.U.L.J.J.A.Z.m.k.g.f.p.p.%.R Y x.5XqXV.*...$.P Z Z $.$.$.$.#.#.#.....#.P #.*.X.9.IXaXaX`.E U U Y P A Z Z C 2 S Z S P =.#.S C 2 C C 2 V.2 C Z C 2 2 f 2 2 2 2 2 2 2 2 2 2 2 2 2 2 C C f 2 2 C A S Z Z C C C 2 2 2 2 C C C Z Z Z Z Z Z Z Z Z Z Z A A G I I U U Y U U U -.-.U -.U Y Y Y Y Y U U U U U U I #.U S f > > < ; > : < > y F g : : ; ; ; ; ; % X o o o . . . . . . . . . . . . . . . . . . . . . . . . . . . .             X X - - - - - - - - $ $ $ $ $ $ $ $ & & & & & & * * * * * * * * * 5 w i ! { @.<.1.3.3.3.3.3.7.3.3.3.3.3.3.7.7.7.7.7.7.7.7.7.7.7.7.7.7.7.7.7.7.7.7.7.7.7.7.7.7.7.7.7.7.7.7.9.8.!./.^.{.{.",
"3 3 4 4 4 4 4 3 4 3 3 3 3 3 3 3 # # # # 3 # # # # # # # # @ # # # # # # # # # # # # # # # # $ $ @ @ @ @ $ $ $ $ # # & & & & & & & & & & = = & & 5 5 5 u u u u j i i j j j j j j j j j j z z d d F [ [ L 6.2 Z &.=.x.n.v.c.v.v.m.m.m.m.m.m.m.m.v.v.c.v.v.v.v.v.v.c.c.d.a.s.i.i.i.i.:.,.=.#.#.#.#.U U U #.$.$.$.$.&.=.=.=.=.i.s.z.x.x.n.n.n.S.(.(.V.x.=.$.$.$.$.$.$.>.x.$.$.6.<Xx.X.X.X.X.E E ;.UXIXIXIXIXIX^.UXX.+.X.*.>.z.x.c.c.c.a.a.s.s.s.s.s.d.c.m.v.n.c.&.x.P U 5XC.V.s.=.$.U P A G J T u.k.D.L.P.Y.@X@X#X&X&X&X#XY.P.L.L.U.U.J.A.A.m.k.f.f.u.p.%.R A n.(.}.~.>...$.P Z Z $.$.$.$.$.#.#...#.#.#...X.;.>.;.{.aX}.L P P G Z Z Z Z C C A G =.s.=.#.S C f C C f z.f C C f >.=.C 2 2 2 2 2 2 2 2 2 2 2 2 2 2 C Z Z Z Z Z S A Z Z Z C C V 2 2 2 2 2 2 C C C C Z Z A G G G A A Z A G G I Y U U U U U U -.-.U Y Y Y U U Y Y P P I I Y U U I f < > < , > < y y > S f ; > < < 2 < : ; O o o o . . . . . . . . . . . . . . . . . . . . . . . . . . . .             X X - - - - - - - - $ $ $ $ $ $ $ $ & & & & & & * * * * * * * * * 5 u c ! { 2.<.1.3.3.3.3.3.3.3.3.3.3.3.3.7.7.7.7.7.7.7.7.7.7.7.7.7.7.7.7.7.7.7.7.7.7.7.7.7.7.7.7.7.7.7.7.7.7.8.E.!.^.).",
"3 3 4 4 3 3 4 3 3 3 # # # # # 3 # # # # 3 # # # # # # @ @ # # # # # # @ # # # # # # # # # # # # @ @ @ @ $ $ # # # # & & & & & & & & & & & & & & 5 5 5 u u u u j i i j j j j j j z z j j j z z d v D [ L 6.2 Z =.s.v.n.m.v.m.m.m.m.m.Z.Z.Z.Z.Z.m.m.v.c.c.c.c.c.c.c.c.a.a.s.i.&.&.&.&.-.-.#.U Y P U U #.$.=.=.=.=.:.=.=.=.=.:.s.s.z.z.x.x.c.n.n.n.n.x.>.$.$.$.$.$.>.'.*.=.$...$.C.$.X.P L *.*.*.E 6.(.IXIXIXIXIXUX5.X.*.>.c.c.c.c.v.v.c.a.i.i.i.i.s.d.v.m.S.v.=.z.P $.5XV.V.s.$.$.U G G Y J T f.k.D.L.P.Y.@X@X%X%XY.P.I.U.U.U.L.I.U.J.A.A.m.k.g.f.p.p.r.T A s.'.<X(.>.#.$.P C Z $.$.$.$.$.#.#.#.#.#.#.#...*.*.*.X.V.C.I A A Z Z Z Z A G U &.%.s.=.=.$.G C C 2 2 C $.f C f Z S =.2 2 2 2 2 2 2 2 2 f f 2 2 2 2 C C C 2 2 C G A Z Z Z C C V 2 2 2 2 2 2 2 2 2 2 C C Z A A A G A A A A A A G I Y U U U #.-.-.R U Y Y Y Y Y Y I I I Y U U U P C > > < > < 2 f f > S < > f Z S S F f s O o o o . . . . . . . . . . . . . . . . . . . . . . . .     .               X X - - - - - - $ $ $ $ $ $ $ $ $ $ & & & & & & * * & & * * * * 5 5 i ! { o.<.1.3.3.3.3.3.3.3.3.3.3.3.3.3.3.7.7.7.7.7.7.7.7.7.7.7.7.7.7.7.7.7.7.7.7.7.7.7.7.7.7.7.7.7.7.7.7.7.7.9.8.!./.",
"3 3 4 4 3 3 4 3 3 3 # # # # # # # # # # # # @ @ # # @ @ @ @ @ @ @ @ @ @ @ @ @ @ @ @ @ @ @ @ @ @ & # @ @ $ $ # # # # & & & & & & & & & & & & & & 5 5 5 u u u u j i j j j i i j j j j j j j j z z c D D D 6.2 Z &.a.n.S.m.m.m.m.m.m.m.Z.Z.Z.Z.Z.m.m.v.c.c.c.d.d.d.c.c.d.a.a.i.%.&.&.-.R U U U U U U $.%.:.:.s.s.i.i.=.%.&.&.%.=.:.i.s.c.n.z.z.x.x.n.x.s.$.*.$.$.$.z.(.V.=.V.;.=.,.U X.$.$.$.$.$.$.$.*.UXIXIXIXIXIX/.;.;.>.x.c.c.v.v.v.c.a.i.r.r.i.p.p.g.v.S.n.&.s.P $.].V.V.s.$.$.U A I I Y w.f.m.K.P.Y.Y.@X@X@X#X@XY.P.I.U.U.I.P.L.J.A.A.m.k.g.f.p.y.r.T A =.V.,X`.6.$.#.P f Z $.$.$.$.#.#.#.#.#.#.#.#...$.#.X.P L L I Z Z Z Z Z G U &.=.:.:.s.%.:.$.P Z C 2 2 C S f C 2 C 2 Z 2 2 2 2 2 2 2 2 2 f f f 2 2 2 C C 2 2 2 2 S A Z Z Z C C V 2 2 2 2 2 2 2 2 2 2 2 V C C C Z Z A A A A A A A G P Y U U U U U R U Y Y Y Y I Y Y U Y Y R U U U Z 2 > 2 < 2 2 f 2 2 Z 2 f Z ..$.$.#.P Z > o o o . . . . . . . . . . . . . . . . . . . . . . . .                     X X - - - - - - $ $ $ $ $ $ $ $ $ $ & & & & & & * * & & * * * * 5 w z ! { 2.1.1.3.3.3.3.3.3.3.3.3.3.3.3.3.3.7.7.7.7.7.7.7.7.7.7.7.7.7.7.7.7.7.7.7.7.7.7.7.7.7.7.7.7.7.7.7.7.1.5.7.7.8.E.",
"4 4 3 3 3 4 4 4 4 4 & # 3 # # # # # # # @ @ @ @ @ @ @ @ @ @ @ @ @ @ @ @ @ @ # @ @ @ @ @ @ @ @ @ @ @ # @ $ $ & & & & & & & & & & & & & & & & & & = 5 5 0 0 0 u i i i j j j j j j j j j z z z z z z F D D *.2 Z &.v.S.Z.Z.Z.m.m.Z.Z.Z.Z.Z.Z.Z.m.m.v.c.c.d.d.a.s.s.s.i.i.%.&.%.&.&.&.&.&.R &.&.=.%.=.=.i.i.s.s.s.a.s.a.s.s.s.s.i.i.i.i.z.c.c.c.z.z.c.x.s.:.>.=.$.#.*.*.*.$.$.=.,.=.$.$.$.=.=.=.*.=.$.X.*.9.).IXIXIXIX`.C.6.x.x.x.C.n.n.c.d.r.%.%.%.r.t.f.g.c.c.s.s.I =.].V.n.&.$.$.P G Y J Y r.k.A.U.P.@X@X@X@X@X@X@X@XP.P.L.I.P.P.L.J.A.A.m.m.k.f.u.r.r.T Y #.V.'.'.x.$.P G 2 Z =.$.$.$.#.#.#.#.#.U U U U P S S Z Z Z C C Z A G I P #.%.:.:.>.s.s.>.&.P Z C C C C Z P C 2 2 P < f 2 2 2 2 f f f C f f f f Z 6.C C C C 2 C Z Z Z A Z Z Z Z C C 2 2 2 2 2 , 2 2 2 V 2 2 V C C Z A A A G G P I Y U U U U U U U Y Y Y Y Y Y U U R R R R R U U G 2 2 2 2 Z Z C 2 C C A G G &.&.=.=.$...F > O . o . . . . . . . . . . . . . . . . . . . . . . .                         - - - - - - $ $ $ $ $ $ $ $ $ $ & & & & & & & & & & * * * & 5 u b { o.<.1.3.3.3.3.3.3.3.3.3.3.3.3.3.3.3.3.3.3.3.3.3.3.3.3.3.3.1.7.7.7.7.7.7.7.7.7.7.7.7.7.7.7.7.7.7.7.7.7.7.7.7.7.7.",
"4 3 3 3 4 4 4 4 4 4 # # 3 # # # # # # @ @ @ @ @ @ @ @ @ @ @ @ @ @ @ @ @ @ @ @ @ @ @ @ @ @ @ @ @ @ @ @ @ @ @ $ # $ $ & & & & & & & & & & & & & & = 5 5 0 0 0 u i i i j j j j j j j j j j z z z z z v D D $.Z Z -.n.S.S.Z.S.Z.Z.Z.Z.S.S.S.Z.m.m.v.v.c.c.d.c.c.a.a.s.s.i.i.i.%.%.%.%.i.i.s.i.i.s.s.a.a.a.a.d.c.c.c.c.c.c.x.x.x.x.x.a.z.c.c.s.s.c.c.n.n.z.z.=.%.$.$.$.$.$.$.>.$...$.#.$.$.$.$.$.$.*.$.$.#.$.,.UXIXIXIXIXIX`.C.9.C.c.c.c.a.s.r.%.%.%.&.r.t.f.v.a.x.s.I h.].V.h.$.$.&.U A -.J R t.m.K.L.@X@X@X@X@X@X@X@X@XP.P.I.P.P.P.L.U.J.A.M.k.k.f.u.r.r.T Y U n._.'.x.$.P G 2 Z =.$.$.#.#.#.#.#.#.U U P P S Z Z Z Z Z C V Z A I I U $.%.:.>.>.s.s.z.=.U S C C C C #.#.S Z C Z f 2 2 2 2 2 f f C C C C C f Z S C C 2 C Z Z G P G G A Z Z Z Z C C C C V 2 2 , , 2 2 2 C C C C Z Z A P I U U U #.-.-.-.-.U U Y Y Y Y Y Y U U $.&.T T &.R U U G 2 2 2 2 C Z C 2 C C A #.U &.&.s.s.s.=...Z ; . . . . . . . . . . . . . . . . . . . . . . . . .                         - - - - - - $ $ $ $ $ $ $ $ $ $ & & & & & & = = * & * * * & w j ~ { @.<.1.7.3.3.3.3.3.3.3.3.3.3.3.3.3.3.3.3.3.3.3.3.3.3.3.3.3.3.7.7.7.7.7.7.7.7.7.7.7.7.7.7.7.7.7.7.7.7.7.7.7.7.7.7.",
"4 4 3 3 4 4 4 4 4 4 & & 3 3 3 3 # # # @ @ @ @ @ @ @ @ @ @ @ @ @ @ @ @ @ @ @ @ @ @ @ @ @ @ @ @ @ @ @ @ @ @ @ $ $ # # $ # # # & & & & & & & & & & = 5 5 0 0 0 u i i i i j j i j j j j z z z z z z z d F D ..P C #.n.S.D.Z.D.D.A.A.Z.Z.Z.S.Z.Z.m.v.v.c.c.a.s.i.r.%.r.i.i.i.i.%.%.%.&.%.i.a.d.h.x.d.c.c.c.v.v.v.v.v.v.v.v.v.v.v.v.v.n.c.c.c.x.z.s.i.i.z.n.S.n.c.x.x.z.z.z.z.>.x.C.x.;.*.X.#.#.#.U #.#.#.$.$.$.*.6.^.IXIXaXIX`.>.h.a.a.s.p.i.r.%.%.%.r.t.p.d.v.i.n.:.G V.].S.x.=.=.$.Y U &.J T f.A.K.P.@X@X@X@X@X%X%X@X@XP.P.P.P.P.P.L.U.J.A.M.m.k.f.u.r.r.&.I U x.(.'.x.$.P G 2 Z =.$.#.....#.#.#.#.#.P G A Z Z Z Z Z Z C V I I Y U -.&.=.=.%.%.=.:.:.&.U G C C C C Z S Z P Z f C f f f f f f f C C C C C Z C 2 Z Z P #.#.#.#.#.P G A A A A A A Z Z C C C V 2 2 2 V V C C C C C Z A A P P P U U #.U U U U Y Y Y Y Y Y U -.R &.&.&.&.&.$.U U G 2 2 2 2 V Z C V Z H G &.-.=.%.s.z.d.x.>.P 2 o o . . . . . . . . . . . . . . . . . . . . . . .                         - - - - - - - - $ $ $ $ $ $ $ $ & & & & & & = = * * * * & * u b ! o.2.1.3.7.3.3.3.3.3.3.3.3.3.3.3.3.3.3.3.3.3.3.3.3.3.3.7.7.7.7.7.7.7.7.7.7.7.7.7.7.7.7.7.7.7.7.7.7.7.7.7.7.7.7.7.7.",
"4 4 3 3 4 4 4 4 4 4 & & 3 3 # 3 # # # @ @ @ @ @ @ @ @ @ @ @ @ @ @ @ @ @ @ @ @ @ @ @ @ @ @ @ @ @ @ @ @ @ @ @ $ $ # # $ $ $ # & & & & & & & & & & = 5 5 0 0 0 u i i i i i j j j j j j z z z z z z z d v F L $.C U v.Z.A.Z.D.D.D.A.D.A.Z.Z.Z.m.m.v.c.c.c.d.a.s.i.r.r.%.%.%.&.&.&.&.s.a.d.c.c.c.v.v.c.c.v.v.m.m.m.Z.Z.Z.Z.Z.Z.Z.v.v.v.n.c.z.i.i.s.z.z.z.z.s.n.n.n.V.S.S.S.V.V.n.b.C.6.6.6.6.z.z.s.z.a.z.n.n.x.x.C.V.G.IXaXaXtX6.p.y.p.p.p.p.r.%.%.r.p.d.g.m.v.i.S.=.I V.S._.S.z.>.#.I &.T R r.m.oXI.OX@XP.Y.@X%X%X%X@X@XP.P.P.P.P.P.P.U.J.A.Z.m.k.f.u.r.r.&.I I s.V.'.b.$.P G f Z *.#...P ..#.#.#.U P G Z Z C C Z Z Z Z C C V H A A A A G I U U U -.-.#.P A C C C C S Z C S Z C 2 Z C C C C C C C C C C C Z S ..$.$.=.$.$.#.#.#.P G A A A A G G A A H H H C C C C C V C C C C C V C Z Z A G G I P U Y U U U Y U -.&.R R R U -.-.R R R R R U A V 2 2 2 V H V V H H G -.-.s.a.p.p.d.c.x.=.S > O o . . . . . . . . . . . . . . . . . . . . . .                         - - - - - - - - $ $ $ $ $ $ $ $ & & & & & & = = * * * * 5 5 l ~ { o.<.1.7.7.3.3.3.3.3.3.3.3.3.3.3.3.3.3.3.3.3.3.3.3.3.3.7.7.7.7.7.7.7.7.7.7.7.7.7.7.7.7.7.7.7.7.7.7.7.7.7.7.7.7.7.7.",
"4 4 4 4 4 4 4 4 4 4 4 3 # # # # # # @ @ @ @ @ @ @ @ @ @ @ @ @ @ @ @ @ @ @ @ @ @ @ @ @ @ @ @ @ @ @ @ $ $ @ @ $ $ @ @ # # # # & & & & & & & & & & = 5 0 0 0 0 u i i i j i i i p p p p j j z z z z z d v F S *.C A n.D.N.F.oXL.F.F.D.S.Z.Z.Z.m.m.v.c.g.d.d.a.a.s.i.%.%.%.%.%.%.i.i.d.c.v.v.v.m.m.m.v.v.m.m.Z.Z.S.S.S.S.S.Z.Z.Z.Z.S.S.N.s.N.c.v.S.S.S._.n.S.c.n.S._.+XS.(.S.S.S.(.(.(.(.(.(._.S.S.n.S.n.v.v.v.n.c.h.h.H.].aXwXh.p.p.p.d.a.a.y.r.r.r.d.g.g.g.d.i.V.&.U V._.5XV.i.&.U A c.A J p.A.L.I.OXOXP.OX%X%X@X@X@X@XOXP.P.P.P.P.P.U.J.A.Z.m.k.f.u.r.r.T Y G :.x.).x.$.P S C C $.#.P P #.U U P I G S Z C C H H H H Z A A A A I Y Y Y Y Y Y U U I Y G #.#.#.U $.I P P S #.=.=.=.=.S C Z C C Z S G ..#.$.$.=.=.#.&.$.#.#.-.-.#.#.#.U U P I I I I I G A A Z Z A G P I G Z Z C C C C C A A A G G G G Y U U Y Y R R R R R Y R R R R Y R &.$.A A V 2 V V V C 2 C Z A I -.&.d.s.p.p.f.g.N.a.P > ; X o . . . . . . . . .     . . . . . . . . . . . . . .     . .         -   - - - - - - - - - - $ $ $ $ $ $ & & & & & & & & & & 5 u x ! o.2.<.1.3.3.3.3.3.3.3.3.3.3.3.3.3.3.3.3.3.3.3.3.3.3.3.3.3.3.3.3.7.7.3.3.7.7.7.7.7.7.7.7.7.7.7.7.7.7.7.7.7.7.7.7.7.7.",
"4 4 4 4 4 4 4 4 4 4 4 3 # # # # # # @ @ @ @ @ @ @ @ @ @ @ @ @ @ @ @ @ @ @ @ @ @ @ @ @ @ @ @ @ @ @ @ $ $ @ @ $ $ $ $ # # # # & & & & & & & & & & = 5 0 0 0 0 u i i i j i i i p p p p j j z z z z z g v F S =.C A g.D.D.F.L.L.F.F.D.D.Z.Z.Z.m.v.g.d.p.a.p.s.i.r.%.%.r.i.i.i.s.s.a.c.v.v.v.m.m.m.m.m.m.m.N.Z.S.S.D.D.D.S.S.D.D.G.D.D.g.S.m.D.N.N.S.S.S.S.S.S.S.S.S._._.n.n._._.S.S.S._._._._._.v.n.S.v.v.v.v.v.c.g.Z.g.g.G.$Xh.d.d.d.d.d.d.y.r.r.r.r.p.g.m.d.a.n.$.U V.5X2XV.:.$.U Y i.A T m.F.L.P.OXP.P.@X@X@X@X@X@X@XOXP.P.P.OXOXP.L.J.A.A.m.k.j.u.r.r.T Y G &.6.~.x.$.P S C C $.#.P P #.U P P G G A Z Z H Z Z Z H A A G Y Y Y R R R Y U -.&.&.#.-.G U U #.&.i.&.=.$.:.:.:.>.s.>.>.=.=.$.=.i.&.>.=.=.=.&.=.&.#.&.-.&.&.$.&.&.&.&.&.$.#.#.-.#.U U U P I A A G P P U U I G A A Z Z A A A G Y Y Y U U -.R U U Y Y Y Y Y Y R Y R R Y &.&.&.A A V V V V V V 2 V C H A Y %.c.d.d.f.f.f.m.d.#.2 ; X o . . . . . . . . .     . . . . . . . . . . . . . .     . .         - - - - - - - - - - $ - $ $ $ $ $ $ & & & & & & & & & & 7 l ~ { o.2.<.1.3.3.3.3.3.3.3.3.3.3.3.3.3.3.3.3.3.3.3.3.3.3.3.3.3.3.3.3.7.7.3.3.7.7.7.7.7.7.7.7.7.7.7.7.7.7.7.7.7.7.7.7.7.7.",
"3 3 3 3 4 4 4 4 4 4 4 4 & # # # & # # @ @ @ @ @ @ @ @ @ @ @ @ @ @ @ @ @ @ @ @ @ @ @ @ @ @ @ $ $ $ $ & & & & & & & & & & & & & & & & & & & & & & = 5 0 0 0 0 u u i i i i i i p p p p j j z z z z z g v F S =.C A p.F.D.F.oXL.L.F.F.D.D.Z.Z.m.v.g.g.d.a.p.s.i.r.%.r.i.i.i.s.a.d.d.v.v.v.v.m.m.m.m.m.m.Z.Z.S.A.D.D.D.D.F.F.F.F._._.S.S.Z.D.D._.+X_.D._.S.D._.D.m._.S.c.a._._._._._.S._.S._.S.D.N.S.N.v.v.c.c.v.c.g.k.Z.m.f.m.g.g.m.g.g.g.g.g.d.p.d.f.g.m.Z.d.v.n.Y &.].iX5Xv.%.U P &.Y Y y.D.L.OXOXOXP.OX@X%X%X%X%X@X@XOXP.P.P.OXOXP.L.J.A.A.m.k.j.u.r.r.T U I #.,.b.6.$.S S C C $.$.P P U P P G G G G A A A A A A G Y Y Y Y R U T T -.-.-.&.%.%.&.Y -.i.&.U &.s.-.&.&.s.=.&.&.=.:.i.i.=.=.=.-.#.=.=.=.=.=.&.&.U -.=.&.&.%.i.i.i.i.=.=.%.%.&.&.-.Y #.#.U U I Y U U U U U U P G A A A A G I Y U U U U U U U Y Y Y Y R R T &.&.&.&.&.%.%.&.H I V V V H V 2 2 C Z A G T %.f.f.p.t.t.u.f.g.%.f ; X o . . . . . . . . .     . . . . . . . . . . . . . .       .             - - - - - - - - $ $ $ $ $ $ $ $ & & & & & & & & & 4 7 j ~ o.2.<.1.1.3.3.3.3.3.3.3.3.3.3.3.3.3.3.3.3.3.3.3.3.3.3.3.3.3.3.3.3.7.7.3.3.7.7.7.7.7.7.7.7.7.7.7.7.7.7.7.7.7.7.7.7.7.7.",
"3 3 3 3 4 4 4 4 4 4 4 4 & # # # & # # # # @ @ @ @ @ # # # # # # # # # @ @ @ & & & & & # & & & & & & & & & & & & & & & & & & & & & & & & & & & & = 5 0 0 0 0 0 u i i i i i i p p p p j j z z z z z g v F S *.C A r._.oXL.oXL.L.L.F.D.D.Z.Z.m.m.v.g.d.d.d.a.a.s.i.i.i.i.i.a.a.d.c.c.v.v.v.m.m.m.m.m.Z.Z.S.A.D.D.F.D.D.F.F.L.F._.F.D.D.D.F.+XoX_._.oXD.oXF._.m.oXoX_.c.m.D.m.Z.S.D.S._.N._._.S.S.v.m.m.v.c.c.v.c.g.k.m.k.g.f.m.g.M.k.g.g.g.Z.m.m.m.Z.Z.A.D.d.S.n.Y S.$XtX].v.%.U I i.A Y d.D.oXOXOXOXP.OX@X%X%X%X%X@XP.P.P.P.P.OXOXP.L.J.A.A.M.m.k.u.r.r.T -.I U $.>.>.$.S S C C #.$.P P U P G G G G G G G G G G G Y U U U U T T T -.-.&.&.%.i.i.=.=.i.a.:.=.x.c.-.%.c.a.a.s.&.&.c.s.z.%.i.#.H -.&.i.i.i.i.-.-.Y #.&.%.%.&.a.a.a.a.s.i.=.%.&.-.-.U R &.-.R U U U U U U U U Y A A A A G I I I Y Y Y Y Y Y Y T R T &.&.&.%.%.%.&.%.%.%.,.&.A I H H H H V 2 C A G Y R %.r.t.t.r.r.w.w.t.f.%.Z ; X o . . . . . . . . .     . . . . . . . . . . . . . .       .             - - - - - - - - $ $ $ $ $ $ $ $ & & & & & & & = & 4 u k ~ o.2.<.1.1.3.3.3.3.3.3.3.3.3.3.3.3.3.3.3.3.3.3.3.3.3.3.3.3.3.3.3.3.7.7.3.1.3.7.7.7.7.7.7.7.7.7.7.7.7.7.7.7.7.7.7.7.7.7.",
"# # 3 3 4 4 4 4 4 4 4 4 4 4 & & 4 4 # # # # # # @ # & & 4 4 4 4 & & & & & & & & & & & & & & & & & & & & & & & & & & & & & & & & & & & & = = = = 5 5 0 0 0 0 0 u i i i i i i p p p p d d z z z c v g v F F #.P H Y D.F.L.oXL.L.L.F.F.D.D.Z.m.m.v.g.g.d.d.a.a.p.p.i.i.p.p.a.d.c.c.c.c.m.m.m.m.m.m.Z.Z.Z.S.D.D.F.F.D.S.D.L.oXL.oXF.D.D.oXoXoX+X_.oX_.oXoXF.Z.F.+X+X_.Z.D.F.S.D.S.oXm._.D._.F._.D.v.c.m.m.c.m.v.c.g.g.j.k.k.j.f.k.m.k.m.Z.Z.S.Z.D.D.oXoXoXF.v.N.a.U _.2XiX_.%.T I Y &.A R A.L.oXOXOXOXU.OX%X%X%X%X%XP.P.P.P.P.P.P.P.P.L.J.A.A.A.m.m.f.y.r.-.-.I #.=.>.>.$.G G C C U &.U I I G G G G G I I I Y U Y U -.-.-.-.-.T T -.&.&.&.&.:.i.i.s.s.i.i.a.a.i.c.Y r.c.c.a.y.-.%.s.a.i.%.&.%.Y Y r.i.y.i.s.p.r.-.Y %.r.i.s.s.s.s.i.i.i.i.i.r.&.&.T T &.%.&.&.-.R U Y Y U R Y Y Y G A A A A G Y Y Y R R R R Y R &.&.&.%.%.%.%.%.%.r.%.%.R A Y V H A H H 2 Z P P Y -.p.t.r.T J J T w.t.f.r.P > O o o o o . . . . . . . . . . . . . . . . . . . . . .                       - - - - - - - $ $ $ $ $ $ & & & & & & & & & & & 5 h ~ ' o.2.<.1.1.1.1.3.3.3.3.3.3.3.3.3.3.3.3.3.3.3.3.3.3.3.3.1.1.1.1.3.3.1.1.1.1.1.1.1.3.3.3.3.3.3.7.7.7.7.7.7.7.7.7.7.7.7.7.",
"# # 3 3 4 4 4 4 4 4 4 4 4 4 & & 4 4 # # # # & # # & 4 8 8 8 8 8 8 8 4 4 4 4 & & 8 8 & & = = = = & & & & = = & & & & 4 5 = = = = 5 = 5 5 5 5 5 5 5 5 0 5 0 0 0 0 u i i i i i p p p p j z z z z c v v v F F ..#.Z Y N._.oXoXL.L.L.L.L.L.F.D.Z.m.m.g.g.d.d.a.a.p.p.i.i.a.d.d.d.c.v.v.m.m.Z.Z.S.Z.Z.Z.Z.Z.Z.A.D.D.F.D.Z.Z.F.L.L.oXF.F.F.oX+XoXoXF.oXoX+XoXF.D.oX+X+XoXm.D.F.D.F.S._.Z.D.D.F.D.D.D.N.m.N.N.v.m.m.v.g.g.j.k.j.k.k.k.m.k.Z.D.D.F.F.L.oXL.oXoXF.v.m.i.%._.5X$Xv.Y Y Y %.Y I y.D.L.OXOXOXOXI.OX%X*X*X*X*X%XOXL.U.L.P.P.P.L.U.J.A.A.A.M.m.j.p.r.&.T Y U $.,.>.$.P G Z Z P &.U I G I I I I I I I P Y Y U -.-.-.&.&.&.&.&.&.&.&.&.&.%.%.i.i.s.i.i.s.a.d.%.i.c.y.p.v.d.&.y.y.v.c.d.f.r.&.%.r.r.p.f.d.d.p.p.r.r.r.i.y.p.p.s.a.a.p.p.s.s.p.i.y.y.y.%.&.&.&.R R Y Y R R R R T R Y Y R Y Y Y I I I Y Y Y Y R T &.&.&.&.&.&.&.%.%.%.%.R A Y V H A H H C Z S P Y -.r.t.r.T T J w.w.t.f.i.P < % X o o o . . . . . . . . . . . . . . . . . . . . . .                       - - - - - - - $ $ $ $ $ $ & & & & & & & & & & 5 u k ^ o.o.<.<.1.1.1.1.3.3.3.3.3.3.3.3.1.1.3.3.3.3.3.3.3.3.3.3.3.3.1.1.3.3.1.1.1.1.1.1.1.1.3.3.3.3.3.3.7.7.7.7.7.7.7.7.7.7.7.7.",
"# 3 3 3 4 4 4 4 4 4 4 4 4 4 & & 4 4 & & & & & & 4 4 8 8 8 8 8 8 8 8 4 4 8 8 & & 8 8 & & 8 8 8 8 & & & & = = = & & & * * = = = = * * * * * * 5 5 5 5 5 5 0 0 0 t u i i i i i p p j j j j z z z c v v v F F Z *.H G g.oXoXoXL.L.L.L.T.L.oXF.D.Z.m.g.g.d.d.a.p.p.p.p.a.d.d.d.c.v.m.m.Z.S.D.A.S.S.S.S.Z.Z.N.m.m.N.Z.A.D.D.F.F.F.F.D.F.F.oX+XoXL.L.L.oXoXoXF.F.oX+XoXoXm.D.L.F.F.Z.F.D.A.F.F.D.D.A.D.m.A.A.m.m.m.m.g.g.g.k.k.m.m.k.g.m.A.F.F.L.L.oX+XL.oXoXD.g.m.R a.].5XS.&.I Y I i.A Y m.L.oXOXOXOX7X*X@X*X*X*X*X*XP.P.P.P.P.P.P.P.L.U.K.J.A.A.M.m.m.f.y.r.T Y A #.$.*.#.P A Z Z G &.Y I I Y Y I I I I I I U U U -.-.-.&.-.&.&.-.&.&.&.&.&.&.%.r.i.i.s.s.i.c.p.y.d.d.p.p.c.c.r.g.t.d.d.f.f.t.r.f.r.p.f.g.g.g.d.p.p.r.r.y.y.y.y.p.d.g.g.g.g.d.d.a.p.y.y.%.&.&.&.R Y Y Y R R T &.&.&.%.%.%.%.%.%.&.&.R Y Y Y R &.&.&.&.T T T &.&.&.&.%.%.R A Y V H A A V C Z Z G Y &.r.r.-.T T J w.w.t.f.a.#.f ; O o . o o .   . .   . . . . . .     . . . . . . . .                         - - - - - - $ $ $ $ $ $ & & & & & & & & & & 5 k ~ o.o.o.<.1.1.1.1.1.3.3.3.3.3.3.3.1.1.1.1.3.1.1.3.3.3.3.3.3.3.3.1.3.3.3.7.1.1.1.4.4.4.4.7.7.3.3.3.3.7.7.7.7.7.7.7.7.7.7.7.7.",
"3 3 3 3 4 4 4 4 4 4 4 4 4 4 4 4 4 4 4 4 4 4 4 4 4 4 8 8 8 8 8 8 8 8 4 4 8 & 4 & 8 8 & & 8 8 8 5 & & & & = = & & & & * * * = = = * * * * * * 5 5 5 5 5 5 0 0 0 t u i i i i i p p j j j j z z z c v v v F F g 6.Z A a.oXL.L.P.P.T.T.#XoX#XF.G.Z.k.g.g.g.p.f.a.a.a.a.d.d.d.c.v.m.Z.Z.S.D.F.D.D.S.S.A.Z.Z.Z.A.D.D.D.F.F.L.L.L.L.L.D.D.A.oXoXoXF.L.K.L.L.D.F.F.oXoXL.oXm.D.L.L.F.Z.D.F.m.F.F.D.N.A.F.m.A.A.m.m.m.m.v.v.g.k.k.M.m.g.k.m.D.L.F.F.F.L.L.L.L.L.D.g.m.I v.$X$Xv.R A A G i.A T F.L.oXOXOXOX%X=X%X&X*X*X*X%XOXOXP.P.P.P.L.L.L.L.L.L.A.A.M.m.m.g.p.r.T Y A U U $.#.P A H H G &.U I I Y Y I I I I I I Y Y U -.-.-.&.&.&.&.&.&.&.%.%.%.%.r.i.r.y.a.a.p.s.d.p.d.d.t.p.v.g.t.N.f.d.d.d.d.f.T f.r.f.d.g.c.g.g.d.f.r.r.y.y.y.u.f.g.g.g.g.g.g.d.p.y.y.r.%.&.&.&.T R Y Y R R T &.%.%.y.i.y.i.i.y.p.p.i.%.%.%.%.%.i.i.i.s.s.i.y.%.T &.%.%.Y A Y V H A A V Z C f A Y -.-.-.T J J J T w.t.f.d.$.Z : O o . o o .   . .   . . . . . .     . . . . . . . .                         - - - - - - $ $ $ $ $ $ $ & & & & & & & & = u ! ~ o.o.<.<.1.1.1.1.1.3.3.3.3.3.1.3.1.1.1.1.1.1.1.3.3.3.3.3.3.3.3.1.3.3.3.7.1.1.1.4.4.4.4.7.3.3.3.3.3.7.7.7.7.7.7.7.7.7.7.7.7.",
"3 3 # # 4 4 4 4 4 4 4 4 & 4 4 4 4 4 4 4 8 8 4 4 8 8 & & 4 4 4 8 & & 8 8 5 5 & & 8 8 8 8 & & & 5 = 5 4 4 = = = = * * * * * * 5 5 * * 5 5 5 5 5 5 5 5 5 5 0 0 0 t u i i i i i p p p p z d z z z z v v v F F ..$.Z Z &.D.L.L.L.P.P.#X#X#XoXF.D.A.Z.k.k.g.g.f.p.f.p.d.d.c.v.m.m.Z.S.S.A.D.F.D.D.D.D.A.D.D.D.D.F.F.L.L.L.oXL.L.L.L.K.F.L.oXoXoXOXoXOXL.L.oXoX+XoXP.L.oXL.L.oXF.oXD.L.D.D.D.D.D.D.D.D.M.M.m.m.m.m.m.m.k.k.m.m.k.m.A.D.A.A.D.D.D.D.K.L.L.L.oXm.Z.a.R S.$X_.%.Y J Y &.A J g.L.OX#X@X&X*X*X*X*X*X*X*X*X%X@X@XP.P.I.P.P.P.P.L.L.L.A.A.M.m.k.g.f.t.T Y A A P $.#.P A H H A &.&.Y Y I I I I I I I I Y Y Y -.-.-.&.&.%.%.%.%.%.%.r.r.r.r.p.r.y.p.p.p.p.f.p.d.f.g.g.g.c.p.m.f.f.f.d.f.f.u.p.p.p.f.f.g.g.g.f.f.p.p.y.y.p.u.f.f.f.f.f.f.f.y.r.r.r.r.r.r.r.r.r.r.%.&.T T T T T T &.&.%.%.p.a.a.d.d.d.a.a.i.y.y.p.p.a.a.d.d.d.y.y.&.&.Y Y Y V H A A V Z C C S U Y T T R J J J T w.r.g.c.=.S > O o . . o . . . . . . . . . . . . .                                     - - - - - - - - - - $ $ $ $ $ $ $ & & & & & & 5 j ~ { o.<.<.1.1.1.1.3.3.3.1.3.1.1.1.1.1.1.1.1.1.1.1.1.1.1.1.1.1.1.1.1.1.1.1.1.4.1.4.3.3.3.3.7.3.3.3.7.7.7.7.5.5.7.7.7.7.7.7.7.7.",
"3 3 3 # 4 4 4 4 4 4 4 4 & & 4 4 4 4 4 4 8 8 4 4 8 8 & & 4 4 4 8 & & 4 & 5 5 & & 8 8 8 8 & & & & = 4 4 5 = = = & * * * * * * * 5 * * 5 5 5 5 * * 5 5 5 5 0 0 0 t u i i i i i p p p p z d z z z z z v F D F G ..P Z R Z.L.T.T.T.#X#X#XoXT.F.D.A.Z.m.m.k.g.g.g.g.g.g.c.v.m.m.Z.Z.S.S.A.S.S.A.D.D.D.D.D.F.F.F.F.F.F.F.F.L.L.L.L.L.K.K.oXOXoXP.L.L.oXoXL.L.oXoXoXP.L.L.F.F.L.oXoXD.D.D.D.D.D.D.D.D.D.M.M.m.m.m.m.m.m.m.m.m.m.m.m.m.m.m.Z.A.A.D.J.L.L.L.L.L.m.S.&.R _.].V.R I J Y &.A T M.L.OX#X%X*X*X*X*X*X*X*X*X*X%X@XOXP.P.P.P.P.P.P.P.L.L.D.A.M.m.k.g.f.p.-.Y J A Y -.#.I G A H H -.%.Y Y I I I I I I G I Y Y Y U -.-.&.&.&.&.&.%.%.%.r.r.r.y.p.p.p.p.p.p.r.r.t.g.f.f.f.f.g.f.m.d.f.f.f.d.f.u.u.p.p.p.f.f.g.g.f.f.f.f.f.f.f.f.u.p.p.y.r.r.T T w.w.r.r.r.r.y.y.u.u.y.y.y.y.y.y.y.r.r.r.r.r.y.p.p.a.d.d.v.g.g.d.p.p.f.f.p.d.g.g.g.f.d.p.Y Y A V H H H V Z C Z P #.-.-.T T J J J J w.r.f.c.s.P 2 O + o . o . . . . . . . . . . . . .                                   - - - - - - - - - - - $ $ $ $ $ $ $ $ & & & & & u x ~ { 2.<.1.1.1.1.1.3.3.3.1.1.1.1.1.1.1.1.1.1.1.1.1.1.1.1.1.1.1.1.1.1.1.1.1.4.4.1.4.3.3.4.4.3.3.3.3.7.7.7.7.5.5.7.7.7.7.7.7.7.7.",
"3 3 # # 4 4 4 4 4 4 & & 4 4 4 4 & & & 4 8 4 4 4 8 8 & & 4 4 5 8 & & & & & & & & 5 5 & & & & * & & & 8 8 5 5 & & * * * * * * * * * * * * * * * * * * 5 5 5 5 t t i i i i i i p p p p z z z z z z z v F D F F S $.Z Y m.P.T.T.#X#X#XT.T.L.L.F.G.A.Z.m.k.k.g.k.g.g.g.m.m.m.m.Z.Z.Z.Z.S.S.S.A.D.D.F.F.F.F.F.F.F.F.F.F.F.F.L.K.L.L.F.K.oXoXL.L.L.L.oXL.L.L.P.oXoXL.L.L.D.D.L.L.K.L.L.K.L.F.F.D.D.D.D.m.M.m.m.m.m.m.m.m.m.m.m.m.m.m.m.m.M.A.A.L.L.L.P.+XOXA.m.Z.Y i.]._.:.Y A A R R J f.K.oX#X#X&X&X*X=X=X*X*X*X*X*X%XOXP.I.L.I.P.P.P.P.P.L.L.K.D.M.M.m.k.g.f.r.T Y H G U -.I G A H H U %.Y Y Y Y Y I I I I I Y Y Y U -.&.&.%.i.i.i.i.r.r.r.r.r.y.p.p.t.p.p.p.f.g.g.f.f.f.f.d.f.f.g.f.f.f.f.d.f.f.f.p.u.p.f.f.g.f.f.f.f.f.f.f.f.u.y.r.r.r.p.p.p.t.r.T w.r.r.r.y.y.p.p.p.p.f.f.f.p.p.p.f.f.p.d.p.p.p.p.p.g.v.m.m.g.g.g.g.d.f.f.g.g.g.g.v.a.Y Y H H A H H H C C S S U &.&.T T J J J J w.r.f.g.c.#.C O X o o o . o . . . . . . . . . . .                                 - - - - - - - - - - - - $ $ $ $ $ $ $ $ & & & & 8 j ~ ' o.<.<.1.1.1.1.1.3.3.3.1.1.1.1.1.1.1.1.1.1.1.1.1.1.1.1.1.1.1.1.1.4.4.1.1.4.4.4.4.4.4.4.4.4.4.4.4.5.5.5.5.5.5.7.7.7.7.7.7.7.7.",
"3 3 # # 4 4 4 4 4 4 & & 4 4 4 4 & & & 4 8 4 4 4 8 8 & & 4 4 5 5 & & & & & & & & * * & & & & * * * & & & = 5 & & * * * * * * * * * * * * * * * * * * 5 5 5 5 t t i i i i i i p p p p z d z z z z z v F D F F F >.Z I g.L.T.T.T.T.T.P.L.L.L.L.F.A.A.Z.m.m.m.j.j.j.m.m.m.m.m.m.m.m.m.m.Z.S.F.F.L.L.F.F.F.F.F.F.F.F.F.D.F.F.K.K.K.F.K.L.L.K.K.K.L.L.L.L.L.L.L.L.L.F.L.D.D.K.D.A.OXoXL.L.L.L.D.D.D.D.m.m.m.m.m.m.m.m.m.m.m.m.f.k.m.Z.A.A.D.L.L.L.P.P.#X#Xm.m.g.Y c._.V.U Y I H r.A Y m.L.OX#X&X&X=X=X=X=X=X=X*X*X*X@XP.P.I.L.P.P.P.P.P.P.L.K.K.D.A.M.m.m.g.f.r.T Y A J -.-.Y A A A H Y %.R Y Y Y Y I I I I I Y U Y U -.&.&.%.%.%.%.%.%.r.r.r.r.y.p.p.p.t.y.p.t.t.p.d.f.f.f.f.d.g.f.f.f.d.d.d.f.f.f.p.p.p.p.f.f.f.f.p.u.p.p.y.y.y.u.f.f.f.f.f.f.f.f.p.r.r.r.r.r.r.r.r.y.y.f.f.f.f.g.g.g.v.m.m.m.g.f.f.f.f.g.k.k.k.m.m.m.k.g.f.g.g.g.g.g.s.A #.C V H A H H C C Z Z P -.&.-.T T J J J w.r.u.g.g.-.Z > O o o o o o . . . . . . . . . . .                                 - - - - - - - - - - - - $ $ $ $ $ $ $ $ $ & & & w k ~ { 2.<.<.1.1.1.1.1.1.1.3.1.1.1.1.1.1.1.1.1.1.1.1.1.1.1.1.1.1.1.1.1.4.4.1.1.4.4.4.4.4.4.4.4.4.4.4.4.5.5.5.5.5.5.7.7.7.7.7.7.7.7.",
"4 4 4 4 4 4 & & 4 & & & & & & & 4 4 & & 4 8 8 8 8 8 & & 5 5 5 5 & & & & & & & & & & & & & & & & 5 * 5 5 5 5 * * * 5 * * * * * * * * * * * * * * * * * 5 0 0 t t i i i i i i p p p p d d z z z z c v F D F S ..$.Z U i.oX#X#X#X#XP.L.L.L.L.L.L.D.A.A.Z.m.m.j.j.j.g.g.g.k.m.m.m.m.m.N.S.D.F.F.L.oXF.F.F.F.D.D.D.D.D.D.D.D.F.F.F.D.D.L.F.F.D.J.L.L.L.L.L.L.F.F.L.F.F.F.F.L.oXL.K.K.K.D.D.D.D.A.A.A.A.Z.Z.A.m.m.m.m.k.k.m.m.m.A.K.L.L.P.OX#XL.L.OX#X-XL.A.D.T R a.S.a.U Y Y I &.J r.D.oXOX#X-X&X=X*X*X*X=X=X*X*X%XOXP.P.P.P.P.OXP.P.P.L.U.K.K.D.A.M.m.m.j.f.t.T Y J J U T Y J A A H A %.&.Y Y Y Y Y Y Y Y Y Y Y U U -.&.%.%.r.r.r.r.r.r.r.r.r.r.p.p.t.t.p.p.p.f.f.f.f.f.f.f.d.d.f.f.d.d.d.f.f.p.p.p.p.p.p.p.u.u.p.p.u.u.p.p.p.p.u.f.f.f.f.g.f.g.g.g.g.f.y.r.r.r.r.r.y.y.y.y.p.f.g.g.m.m.m.Z.Z.Z.A.m.m.k.k.k.m.m.Z.Z.Z.Z.Z.Z.m.k.g.g.g.%.G P C C H H H Z f C Z Z G Y &.-.T T J J J w.w.u.j.v.&.A < O o o o o o . . . . . . . . . . .                                     - - - - - - - - - - $ $ $ $ & & $ $ & & & 5 h x ~ o.<.<.1.1.1.1.1.1.1.1.1.1.1.1.1.1.1.1.1.1.1.1.1.1.1.1.1.1.1.1.1.1.1.1.1.1.4.4.4.4.1.4.4.4.4.4.4.4.4.5.5.5.5.3.3.3.3.3.3.3.7.7.",
"4 4 4 4 4 4 & & 4 4 & & & & & & 4 4 & & 4 8 8 8 8 8 & & 5 8 5 5 & & & & & & & & & & & & & & & & 5 * 5 5 5 5 * * * 5 * * * * * * * * * * * * * * * * 5 5 0 0 t t i i i i i i p p p p d d z z z z c v F D S S L #...P T Z.#X#X#X#XT.L.L.L.P.L.L.L.D.A.A.m.m.m.g.f.g.g.j.m.m.m.m.m.Z.S.F.F.F.F.F.F.F.F.F.F.D.D.D.D.D.D.D.D.D.D.F.D.D.D.D.D.D.L.L.L.L.L.L.F.L.L.P.$X9X].G.F.L.L.L.L.D.D.D.D.Z.M.M.M.m.m.m.m.m.m.m.m.m.M.A.A.K.L.L.L.L.L.P.P.P.P.@X#X-XD.m.Z.R T a.Z.%.&.Y I T J Y Z.F.OX#X#X&X&X*X*X%X%X*X*X*X%XOXP.P.P.P.P.OXOXP.P.P.L.L.K.D.D.A.M.m.m.j.f.p.r.R J A Y T Y I A A A A &.&.Y Y Y Y Y Y Y Y Y Y Y U Y -.&.%.%.r.r.r.r.i.y.y.y.r.r.i.p.p.p.f.f.p.p.f.f.f.f.f.f.f.f.f.f.f.f.d.f.f.p.p.p.p.p.p.p.f.f.f.f.f.f.f.f.f.f.f.f.f.f.f.f.f.g.g.k.g.g.g.f.f.p.p.y.y.y.r.r.r.u.f.g.k.k.m.Z.A.A.A.A.A.A.M.k.m.m.Z.Z.Z.Z.Z.Z.Z.Z.k.v.d.-.P S C C C H Z C C C Z S P #.&.r.T T T J J w.w.u.j.m.i.G 2 O X o o o o . . . . . . . . . . .                                     - - - - - - - - - - $ $ $ $ & & & $ & & 5 8 l ~ ' o.<.1.1.1.1.1.1.1.1.1.1.1.1.1.1.1.1.1.1.1.1.1.1.1.1.1.1.1.1.1.1.1.1.1.1.1.4.4.4.4.4.4.4.4.4.4.4.4.4.5.5.5.5.4.3.3.3.7.3.3.7.7.",
"4 4 4 4 4 4 4 4 4 4 & & 4 4 & 4 4 4 4 4 4 4 4 8 4 4 & & 8 8 8 8 & & & & 5 5 5 5 8 & 8 8 5 5 8 & 8 5 5 8 5 5 * * * * * * * * * * * * * * * * 5 5 5 5 t t 0 0 t t i i i i a a p p p d d z z z z z v v F D L F S P *.P A d.oX+X$X#X#XoXP.P.P.L.L.L.L.A.A.A.m.m.j.f.g.k.m.m.m.m.m.N.S.D.D.D.D.A.D.D.F.F.F.F.F.F.D.D.D.D.D.D.A.A.A.A.A.A.D.D.D.D.L.K.L.L.F.F.L.oXoX8XVXmXtXG.F.F.L.L.D.D.D.D.D.A.A.Z.A.A.A.A.D.D.D.D.D.F.K.L.oXoXL.L.L.oXL.L.P.#X#X#X#XZ.m.g.R y.p.i.&.$.Y Y R J p.D.oX#X#X-X&X&X=X*X%X%X=X=X*X%XI.I.P.P.P.P.OXP.P.P.OXP.L.K.A.D.A.M.m.m.m.j.d.r.T Y A A &.Y Y J A A H &.i.Y Y Y Y Y U U U U U U Y Y &.&.%.%.r.r.r.y.y.i.i.p.p.p.t.r.r.r.r.t.t.t.p.t.t.t.p.p.p.p.f.p.f.f.f.f.f.p.p.p.p.p.p.p.f.f.f.f.f.f.f.f.f.f.f.f.f.f.f.f.f.g.g.k.g.k.g.g.g.g.g.g.g.g.g.f.u.u.u.u.f.j.k.k.M.A.A.K.J.J.J.A.A.A.A.A.A.A.A.A.A.A.Z.Z.d.Y #.Z f f C Z Z C C C Z Z P -.r.r.w.T T J J w.w.u.j.m.a.Y 2 O X o X o o . . . . . . . . . . .                                     - - - - - - - - - - $ $ $ $ & & $ $ & = 8 5 x ~ o.2.<.1.1.1.1.1.1.1.1.1.1.1.1.3.1.1.1.1.1.3.1.1.1.1.1.1.1.1.1.1.1.1.1.1.1.1.1.1.1.1.4.4.4.4.4.4.3.3.4.3.5.5.7.3.3.3.4.4.5.5.5.5.",
"4 4 4 4 4 4 4 4 4 4 & & 4 4 4 4 4 4 4 4 4 4 4 4 4 4 & & 8 8 8 8 & & & & 5 5 5 5 8 8 8 8 5 5 & & 8 5 5 5 5 5 * * * * * * * * * * * * * * * * 5 5 5 5 t t 0 0 t t i i i i a a p p p d d z z z z z v v v F L F F S =.G G r.oX+X$X-X#X@X@X@X@XL.L.L.L.D.A.M.m.m.m.k.m.m.m.m.m.m.N.Z.A.Z.Z.Z.Z.A.D.D.F.F.F.F.L.L.oXL.oXL.L.L.K.L.L.D.A.A.A.A.Z.A.A.D.L.L.F.F.D.L.L.pXAXZXVXmX$XoXF.F.D.D.D.D.F.F.F.F.F.F.F.D.D.D.D.D.K.L.oXoXL.L.oXOX&X#X#XOX#X#X#X#XL.Z.A.y.T p.d.&.R I Y &.Y R m.L.OX#X&X-X&X&X&X*X*X*X=X=X%X7XP.I.P.P.P.P.OXP.P.P.OXP.L.D.A.A.A.M.m.m.m.k.f.t.-.Y J H &.Y Y Y J A H R i.R Y P P P &.&.&.&.U Y Y Y -.&.%.r.r.r.r.y.i.i.s.p.p.p.p.p.t.t.t.t.t.t.t.t.t.t.t.t.p.p.p.p.p.f.f.f.p.p.p.p.u.p.p.u.u.u.u.u.u.u.p.p.p.p.p.f.f.f.f.f.f.g.g.k.g.k.m.m.m.m.m.m.m.m.k.k.g.f.f.u.f.j.j.k.k.M.A.A.J.K.L.K.K.D.A.A.A.A.A.A.A.A.D.Z.c.I #.Z f f C Z Z Z C C C Z P &.r.r.r.w.T J J w.w.u.j.m.d.U 2 O X X o o o . . . . . . . . . . .                                     - - - - - - - - - - $ $ $ $ & $ $ $ & = 5 5 ~ ' o.2.<.1.1.1.1.1.1.1.1.1.1.1.1.3.1.1.1.3.1.3.1.1.1.1.1.1.1.1.1.1.1.1.1.1.1.1.1.1.1.1.4.4.4.4.3.3.3.3.3.3.5.4.7.3.3.3.4.4.5.5.5.5.",
"& & 4 4 4 4 4 4 4 4 4 4 4 4 4 4 4 4 4 4 8 8 8 8 8 8 8 & & & & & & & & * * * & & 8 8 & & * * * & = 5 5 5 5 5 * * 5 5 * * * * * * 5 5 5 5 : 0 0 0 0 0 0 0 t t t a i p p p p a p p p d z z z z z c v v v F D S Z F $.G U -.D.+X-X:X#X#X#X#X#XP.L.L.F.A.M.m.m.m.m.m.m.m.N.N.Z.Z.Z.A.D.Z.S.F.F.$XoXoXK.L.oXoXoXL.L.L.L.L.L.L.L.L.L.F.F.F.F.F.D.D.D.D.D.D.D.D.F.L.L.#X9XpXAXZXCXpX9XT.F.L.L.P.#XL.F.D.D.D.D.D.D.D.D.D.F.K.K.L.L.OX#X#X#X#X#X#X#X#X&X@XZ.A.A.T y.d.p.&.Y I Y Y J u.K.OX#X#X-X-X=X&X&X&X*X*X=X=X*X%XOXI.P.P.P.P.@XOXP.P.P.I.U.K.D.A.A.A.M.m.m.j.g.p.r.R J H %.&.Y Y J A H I a.&.U 6.C.9.z.:.&.-.U Y G Y Y &.&.%.r.r.t.t.p.p.p.p.p.f.f.f.f.f.t.t.t.p.p.t.r.r.t.t.t.t.t.t.t.t.u.p.p.u.u.y.u.u.y.y.t.y.y.y.u.u.u.u.u.u.u.u.u.u.y.y.u.u.f.f.k.m.k.k.k.k.k.k.k.k.k.k.k.k.k.M.Z.M.k.k.k.M.A.J.L.L.L.L.L.L.J.A.A.A.A.A.A.A.S.Z.a.A $.2 f Z 2 2 P Z f C C Z P :.y.r.r.r.T J J w.w.u.j.M.f.-.C O O X X o o o o o . . . . o o           o             X X X       - - - - - - - - - - - - $ $ $ $ & & $ $ $ 4 u x ~ { o.<.1.1.1.1.1.1.1.1.1.1.1.1.1.1.1.1.1.1.1.1.1.1.1.1.1.1.1.1.1.1.1.1.1.1.4.1.1.<.4.4.4.4.<.<.4.4.4.4.4.4.4.4.7.7.7.5.5.5.4.3.3.3.",
"& & 4 4 4 4 4 4 4 4 4 4 8 4 4 4 4 4 4 4 8 8 8 8 8 8 & & & & & & & & & * * * & 8 8 8 5 8 * * & & 5 5 5 5 5 5 * * 5 5 * * * * * * 5 5 * 5 : : 0 0 0 0 0 0 t t t i i p p p p p p p d d z z z z z c v v v v F S S F ..#.G R d.oX-X6X#X#X#X#X#XP.L.L.A.A.A.A.M.M.M.m.N.N.M.A.A.A.D.A.D.D.F.oX2XpX:XoXK.oXoXoXL.F.F.D.D.D.F.K.K.K.L.L.L.L.L.L.L.L.L.L.L.L.L.L.L.L.L.T.T.$X9XpXZXZXZXmX9XoXD.A.G.D.F.F.F.F.K.L.L.L.L.L.oXoXOX#X#X#X#X#X#X#X#X#X@X&X#XL.M.D.u.w.p.a.r.T Y Y T J T k.L.oX#X#X&X-X-X&X&X&X*X*X%X%X%X%XOXP.P.P.P.P.OXOXP.P.L.I.L.K.K.D.A.A.M.m.m.k.g.f.r.T J H J d.Y Y J A A A i.%.,.1XaXIX].s.=.-.-.-.Y Y Y -.&.&.r.r.r.t.r.t.t.p.f.d.d.d.d.d.f.f.f.f.f.f.f.p.u.r.r.r.r.r.r.r.t.t.u.p.u.u.u.u.u.t.t.r.t.y.y.y.u.u.u.u.f.f.f.f.f.f.f.u.y.r.r.u.f.f.f.j.j.j.u.f.k.k.m.A.A.K.L.K.J.A.A.A.A.A.J.K.K.L.L.L.U.J.J.A.D.D.A.D.D.Z.&.I P 2 2 2 2 Z P Z 2 f C Z P %.i.t.t.r.T J J w.w.w.u.k.j.%.Z > O X X o o o o o . . . . o o         o o         X   X X         - - - - - - - - - - - - $ $ $ $ & & $ & & 5 h b ' o.2.<.1.1.1.1.1.1.1.1.1.1.1.1.1.1.1.1.1.1.1.1.1.1.1.1.1.1.1.1.1.1.1.1.1.1.4.4.<.<.4.<.4.4.<.<.4.4.4.4.4.4.4.4.7.7.5.5.5.5.3.3.7.3.",
"& & 4 4 4 4 4 4 4 4 8 8 8 8 8 8 8 8 8 8 8 8 8 8 8 8 & & & 8 8 8 & 8 8 8 5 5 5 5 5 5 5 5 5 5 5 5 5 5 5 5 5 5 * * 5 5 * * * * * * * * * * : : 0 0 0 0 0 0 t t t i p p p p p d z z z z z z c c c c v v v v F D S F S =.A G p.oX-X-X#X#X#X#X#XP.L.K.D.D.D.A.A.A.M.M.N.M.N.N.A.A.A.A.D.F.+X1XiXpX$XF.D.K.L.oXL.F.F.F.F.F.D.D.D.F.F.F.F.F.K.K.K.K.L.L.L.L.L.L.L.L.L.L.F.T.oX$X9XaXVXVXVXaX$XF.G.D.D.D.D.F.F.F.K.L.L.L.oX#X#X#X#X#X#X#X#X#X#X#X#X&X@XA.A.A.T r.d.y.&.Y Y Y R J f.D.L.#X#X-X-X-X-X=X=X=X=X=X=X*X*X*XOXOXP.P.P.OXOXOXP.P.L.L.P.L.K.K.A.A.A.m.m.m.g.g.p.&.Y A H d.T J J A A A &.a.h.V.|.0X,Xi.Y -.-.&.-.R T R &.&.%.r.r.t.i.i.t.p.t.t.p.p.p.p.p.f.f.f.f.g.g.g.f.p.u.t.t.t.t.t.t.p.u.u.u.u.u.u.f.u.u.y.u.u.u.u.f.f.f.f.k.k.k.k.k.m.m.m.k.g.f.u.u.u.u.u.f.f.f.f.k.k.A.J.L.P.P.P.P.P.L.K.A.A.J.K.K.K.L.L.L.L.U.J.J.D.D.A.D.Z.Y $.C 2 2 2 f P P Z 2 f f C G &.s.p.t.r.T T J T w.w.u.j.m.y.G < O X X o         . . . . o           o o X   X X X X X X X X     -   - - - - - - - - - - $ $ $ $ & & & & & 7 l ~ { @.<.1.1.1.1.1.1.1.1.1.1.1.1.1.1.1.1.1.1.1.1.1.1.1.1.1.1.1.1.1.1.1.1.1.1.1.1.1.1.1.1.1.1.1.<.<.4.4.4.4.4.4.4.4.4.4.5.5.5.4.5.5.3.3.",
"& & 4 4 4 4 4 4 4 4 4 8 8 8 8 8 8 8 8 8 8 8 8 8 8 8 & & 8 8 8 8 8 8 8 8 5 5 5 5 5 5 5 5 5 5 5 5 5 5 5 5 5 5 * * 5 5 * * * * * * * * * * : : 0 0 0 0 0 0 t t t i p p p d z z z z z c z c c c c v v v v v v F F F G #.A J &.N.$X-X#X#X#X#XOXP.L.L.L.K.D.A.A.A.A.Z.M.A.A.A.A.A.A.A.F._.$XwXtX$XS.F.D.F.F.L.L.L.L.L.F.F.F.F.K.F.F.D.F.D.D.A.A.A.A.A.D.D.D.F.L.L.F.F.L.L.F.G.G.$X9XaXVXVXAXaX$X$XF.oX$X$X$X$X#X#X#X#X#X#X#X#X#X#X@X#X#X#X#X#X&X#XL.M.A.k.T r.f.r.T T Y T A T Z.K.L.#X@X&X-X-X-X=X&X*X&X*X*X*X*X%X@XOXP.OXOXOXOXOXOXP.I.L.P.L.L.K.D.A.A.M.m.m.j.g.p.r.T J J &.r.J A A I A Y g.%.x.>.(.V.-.-.&.&.&.&.&.-.T -.&.&.r.r.t.p.p.p.p.p.f.d.f.p.f.d.d.d.f.p.p.p.f.f.g.j.g.f.f.f.p.p.p.u.u.p.f.f.f.f.f.f.f.f.f.f.f.g.g.g.k.k.k.k.k.k.k.k.m.m.Z.m.k.f.f.j.k.A.J.U.L.L.L.L.L.L.L.P.P.P.Y.@XP.P.L.L.L.L.L.L.L.L.L.L.L.L.F.D.D.D.Z.A =.2 C C Z G >.P Z 2 f 2 2 G &.s.p.p.t.w.T J T w.w.u.j.N.p.G 2 O + X o         . . . .               o X X X X X X X X X         - - - - - - - - - - - $ $ $ $ & & & & 8 u j ~ o.2.<.1.1.1.1.1.1.1.1.1.1.1.1.1.1.1.1.1.1.1.1.1.1.1.1.1.1.1.1.1.1.1.1.1.1.1.1.1.1.1.1.1.4.4.4.<.4.4.4.4.4.4.4.4.4.4.4.4.4.4.5.5.4.4.",
"4 4 & & 8 4 4 4 4 8 8 8 8 8 8 8 8 8 8 8 8 8 8 8 8 8 8 8 8 & & & & * * 8 5 8 8 8 * * 8 8 5 5 5 5 5 5 5 5 5 5 5 5 5 5 * * * * * * * * 5 5 0 0 0 0 0 0 t t t t t i a p p d z c c c c c c c c v v v v v v v v v F F ..P $.Y R c.-X-X#X#X#X#XOXOXL.L.L.K.D.A.A.A.A.A.A.A.D.D.D.D.D.F.].tXpXtXF.F.F.F.F.F.F.L.L.L.L.L.L.L.L.L.L.L.L.L.F.F.F.F.D.A.A.A.D.D.D.D.F.L.L.L.L.L.L.F.T.oXoX$XtXaXmXAXAXmXtX$XoXoX#X#X#X#X#X#X#X#X#X@X#X@X@X#X#X&X&X&X#X&XJ.J.K.T u.g.f.&.Y Y T T J j.K.L.OX@X#X*X-X-X-X-X=X&X*X*X*X%X%X%X%XOXOX@X@XOXOXOXOXOXI.L.L.L.L.K.D.A.A.A.m.m.j.g.f.y.&.Y H J v.A A A A H A s.s.R P U R -.&.%.r.r.r.r.&.&.-.&.&.r.r.r.t.d.f.p.f.d.c.d.f.d.g.g.g.f.p.f.f.f.f.f.u.f.g.g.g.f.f.p.u.u.f.f.f.f.f.f.f.f.f.f.f.f.f.f.f.f.f.f.f.f.f.f.k.m.m.m.k.k.k.M.J.K.L.P.P.@X@X@XOXOXP.P.P.P.P.P.P.P.OXP.P.P.P.P.L.L.L.L.L.L.L.L.F.D.Z.i.A $.2 2 C I U >.$.Z 2 2 2 2 A -.i.p.p.t.w.w.J T w.w.w.j.m.p.Y f ; O X o o o o o o o o o   o o o     X X         X X X X X X X X - - - - - - - - - - - - $ $ $ $ & & & = 7 h x ~ o.2.<.1.1.1.1.1.1.1.1.1.1.1.1.1.1.1.1.1.1.1.1.1.1.1.1.1.1.1.3.3.1.1.1.1.1.1.1.1.4.4.1.1.4.4.4.4.4.4.4.4.4.4.4.4.4.4.4.4.4.4.4.4.4.1.",
"4 & & & 8 8 4 4 4 4 8 8 8 8 8 8 8 8 8 8 8 8 8 8 8 8 8 8 8 8 & & * & * * 8 5 8 5 5 * 8 8 5 5 5 5 5 5 5 5 5 5 5 5 5 5 * * 5 * * * 5 5 5 5 0 0 t t 0 0 t t t t t i a p p p z c c c c c c v v v v n v v v v v v F F ....=.A Y p.F.#X-X#X#X#XOXOXP.L.K.K.D.A.A.A.A.A.D.D.D.K.Z.D.F.oXtXuX2X_.F.F.K.K.K.F.L.L.K.K.L.L.oXoX+XoXoXoXoXoXL.L.L.L.L.K.K.K.K.K.K.L.L.L.K.K.L.L.L.L.L.oXoXoX$X1X9XpXAXAXZXmXyX:X#X#X#X#X#X#X#X#X#X#X@X@X@X%X*X*X*X&X&XP.A.J.k.w.t.k.y.T Y Y T R t.m.L.OXOX#X@X*X&X-X-X-X&X&X*X*X*X%X%X%X%XOXOX@X@XOXOX@XOXOXI.L.L.L.L.K.D.A.A.A.m.m.k.g.f.p.r.R K A %.&.A V A H A T a.&.Y R T &.&.&.r.r.r.r.r.&.&.&.&.&.r.r.t.d.p.p.f.d.g.f.f.d.g.d.d.f.g.m.m.m.m.m.j.f.f.f.f.p.p.p.u.u.u.p.u.u.p.p.u.u.u.u.u.u.f.f.u.f.f.f.f.f.f.f.j.k.k.m.A.D.L.L.L.I.P.P.P.@X@X@XOXOX@X@X@X@X@X@X@XOXP.P.P.P.P.P.P.P.L.L.L.L.L.L.K.D.Z.&.U I 2 C C P s.s.$.Z 2 2 2 f S Y i.p.f.u.w.w.J T T w.w.u.k.f.#.C ; O X o o o o o o o o o   o o o     X X         X X X   X X X X - - - - - - - - - - - - $ $ $ $ & & & 5 u k ~ ' o.2.<.1.1.1.1.1.1.1.1.1.1.1.1.1.1.1.1.<.1.1.1.1.1.1.1.1.1.1.3.3.1.1.1.1.1.1.1.1.4.4.4.1.4.4.4.4.4.4.4.4.4.4.4.5.1.1.4.4.<.<.1.1.1.1.",
"4 4 & & 4 4 4 4 4 4 & & 8 8 8 8 8 8 8 8 8 8 8 8 8 8 8 8 * * & & * & & & 8 8 * * 5 & & 8 5 5 5 5 5 5 5 5 * * 5 5 5 5 5 5 5 5 * * 5 5 5 5 0 0 t t 0 0 t t t t t i a p p p z c v v n n n M n v v v v v v v v F F F P P $.G A T k.#X#X#XOX#X#XOXOXL.L.K.K.D.D.D.D.D.D.D.L.L.F.L.+X$XpX$XF.D.K.K.K.K.F.F.L.L.L.K.L.L.L.L.L.L.L.L.oXoXL.L.oXL.oXL.L.oXoXOXoXoXoXoXoX#X#XOX#X#X+X+X+X+X$X$X$X9XpXVXCXAXyX:X#X#X#X#X#X#X#X#X&X&X*X*X*X*X*X&X&X&X&XL.A.A.w.u.j.t.w.R Y R R T N.D.oXOX%X%X@X%X&X;X;X=X&X&X&X&X*X%X%X%X%XOX@XOXOXOXOX#X#XOXI.I.L.L.L.K.D.A.A.A.Z.m.m.g.f.f.r.T J H J y.J V A Z V A a.&.Y R T T &.r.r.r.r.r.r.r.r.r.&.&.&.r.r.p.r.p.f.d.d.f.f.g.g.g.g.g.g.j.m.m.m.m.m.m.g.f.u.u.p.p.f.p.u.u.p.p.p.p.u.u.f.f.f.f.f.f.f.f.k.m.m.m.m.m.m.A.A.J.L.L.P.L.I.P.OXOXOXOX%X%XOX@X@X@X@X@X@X@X@X@X@XOXP.P.P.P.P.P.Y.P.L.L.L.L.L.D.N.I $.2 2 Z =.U :.z.$.S 2 f f f Z U p.d.f.f.r.w.J T J w.w.u.j.d.&.C ; O X o o o o o   o         o o       X         X X             - - - - - - - - - - $ $ $ $ $ $ & & & 5 j Q ! o.2.<.1.1.1.1.1.1.1.1.1.1.1.1.1.1.1.1.<.<.<.1.1.1.1.1.1.1.1.1.1.1.1.4.1.1.1.1.4.4.4.4.1.1.1.<.4.4.4.4.4.4.4.4.4.4.1.1.4.4.<.1.1.1.<.<.",
"4 4 & & 4 4 4 4 4 4 & & 8 8 8 8 8 8 8 8 8 8 8 8 8 8 & & * * * & * & & & 8 8 * * * & & & 5 5 5 5 5 5 5 5 * * * 5 5 5 5 5 5 5 * * 5 5 5 0 0 0 t t 0 0 t t t t t i a p p p z z c v n n n M n v v v v v v v F F F F S P P =.H T y.oX#X#X#X#X#X#XOXoXL.K.K.D.D.D.D.D.D.K.oXL.L.oXoX+X$X_.D.D.K.K.K.F.F.F.L.L.L.K.L.L.L.L.L.L.L.L.L.L.L.oXoXoXOXOXoX#X#X#X#X#X#X#X#X#X#X#X#X#X#X#X#X#X#X$X:X9X9X9XpXpX:X-X#X#X#X#X#X#X#X#X*X*X*X&X&X&X*X&X&X&X@XL.L.k.w.u.k.w.T Y Y R J f.A.oXOX#X%X%X@X%X&X;X;X=X&X=X*X*X*X%X%X%X%X%X@XP.P.OXOX@XOXOXOXI.L.L.U.K.D.A.A.A.A.m.k.k.g.f.y.w.Y A K R Y H H V V V %.r.R Y T T T r.r.r.r.t.r.r.r.r.r.r.&.&.r.r.r.y.f.f.f.f.f.f.f.g.k.k.k.k.m.m.m.m.m.m.M.m.m.g.f.f.f.f.f.f.f.f.d.d.f.f.g.g.k.k.k.k.k.m.Z.D.D.A.A.A.L.P.P.@X@X@X@XP.P.P.P.P.OX7X%X%X@X@X@X@X@X@X@X@X@X@X@X@X@XP.T.T.P.P.Y.P.P.L.L.L.L.D.d.H $.2 C C $.s.a.n.%.S f f C C Z I a.g.j.j.r.w.J J J w.w.u.j.g.&.Z ; O X o o o o o   . . .     o o                 X X             - - - - - - - - - - $ $ $ $ $ $ $ & & 5 k ~ { @.2.<.1.1.1.1.1.1.1.1.1.1.1.1.1.1.1.1.<.<.<.<.1.1.1.1.1.1.1.1.1.1.4.4.1.1.1.1.1.1.<.<.1.1.1.<.<.1.4.4.4.4.4.4.4.4.1.1.1.1.1.1.<.1.<.<.",
"8 8 8 4 8 8 8 8 8 8 8 8 8 8 8 8 8 8 8 8 5 5 5 * 5 * 8 8 8 8 8 8 * * * * 5 5 5 5 5 5 5 5 * * * 5 * * * * 5 5 * * 5 5 5 5 0 0 0 0 0 0 0 0 0 0 t t t t t t t t i a p p p z z z c v n n n M n v v M M v v v F v F F F G $.=.Y J w.k.#X#X#X#XOX#XOXoXK.K.D.D.D.D.D.D.D.oX#X-XoXoXL.oXoXoXoXL.L.K.K.F.L.L.L.L.L.L.L.L.L.L.L.L.L.L.P.oXL.L.oXOXOXOX#X#X#X#X#X#X&X&X-X&X-X-X-X&X-X-X-X-X-X-X;X-X-X-X-X-X-X#X#X#X#X@X#X*X*X*X*X*X&X&X&X=X*X*X&X%XU.J.L.R u.l.l.w.w.K T J T M.U.L.OX@X%X%X@X%X*X%X%X-X=X*X*X*X*X%X%X7XOX%X%XOX@XOX#X&XOXOXOXI.L.U.L.K.K.K.D.A.A.m.m.k.g.f.f.r.T Y J R Y H H H V A Y a.R T T T &.r.r.r.t.t.r.r.p.p.y.t.y.y.r.r.r.y.f.d.f.f.f.g.f.g.k.k.k.k.k.m.m.m.k.M.D.K.k.k.k.m.m.m.m.m.m.m.m.m.M.M.m.m.m.Z.A.A.A.A.A.D.D.L.L.L.L.P.P.@X@X@X@X%X%X%X7X7X%X%X%X%X%X%X@X%X%X@X@X@X@X#X@X@X@X@XP.P.P.P.P.T.P.L.L.L.L.F.,.I A V V H U a.n.z.=.G f f f C Z U a.c.m.j.r.T J J J w.w.e.j.g.r.Z , O X o o o o o . . . . . .   o                                           - - - - - - - $ $ $ $ $ & & u b ~ o.2.2.<.<.1.1.1.1.1.1.1.1.1.1.1.1.1.1.1.1.1.1.1.1.1.1.1.1.1.1.1.1.1.1.1.1.1.1.1.1.1.<.<.1.1.4.4.4.1.4.4.4.4.4.4.4.1.4.4.4.4.<.<.<.<.<.<.",
"8 8 4 4 8 8 8 8 8 8 8 8 8 8 8 8 8 8 8 8 5 5 5 * * * 8 5 8 8 8 8 * * * * 5 5 5 5 5 5 5 5 * * * 5 * * 5 * 5 5 * * 5 5 5 5 0 0 0 0 0 0 0 0 0 0 t t t t t t t t i a p p p z z z c v n n n M n v v M M v v v F F F F F G -.=.r.J T u.L.#X#X#X#X#XoXoXK.D.D.D.D.D.D.D.D.oX+X$X:X-X+XL.K.L.oXoXL.L.L.L.K.L.L.L.L.L.L.L.L.L.L.L.L.L.L.oXoXoXoXoXOXOX#X#X#X#X#X#X#X&X-X-X-X-X-X-X-X-X-X-X=X=X=X-X&X&X*X%X#X#X#X#X#X*X*X&X&X*X%X%X&X&X&X*X=X=X*XY.U.L.u.u.u.l.e.w.R w.T R j.A.U.U.OX@X%X@X@X%X*X%X%X%X%X@X%X*X%X%X7XI.P.%X%X%X*XP.OX:X&XOXOXI.L.L.L.L.K.K.D.A.A.m.m.m.k.g.f.u.r.R J Y Y H H H A R J p.r.R R T T r.r.r.u.u.u.p.p.p.p.p.p.p.p.p.y.p.p.f.g.f.f.f.g.k.k.k.k.m.k.k.m.m.m.m.M.m.k.m.m.m.m.m.Z.Z.A.Z.Z.A.M.M.Z.A.A.A.A.A.A.J.L.L.L.P.P.OXP.P.@X@X@X@X%X%X%X%X%X%X%X%X%X%X%X%X%X%X*X*X%X%X@X@X@X#X@X@X@XP.P.P.P.T.P.L.L.L.oXF.I I H V V V &.a.n.c.=.G C f f C S U a.c.m.m.r.T J J T w.w.w.f.g.i.A > O X o o o o o . . . . . . o o                                         - - - - - - - - $ $ $ $ $ & 8 j ~ ' o.2.2.<.<.<.1.1.1.1.<.<.1.1.1.1.<.<.<.<.<.<.<.<.<.<.<.<.1.1.1.1.<.<.1.1.1.1.<.<.1.1.<.<.1.1.4.4.4.4.4.4.4.4.4.4.4.4.<.<.<.<.<.<.<.<.<.<.",
"4 4 4 4 8 8 8 8 8 8 & & & & & 8 & & 8 8 5 5 * * * * * 5 * * 8 * * * 8 8 5 5 5 5 5 5 5 5 * * 5 5 5 5 5 5 * * * * 5 5 5 5 0 0 0 0 0 0 0 0 0 0 t t t t t t t t i a p p p z z z v n M M M M v m m m F F F v F F F F F G -.=.p.R J r.m.#X#X#X#X-XL.L.K.K.D.D.K.K.D.D.K.L.oXoXoX-X:X$XoXoXoXoXoXoXoXL.L.L.L.L.oXoXL.L.oXoXP.P.P.P.P.P.P.P.P.P.P.OX@X#X#X#X#X#X#X#X#X#X-X-X-X-X;X-X-X-X;X;X=X-X&X&X*X%X#X@X#X#X*X&X&X*X*X*X*X*X&X&X&X&X=X=X*XI.J.A.w.l.l.u.e.w.T w.R w.A.K.U.P.@X@X@X@X%X%X%X%X%XOXOX%X*X%X%X%XOXI.I.7X%X7X&XOX@X:X&XOXOXP.L.L.L.L.L.L.J.A.D.A.m.m.k.k.f.f.y.T Y J Y J V H R T Y &.s.T T T -.&.r.r.u.u.u.u.p.p.f.p.f.p.p.p.p.p.p.f.f.f.f.f.k.j.k.k.k.k.k.k.k.k.D.A.A.M.M.m.m.m.m.m.A.A.A.A.A.A.Z.A.A.D.A.A.A.A.J.U.L.L.P.OX@X@XP.P.@X@X@X@X@X@X%X%X%X%X%X%X%X%X%X%X*X*X*X*X*X%X%X@X@X@X@X@X@X@XP.P.P.P.P.L.L.L.D.c.I $.V V H I i.x.v.c.:.P C f 2 C S U a.c.m.j.t.w.T J T w.w.w.u.g.i.G > O X o o o o o o . . . . . . .                                 - - - - - - - - - - - - $ $ $ $ # & w ~ ~ o.2.2.<.<.<.<.1.1.1.1.<.<.<.<.1.1.<.<.<.<.<.<.<.<.<.<.<.<.<.<.<.<.<.<.1.1.1.1.<.<.1.1.<.<.1.1.4.4.4.4.4.4.4.4.4.4.4.4.<.<.<.<.<.<.<.<.<.<.",
"4 4 4 4 8 8 8 8 8 8 & & & & & 8 & & 8 8 8 5 * & * * * * * * * * 8 8 8 8 5 5 5 5 5 5 5 5 * * 5 5 5 5 5 5 * * * * * 5 5 5 0 0 0 0 0 0 0 0 0 0 t t t t t t t t i a p p p d z z v n M M n M v M m m F F F v F F F F F G #.=.r.p.J T u.U.@X-X#X-XK.L.K.K.D.D.K.K.K.K.D.K.L.oX+X+X$X:X:X$X+XL.oXoXoXoXoXoXoXoXoXoXOXoXOXOXOXOXP.P.P.P.P.P.P.P.P.OXOX#X#X#X#X#X#X#X#X#X@X#X&X&X-X-X-X-X&X&X&X-X&X&X*X%X@X#X#X&X&X&X*X*X*X*X*X*X&X&X&X*X=X&X@XU.J.l.l.l.e.e.e.w.w.R R l.A.K.I.&X%X@X@X*X%X%X%X%X-X%X%X=X*X%X%X%X%XOXOX7XOXP.&X&X%X%X@XOXOXP.L.L.L.L.L.L.K.A.D.A.Z.m.m.k.g.f.u.r.R Y J A J H Y &.T J p.r.T R T %.r.r.u.u.f.f.f.f.f.f.f.f.f.f.f.f.p.f.f.f.f.j.j.j.j.k.k.k.k.k.m.m.M.M.A.Z.M.M.M.M.Z.Z.Z.Z.A.A.A.A.D.A.A.A.A.J.A.A.J.J.K.U.L.P.P.P.P.Y.@X@X@X@XY.@X%X%X%X%X%X%X%X%X%X%X*X*X*X*X*X*X*X%X%X%X#X@X@X@XP.P.P.P.P.P.L.oXoX%.U I V A Y %.a.c.c.n.s.I C f f f S U a.v.m.m.t.w.T J J w.w.w.u.f.i.G > O X o o o o o o . . . . . .                                   - - - - - - - - - - - @ $ $ $ $ & 8 h ' ' o.2.2.<.<.<.<.<.<.1.1.<.<.<.<.1.1.<.<.<.<.<.<.<.<.<.<.<.<.<.<.<.<.<.<.1.1.1.1.<.<.1.1.<.<.<.<.4.4.4.4.1.1.1.1.<.<.4.4.1.1.<.1.<.<.<.<.<.<.",
"4 4 4 4 8 8 8 8 8 8 & & & & 8 8 & & 8 8 8 8 & & * * & & * * * 5 8 8 8 8 5 5 5 5 5 5 * * 5 5 5 5 5 5 5 5 * 5 5 5 t t 5 5 0 0 0 0 0 0 0 0 0 t t t t t t t i t a p p p p d z c v n M M M M M M m m F F M M v v v F F G #.&.p.f.T J r.k.-X#XOXOXL.K.K.D.D.D.K.K.K.K.K.L.L.L.oX+X#X$X$X:X6X-X+X+X+X+XOXoXOXOXOXOXOXOXOXOXOXOXOXP.P.P.P.P.P.OXOXOXOXOXOX#XOXOXOXOXOXOX#X@X&X&X&X-X-X-X&X&X&X&X&X&X*X@X@X%X*X*X*X*X*X*X*X*X*X*X*X*X%X%X&X=XP.U.l.e.l.u.e.e.w.e.R J u.A.J.U.P.OX%X@X@X%X%X%X%X%X=X=X&X*X*X%X%X%X%X7XOX7X7XOX-X*XOXOX@XOXL.OX#XI.L.L.L.L.J.A.D.A.A.Z.m.k.k.f.f.r.r.J K Y J H V A V H &.a.T Y T r.r.y.p.f.f.f.g.g.f.f.g.f.f.g.g.g.f.f.f.f.j.j.j.j.j.k.k.k.k.k.M.M.A.A.A.A.M.M.M.M.A.A.A.A.A.A.A.A.D.J.J.J.J.U.U.U.U.U.U.U.I.I.P.P.P.P.@X@X%X%X%X%X%X%X%X%X%X%X%X%X*X*X*X*X*X*X&X&X&X*X&X%X#X@X@XOXOXOXP.P.L.P.P.L.S.H &.A H v.v.%.c.c.c.n.s.P C f 2 C Z U g.m.N.m.u.r.w.J J w.w.w.u.g.i.G < O O o o o X o o o . . . .                                       - - - - - - - - @ @ @ - $ $ & & w k ~ { o.2.2.<.<.<.<.1.1.<.<.<.<.<.<.<.<.<.<.<.<.<.<.<.<.<.<.<.<.<.<.<.<.<.<.<.<.1.1.1.1.1.1.<.<.4.4.4.4.<.<.<.<.4.4.<.<.<.<.1.1.1.1.<.<.<.<.<.<.",
"4 4 4 4 8 8 8 8 8 8 & & 8 & 5 5 & & 8 8 8 8 & & * & & & * * 5 5 5 5 8 8 5 5 5 5 5 5 * * 5 5 5 5 5 5 5 5 5 5 * * t t 5 w 0 0 t 0 0 0 0 0 0 0 t t t t t t t t a a p p p d z c v n M n M M M M M m D F D M v v v F F S _ -.p.m.t.J w.u.A.#XL.L.K.K.K.D.K.K.K.K.K.K.L.L.L.oXoXoXoX+X#X-X:X6XyX-X+XoXoX+XOX#XOXOXOXOX#X#XOXOXOXOXOXOXP.P.OXOXOXOXOXOXOXOXOXOXOXOXOXOXP.P.OX#X&X&X&X&X&X&X*X&X&X&X%X@X@X%X*X*X*X*X*X*X*X*X*X%X*X%X%X%X=XP.J.J.e.l.l.l.e.w.e.w.J w.k.K.U.P.@XP.@X%X%X@X%X*X*X*X*X=X=X=X*X%X%X%X7XOX7X%X%X%X&XP.OX&XOXOXK.L.OXL.L.L.L.K.K.A.D.D.A.A.Z.m.k.g.f.y.r.R J Y J H V V V V J c.&.R R &.r.y.u.f.f.f.g.k.k.j.k.k.k.k.k.k.k.j.j.j.j.j.j.l.j.k.k.k.k.M.M.M.A.A.A.A.A.A.A.A.A.A.A.A.A.A.J.K.K.J.U.U.U.I.I.I.U.U.U.I.I.I.P.P.P.P.Y.Y.%X%X%X%X%X%X%X%X%X*X*X*X=X=X&X&X*X*X&X&X&X&X&X%X@X#X@XP.P.P.P.P.L.L.OXoXd.I $.C V Z.i.c.v.v.v.n.a.P C 2 2 f Z U c.m.m.m.u.r.T J J T w.w.u.f.p.G < O O o o o X o o o . .   .   o                                     - - - - - - @ @ - - - $ & & 5 l b ~ o.o.2.2.<.<.<.<.<.<.<.<.<.<.<.<.<.<.<.<.<.<.<.<.<.<.<.<.<.<.<.<.<.<.<.<.<.<.<.<.1.1.1.1.<.<.4.4.4.4.<.<.1.1.<.<.<.<.<.<.<.<.<.<.<.<.<.<.<.+.",
"4 4 4 4 8 8 8 8 8 8 & & 8 5 5 5 5 5 & & 5 8 5 5 * 5 8 8 5 5 5 5 * * * * 5 5 5 5 5 5 * * * 5 5 5 5 5 5 5 5 5 5 * t t t w 0 0 0 0 0 0 0 0 0 0 t t t t i i i i a p p p p z z c v n n n M M M m m D D D D D M v v F F F G #.%.m.N.w.R t.u.L.L.L.K.K.K.D.K.K.K.L.L.L.L.oXoXoXOXoXoXoXoX#X-X-X6X6X6X$X+X#X#X#X#X#X#X#X#XOXOX#XOXOXOXOXOXOXOXOXOXOXOXOXOXOXOXOXOXOXOXOXP.P.OX#X&X&X&X&X&X&X*X&X&X&X%X%X%X%X%X*X*X*X*X*X*X*X*X%X*X%X%X*X#XJ.P.u.l.e.l.e.e.w.e.J w.M.J.U.L.#X#XP.OX@X%X*X*X&X-X-X=X*X=X-X*X*X*X*X%X7X%X*X%X7X%XI.P.&XOXOXOXOXOXOXL.L.L.D.A.A.D.D.A.A.Z.m.m.k.g.f.r.T R J Y H V V V V H r.p.T Y T r.y.u.f.f.f.k.k.k.k.k.k.k.k.k.k.k.k.k.k.k.k.k.k.k.k.k.k.k.M.M.M.A.A.A.A.A.A.J.J.J.J.J.J.U.U.J.J.J.U.U.U.I.I.I.I.I.P.I.I.I.P.P.P.P.Y.Y.Y.%X%X%X%X%X%X%X%X*X=X=X=X*X*X&X&X&X&X&X*X&X*X&X%X@X#X#X@XOXP.P.P.L.L.L.L.Y A A C R v.%.v.v.v.n.v.z.U Z f 2 f S U d.v.m.m.u.r.T J J J w.w.u.f.p.G < O O + o o o o o o . .     o o             . .     . . . . . .         - - - - - - - - - $ & & u x ~ ^ o.2.2.<.<.<.<.<.<.<.1.1.<.<.<.<.<.<.<.<.<.<.<.<.<.<.<.<.<.<.<.<.<.<.<.<.<.<.<.<.1.1.1.1.<.<.<.4.4.4.<.<.1.<.<.<.<.<.<.<.<.<.<.<.<.<.<.+.+.+.",
"8 4 4 4 8 8 8 8 8 8 & & 8 8 5 5 5 5 8 & 5 5 5 5 5 5 8 5 5 5 5 5 * * * * 5 5 5 5 5 5 * * * * * * 5 * * * * * * * * * * : 0 0 0 0 0 0 0 0 0 0 t t t t i t i i a p p p d z z c v n n n n M m m m m D D D D F M M M F F S G -.d.M.j.J w.u.k.OXOXL.K.K.D.K.K.L.L.oXoXoXoXoX+X+X+X+XoXoXOX#X#X-X-X6XyX6X-X#XOX#X#X#X#X#X#X#X#XOXOXOXOXOXOXOXOXOXOXP.P.OXOXOXOXOXOXOXOX@X@X%X&X&X&X&X&X&X&X*X&X&X*X%X%X%X%X*X*X*X*X%X%X*X*X%X%X%X%X%X*XP.U.l.l.e.l.e.e.w.e.w.w.l.U.J.L.P.#X@XOXOX@X%X*X&X&X-X=X=X=X*X=X*X*X*X=X*X7X7X%XOXOX*XOXOXOX#XOXOXL.K.L.L.K.K.K.A.A.D.D.A.A.Z.m.m.k.g.f.r.r.T J J H H H H V A A c.&.Y R r.y.u.f.f.f.k.k.k.k.k.k.k.k.k.k.k.k.M.k.k.k.k.k.k.k.k.k.M.M.M.M.A.A.A.A.A.J.J.J.J.J.J.J.U.U.U.U.U.U.I.I.I.I.I.I.P.P.P.P.P.P.Y.Y.Y.Y.Y.Y.%X%X%X%X%X%X*X*X*X=X=X=X=X=X&X&X&X&X&X*X&X*X%X%X@X@X#X@XOXP.P.P.P.L.K.Z.I U C Y v.p.d.v.v.v.n.v.z.U Z f 2 f S U a.c.m.m.f.r.w.J J T w.w.u.g.p.G < O O + o o o o o o . .     o o             . . .   . . . . . .         - - - - - - - - $ $ & & l ~ ~ { o.2.2.<.<.<.<.<.<.<.1.1.1.<.<.<.<.<.<.<.<.<.<.<.<.<.<.<.<.<.<.<.<.<.<.<.<.<.<.<.1.1.1.1.<.<.4.4.<.<.1.1.<.<.<.<.<.<.<.<.<.<.<.<.<.2.+.+.o.o.",
"& & & 8 8 8 8 8 8 8 8 8 8 8 8 8 & & & & & & 8 8 5 5 * & & & & & = = = 5 5 5 * * * * 5 * * * * * * * 5 5 5 5 5 5 0 0 0 0 0 0 0 0 0 0 t t t t t t a a a a a t a a d d d z z z v M v v M M m m m ) D D D D F F D D D D D S -.r.j.j.u.K w.u.M.oXoXoXK.K.D.K.K.K.oXoX+X+X+X+XpX-X+X+XOX#X#X#X#X$X-X:XyXyX6X:X-X#X&X&X%X#X%X#X#XOXOX#X#XOXOXOXOXOXOXOXOXOXOX#X@XOXOX@X@X%X%X%X%X%X*X*X*X*X*X%X%X%X%X%X%X%X*X*X*X%X%X%X%X%X%X%X%XY.P.U.U.J.e.l.l.e.e.e.e.w.w.w.J.I.U.I.OX@XOX@X@X%X*X*X-X&X&X=X=X-X*X*X*X*X*X*X*X7XOXOXOXI.#X%X%XOX#XI.OXK.K.L.P.K.K.J.D.D.D.D.A.A.A.Z.m.m.g.f.u.r.T Y J J V H H V V V &.v.Y T r.u.u.f.f.g.k.k.k.k.k.k.k.k.M.k.M.M.M.M.M.M.M.M.M.M.M.M.M.M.M.A.M.M.A.A.J.J.J.J.J.J.U.U.U.U.I.I.I.I.I.I.I.I.P.P.P.P.%X%XR.R.R.R.%X%X%X%X%X%X%X%X*X*X*X*X=X=X=X=X-X*X=X*X*X*X*X*X&X%X%X%X%X@X@X@X@XOXP.P.L.F.F.T U H V s.S.i.a.v.n.v.n.n.z.U Z f 2 f P U s.d.m.m.f.r.T J J T w.w.u.f.i.G < % O X X X X o o . . .     o o                             . .         - - - - - - - - $ & & 5 x ~ ^ o.2.2.2.<.<.<.<.<.<.<.<.<.1.1.1.<.<.<.<.<.<.<.<.<.<.<.<.<.<.<.<.<.<.<.<.<.<.<.<.<.<.<.1.1.<.<.<.<.<.<.<.<.<.<.<.<.<.<.<.<.<.<.<.+.+.+.2.o.o.o.",
"& & 8 8 8 8 8 8 8 8 8 8 8 8 8 8 & & & & & & 8 8 5 5 * * & & & & = = 5 5 5 5 * * * * 5 5 * * * * 5 5 5 5 0 0 0 0 0 0 0 0 0 0 t t t t a a a t i i a a i i i i a p d d d z z z v v v v M M m m m D D D D D F D D D ) D D G P -.f.m.j.r.J w.j.A.L.oXK.D.D.K.D.K.oXoX+X#X#X-X:XpXpX:X#X#X#X#X#X#X#X$X-X:X6XyX6X:X&X#X%X%X%X#X&X&X%X&X@X@X#X#XOXOX#X#X#X#X#X#X#XOXOXOX%X%X%X%X%X%X%X%X%X%X%X%X%X%X%X%X%X%X%X*X%X%X%X%X%X%X%X%X%X%X*XOXJ.w.M.l.l.e.e.e.w.w.w.M.U.U.I.P.@X@X@X@X%X%X%X*X-X=X%X%X=X=X-X*X*X%X*X*X%X7XOX%XOXI.OX&X&XI.%XL.L.K.K.L.L.K.L.K.D.D.D.D.A.A.A.Z.m.m.k.f.u.y.r.T Y A J H V V V V A c.&.T T r.u.f.f.g.k.m.k.k.k.k.k.l.M.M.M.M.M.M.M.M.M.M.M.k.M.M.M.M.A.A.M.M.J.J.J.J.J.J.J.U.U.U.I.I.I.P.I.I.P.P.P.I.Y.Y.P.Y.%X%X%XY.%X%X*X*X*X*X*X*X*X*X*X*X=X=X=X=X=X=X-X=X=X*X*X*X*X*X&X%X%X%X%X@X@X@X#XOXP.L.P.P.S.A Y A H V.a.a.v.Z.v.n.n.n.x.U Z f < C Z U i.d.m.m.g.r.T J J T w.w.t.f.r.G 2 % O X X X X o         o o o                           . . . .         - - - - - - - - & & & u x ~ ' o.2.2.2.<.<.<.<.<.<.<.<.<.1.1.<.<.<.<.<.<.<.<.<.<.<.<.<.<.<.<.<.<.<.<.<.<.<.<.<.<.<.<.<.<.<.<.<.<.<.<.+.<.2.+.+.+.<.<.<.<.<.+.+.+.+.2.o.o.o.o.",
"8 8 8 8 8 8 8 8 8 8 8 8 8 8 8 8 8 & & & & & & & 5 5 5 * 8 8 & & = = = = 5 5 5 * * * 5 5 * * 5 5 5 5 t t t t t t u u u u t t i i a a a a a a a a a a a p a a d d d d d z z v v v v v M M m m m ) D D D D D D D D ) S S S G Y r.k.m.f.T R w.j.D.oXK.D.D.D.K.L.oXoX+X#X-X-X6X6XpXpXmX6X$X-X-X-X#X&X-X-X-X-X6X6X:X&X%X-X&X%X&X%X#X@X#X#X#X#X#X$X:X9X8X:X#XOXOXOX7X7X7X7X%X%X%X%X%X%X7X%X%X%X%X%X%X%X%X%X%X%X%X%X%X%X%X%X%X%X%X%X%XI.e.M.l.l.e.e.e.w.w.e.l.U.I.I.P.Y.@X@X@X@X%X%X%X*X=X=X%X%X%X%X7X7X%X%X%X%X7X%X%X%XOXOXOXOXOXOX#XU.L.K.K.K.K.L.L.L.J.D.D.D.A.A.A.A.Z.m.m.g.f.u.r.T R J J H V V V V V Y v.-.T w.u.u.f.k.k.m.k.m.k.m.M.M.M.M.M.M.M.M.M.M.M.M.M.M.M.M.M.M.A.A.M.J.J.J.J.J.U.J.U.U.I.I.I.I.I.P.I.I.P.P.R.P.%X%X%X%X%X%X%X%X*X*X*X*X*X*X=X=X=X=X=X;X=X=X=X=X=X=X=X=X*X*X*X*X*X*X&X%X%X%X#X@X@X@X#XOXP.L.L.P.R &.Y H Y Z.%.v.Z.v.n.n.n.n.c.#.Z f 2 f C P =.a.v.m.c.t.w.T J w.w.w.t.f.r.A 2 % + + X X X X X X X X o o                     . . . . . . . .             - - - - - - & $ 5 j ~ ! o.o.2.2.<.<.<.<.<.<.<.<.<.<.<.<.<.<.<.<.<.<.<.<.<.<.1.1.<.<.<.<.<.<.<.<.<.<.<.<.<.<.<.2.2.2.2.+.+.+.o.o.o.o.o.o.@.@.+.+.+.+.+.+.+.+.+.o.o.o.o.o.",
"8 8 8 8 8 8 8 8 8 8 8 8 8 8 8 8 8 & & & & & & & 5 5 5 5 5 8 8 8 = = 5 5 5 5 5 5 5 5 5 5 5 5 t t t t t u u u u u i i i i a a p p a a a a a a a p p p p p p p d z d d z z z g v v v v M M m m m ) ) ) D D D D ) ) ) S S S P U T t.j.m.f.J J r.m.oXK.D.D.D.K.K.oXoXL.oX+X-X-X-X6XpXpXpXpX6X:X-X-X-X-X-X-X:X:X:X-X-X-X-X&X&X&X&X&X&X-X;X:X8X8XyXyXyXyX:X#XOXOXOX7X7X7X7X7X7XOXOXOXOXOXOX7X%X%X%X%X%X%X%X%X%X%X%X%X%X%X@X%X%X%XP.U.l.l.l.l.e.e.e.e.w.w.l.J.U.P.P.Y.@X@X@X%X%X*X&X=X&X=X&X&X&X*X*X%X%X%X%X%X7X%X%X%XOXOX%X%XI.I.OXI.U.L.K.K.K.J.L.L.L.D.D.D.A.A.A.A.A.Z.m.m.k.f.u.y.r.T Y A A V V H V H V s.d.T w.t.u.g.k.k.k.k.m.k.M.M.M.M.M.M.M.M.M.M.M.M.M.M.M.M.M.M.M.M.J.J.J.J.J.K.U.U.U.I.I.I.P.I.I.I.I.P.P.P.R.%X%X%X%X%X%X%X%X*X*X*X*X*X*X=X=X=X=X=X=X=X;X;X=X=X=X=X=X=X-X=X*X*X*X*X%X%X%X%X%X@X@X@X@X#XP.P.L.#XA.A R Z Z -.a.i.S.v.v.v.v.n.n.c.#.Z f f 2 Z S $.:.c.v.v.p.r.w.J w.w.w.w.u.r.A > % + + O O X X + + X X X o               . . . . . . . . . . .           - - - - - - - $ & w x ~ ' o.o.2.2.<.<.<.<.<.<.<.<.<.<.<.<.<.<.<.<.<.<.<.<.<.<.<.<.<.<.<.<.<.<.<.<.<.<.<.<.<.<.2.2.2.2.o.o.o.o.o.o.o.o.{ o.o.o.o.@.+.@.+.+.+.@.@.o.o.o.o.o.",
"5 5 5 5 5 8 8 5 5 5 5 5 5 5 5 5 5 5 * 5 5 5 5 5 5 5 5 5 5 5 5 5 5 5 5 5 5 5 5 5 5 5 5 5 t t t t t u u u i i i i i i i i a a p p a a p p d d d d p p p p d d z v z z z z v v M M M M M m m D D ) ) ) ) ) D D ) ) ) _ _ _ ..-.m.R f.m.p.p.J T t.m.D.K.D.D.K.K.L.oXoXoX+X+X#X-X-X:X9XiXpXpXpX6X&X#X-X#X-X-X-X-X-X-X-X-X-X-X-X-X:X:X:X8XyXyXyXyX:X:X&X&XOXOXOXOXOXOX7X7XOXP.OXOXOXOXOXOXP.%X%X%X%X%X%X%X%X%X%X%X%X*X=XP.I.P.R.U.e.u.l.l.e.e.e.e.w.w.l.J.U.I.I.P.@X@X%X%X%X%X%X*X=X=X&X*X=X-X-X*X%X%X%X%X%X7X7X%X%XOXOX7X*XI.L.OXU.K.K.K.K.K.K.L.L.J.A.D.D.D.A.A.A.A.Z.m.m.m.f.f.u.y.T R J J H H V V V V A v.r.T u.u.f.j.k.m.k.m.M.M.M.M.M.M.J.J.J.J.A.A.A.A.A.A.J.J.J.J.J.J.J.J.J.U.U.I.I.I.I.P.P.P.P.I.I.I.R.R.7X%X%X%X%X%X%X%X*X*X*X*X=X*X=X=X=X=X;X;X;X;X=X=X=X=X=X=X-X-X=X-X-X-X*X*X%X%X%X%X%X%X#X#X%X%XI.P.I.@XP.R R A A A Y i.v.S.Z.Z.v.n.n.n.c.#.Z f f f Z S S #.=.a.v.f.r.w.T w.w.w.w.u.r.H > % + + + + % % $ $ $ $ X o                 . . . . . . . . . .                       - & 5 j b ~ { o.2.2.<.<.<.<.<.<.2.<.<.<.<.<.<.<.<.<.<.<.<.<.<.<.<.<.<.<.<.<.<.<.<.<.<.2.2.o.o.o.{ { o.o.o.o.o.o.{ { { { { { { { } o.@.@.@.+.+.+.o.o.o.@.o.o.o.",
"5 5 5 5 5 5 8 8 5 5 5 5 5 5 5 5 5 5 5 5 5 5 5 5 5 5 5 5 5 5 5 5 5 5 5 5 0 0 t t t t t t u u u u u i i i i i i i i i i i a p p p a a p p d d d d d d d d d d z v z z z z v v M M M M M m m D D ) ) ) ) ) ) ) [ [ [ _ _ _ #.i.oXM.T v.N.a.i.J R t.m.D.K.D.K.K.L.oXoXoX+X+X#X-X-X-X:X6X6XyXpXpXpXyX-X-X-X-X-X-X-X-X-X-X-X-X-X-X-X-X:X6X:X-X-X#X#X#XOXOXOXOXOXOXOXOXP.R.R.P.OXOXOXI.P.P.I.I.*X%X%XOX@X%X%X%X%X%X%X%X%X%X@X%XI.e.l.l.l.e.e.e.e.e.w.e.J.U.I.P.P.P.@X@X%X%X%X%X%X%X*X*X*X*X=X-X=X%X%X%X7X7X7X7X7X7X%XOXOX%XOXI.I.I.L.U.A.L.A.K.K.K.K.A.A.D.D.A.A.A.Z.A.Z.m.m.m.k.f.f.u.r.T Y J A A H V V V V T g.T r.w.f.j.k.m.k.M.M.A.M.M.M.M.J.J.J.J.J.J.J.J.J.J.J.J.U.J.J.J.J.J.J.U.I.I.I.I.P.I.P.P.I.I.R.R.R.7X%X%X%X%X%X%X%X%X*X*X*X=X=X*X*X=X=X;X;X;X;X;X=X=X=X=X=X=X-X-X=X-X-X=X*X%X%X7X@X%X#X#X#X#X%X%XP.P.OXOXj.K r.A V A A s.m.S.Z.Z.m.v.v.n.c.#.Z 2 f f S L S S #.=.d.f.t.w.J w.w.w.t.u.&.H > % + % % % % % % % % % % X o             . . . . . . . . . . .                       - & u j ~ ! { o.2.<.<.<.<.<.<.<.2.<.<.<.<.2.2.<.<.<.<.<.<.2.2.<.<.<.<.<.<.<.<.<.<.2.2.o.o.o.{ { ! ! ! ! ! ! ! ! ! ~ ~ ! ! ! ! ' { { o.@.@.+.+.+.o.o.o.o.o.o.o.",
"5 5 5 5 8 8 5 5 5 5 5 5 w w w w u w w w t u u u w w w w 5 5 0 0 u u u u u u u u u u u u i i i i i i i i i i i i i i i i p a a p a a p p p p d d d z d d d d z v d d z v v v M M M M M m m D D D D D ) ) ) ) ] [ [ [ [ ..#.n.+X$Xm.T v.n.c.i.G R t.m.D.K.K.K.L.oXoXoX+XOXOX+X-X-X-X-X;X6X6X6XyXpXpX6X-X-X-X-X-X-X-X-X-X-X-X-X-X-X-X-X#X#X#X#X#X@XOXOX7X7X7X7X7X7X7X7X7X7X7XOXOXI.P.P.I.I.*X%X%XOX@X@X%X%XY.Y.Y.Y.%X%XOXU.u.u.l.M.e.e.e.e.w.w.u.M.U.I.P.P.P.P.@X%X%X%X%X%X%X%X@X@X%X*X=X-X=X%X*X%X7XOXOXOX7X7X7X7XOXOX-X*XOXP.OXI.J.L.A.K.A.K.D.A.A.F.D.A.A.A.Z.A.Z.m.m.m.k.f.f.f.y.T R J J A A H V V V H r.f.T r.u.j.k.k.k.M.M.A.A.A.J.J.J.J.J.J.J.J.U.U.U.U.U.U.U.U.U.U.J.J.U.U.I.I.I.I.P.OXOX7X%X%X%X%X%X%X*X*X*X%X%X%X*X*X*X*X=X*X*X*X*X=X=X;X;X;X;X;X;X;X=X=X=X=X=X=X-X-X&X&X%X%XOXOX@X%X%X%X%X%X#X#XP.OX@XA.J T R A H A Y d.S.Z.S.Z.m.v.v.n.c.$.Z 2 f f ....D F S #.%.p.r.w.T w.w.w.u.u.-.V > % % % % % % % % % % % % % X o           . . . . . . . . . . .                       & * j b ! { o.@.2.<.<.<.<.<.<.<.2.<.2.<.<.2.<.<.<.<.<.<.<.2.2.<.<.<.<.<.<.<.<.<.2.@.o.{ { ! ! ~ ~ b ~ ~ ~ ~ ~ ~ ~ ~ ~ ~ ~ ~ ! ! ] { { o.@.@.@.@.o.o.o.o.o.o.o.",
"5 5 5 5 8 8 5 5 5 5 w w w u u u u u u u u u u u u u u u u t u u u u u u u u i i i i i i i i i i i i i i i i i i i i i i a a a p a a p p p p d d d d d d d d z z d d z z v v v M M M M m m D D D D D ) ) ) ) ] [ [ [ [ ..#.n.oX$XoXd.%.S.n.c.i.J T t.m.D.D.K.oXoXoXoX+XOXOX+X#X-X-X-X-X-X-X6X6XyXpXpXpX6X-X-X-X-X-X-X-X-X-X&X&X&X%X#X#X#X#X@X#X#XOXOX7XOX7X7X7X7X7X7X7X7XR.OX7X7XOXOXOX7X%X%X%X7XP.P.P.Y.P.P.P.P.%X@XU.e.l.l.M.l.e.e.e.w.w.e.l.U.I.P.P.P.P.Y.@X@X%X%X%X%X*X%X@X@X%X*X&X=X*X%X%X*X*X%X%X7X7XOX%X%X7XOXOXI.I.P.OXOXK.K.K.J.A.A.A.A.A.D.D.A.A.A.Z.A.m.m.m.m.k.g.g.f.u.r.T Y J J A A V H V V H j.f.r.t.f.j.k.k.M.M.A.J.J.J.J.U.U.K.K.U.U.U.U.U.U.U.U.U.U.U.U.J.J.U.U.I.I.I.I.OXOX7X%X%X%X%X%X*X*X*X*X*X%X*X%X%X%X*X*X*X*X*X*X*X=X=X=X;X;X;X;X=X;X;X=X=X=X=X=X&X&X%X%X%XOXOXOXOX@X@X@XOXOX@X#XOX#X#Xu.K w.Y A Y H s.m.Z.Z.Z.m.v.v.v.v.c.$.Z 2 f f .. .[ D F S Y i.t.w.T w.w.w.u.f.-.V > O O % % % % % % % % % % % % X           . . . . . . . . . . .                     - 5 t j b { o.o.2.2.<.<.<.<.2.2.<.2.<.2.<.<.<.<.<.<.<.<.<.<.2.2.<.<.<.<.<.<.<.<.<.<.o.{ ' ! ~ ~ b b k x b b b b b b b b b b b ~ ! ! { { o.o.o.o.o.@.o.o.o.o.o.o.",
"5 5 5 5 8 5 5 5 5 5 w w t u u u u u u u u u u u u u u u u u u u u u u u i i i i i i i i i i i i i i i i a p i i i i i i a a p p d d d d s d d d d d d d z z z v d d v v v v v v v v M m D D D D D D ) ) ) ) [ [ [ L [ ..#.D.+X$X+XoXy.&.m.S.x.:.Y Y p.N.D.K.K.K.L.oXOX#X#X#X&X-X-X-X-X-X-X-X-X:X6X6XyX:X-X-X-X-X-X-X-X-X-X&X&X&X%X#X#X#X%X%X7X7XOXOXOXOX7X7X7X7X7X7X7X7X7X7XOXOXOX7XOX%X%X*X%X7X7X7X7X7X@XY.P.P.OXJ.w.l.J.M.e.e.e.e.w.w.e.l.J.I.I.I.I.I.P.@X@X%X%X%X%X%X*X*X%X@X%X&X=X&X*X7XP.%X*X%X%X7X7X7X%X%X%XOXP.I.I.OXOXP.L.K.K.J.A.A.A.A.A.A.A.A.A.K.m.A.m.m.m.k.g.g.g.g.p.r.&.T R Y J J H H V V H J m.f.u.u.u.k.k.M.M.A.J.J.U.U.U.U.U.U.U.U.U.U.U.U.U.U.U.U.U.U.J.U.U.U.U.I.I.I.R.%X%X%X%X%X*X*X*X*X*X*X*X*X*X%X%X%X*X*X*X*X*X*X*X*X=X=X=X;X;X;X=X=X=X=X-X-X-X&X&X%X%X#X@XOXOXOXOXOXOXOXOXOXOXOXP.#Xk.J w.T Y R A Y v.Z.Z.Z.Z.m.m.m.v.v.v.i.Z 2 f F ~.5. .[ L F Z G -.-.T w.w.u.u.f.Y 2 , O O % % % % % % % % % % % % % X     .   . . . . . . . . . . .                   - $ 5 l x ~ { o.2.2.<.<.<.<.<.<.<.<.<.<.<.<.<.2.2.<.<.<.<.<.2.2.2.<.<.<.<.<.<.2.2.o.' ~ ~ ~ b b x j j j j j j k k x x b b b x b b ~ ! { { o.o.o.o.o.o.o.o.o.o.{ o.",
"5 5 5 5 8 8 5 5 5 5 w w u u u u u u u u i i i i u u u u u u u u u u u u i i i i i i i i i i i i i i i i a a i i i i i i a a p p d d d d s s d d d d d d z z z v d d v v v v v v v M v m D D D D D D ) ) ) ) [ [ L L L P &._.+X#XoXL.+Xy.T V.(.n.=.Y J &.g.N.D.oXL.L.oXOX#X#X&X-X-X-X-X-X-X-X-X-X-X-X:X:X;X-X-X-X-X-X-X-X-X&X&X&X&X&X%X%X&X%XOXOXOXOXOXOX7X7X7X7X7X7XOX7X7X7X7X%X%X%X%X%X*X%X%X7XR.I.OXOXOXP.P.OXu.w.w.l.l.e.e.e.e.w.w.e.l.J.U.I.I.I.I.I.@X%X%X%X%X%X%X%X*X*X&X&X&X-X-X=X*X7XP.%X%X%X%X%X%X%X*X*X*X7X%XOXI.#X@XU.L.U.K.A.A.A.A.A.A.A.A.A.Z.D.m.A.m.m.k.k.g.g.g.g.f.p.r.r.T R Y J J H H V H K T N.u.t.l.j.k.M.M.A.J.J.U.U.U.U.U.U.U.U.U.I.I.U.U.I.I.U.U.U.U.U.U.U.I.I.I.R.7X%X%X%X%X%X*X*X*X*X*X*X*X*X*X%X%X%X%X*X*X*X*X*X*X*X*X*X=X=X;X;X;X=X=X=X-X&X&X&X%X%X#XOXOXOXOXOXOXOXOXP.P.OXOXOXOXL.T T w.T T R Y a.v.Z.Z.Z.Z.Z.m.m.v.v.n.i.Z f f Z C.X. .[ F F C Z ` -.R T w.u.u.f.Y 2 ; O X O % % % % % % % % % % % % $ -       .         . . . . . .                   $ * 5 j ~ ' o.o.2.<.<.<.<.<.<.<.<.<.<.<.<.<.<.2.2.2.2.<.2.2.2.<.2.<.2.<.<.2.2.2.o.' ~ ~ b b k j j u u j j j j j j x x b b b b b b ~ ! { { o.o.o.o.o.o.o.o.o.{ { { ",
"5 5 5 5 5 5 5 5 5 5 w w t t u u u u u u i i i i u u u u u u u u u u u u i i i i i i i i i i i i i i i i a a i i i i i a p p d p p p d d d d d d z z z z d d v v v v v v v v v D D D m m D D D D D D ) ) ) [ [ [ L P P ..=._.+X#X#XoXoX+Xd.T V.n.z.z.-.A -.s.m._.L.L.oXoX+X#X#X-X-X-X-X-X-X-X-X-X-X-X;X:X;X-X-X-X-X-X-X-X-X&X&X&X-X-X&X&X&X&X#XOXOX%X%X%X%X7X%X7X%X%X%X7X7X7XOXOXOXOXOXOX&X%X#XOXOXOXOXOX@X@XJ.u.w.u.J.e.e.e.e.e.w.w.e.l.A.J.U.U.I.I.I.I.@X%X@X@X%X%X*X*X&X&X&X&X=X&X&X-X=X%X%X%X%X%X%X%X*X*X%X%X%X%X%X%X#XOXOXI.L.U.K.A.A.M.M.M.m.m.m.Z.A.A.m.m.m.m.k.g.g.g.g.g.f.p.r.r.-.T R J J H H H H K H t.k.u.u.j.l.k.M.A.A.J.U.U.U.U.U.U.U.U.U.I.I.U.I.I.I.I.I.U.U.U.I.I.I.I.I.7X%X%X%X%X%X%X%X%X%X%X%X%X%X%X%X%X%X%X%X*X*X*X*X*X%X%X%X%X*X=X=X;X;X=X=X=X-X&X&X*X%X@X@XOXOXOXOXP.P.P.P.P.P.P.P.OXL.w.w.r.w.T w.R R Z.Z.Z.Z.Z.Z.Z.m.m.v.v.v.:.S C < > F [ [ L F S C C Z G R T r.u.u.p.G 2 ; O + O % % % % % % % % % % % % % $ - X     X X     .                           $ = 5 u x ~ { o.o.2.<.<.<.2.<.<.<.<.<.<.2.2.2.2.2.2.2.2.<.<.<.<.<.<.<.<.2.2.2.2.o.' ~ b x j j u u u u i i i j j j j c b b b ~ b ~ ~ ! ' { { o.o.o.o.o.o.o.o.o.o.{ { ",
"5 5 5 5 5 5 5 5 5 5 w w t t u u u u u u u u u u u u u u t u u u u u u u i i i i i i i i i i i i i i i i a a i i i i i a p p d p p p d d d d d d z z z z d d v v v v v v v v v D D D m D D D D D D D ) ) ) [ [ [ L P L ..i.oX+X#X#X#X#X$X$Xv.Y s.V.c.:.:.$.Y i.S.S.F.oXoX+X#X#X-X-X-X-X-X-X-X-X-X-X;X;X:X;X;X-X-X-X-X-X-X-X&X&X-X-X-X-X&X&X&X%XOXOXOX#X%X&X&X&X%X%X%X%X%X7X7XOXOXOXOX@X@X#X@X#X#XOXOXOXOX@Xl.w.w.j.A.w.e.e.w.e.w.w.e.l.M.J.U.U.U.I.I.I.I.@X@X@X@X#X%X%X*X*X*X&X&X*X%X%X&X*X*X%X%X%X%X%X%X%X%X%XP.P.7X*XOX#X&XOXK.L.K.K.A.M.M.M.m.m.m.m.m.Z.m.m.m.k.k.k.g.g.g.g.g.f.f.y.r.&.T T Y J K H K H K K K r.M.j.u.l.k.M.M.A.J.J.U.U.U.U.U.U.U.U.U.U.U.U.I.I.I.I.I.I.I.I.I.I.I.R.7X%X%X%X%X%X%X%X%X%X%X%X%X%X%X%X%X%X%X%X*X%X%X*X%X%X%X%X%X%X*X=X=X=X=X=X=X&X&X&X*X%X@XOXOXOXOXP.P.P.P.I.P.I.I.I.P.u.T w.T w.t.T R f.m.D.Z.Z.Z.Z.Z.m.m.v.v.v.:.G C < , g F D D F F F C C Z R T r.u.u.r.A 2 ; O O O % % % % % % % % % % % % % % $ - - - X X X                               $ * w b b ~ o.o.2.2.2.<.2.2.<.<.<.<.<.2.2.2.2.2.<.2.2.2.<.<.<.<.2.2.2.2.2.2.o.o.{ ~ ~ k j h u u u u u i i p j j z z b b b ~ ! ! ! ! ' { { { o.o.o.o.o.o.{ { { { { { ",
"5 5 5 5 5 5 5 5 5 5 t 0 0 t u u t t t t u u u u u u u u t t t t u u u u u u u u u u u u i i i i i i i i a a a a a a p a p p d d d d d d d d d d v v d d d d v v v v v v v v m D D D D D D D D D ) ) ) ) _ [ [ [ L P P #.a.oX+X#X#X#X#X$X+X+XD.&.i.n.n.:.s.$.P U x.V.S.oX$X$X#X#X-X-X-X-X-X-X-X-X&X-X-X-X;X;X;X-X-X-X-X-X-X-X-X-X-X-X-X-X&X&X%X%X%X%X%X%X%X&X-X&X*X*X&X&X%X7XOXOXOXOX#X&X#XOXP.OX#XOXOXK.w.w.w.M.j.e.w.w.w.w.w.e.e.l.l.A.U.U.U.U.I.I.P.OX#X@X#X#X@X@X%X%X%X%X%X*X%X%X*X&X*X*X%X%X7X%X%X%X%X%X7XP.P.%X&XOX%X-XP.L.L.U.K.A.A.M.M.m.m.k.m.m.m.m.m.m.m.m.g.g.g.j.g.g.f.f.u.r.r.r.T T R J J K K K K J K w.M.u.l.M.l.M.J.J.U.U.U.U.U.U.U.U.I.I.U.U.U.U.I.I.I.I.I.I.I.I.I.I.R.R.7X7X%X%X%X%X%X%X%X%X%X%X%X%X%X%X%X%X%X%X*X*X*X%X%X%X%X7X%X*X*X*X&X&X-X&X&X&X*X%X#XOXOXOXOXOXP.I.I.I.I.I.OXJ.P.j.R w.w.w.T R R f.Z.Z.Z.Z.Z.Z.Z.v.v.v.v.v.v.x.P C < > < g M F F F F v f f Y -.r.u.f.-.Z > ; % % % % % % % % % % % % % % % $ % $ $ $ $ - X X X X             .           $ = 5 u j ~ ^ o.o.2.2.2.<.2.2.2.2.2.2.2.2.<.2.2.2.2.2.2.2.<.<.<.2.2.2.2.2.2.2.o.o.' ~ x j h u u u u u i i j z b b b b n m ! ! ! ! ! ! { { { { o.o.o.o.o.o.{ { { { { { ",
"5 5 5 5 5 5 5 5 5 5 t 0 0 0 t t t t t t t t t u u t u u t t t t u u u u u u u t u u u u i i i i i i i i a a a a a a p p p p d d d d d d d d d d v v d g g d v v v v v v v v m D D D m D D D D D ) ) ) ) _ [ [ [ [ P P #.x.oXoXoX+X#X#X$X+X-X-X+X%.&.h.h.s.x.x.=.P #.v._.+X+X+X+X+X#X#X&X-X-X-X-X-X-X#X-X-X;X:X;X-X-X-X;X;X-X-X-X-X-X-X-X&X%X%X&X-X-X&XOX7X%X-X-X&X%XOXOX7X7XOXOXOXOXOXOXL.L.oXOX#XJ.j.w.T r.j.w.w.w.w.w.w.w.e.e.l.l.A.J.U.U.U.U.U.I.P.OX@X@X@X#X@X@X%X%X*X*X@X@X*X=X;X;X=X=X*X%X%X%X%X%XP.7X7XP.OX%X*X@X%X;XU.OXI.L.L.K.A.M.M.M.m.k.m.m.m.m.m.m.m.m.g.g.k.g.g.f.f.f.u.t.r.w.w.T T R Y K K K K J K K w.A.l.u.l.l.J.U.U.U.U.U.U.U.U.U.I.I.U.I.I.I.I.I.I.I.I.I.R.R.I.I.R.R.R.7X7X7X%X%X%X%X%X%X%X%X*X%X%X%X%X%X%X%X*X*X*X%X%X%X%X7X%X7X%X*X%X%X%X&X*X%X%X%XOXOXOXOXOXP.I.I.L.L.L.L.OXOXk.R u.w.R R R R u.m.Z.Z.Z.Z.Z.Z.Z.v.v.v.v.v.v.x.P C < > < g F F F F F F g s A R t.f.f.-.C > ; % % % % % % % % % % % % % % % % $ $ $ $ % $ $ - - - X X X               - $ $ * t i b ! ' o.o.2.2.2.2.2.2.2.2.2.2.2.2.2.2.2.2.2.2.2.2.<.<.2.2.2.2.2.2.2.o.o.' ~ b k l h u u u i j j c b b ! ! ! ! ! ! ! ! { { { { { { { { { o.{ { o.{ { { { { { { ",
"* * * * 5 5 5 5 5 5 5 5 5 5 t t t t t t t t t t u u u u t t u u t t u u u u t t u u i i i i i i i i i i a a a a p p p p d d d z c c c c d c v v v v v v v v v v v v v v v D D D D D D D D D D ) ) ) ) ) _ [ [ [ [ ..P $.n.oXL.oXoXoX+X#X#X-X-X#X$Xv.Y s.:.:.:.>.z.U U -.N._.oXoX+XOX#X#X#X#X-X-X-X-X#X#X&X-X-X-X-X-X-X;X;X;X-X-X-X-X-X-X-X-X-X-X-X-XOXOX%X&X&X-X-X-X*X&X%X7XOXOXOXOXOXOXOX#XoXA.r.R Y w.f.u.T R w.w.w.e.e.e.u.u.l.M.J.J.U.U.U.U.I.I.P.@X#X#X%X%X@X@X@X@X@X@X*X&X&X-X;X;X;X=X=X*X%X%X%X%X%X=X=X%X%X%XOX%X&X-XL.OXK.K.J.J.D.A.M.M.m.k.m.m.m.m.m.m.m.m.k.k.k.k.g.f.f.f.u.y.r.r.w.w.w.T R R K K K K R R K w.J.l.l.M.J.J.U.U.U.U.U.U.I.I.I.I.I.I.I.I.I.I.I.I.I.I.I.I.I.I.R.R.R.7X7X7X%X%X%X%X%X%X%X%X*X%X%X7X7X%X%X%X%X%X%X%X%X%X%X%X%X7X7X7XOXOX%X%X%X@XOXOXOXOXI.I.I.I.I.L.L.L.L.L.oXM.w.u.w.w.w.w.R w.m.m.Z.Z.Z.Z.Z.Z.v.v.v.v.v.v.v.x.U C > > < g F F v v F F v f C Y t.g.f.#.C ; % % % % % % % % % % % % % + % % % $ $ $ % % % % $ $ $ $ + - X X - - - - - $ $ = * u j b ~ ' o.o.2.2.2.2.2.2.2.2.2.2.2.2.2.2.2.2.2.2.2.2.2.<.2.2.2.2.2.2.o.o.' ! b k j l h l u i j b b b b ! ! ] { { { { { { { { { { { { { { { { { { { { { { { { { { ",
"* * * * * 5 5 5 5 5 5 5 5 5 t t t t t t t t t t t t u u u t u u t u u u i u t t t u i i i i i i i i a a a a p p p p z z d d d d c c c c c c v v v v v v v v v v v v v v v m D D D D D D D D D ) ) ) ) ) ) [ [ [ [ P P $.V.oXL.oXoXoX+X#X#X-X-X#X#X-XoXp.&.&.:.>.>.C.z.$.#.i.N.oXoXoXoX+X#X#X#X#X#X#X#X#X-X-X-X-X%X-X-X:X;X;X;X-X-X-X-X-X-X-X-X-X-X-X-X-X-X-X%XOXOX7X&X&X&X7XOXOXoXOXOXOXoXj.w.R Y T r.u.R J w.w.w.w.w.e.e.u.u.l.l.A.J.U.U.U.J.U.I.I.OX@X#X#X%X%X@X@X@X%X%X@X@X@X%X*X&X-X=X=X=X%X%X%X%X%X%X*X*X7X%X%XOX@X%X%X#XOXL.L.L.K.K.A.A.M.m.m.m.m.m.m.m.m.m.m.g.k.k.k.g.f.f.p.u.y.r.r.r.w.r.w.T R J K K K K K K K w.A.A.l.M.M.J.J.J.U.U.U.I.I.I.I.I.I.I.I.I.I.I.I.I.I.I.I.I.R.R.R.R.R.7X7X%X%X%X%X%X%X%X%X%X%X%X%X%X7X7X%X7X%X%X%X%X%X%X%X7XOXOXOXOXOX%X%XOXOXOXOXI.I.I.I.I.I.L.L.L.L.L.L.A.R j.u.w.w.w.K w.k.m.m.Z.Z.Z.Z.Z.V.v.v.v.c.v.c.v.c.#.C < > < d F v v F F M v d f I y.g.p.U f ; % % % % % % % % % % % % + + % $ $ $ $ $ % % % % $ $ $ $ $ + - - - - - - $ = = * t i j ~ ~ ' o.o.2.2.2.2.2.2.<.2.<.<.<.2.2.2.2.2.2.2.2.2.<.<.2.2.2.2.2.2.o.{ ~ ~ k j l l j j j j b n n n ! ! { ] ] { { { { { { { { { { { { { { { { { { { { { { { { { ",
"* * * * 5 5 * * 0 0 0 5 0 0 0 0 t t t t t t 0 0 u u u u t t t u t t i i t t i i i i i i i i a a i i a a a a d s s a d d d d c c d d c c v v v v v v v v v v v v v v v M F F D D D D D D D ) ) [ [ [ [ [ [ [ | ....L ..=.S._.L.oX+X#X#X#X$X-X-X-X-X-X-X2Xm.%.-.%.,.>.>.z.x.=.U &.a.Z.oX#X+X#X#X#XOXOX#X#X#X-X-X-X-X-X-X;X:X-X-X-X-X-X-X-X&X-X%X%X-X-X-X-X-X&X#XOXOX&X&XOXL.K.K.oX#XoXm.f.T T r.T p.r.R J R R R w.w.w.u.u.u.j.l.l.M.A.J.J.J.J.J.U.I.P.OX@X@X@X@X@X@X@X%X%X%X%X%X%X%X*X&X-X;X=X*X%X@X@X@X%X%X%X%XOXOX%X@XOXOXOXOXOXOXU.L.K.K.A.A.m.m.m.m.m.m.m.m.m.m.k.k.k.k.k.g.f.f.u.y.r.r.r.w.w.r.r.w.T R R K K K J J K K R M.J.l.l.A.J.J.J.U.U.U.U.U.I.I.I.I.I.I.I.I.I.I.I.I.I.7X7X7X7X7X7X7X7X%X*X7X7X%X%X7XOX%X*X*X*X%X%X%XOXOX7X%X%X%X%X%X%X7XOXOXOXOXOXOXOXOXOXOXI.I.OXI.I.I.oXL.L.L.L.+XM.w.M.u.w.w.w.R w.j.m.Z.Z.Z.Z.Z.Z.Z.Z.v.v.v.c.v.v.v.c.#.C < > < s v F F F F v v g f A &.d.y.U f ; % % % % % % ; ; ; ; % % $ + $ $ $ $ $ $ $ $ $ $ $ $ $ $ $ - - - $ $ $ $ $ = * 5 i j b ~ ^ { o.o.2.2.2.2.2.2.2.2.2.2.2.2.2.2.2.2.2.2.2.2.2.2.2.2.2.2.2.o.{ ~ ~ b j j j j j x b b ! ! ! ! ! { { { { { o.o.o.{ o.{ o.{ { { { { { { { { { { { { { { { { ",
"* * * * 5 5 * * : : 0 0 0 0 0 0 t t t t t t 0 0 u u u u t t t t t t i i t a i i i i i i i i a a i i a a a a d d d d d d d d c c c d c c v v v v v v v v v v v v v v v M F F D D D D D D D ) ) [ [ [ [ [ .. ...| ....#.=._._.oXoXOX#X#X#X#X-X-X-X-X:X:X:X-X+Xm.%.=.=.=.*.:.z.x.s.-.Y T p.Z.L.+X+X+X+X+XoXoX#X-X6X-X-X-X-X-X-X#X-X-X#XOX%X#X-X-X-X-X-X-X-X&XOXOXOXOXOXOX#X-X$XF.m.r.T R -.-.r.r.r.Y Y Y Y R T r.t.u.u.u.u.j.l.l.l.A.J.J.J.J.J.U.U.I.P.OX@X@X@X@X@X@X@X%X%X*X%X*X*X%X*X&X=X=X=X*X%XOXOX@XOX%X%X%X%XOX%X%XOXOXOXP.P.L.L.L.U.K.D.A.m.m.m.m.m.m.m.m.m.m.k.k.k.k.k.g.f.f.u.u.y.y.r.r.r.r.r.w.w.T R J J K J J J K J K l.U.l.k.A.J.U.U.I.I.U.U.U.I.U.I.I.I.I.I.U.U.I.I.I.OX7X7X7XOX7X7XI.7X*XI.I.7X7XOX7X%X%X%X%X%X%X%XOXOXOX%X%X%X%X%X%X7XOXOXOXOXOXOXOXI.OXI.I.I.OXOXoXOXoXL.oXK.#XM.w.A.u.w.e.w.R w.j.m.m.Z.Z.Z.Z.Z.Z.Z.Z.v.v.c.c.g.c.v.c.$.f < > < s v g g L F F F F f Z -.d.y.Y f , ; ; ; ; ; ; ; ; ; ; % % + + + + $ $ $ $ $ $ $ $ $ $ $ $ $ - $ $ $ $ $ $ $ * * t i j b ~ ^ { o.o.2.2.2.2.2.o.2.2.@.2.@.@.2.2.2.2.2.2.2.2.2.2.2.2.2.2.o.{ ~ ~ b x k j k k b b ~ ! ! { { { { { o.o.o.o.o.o.o.o.o.o.o.o.{ { { { { { { { { { { { { { { { ",
"* * * * * * * * : : : * : : 0 0 5 5 t t t 0 t u u u u u t t t t a a i i i i i i i i a a a a a a p p a a d d d d d d c c c c c c v v v v v v v v v v v v v v M v M M F D D D D D D D D L L L L [ [ [ [ L [ [ ....*.;.6.x._.oXoXoXOXoX+X#X$X-X-X-X-X:X:X:X:X-X+X_.v.s.$.$.&.$.&.:.s.n.x.&.-.Y &.c.Z._.$X$X$X-X#X#XOXOXOXOXOXOXOXOX-X>X:X%X#XOXOXOXI.OXOXI.L.oXoX+X$X+XD.m.r.T T &.s.%.&.%.T R J J J Y R R r.t.f.f.u.u.u.u.l.l.k.M.A.J.J.J.J.U.U.I.I.OX#X@X%X%X%X%X%X%X%X%X*X*X&X&X&X=X=X=X=X*X%XOXOXOXOXOXI.OX*X*X%X*XOXOXOXP.I.I.L.L.K.K.K.K.M.M.m.m.m.m.m.m.m.m.m.k.k.k.k.k.g.f.f.f.f.u.y.y.r.r.r.w.r.r.w.T R R J J K J K J K K w.J.J.M.J.J.U.U.U.U.U.I.I.U.I.I.I.I.I.U.I.I.I.I.7X7X7XI.I.%X%XI.OX%XI.I.I.7X7X7X%X7X7X7X7X7X%XOXOXOX7X%X*X%X%X%X7XOXOXP.I.I.I.I.I.I.I.I.I.OXOXoXoXoXoXoX$Xj.w.#Xu.T w.w.R w.k.m.m.m.m.m.m.m.Z.Z.Z.Z.v.v.c.c.g.c.v.c.$.f < , < s s f g F F F F F f f Y d.y.U C ; > > > > > > > > : ; % % + X X X - - X X X X $ $ $ $ $ $ $ $ $ $ $ $ $ $ = * 5 u i j b ~ ^ o.o.o.o.2.o.o.o.o.o.o.o.o.o.o.o.o.o.@.@.2.2.2.2.2.2.2.2.o.{ ! ~ b b b b b b b b ~ ! ! { { { { { o.o.o.o.o.o.o.o.o.o.o.o.o.o.o.{ { { { { { { { { { { { { { ",
"* * * * * * * * : : : * : : : 0 5 5 t t t t t u t u u u t t t a a a i i i i i i i i a a a a a a p p p p d d d d d d c c c c c c v v v v v v v v v v v v v v M F M M F D D D D D D D D L L L L L [ [ L L ..$.;.6.b.~.(.(._.oXoXoXOX#X#X#X$X-X-X-X:X:X:X:X:X6X6X+XoXS.g.i.Y -.-.&.&.#.=.c.n.n.x.a.Y T r.p.g.N.oXoX#X-X-X-X-X-X-X-X-X-X%X#XOXOXOXOXOXOXOXOXK.D.m.d.&.T &.s.s.s.%.&.R T Y Y J J J J K T w.u.f.f.f.f.u.u.u.j.l.l.M.M.A.A.A.J.J.U.I.I.P.OX#X@X%X%X%X%X@X%X%X*X*X&X=X-X=X;X;X-X=X*X7XOXOXOXOXOXI.P.%X=X%X%XOXP.I.I.I.I.L.I.K.L.K.K.M.A.M.m.m.m.m.m.m.m.m.k.k.k.k.k.g.g.f.f.f.f.u.u.y.y.r.r.w.w.w.w.T T R J K K K K K K K J j.K.M.M.A.J.U.U.U.I.U.U.I.I.U.I.I.I.I.I.I.I.I.I.I.I.I.%X%XI.I.7XI.I.I.I.7X7X7XOXOXOXOXOXOXOXOXOX7X%X%X%X%X%X7XOXOXP.I.I.I.I.I.I.I.I.I.OXOXoXoXoXoXoXr.p.:Xf.T w.w.T w.k.m.m.m.k.m.m.m.m.m.m.Z.Z.v.v.c.c.c.c.v.c.$.2 < > < 2 L $.*.P F F F F f 2 Y c.r.Y C > > > > > > > : : > ; % + X X X X X X X X X   X X $ $ $ $ $ $ $ $ $ $ $ $ * * t p i z b ~ ) o.o.o.o.o.o.o.o.{ o.{ { { { { o.o.o.@.2.2.2.2.2.2.2.2.o.{ ! ~ b b b b b b b b ~ ! ! { { { } o.o.o.o.o.o.o.o.o.o.o.o.{ o.{ { { { { { { { { { { { { { { { { ",
"* * * * : : * * * * * * 0 0 0 0 0 0 t t t t t t t t t t t t i i t t i i i i i i i i a p p a d d p p d d d d c c z z c c v v v v v v v v v v v v M v v v M M F D F F D D D D L L D D L [ [ [ [ L ..+.*.6.x.b.~.).'.'.5X'._.oXoXoXOX#X#X#X#X-X-X-X:X:X:X:X6X6X-X-X+X+X+X_.m.&.Y &.-.$.&.&.&.&.:.x.n.v.v.m.d.t.r.w.w.w.u.j.j.l.k.k.M.M.M.k.j.j.j.j.r.r.w.T t.p.d.a.v.x.=.&.&.R Y Y A A A J J R T r.u.u.j.j.j.j.j.j.j.j.l.l.k.M.M.A.J.J.J.J.U.I.I.P.OXOX#X@X%X%X%X@X@X@X%X%X*X&X-X-X-X:X;X=X=X*X%XOXOX@X@X@XOXOXOXP.%X%XOXP.I.I.I.U.L.L.U.L.K.K.A.A.A.A.m.m.m.m.m.m.m.m.k.k.k.k.k.k.k.g.g.g.f.f.u.u.r.r.w.w.w.r.w.w.T R J K K K K K K K K T A.A.A.M.M.A.J.J.J.U.U.U.U.U.I.I.I.I.I.P.I.I.P.P.I.7X7XI.P.P.I.I.I.I.P.OXI.I.I.OXOX7XP.I.P.OXOXOX7X%X%X%X%XOXOXOXI.I.I.I.I.L.L.L.L.K.A.K.oX+Xm.J D.$XT R w.T J r.g.m.m.m.m.m.m.m.m.m.m.m.m.m.m.v.v.c.c.c.v.c.&.2 < , f P x.V.S.x.X.F Z F f C A s.r.U S f < 2 f g g f s < > ; % % X X X X X X X X X     X - $ $ $ $ $ $ $ $ $ $ = * 0 t i j z b ~ ) o.o.o.o.o.o.) ^ ^ ~ ~ ! ! ^ ^ o.o.o.@.2.2.2.2.2.@.o.o.{ ~ ~ ~ b b b b ~ ~ ~ ~ ! ! { { { o.o.o.o.o.o.o.o.o.o.o.{ { { { { { { { { { { { { { { { { { { { { { ",
"* * * * : : * * * * * * 0 0 0 0 0 0 t t t t t t t t a a t t i i i i i i i i a a p a p p p p d d p p d d d d c c c c v v v v v v v v v v v v v v m m m m F F D D D D D D D D L [ | | [ [ L | X.*.6.b.~./.).`.|.3X4XqXrX1X_.oXoXoXoX+X#X$X-X-X-X-X:X:X:X:X6X:X:X-X-X#X+X+XoX_.N.r.R -.-.Y -.-.&.=.r.r.r.r.t.f.m.D.M.A.J.J.J.M.M.M.M.M.M.M.M.M.M.M.N.N.m.m.f.r.-.-.Y U Y Y Y Y J J J J Y Y T t.f.f.j.j.l.l.l.l.l.j.j.j.k.M.M.A.J.J.U.U.U.U.I.I.P.OXOXOX#X@X%X%X%X#X@X@X%X%X*X*X=X-X=X;X;X=X-X=X*X%X@X@X@X%X%X%XOXP.OX7XOXP.I.I.I.U.U.U.U.U.K.K.D.A.A.A.m.m.m.m.m.m.m.m.k.k.k.k.m.k.k.k.k.k.g.f.f.u.u.r.r.w.w.w.w.w.w.w.T R J K K K K K K K K w.A.K.A.M.A.J.J.J.J.J.U.U.U.U.U.I.I.I.I.I.I.I.I.I.I.I.P.I.I.I.I.I.I.I.I.I.I.I.P.P.I.I.I.I.I.I.OXOX7X7X7XOXOXP.I.I.I.I.L.L.L.L.K.K.L.oXS.-.-.iXS.J J T R J t.m.m.m.m.m.m.m.m.m.m.m.m.m.m.m.m.m.v.v.c.c.v.c.:.f < > Z P h.S._.V.>.P F g f C G s.r.-.P S C C Z Z C C f 2 > ; % % O X X X X X X X X       X $ $ $ $ % $ % = = = = 5 t u u i j b ~ ! ) { o.{ { ^ ~ ~ ~ k k Q Q ~ ! ' o.o.o.@.@.@.@.@.o.o.o.~ ~ ~ b b b b b ~ ~ ! ! { { { o.o.o.o.o.o.o.o.o.o.o.o.o.{ { { { { { { { { { { { { { { { { { { { { { ",
"* * * * : : : : : : : : t t t t t t t t t t t t a a a a a i a a a a p p p p p p p p d p d d z z z z c c c c c c c v v v v v v v v v m m M M F F D D D F F F D D D D D D D L L [ [ | ....*.>.b.~.).`.|.1X4XqXfXfXbXbXzX,X_.oXoX+X#X#X#X#X-X-X-X-X:X-X:X:X6X:X-X:X-X-X-X#XOXoXoXoXD.N.f.t.Y R -.&.r.r.r.r.t.t.t.t.u.u.u.t.t.u.u.j.u.u.u.u.t.t.r.t.r.r.r.r.r.-.T Y Y Y J J J R T r.u.u.u.f.f.j.j.j.j.l.k.k.k.k.k.l.l.l.k.M.A.J.J.U.U.L.I.I.I.P.P.OX@X@X@X@X%X%X*X%X@X@X%X%X*X&X-X-X=X=X&X=X=X&X*X%X%X%X%X%X*X*X%XOX7X7XOXP.I.I.I.U.K.K.K.K.K.K.A.A.A.A.M.m.m.m.m.m.m.m.m.m.m.m.m.m.m.m.k.k.k.f.f.f.p.y.r.r.w.w.w.w.w.w.w.w.T R J K K K K K K K K w.J.J.J.A.A.J.J.J.J.J.J.J.U.U.U.U.U.U.I.I.I.I.U.I.I.I.U.U.I.I.I.I.I.I.I.I.I.I.I.I.I.I.I.I.I.I.OX7XI.I.I.I.I.I.I.I.P.L.L.L.oXoX#Xr.A s.$Xs.J J J J K u.j.m.N.m.m.k.v.v.v.v.m.m.m.m.m.m.m.m.m.v.c.c.v.n.>.Z < < S $.i.v.G.(.x...F g g C G s.i.&.#.P P P P G S Z f 2 , ; % % X X X X X X X o X         $ $ $ $ % = = * * * * 0 i i i i i z b ~ ~ ! ! ! ~ ~ b b k j l l l Q ~ ^ ' o.o.o.o.o.o.o.o.o.' ~ ~ ~ b b b b b ! ! { { { { o.o.o.o.o.o.o.o.o.o.o.o.o.o.{ { { { { { { { { { { { { { { { { { { { { { ",
"* * * * : : : : 1 : : : t t t t t t t t t t t t a a a a i i a a a a p p p p p p p p d d d d d d z z c c c c v v c v v v v v v v v v M m M F D D D D D D D F D D D D D D D L L L X.*.5.9.C.~.`.}.1X3XrXfXbXbXNXNXNXCXcX5X_.oXoX+X#X#X$X-X-X-X:X-X:X-X-X:X6X:X:X:X6X:X-X-X-XoXoXoXL.K.D.D.D.N.d.t.r.r.r.r.r.r.t.u.t.t.u.u.u.u.u.t.w.t.t.w.w.w.w.w.w.w.w.T T T T T T r.r.u.u.u.u.u.j.j.j.l.k.k.k.k.l.l.l.l.l.l.M.l.k.k.M.A.A.J.K.U.I.I.I.I.P.P.OX@X@X@X@X@X%X%X*X%X@X@X%X%X*X&X&X-X=X*X*X=X&X*X&X=X*X*X%X%X*X&X*X%XOX%XOXP.I.I.I.U.K.J.J.J.K.K.A.A.A.A.M.m.m.m.m.m.m.m.m.m.m.m.m.m.m.m.m.m.k.k.k.f.f.u.y.r.r.w.w.w.w.w.w.w.w.T T R K K K K K K K K V w.M.P.K.J.A.A.M.M.J.J.J.J.J.J.U.U.U.U.U.U.U.U.I.I.U.U.U.I.I.I.I.I.I.I.I.I.I.U.I.I.I.I.I.I.I.I.I.I.I.I.I.I.I.I.oXoXoXoXF.d.J R h.z.G G A J A J f.g.g.d.m.m.v.v.v.v.v.v.v.v.m.v.m.m.m.m.m.v.c.c.v.v.s.Z > < S =.s.d.Z.V.x...F g g C G s.i.%.$.$.&.&.#.#.G A C 2 , ; , % + X X X X X X o X         X $ $ % % = * * * 0 0 a i u i i i j c b b ~ ~ ~ b b j j j h u u l k ~ ~ ^ { o.o.o.o.o.o.o.{ ~ ~ ~ b b b b b ~ ! ! { { { o.o.o.o.o.o.o.o.o.o.o.{ { { { { { { { { { { { { { { { { { { { { { { { { { ",
"* * * * : * * * 1 1 1 1 t t t t t t t t t t a a a a i i i i a a p p p p p p p p d d z z d d c c c c c c c c v v v v v v v v M M M M F F F F D D D D D D D D D L [ [ L [ [  .X.;.6.b./.`.}.<XrXfXbXvXNXNXSXCXCXCXNXNXNX5X_.oXoX+X+X#X#X-X-X-X-X-X:X:X:X:X:X:X6X:X6X:X-X-X-X-X#XOXoXoXL.K.K.K.D.M.m.m.j.j.u.u.t.t.t.t.t.t.t.t.t.t.w.w.w.w.w.w.w.w.w.T w.w.r.r.u.u.f.f.u.f.j.j.j.l.j.j.j.l.k.M.M.M.M.M.M.M.M.M.M.M.M.M.M.A.J.J.U.I.P.P.P.P.P.P.@X@X@X@X@X%X%X*X*X*X%X%X*X*X*X*X*X*X*X*X*X=X&X&X=X;X=X:X=X=X=X=X*X%XI.%XOXI.I.I.I.U.U.K.K.J.K.K.A.A.A.A.M.M.m.m.m.m.m.m.m.m.m.m.m.m.M.M.Z.M.m.m.j.g.f.f.u.t.r.w.w.w.w.r.r.t.w.w.w.T T R R T R R R R K V V K r.K.K.U.M.M.M.k.M.M.U.M.J.J.J.J.J.U.U.U.U.U.K.U.U.U.U.U.U.U.U.U.U.I.I.U.U.U.U.I.I.I.I.I.I.I.I.I.OXOXOXOX$X+X_.s.A Y &.s.A A H A A H R a.g.g.g.c.c.v.v.v.v.v.v.v.v.v.m.v.v.v.v.v.v.v.v.c.v.n.s.S < < L >.i.h.v.n.x.$.F y v F S i.i.&.-.&.-.-.-.-.Y G Z 2 , ; , % + + - X X X                 X $ % % = * 0 0 t i i i t t t u u i j j j j j j u 7 5 5 w u u l k ~ ! { { o.o.o.o.o.o.{ ! ~ ~ b b b b b ! ! ! { { { o.o.o.o.o.o.o.o.o.o.o.o.{ { { { { { { { { { { { { { { { { { { { { { { { { { ",
"* * * : : * * * 1 1 1 t t t t t t t t t t t a a a a i i i i a a p p p d p p d p z z z z z z c c c c c c v v v v v v M M v v F F F M D D D D D D D L L L L L L L [ [  .X.+.6.b.~./.`.3XqXrXfXvXNXNXSXNXCXCXCXCXCXCXNXnX5X_._.oX+X+X#X#X-X-X-X-X-X:X:X:X:X:X:X6X6X6X:X-X-X-X-X-X-X#XOXoXoXoXL.K.K.D.A.M.M.M.k.k.j.j.k.k.j.j.u.u.u.u.t.t.t.t.t.t.t.t.u.u.u.u.f.j.j.j.j.j.l.j.l.l.k.k.k.k.k.M.M.A.A.M.M.M.M.M.k.k.k.M.A.J.J.U.P.P.OX@X@X@X@X@X@X%X*X%X@X%X%X%X*X*X*X*X*X*X*X*X*X*X*X*X*X&X-X=X=X;X;X;X>X=X;X;X-X*X%XOXOXP.I.I.I.I.U.U.U.U.K.J.K.M.A.A.A.M.M.m.m.m.m.m.m.m.m.m.m.m.M.Z.A.A.A.m.m.m.j.k.f.f.u.t.r.w.w.w.w.u.t.u.w.w.w.w.T T T T T T T T J K K V K T u.A.L.D.A.M.M.M.M.M.A.A.M.J.J.U.U.U.U.U.K.K.U.U.U.U.U.U.U.U.U.U.U.U.U.K.K.K.L.L.L.L.L.oXoXoXOX#X+XS.&.A Y &.U A V C H H H H &.v.c.g.g.c.c.c.v.v.v.v.v.v.v.v.v.v.v.v.v.v.v.v.v.v.c.v.v.s.S 2 s P >.x.c.n.n.>.P Z s s g G :.r.&.Y -.-.-.&.&.Y G H C < , , % + + - X X X             .     - % % * * 0 0 t i a i t 0 0 0 t t u u u u u u 5 5 5 w u u j j b ~ ! { { o.o.o.o.o.{ ! ~ b ~ b b b ~ ! ! ' { { { o.o.o.o.o.o.o.o.o.o.o.{ { { { { { { { { { { { { { { { { { { { ) ^ { { { { { { ",
": * : : * : : : t t t t y y y y a a a a a a a a a a p p p p p p d d z z z z z z c c c c c c c c c c v v v v v v v v m m M M F F D D D D D D D D L L L L L L [ | L X.*.5.C./.}.|.3X0XgXbXvXCXCXCXCXCXCXCXCXCXCXCXAXCXcX]._._.oX+X#X$X-X-X-X-X-X:X:X:X:X:X:X6X6X6X6X:X-X-X-X-X-X-X-X-X#XOXOXoXoXoXL.K.K.K.K.M.M.M.M.M.M.k.k.k.k.k.l.l.l.j.j.j.j.j.l.k.k.M.M.k.k.k.k.k.k.k.M.M.M.M.M.M.M.M.A.A.J.A.A.A.J.M.M.M.M.M.M.J.U.P.P.@X@X@X%X%X%X@X@X%X*X*X*X%X%X%X*X*X*X*X*X*X*X*X*X*X*X*X*X*X=X=X;X;X:X>X;X>X;X>X;X;X=X*X%XP.I.I.I.I.I.U.K.I.P.U.J.K.M.A.A.A.A.M.m.m.m.m.m.m.m.m.M.M.Z.Z.A.Z.A.A.A.m.m.m.m.j.g.f.u.r.w.w.w.w.r.u.u.w.w.w.w.w.w.T w.w.w.w.w.w.w.T R K V V V J r.M.L.K.M.A.A.A.A.A.A.J.J.J.K.K.J.A.J.J.J.J.J.J.J.J.J.J.J.J.J.J.K.K.L.L.L.oXoX+X+X+X+XZ.&.I Z A G G A A A A H H A A a.c.s.d.c.c.c.c.c.v.v.v.v.v.v.v.v.v.v.v.V.V.v.v.v.v.v.v.v.n.s.S C 2 Z =.x.n.c.x.$.S f f f Z #.i.%.R G G Y Y R R Y G G A 2 , ; , % $ X X X X     o             - % = * * 0 0 t i p i t 0 * * * * * * * * * 5 5 5 w u i j j b ~ ! ! { { { { { { { ' ~ b b b b b n ! ! { { { { o.o.o.o.o.o.o.o.o.o.o.o.{ { { { { { { { { { { { { { { { { { { ' ' ^ { { { { { { ",
"* * : : : : * * t t t t y y y y a a a a a a a a a a p p p p p p d d z z z z z z c c c c c c c c c c v v v v v v v v m m M M F F D D D D D D L L L L L L L L | ..;.9.C./.`.}.qXfXbXMXSXZXAXAXCXCXCXCXCXCXCXCXAXAXZXCXxX]._.oXoX+X#X$X-X-X-X-X-X:X:X:X:X:X:X:X6X6X6X:X-X-X-X-X-X-X-X-X-X-X#X#XOXOXOXOXoXoXoXK.K.K.K.K.K.J.M.M.M.M.M.M.M.M.M.M.M.M.M.M.M.M.M.M.M.M.M.M.M.M.A.J.A.A.A.A.A.A.A.A.J.J.J.J.J.J.J.J.A.A.A.U.P.@X@X@X@X@X%X%X%X@X@X%X*X*X*X%X%X%X*X*X*X*X*X*X*X*X*X*X*X*X=X=X=X:X:X>X>XyX;X>X;XyX>X;X;X-X7XI.I.I.I.I.I.I.J.OXOXL.J.K.M.A.A.A.A.M.m.m.m.m.m.m.m.m.M.A.Z.Z.A.A.A.A.A.Z.M.m.m.m.m.g.f.r.w.w.w.w.r.r.u.t.r.u.u.u.w.w.w.w.w.w.w.w.w.w.w.T T J V V V V V T t.k.A.J.J.J.J.A.A.A.A.M.M.M.M.M.M.A.A.A.A.A.A.J.J.J.J.J.K.L.oXoXoXoXoXN.f.%.G A A A S I S Z Z H H V G T i.d.g.d.d.d.d.c.c.c.c.v.v.v.v.v.v.v.v.v.v.v.V.v.v.v.v.v.v.v.v.n.s.S Z f f ..6.x.x.:.P C 2 f C S i.a.%.Y A A G G G G G G G G C < , , % + X X X                     - $ = * * 0 t t i i i t 0 * = = & & & & & & * 5 u u i j j x b ! ! ' { { { { { { ! ~ ~ b b b b b ~ ! ! { { { } o.o.o.o.o.o.o.o.o.o.o.{ { { { { { { { { { { { ' { { ^ ^ ^ ' ^ ^ ! ! ! { { { { { ",
"1 1 1 : : * : 1 t t y y y y y a y a a a a a i a p a p p p d d z d z z c z z c c c c c c c c c c v v v v v v M M M M M M F D D D D D L L L L L L | | P L ..*.;.x./.`.|.3XrXfXMXSXAXZXZXAXAXCXCXCXCXCXCXCXAXAXAXAXZXAXxX_._.oXoX+X#X#X-X-X-X-X-X:X:X:X:X:X:X:X:X:X:X6X:X:X:X:X:X:X-X-X-X-X-X-X-X-X-X-X#X#X-XOXOXOXOXOXL.L.oXoXL.K.K.K.K.K.K.K.K.K.K.K.K.K.J.J.J.J.J.K.K.K.K.J.J.J.J.J.J.A.J.J.K.K.J.J.J.J.J.J.A.A.J.L.P.Y.%X%X%X@X%X%X%X%X%X%X*X*X*X*X*X*X*X*X*X*X*X*X*X*X*X*X*X*X=X=X>X>X>X>XyXyX;X>X;X;X;X=X=X=XOXP.I.I.I.I.I.I.P.OXI.U.K.K.A.A.A.A.M.M.m.m.m.m.m.m.m.M.M.Z.A.Z.M.A.A.A.D.D.Z.A.M.m.m.m.f.t.r.r.w.w.w.r.u.u.u.u.u.u.u.u.e.w.w.w.w.w.w.w.w.w.w.w.w.w.R J K H H K K J w.u.k.M.A.L.L.L.K.K.K.K.K.K.K.K.J.K.K.L.oXOXOXL.K.A.k.t.R R A A A A H Z Z Z Z C C H A Y &.%.d.v.m.v.d.d.g.g.g.g.c.c.v.v.v.v.v.v.v.v.v.v.v.v.v.v.v.v.v.v.v.v.v.n.s.S f f f f P P P P Z Z Z Z #.&.i.a.%.Y A A H H H H A A J G G A C f 2 ; O o o o o o o o   .       X % % = * 0 t t a i t 0 * = & $ $ $ $ $ $ & * t u j j b ! ! ! ' { { { { { { { ! ~ ~ b b b ~ ~ ! ! ! { { { { o.o.o.o.o.o.o.o.o.o.{ { { { { { { { { { { { { ^ ! ^ ^ ! ^ ! ! ^ ' ' ' ! ! ! ^ { { ",
"1 1 1 1 1 1 1 1 t t y y y y y a y a a a a a p p p p d d d d z z z z c c c c c c v v v c v v v v v v M M M M m m m m D D D D D L L L L L L [ [ L L | ..X.;.b./.).|.qXfXzXbXSXAXZXZXAXZXAXAXCXCXCXCXCXAXAXAXAXAXAXZXCXiX_._.oX+X#X#X#X-X-X-X-X-X-X:X:X:X:X:X:X:X:X:X:X:X:X:X:X:X:X-X-X-X-X:X:X-X-X-X-X#X#X-X-X6X-X-X-X-X-X-XOXOXOXOXOXOXOXOXOXOXOXOXOXOXI.L.L.L.U.K.K.L.L.K.K.J.J.K.K.K.K.K.K.U.U.J.J.J.J.J.J.J.J.I.P.@X@X@X@X%X@X%X%X%X@X%X%X&X*X*X*X*X*X*X*X*X*X*X*X*X*X*X*X*X*X*X=X;X>X:X:XyXyX>X;X>X;X*X*X*X*X%XI.I.I.I.U.U.U.L.L.U.U.U.K.K.A.A.A.M.m.m.m.k.m.m.m.m.M.M.Z.A.A.M.A.A.D.D.D.A.A.M.M.m.m.g.p.r.r.w.w.w.w.r.u.u.u.u.u.u.u.u.u.e.e.w.w.w.w.w.w.w.w.w.w.w.w.T T R J K K K K K K K K J J w.r.u.u.j.j.j.j.j.j.j.t.w.w.T J K K J J J A H H H Z H H H A V A U %.i.p.a.d.d.v.m.v.g.g.c.c.c.c.v.v.v.v.v.m.v.v.v.v.v.v.v.v.v.v.v.v.v.v.v.v.n.n.>.Z 2 2 s s 2 f Z S Z V A &.i.a.g.v.y.#.G G H H H H H A A G Y Y G C C s > O o o o o o o   .     X X % % * * * 0 0 t t 0 * * $ $ $ $ $ - - - & * t i j b b ! ! ! { { { { { { { ! ~ ~ ~ ~ b b ~ ! ! ' { { { { o.o.o.o.o.o.o.o.o.{ { { { { { { { { { { ^ ^ { ! ! ! ! ! ! ! ! ! ! ! ! ! ! ! ^ ^ { { ",
"t t t t t t y y a a t t t t a a a a p p p p p p d d d d z z c c z z c c c c v v v v M v v M M M m m m m D D D D D D L L L L L [ L L L [ .. . . ...*.6.x.~.`.3XqXfXbXNXCXAXZXZXZXZXAXZXAXAXCXAXAXAXAXAXAXAXAXZXZXAXnX2X].oXoX+X#X#X#X-X-X-X-X-X-X:X:X:X:X:X:X:X:X:X:X:X:X:X:X6X:X:X-X-X-X-X-X-X-X-X-X-X-X-XyX6X6X-X:X:X:X:X-X-X#XOXOXOXOXOXOXOXOXL.L.OXOXOXOXOXI.L.L.L.L.U.U.U.U.U.U.U.K.U.U.U.U.J.J.J.J.J.J.J.J.P.OX@X@X@X@X%X%X%X%X%X%X%X*X*X&X*X*X*X*X*X*X*X*X*X*X&X&X*X*X=X=X*X*X=X;X:X;XyXyX>X;X>X;X%X%X%X7XOXI.I.I.U.U.U.U.K.K.J.J.K.K.A.A.A.M.m.k.k.k.k.m.m.m.m.M.M.M.A.Z.A.A.D.F.D.D.A.A.M.M.m.m.m.f.t.r.r.w.w.w.w.t.u.u.u.u.u.u.u.u.u.u.u.u.w.w.w.w.w.w.w.w.w.w.w.w.r.t.r.w.T R K K K J J J J J J K J J J J J J J J J J J J K J J K H H V V A H H H A J T &.r.r.r.t.p.f.f.m.m.m.m.m.m.m.m.m.m.v.v.v.m.m.m.m.Z.Z.v.v.v.v.v.v.v.v.v.v.v.v.n.n.>.Z 2 f f f 2 f Z A Z G -.s.d.c.m.v.r.#.G A Z H H V H H A J Y Y U G S Z f > % o o o o o       X X + % % = * * * * 0 0 * * $ $ $ - - - - $ $ & * t i j b b ! ! ! ] ] ! ! ! ! ! ~ ~ b ~ ~ b b ~ ! ' { { { { { o.o.o.o.o.o.o.{ { { { { { { { { { { { { ! ! ! ! ! ! ! ! ! ! ! ! ! ! ! ! ! ! ^ ! ' ! ",
"t t t y y y y y a a a a t t a a a a p p p p d d z z z z z z c c c c c c v v v v v v M M M m m m m m D D D D L L L L L L L L [ [ [ [ [ |  . .....;.9.~.`.|.3XfXMXCXAXZXFXZXGXZXZXAXAXAXAXAXAXAXAXAXAXZXZXZXZXZXZXAXnX1X].oXoX+X#X#X#X#X-X-X-X-X-X:X:X:X:X:X:X:X:X:X:X:X:X:X:X6X:X-X-X-X-X-X-X-X6X6X6X-X-X:XyX6X-X-X:X:X:X:X:X-X-X-X:X:X-X-X-X-X-X-X-X#XOXOXOXOXOXI.L.I.I.L.U.U.U.U.U.U.U.U.U.U.U.U.J.J.J.J.J.J.J.OXOX@X@X@X@X%X%X%X%X%X%X*X*X*X&X&X*X*X*X*X*X*X*X*X*X&X&X=X=X-X-X=X=X;X>X>X:X>X>X;X;X=X;XOXOXI.I.I.P.I.I.U.K.U.U.J.J.A.A.A.A.M.M.m.m.k.k.k.k.m.k.m.m.m.M.M.M.A.A.A.D.F.F.F.D.D.A.A.M.m.m.m.f.f.t.r.r.w.w.w.w.t.u.f.j.f.f.j.l.l.l.j.u.u.u.e.w.w.w.w.w.w.w.w.w.w.w.w.w.r.r.J J K J J J J J J J J J J J J J J J J J J J J J J K H H H H A A Y T r.t.t.t.t.t.r.t.p.f.f.m.m.m.m.m.m.m.m.m.m.m.m.m.m.m.S.S.Z.Z.m.v.v.v.v.v.v.v.v.v.v.n.n.n.s.Z Z Z F S S Z S A -.&.p.d.v.v.k.v.r.U A A Z H H V H H A A G Y -.U P G Z f : % X o o o       X X $ % % % = = * * * * * = $ $ $ $ $ $ $ $ $ & * t u j z b n ! ! ' ! ! ! ! ! ! ~ b b ~ ~ b ~ ! ! { { o.{ { { o.o.o.o.o.o.o.{ { { { { { { { { { { { { ! ! ! ! ! ! ! ! ! ! ! ! ! ! ! ! ! ! { ! ' ' ",
"t t y y y y t t a a a a a a a a a a p p p p d d d d c c c c c c c c c v M v v v M M m m m m D D L L L L D ] L L L L [ [ L L L [ [ }  . . .X.;.b.~.`.,XrXbXSXZXZXFXFXGXFXFXZXZXZXAXAXAXAXAXAXZXZXZXZXZXZXZXZXZXZXZXZX<X]._.oXoX#X#X#X#X&X-X-X-X-X-X-X:X:X:X:X:X:X6X6X6X6X6X6X-X-X-X-X-X-X-X-X:X:X:X:X:X-X:X6X6X-X:X6X6X6X6X:X-X-X-X-X-X-X-X-X-X-X-X%X#XOXOXOXOXOXI.I.OXI.L.U.U.L.L.L.L.U.U.U.U.U.U.U.J.J.J.J.J.U.P.P.@X@X%X%X*X*X%X%X%X%X%X*X*X&X&X*X*X*X*X*X*X*X*X*X*X*X&X=X-X-X=X=X;X;X;X;X;X-X=X-X=X=X%XOXOXP.P.I.P.I.U.K.J.J.J.J.A.A.M.M.M.m.m.m.k.k.k.k.k.m.m.m.m.m.m.M.A.A.D.D.J.K.K.D.A.A.A.A.m.m.m.g.f.u.t.w.w.T w.w.r.u.f.j.j.j.l.j.j.l.l.l.l.j.j.u.u.e.w.t.w.w.w.w.w.w.w.w.w.w.w.J J J J J J J J J J J J J J J J J J J J K J K K K K K J R w.w.w.r.r.t.t.r.t.t.t.u.f.f.m.m.m.m.N.N.N.N.m.m.m.N.m.m.m.Z.Z.Z.Z.Z.V.v.v.v.v.v.v.v.v.v.v.v.n.n.s.S Z Z Z Z Z Z P -.&.y.p.g.m.m.m.g.r.Y A A Z Z H H H H H H A A Y Y #.U P A f : % X X X X   X X $ $ % % = = = = = = = = = $ $ $ = = % % % = & * 5 t i p c v n m ! ! ! m n b b b b b b ~ b ! ! { { { { { o.o.o.o.o.o.o.o.o.o.o.{ { { { { { { { { { ' ' ! ! ! ! ! ^ ^ ! ! ! ! ! ! ! ! ' ' ' ' ' ! ",
"t t y y y y t t a a a a a a a a p a p p p p z z z z c c c c c c v c M M M M M M m m m m m m D D L L L L L L ] ] [ [ [ [ [ L [ [  . . . .*.9.~.).|.0XbXMXAXZXGXGXGXGXZXZXZXZXZXZXAXAXAXAXZXZXZXZXZXZXZXZXZXZXZXZXZXZX1X]._.oXoX#X#X#X#X&X-X-X-X-X-X-X:X:X:X:X:X:X6X:X6X6X:X:X-X-X-X-X-X-X:X:X:X-X-X-X-X-X-X6X6X-X-X:X:X-X-X-X-X-X-X-X:X:X-X-X#XOXOX%XOXOXOXOXI.I.OXOXI.I.L.U.U.U.L.L.U.U.U.U.U.U.I.U.U.J.J.J.U.I.P.@X@X%X*X*X&X*X&X&X&X&X*X*X*X&X*X*X%X%X%X*X%X%X%X*X*X*X&X&X-X-X=X=X=X=X=X=X=X-X-X=X=X*X%XOXP.I.I.I.I.I.U.U.J.J.J.J.A.M.M.M.m.k.m.k.k.k.k.k.k.k.k.k.k.m.m.M.A.A.D.D.D.K.K.J.D.A.A.A.m.m.m.g.f.u.t.r.w.T T w.r.u.f.f.j.j.j.l.k.k.l.l.l.l.l.l.j.u.u.t.w.u.e.w.w.w.w.w.w.w.w.w.w.J J J J J J J J J J J T T J J J J J J J J J T T w.w.w.r.w.w.t.t.t.t.t.u.u.f.f.f.g.m.m.m.N.Z.Z.Z.Z.Z.Z.N.N.Z.Z.Z.Z.Z.Z.Z.Z.V.v.v.v.v.v.v.v.v.v.v.v.n.n.s.S Z Z Z Z G P $.i.p.p.g.g.m.m.m.g.%.Y A A Z Z H H H H H H H A A A Y #.U G S f : % O X X   X + % % % % = = = = = = = $ = = = = * * = = * * * & * 5 t u i j c b b b b b b b b b b b b b ~ ! ) { { o.{ { o.o.o.o.o.o.o.o.o.o.o.{ { { { { { { { { { ' ' ! ! ! ! ! ^ ^ ! ! ! ! ! ! ! ! ! ! ' ' ' ! ",
"y y y y t t a a a a a a a a p p d d z z z z z z c c c c c c c c v c M M M M M M m m m m m m D D L L L L L L ] ] [ [ | | | [ }  .X.*.;.5.~.).|.3XgXMXAXZXFXGXGXGXZXFXZXZXZXAXZXZXZXZXZXZXZXZXZXZXZXZXZXZXZXZXZXZXZXCX5X]._.oXoX#X#X#X#X#X&X-X-X-X-X-X:X:X-X-X-X-X-X-X-X-X-X-X-X-X6X6X6X6X:X:X-X-X-X-X-X-X-X:X-X-X-X-X-X-X-X-X-X-X-X-X-XOXOXOX#X%XOXOXOXOXI.I.I.I.I.I.I.I.U.U.U.U.U.U.L.L.U.U.I.I.I.I.U.U.J.J.U.P.@X@X%X%X*X*X*X&X&X&X&X&X*X*X*X*X*X%X@X@X@X%X%X%X%X%X%X%X*X*X&X&X=X-X-X=X=X&X*X=X=X-X*X%XOXP.I.I.I.I.U.U.U.U.J.J.A.M.M.M.M.M.k.k.k.k.j.j.j.k.k.k.k.k.k.m.m.M.M.A.D.D.D.K.K.F.D.A.A.Z.M.m.m.j.f.u.u.w.w.T T w.w.u.u.f.j.j.j.j.k.k.k.k.k.k.k.k.k.l.l.l.l.u.u.u.u.t.w.w.w.w.w.w.w.w.w.w.T T J T T T w.w.w.w.w.w.w.w.w.w.w.w.w.w.t.t.t.t.t.t.u.u.u.u.f.f.j.j.f.j.m.m.m.N.Z.Z.Z.S.S.S.Z.Z.Z.Z.S.S.S.S.S.Z.Z.Z.V.V.V.v.v.v.v.v.v.v.v.v.c.x.>.Z C Z Z G U $.=.a.a.d.g.g.k.m.m.c.%.Y A A Z Z Z H H H H H H H A A A Y Y I G Z f > ; + X X + % % % % % = = = = = = = $ = = * * 0 0 : : 0 0 * & & * 5 5 t u j j j j j j j j x x b b b b ! ) { { { o.o.o.o.o.o.o.o.o.o.o.o.{ { { { { { { { { { { ' ! ! ! ! ! ! ! ! ^ ! ! ! ! ! ^ ! ! ! ! ! ! ! ! ",
"y y y y t t a a a a p p a a p p d d z z z z c c c c v c c c c v v v M M v v m m m m m m m m D D L L L L L ] ] [ | |  . . . .....X.;.b.~.}.3XfXbXSXSXAXFXGXGXGXGXZXZXZXZXZXAXZXZXFXZXGXGXZXZXGXZXZXZXGXGXZXZXZXZXZXnX]._._.oX+X#X#X#X#X#X#X-X-X-X-X-X:X-X-X-X-X-X-X-X-X-X-X:X6X6X6X6X6X6X6X6X-X-X-X-X-X-X-X-X-X-X-X:X:X:X-X-X-X-X-X#X-X-X-X%X#XOXOXOXOXOXI.I.I.I.I.I.L.L.U.U.U.U.U.U.L.L.L.I.I.P.P.I.I.U.U.U.I.P.@X%X%X%X*X*X&X&X&X&X&X*X*X*X*X*X%X%X@X@X@X@X@X@X%X%X%X%X*X%X*X*X&X=X-X-X&X&X=X;X;X=X*XOXP.I.I.I.U.U.U.U.U.U.J.J.M.M.M.M.m.k.k.j.j.j.j.j.j.k.k.k.k.k.k.m.m.M.M.A.D.D.D.K.K.F.D.A.A.A.M.m.m.j.f.u.t.r.w.T T w.w.u.u.f.j.j.j.j.k.k.k.k.k.k.k.M.M.M.M.M.l.M.M.M.l.u.u.u.u.t.w.w.t.t.t.w.w.w.w.w.w.w.w.w.w.w.w.w.w.w.w.w.w.t.t.t.t.u.j.j.j.j.j.j.j.j.m.m.M.M.m.N.N.A.D.D.D.D.D.D.D.D.D.S.S.S.S.S.S.S.S.Z.Z.Z.V.V.v.v.v.v.v.v.v.n.n.n.c.x.:.Z C C S I $.%.i.s.a.d.g.g.g.m.m.c.%.Y A A Z Z Z H C C H H H H H H A A Y Y I G S f : ; + X $ % % % % % = = = = = = = $ = = * * 0 0 0 0 0 0 5 & & & & & * 5 u u u u u u u i j x x b b ~ ! { { { { { { { { o.o.o.o.o.{ { { { { { { ' { { ' ^ { ! ' ! ! ! ! ! ! ! ! ! ! ! ! ! ! ^ ^ ! ! ! ! ! ! ! ",
"a a a a a a a a a a p p p p d d d d z z z z c c c c v v v c v v v v v v v M m m m m D D L L L L ] ] ] ] [ [ [ [ |  . . .X.*.*.6.8./.{.3XfXbXSXSXZXFXGXGXZXZXZXZXZXZXZXZXZXZXZXZXGXFXGXGXGXGXGXGXGXGXZXZXZXGXGXGXZXxX_._.oXoX+X#X#X#X#X#X#X-X-X-X:X-X-X-X-X-X-X-X-X-X-X-X:X6X6X6X6X6X6X6X6X-X-X-X-X-X-X-X-X-X-X-X-X-X-X-X-X-X-X-X-X#X%X#X-X-X%XOXOXOXI.I.I.I.L.L.U.U.U.U.U.U.U.U.U.U.U.U.I.I.P.I.P.P.I.U.U.U.P.P.@X@X@X%X*X&X&X*X*X*X*X*X*X*X*X*X%X%X@XY.OXOX@X@X@X%X%X%X*X*X*X*X*X&X=X=X&X*X=X;X;X&X@XP.I.I.I.I.U.U.U.J.J.J.A.A.M.M.M.k.k.k.j.j.j.j.j.j.j.j.k.k.k.k.m.m.M.M.M.A.A.A.D.D.D.A.A.A.A.A.M.m.k.j.f.f.u.r.w.R R T w.t.u.f.j.k.j.k.k.k.k.k.k.k.M.M.M.M.M.M.M.M.M.M.M.M.l.l.M.M.j.j.j.j.j.l.j.u.u.u.u.u.u.u.u.u.u.j.j.j.j.j.j.k.k.k.j.j.M.M.M.M.M.M.M.M.M.M.M.M.A.A.D.D.D.D.D.F.D.D.D.D.D.D.D.D.S.S.S.S.S.Z.Z.Z.Z.Z.V.v.v.v.v.v.n.n.n.n.n.x.>.A A G U -.&.i.s.a.d.g.g.g.c.m.m.g.&.Y H Z Z Z Z C C C C C H H H H A A A G I P G Z f s < : : = = ; * % % % = = = = $ $ & = * * 0 t t 0 0 0 5 & & & & & & & & & * * 5 t t u i j c b b ~ ! { { { { { { { { { { { { { { { { { { { { ' { { { ! ! ! ! ~ ! ! ! ! ! ! ! ! ! ! ! ! ! ! ! ! ' ! ! ! ! ! ",
"a a a a a a a a a a p p p p d d d d z z z z g g c c v v v v M M v v M m m m m m m D L L ] ] ] ] [ [ [ [ [ } |  . .X.*.*.6.b./.).'.1XfXbXSXFXFXGXGXGXGXGXZXZXZXZXZXZXZXZXZXZXZXZXGXGXGXGXGXGXGXGXGXGXZXZXZXGXGXZXZXuX_._.oXoX+X#X#X#X#X+X#X-X-X-X-X-X-X-X-X-X-X-X-X-X-X-X:X:X6X6X6X6X6X6X6X-X-X-X-X-X-X-X-X-X-X-X-X-X-X-X-X-X-X-X-X-X-X-X-XOXOXOXOXOXI.I.L.L.L.L.U.U.U.U.U.U.U.U.U.U.U.L.I.I.P.P.P.P.P.I.I.I.P.P.Y.@X@X%X*X&X&X*X*X*X*X*X*X%X%X%X%X%X@XY.P.OXOX@X@X@X%X%X*X*X%X*X%X*X=X-X=X*X%X&X*X@XP.I.I.I.I.I.U.U.J.J.J.A.A.M.M.M.k.k.k.l.j.j.f.f.f.f.f.j.j.k.l.k.k.m.m.m.M.M.A.A.A.A.A.A.A.A.A.M.m.m.k.g.f.f.u.r.w.R R T w.r.u.u.j.j.j.j.j.k.k.k.k.k.M.M.M.M.M.M.M.M.A.A.M.M.A.A.M.M.M.M.M.M.M.M.M.M.M.k.k.k.M.M.M.M.M.M.M.M.M.M.M.M.M.M.M.A.A.M.M.M.A.A.A.A.A.A.A.A.D.D.D.D.D.D._.F.F.F.F.D.D.D.D.D.S.S.S.S.S.Z.Z.Z.Z.V.V.v.v.v.v.v.n.n.n.n.n.x.s.U Y -.&.=.i.s.a.d.g.g.g.j.m.N.N.d.-.G Z Z C C C C C C C C C H H H H H H H G G G S Z Z F v d y : : = = = = = = = & $ $ $ $ = * 0 t t 0 0 0 5 & & & & & & & & & & & & * 5 5 u i j b b ~ ! { { { { { { { { { { { { { { { { { { { { ' { ' ! ! ! ! ~ ~ ! ! ! ! ! ! ! ! ~ ~ ~ ~ ~ ~ ~ ! ! ! ! ! ~ ~ ",
"a a a a a a p p p p p p d d d d c c c c c c c c v v v v M M m m m m m m m m L L L ] ] ] ] ] [ [ [ [ [ [ }  .X.+.;.6.b.~.).}.<X3XfXbXMXSXFXGXGXGXGXGXGXGXGXGXZXZXGXGXGXZXZXZXGXGXGXGXGXGXGXGXGXGXGXGXGXGXZXZXZXZXZXiX+X_._.oX+X+X#X#X#X+X#X-X-X-X-X-X-X-X-X-X-X-X-X-X-X-X-X-X6X6X6X6X6X6X:X6X-X-X-X-X-X-X-X-X-X-X-X-X-X-X-X-X-X-X-X-X-X%XOXOXOXI.I.I.I.U.U.U.U.U.U.U.U.U.U.K.U.U.U.U.I.I.I.I.I.I.I.I.U.U.U.I.P.P.Y.@X@X%X*X&X&X*X*X*X*X%X*X%X%X%X%X%X@XY.P.P.OXOX@X@X@X%X%X%X%X%X%X*X&X-X-X%X@X@X@XP.I.I.U.U.U.U.U.J.J.A.A.A.M.M.M.M.k.k.l.j.f.f.f.f.f.f.f.j.j.j.j.k.k.k.k.m.M.M.M.M.A.A.A.A.A.M.m.m.m.k.k.j.f.f.t.r.w.R R T w.w.u.u.f.j.l.j.l.l.l.l.k.k.k.k.M.M.M.A.A.J.J.J.J.A.J.J.M.M.M.J.J.J.U.J.A.J.J.K.K.K.L.L.J.J.J.J.J.J.A.A.A.A.A.J.J.K.J.J.J.J.K.K.K.K.K.K.K.K.K.D.D.D.D.K.F.F.F.D.D.D.F.D.D.A.D.D.S.S.S.Z.S.Z.Z.Z.V.V.v.v.v.v.n.n.n.n.x.x.i.-.-.&.i.s.s.a.d.g.c.m.m.j.m.N.m.s.Y A C C C C C C C C C C C H H H C C V V H A G G S S S G D v d y 0 : : = = % $ $ & $ $ & = * 0 t t 0 0 0 * & & & & & & $ $ $ & & $ & & * 5 u i z b b ! ) { { { { { { { { { { { { { { { { { { ' ' { { { { ! ! ~ ! ! ! ! ! ! ~ ~ ~ ~ ~ ~ ~ ! ! ! ! ! ! ! ~ ~ ~ ",
"a a a a a a p p p p p p p d d z c c c c c c c c v v v M m m D D m m D L L L L L ] ] ] [ | | | | } } } }  .O.+.;.b./.`.1X3XrXfXBXNXSXAXFXGXGXGXGXGXGXGXGXGXZXZXZXGXGXGXGXGXGXGXGXGXGXGXGXGXGXGXGXZXGXZXZXZXZXZXZXZXiX+X_.oX+X+X+X#X$X$X$X#X-X-X-X-X-X&X-X-X-X-X-X-X-X-X-X-X-X-X:X6X6X6X-X-X6X-X-X-X-X-X-X-X-X-X-X-X-X-X-X%X7XOXOXOXOXOXOXOXOXI.I.I.I.U.U.K.K.K.K.U.U.U.U.J.J.J.J.U.U.I.I.I.I.I.P.P.P.I.I.I.I.P.P.Y.@X@X%X*X*X*X*X*X%X%X%X%X%X%X%X%X%X@XY.P.P.P.OXOX@X@X@X@X@X%X%X%X%X&X&X*X@X@X@XOXP.L.U.U.U.U.U.J.J.A.A.M.M.M.M.k.k.k.k.j.j.f.u.u.u.u.u.u.f.f.j.j.j.j.k.k.M.m.M.M.M.M.A.A.M.M.M.m.m.k.k.k.j.f.f.t.r.w.R T T w.w.u.u.f.j.j.l.l.l.l.l.k.k.k.k.M.M.M.M.M.A.J.J.J.J.M.A.J.J.J.J.J.J.J.U.K.K.K.K.K.K.K.K.K.K.K.K.K.K.K.K.K.L.L.L.K.K.K.U.K.L.L.K.K.K.K.L.L.K.K.K.K.K.K.K.K.F.D.D.D.D.F.F.F.D.D.S.S.S.S.Z.S.Z.Z.Z.V.v.v.v.v.v.n.n.n.n.x.x.s.-.-.%.p.a.d.d.g.c.c.m.m.j.m.N.m.y.Y A C f C C f f C C C C C Z Z C C V V V V V Z A G G ......[ D F d a 0 : % % $ $ $ $ $ = = * 0 0 0 0 0 0 * * & & & & & $ $ $ $ $ $ $ $ & = 5 u i k x b ! { { { { { { { { { { { { { { { { { { ' ' ! ! { { ! ! ! ! ! ! ! ~ ~ ~ ~ ~ b b b b b b b b ~ ~ ~ b b b ",
"a a a a p p p p p d z z d z c c c c c c c c v v v v v M m m m m m D L L L L ] ] ] ] [ | | | } | | | }  .+.5.8.~.`.|.0XfXzXvXAXZXGXGXGXGXGXGXGXGXGXGXZXZXZXZXZXZXZXZXZXGXGXGXGXGXGXGXGXGXGXGXGXGXZXZXZXZXZXZXZXZXAX$X]._.+X+X+X+X+X$X$X-X-X-X-X-X-X-X-X-X-X-X-X-X-X-X-X-X;X-X-X:X:X:X:X:X-X-X-X-X-X-X-X-X-X-X-X-X-X-X-X-X%XOXOXOXOXOXOXOXOXOXI.I.I.I.U.U.K.K.K.K.J.J.J.J.J.J.J.J.J.U.U.I.I.I.P.P.P.P.P.P.P.I.I.P.P.@X@X@X%X%X%X%X%X%X%X%X%X@X@X@X@X@X@XOXOXP.OXOXOXOX@X@X@X@X@X@X@X%X%X%X%X@XOXOXP.I.I.U.U.U.U.K.J.A.A.A.M.M.m.k.k.k.k.j.j.f.u.u.u.u.u.u.u.f.f.j.j.j.j.k.m.m.m.m.m.m.m.m.m.m.m.m.m.k.j.k.k.f.f.f.t.t.w.T T T w.w.t.u.u.f.j.l.l.l.l.l.l.l.k.k.k.k.M.M.M.M.A.J.J.J.J.J.J.J.K.K.K.I.I.I.I.I.I.I.L.L.I.I.I.oXOXOXL.L.L.L.L.L.L.L.L.L.L.L.L.oXoXL.L.L.L.L.L.L.L.L.K.K.K.K.K.K._.D.D.D.F.F.F.D.S.S.Z.Z.Z.Z.S.S.S.Z.V.v.V.v.v.v.v.c.n.n.n.x.s.%.y.p.f.d.d.d.c.c.v.v.m.m.m.m.c.i.Y A C f C f f f C C C C C C C C C C C V V C C H A G ....X.X.X.X.F s : : % % $ $ $ $ $ $ = = * * * * * * * * * & & & & & $ $ $ - - - - - & 5 5 u i j z b ~ ! { { { { { { { { { { { { ) { ! ! ! ! ! ! { { { ' ! ! ! ! ! ~ b b k j j j j j j j j j l l h h l l ",
"a a a a p p p p p p z z d z c c c c c c v v v v M M M M m m m m D D L L L L ] ] ] ] [ | | } } | |  .X.*.9.~.`.}.0XfXbXNXNXAXZXGXGXGXGXGXGXGXGXGXGXGXZXZXZXZXGXZXZXZXZXGXGXGXGXGXGXGXGXGXGXGXGXGXZXZXZXZXZXZXZXZXmX$X].+X+X+X+X+X+X+X$X#X-X-X-X-X-X-X-X-X-X-X-X-X-X-X-X-X-X-X-X-X-X-X-X-X-X-X-X-X-X-X-X-X-X-X-X-X-X-X-XOXOXOXOXOXOXOXOXI.I.I.I.I.I.U.K.K.K.K.J.J.J.J.J.J.J.J.J.J.K.U.U.I.I.I.P.P.P.P.P.P.P.I.I.P.P.OX@X@X%X%X%X%X@X%X@X@X@X@X@X@XOXOXOXP.OXP.P.P.OXOX@X@X@X@X@X@X@X@X@X@X@X@XP.P.I.I.I.U.U.U.K.J.A.A.A.M.M.M.k.k.k.k.j.j.f.u.u.f.f.f.u.u.f.f.f.f.j.j.j.k.k.m.k.k.k.m.m.m.m.m.k.k.k.k.k.g.f.f.f.u.t.t.w.R R T T w.t.u.u.j.j.j.l.l.l.l.l.l.k.k.k.k.k.M.M.M.M.A.J.J.J.J.J.J.J.K.K.I.I.I.I.I.OXoXoXoXOXoXoXOXOXOXOXOXoXoXoXI.oXL.L.oXoXOXOXOXOXoXL.L.L.L.L.L.L.L.oXoXL.K.L.K.oX_.D.D.F.F.D.D.D.S.Z.S.Z.Z.Z.S.Z.Z.V.v.v.v.v.v.v.v.n.n.n.x.s.%.r.p.f.d.d.g.c.v.v.v.m.m.m.m.c.r.Y Z 2 f f f f f f f f f 2 2 2 2 C C C C C V V H Z A G P ..$.*.*.$._ g s * * % $ $ $ $ $ $ & = = = = = = * * * * & & & & $ $ $ - - - - - @ & 5 5 u u j j b ~ ~ ! ! ! ! ) { { { { ! ! ! ! ! ! ! ~ ! ! { { { { { ! ! ~ ~ x j j l u u u u u u u u u u w w 7 7 5 ",
"p p p p p p z z z z c c c c c c c c v v M v M M M m m m m m m m L D L L L L ] ] ] ] | | }  . . .X.*.6.C.`.|.0XfXMXSXCXCXAXZXGXGXGXGXGXGXGXGXZXGXGXGXGXGXGXGXGXGXZXGXGXGXGXGXGXGXGXGXGXGXGXGXGXGXZXZXZXZXZXZXZXZXnX$X_._.+X+X+X+X+X+X$X$X#X-X-X-X-X-X-X-X-X-X-X-X-X-X-X-X-X-X-X-X-X-X-X-X-X-X-X-X-X-X-X-X&X-X-X-X-X&X%XOXOXOXOXOXOXI.I.L.L.L.U.U.U.K.K.J.J.J.J.J.J.J.J.J.J.J.J.J.U.U.I.I.I.P.P.P.P.P.P.P.P.P.I.I.P.OX@X@X%X%X%X%X@X@X#X#XOXOXOXOXOXP.P.P.P.I.I.I.P.P.P.@X@X@X#X@X@XOX@X@X@XP.P.P.P.L.L.U.U.U.J.A.A.A.M.M.m.m.k.k.k.j.f.f.f.u.f.f.f.f.f.f.f.f.f.f.g.j.k.k.k.k.k.k.k.k.k.m.m.k.k.k.k.k.j.f.f.u.u.u.t.r.w.R J T T w.w.u.u.f.j.j.l.l.l.l.k.k.k.k.k.k.k.k.k.k.M.M.M.A.J.J.J.J.J.J.K.K.I.I.I.I.I.I.I.I.OXOXOXOXOXOXOXOXOXOXOXOXOXI.L.I.I.OXOXOXOXL.L.L.L.L.L.L.L.L.L.L.L.L.L.oXoXoXF.F.D.F.D.D.D.S.S.S.S.S.S.Z.Z.Z.Z.v.v.v.v.v.v.v.n.n.h.h.i.&.y.y.f.d.g.c.v.v.v.v.m.m.m.m.c.r.I Z C C C C C C C f f f 2 2 2 2 C C C C C C C C Z Z A G P #.*.6.6.=.$.S d 1 % $ $ $ $ $ $ $ $ $ $ $ & = & * * * * & & & & $ $ $ $ @ - - @ @ & 5 5 5 u i j j b b b n ! ! ! ! ' ' ! ! ! ! ! ! ! ! ! ! { { { { { { ! n x j u u 5 5 5 5 5 5 5 5 5 5 8 & 4 & & & ",
"p p p p p p z z z z c c c c c c c c v v M M M M m m m m m D m m L L ] ] L ] ] [ ] [ | |  . . . .;.9.!.{.0XfXbXSXSXSXCXAXAXFXGXGXGXGXGXGXGXGXZXZXGXGXGXGXGXGXGXGXZXZXGXGXGXGXGXGXGXGXGXGXGXZXZXZXZXZXZXZXZXZXZXAXpX]._.oXoX+X+X+X+X+X#X+X#X#X#X#X-X-X-X-X-X-X-X-X-X-X-X-X-X-X-X-X-X-X-X-X-X-X-X-X-X-X-X-X&X&X-X%X&X%X%XOXOXOXOXOXOXI.L.L.U.U.U.U.K.K.J.J.J.J.A.A.A.A.A.J.J.J.J.J.U.U.I.I.I.I.P.P.P.P.P.P.P.P.P.I.I.P.OX@X%X%X%X@X@X@X@X#XOXOXOXP.P.P.P.P.I.I.I.I.P.P.P.P.@X@X@X@XOXP.P.P.P.P.P.P.L.L.L.U.U.K.J.A.A.M.M.m.m.k.k.j.j.j.f.f.u.u.u.u.f.f.f.f.f.f.f.f.g.j.j.k.m.k.k.k.k.k.k.k.k.k.k.k.j.j.f.u.u.u.u.u.r.r.w.J R T T w.w.t.u.u.j.j.j.l.k.k.k.k.k.k.k.k.l.l.l.l.k.M.M.M.M.M.M.M.A.J.J.K.L.I.I.I.I.I.I.OXOXOXOXOXOXOXOXOXOXOXOXOXOXOXI.I.L.I.OXOXOXL.L.L.L.L.L.L.L.L.L.L.L.L.L.oXoXoXF.F.D.F.D.D.D.S.S.S.S.S.S.m.Z.m.m.V.v.v.v.v.v.v.v.n.h.a.i.&.y.p.p.g.c.c.v.v.m.m.m.m.m.m.c.%.U G S S S F S S f f C C C C C C C Z Z Z Z Z Z Z Z Z A A S ..*.6.x.b.x.6...F y * - $ $ $ $ $ $ - $ $ $ & & & * * * & & & & & $ $ $ - - - @ @ $ & & & 5 w u u j j z b b n ! ! ! ! ! ! ! ! ~ ~ ~ ~ ! ! { { o.o.{ { ! b j u w 5 & & & & & & & & & & & & # # & @ ",
"p p d d d d z z z z g c c c v v c v M M M M M m m m m m D D L L ] ] [ ] ] | | [ | | | | |  .+.5.b.^.|.rXbXMXSXZXZXZXZXZXGXGXGXGXGXGXGXGXGXGXGXZXGXGXZXGXGXGXGXGXGXGXGXGXGXGXGXGXGXGXGXZXGXZXZXZXZXZXZXZXZXAXCXVXiX_.]._.+X+X+X+XoX+X#X#X+X#XOX#X-X-X-X-X-X-X-X-X-X-X-X-X-X-X-X-X-X-X-X-X-X-X-X-X-X-X-X-X&X&X%X%X%X%XOXOXOXOXOXOXI.I.L.U.U.U.U.U.J.J.J.J.A.A.A.A.M.M.A.A.J.J.J.J.U.U.I.I.P.P.P.I.P.P.P.P.P.I.I.U.I.P.P.OX@X@X@X#X#X#XOXOXP.P.P.P.P.P.I.I.I.L.L.L.L.L.P.P.OXOX#X@XOXP.P.P.OXP.P.L.L.U.L.L.L.J.A.A.M.M.m.k.k.k.j.j.f.f.f.u.u.u.p.u.p.p.f.f.f.f.f.f.d.g.g.j.j.k.j.j.j.j.k.k.g.g.g.k.k.f.f.u.u.u.u.t.r.w.T J R T T w.r.t.t.u.f.j.j.j.k.k.k.k.k.k.k.k.k.l.l.l.k.k.M.M.M.M.M.M.M.A.J.K.K.I.I.I.I.I.OXOXOXOXOXOXOXOXOXOXOXOXOXOXOXI.I.I.I.OXOXOXOXL.L.U.K.L.L.L.oXL.L.L.L.L.oXoXoXoXF.F.F.F.F.D.D.S.S.Z.S.S.Z.v.v.v.V.v.v.n.v.v.v.v.n.n.h.a.i.%.y.p.d.g.g.m.m.m.m.m.m.m.m.m.c.%.U P S S S ....P S S S Z Z Z Z Z Z Z A G G G A Z Z H H Z A G #.=.x.b.n.x.6.;.L g % % % $ $ $ - - - - - - & & * * * * & & & & & $ $ $ - - - - - $ $ & & 5 5 w u i i j z b b b b b n n b b b b b b ~ ! { { { { { { n z i w 8 8 # $ @ @ @ @ @                   ",
"d d d d d p z z z z g g c c v v v M M M m M m m m m m m D D L L ] [ | | | | | | }  . . .X.X.>.b.^.|.fXbXSXZXGXGXZXZXZXZXGXGXGXGXGXGXGXGXGXGXZXZXZXGXGXGXGXGXGXGXGXGXGXGXGXGXGXGXGXGXZXZXZXZXZXZXZXZXZXZXAXCXnXmX2X_.]._.+X+X+X+X+X+X#X#X+X#X#X#X-X-X-XOXOX#X-X-X-X-X-X-X-X-X-X-X-X-X-X-X-X-X-X-X-X-X-X-X%X%X%XOXOXOXOXOXI.I.I.I.L.L.U.U.U.K.J.J.J.J.A.A.A.A.A.M.M.M.A.A.J.J.J.K.U.U.I.I.I.P.I.I.I.I.I.I.I.L.U.U.U.I.I.P.P.P.P.P.P.P.P.P.I.I.I.L.I.L.L.L.L.L.L.L.L.L.L.L.P.P.OXOXP.P.P.P.P.P.P.L.U.K.U.K.J.A.A.M.M.m.m.k.j.j.j.f.f.f.u.u.u.u.u.t.r.t.p.p.p.p.p.p.p.f.d.d.f.f.f.f.f.g.g.g.f.f.f.f.f.f.u.u.t.t.r.r.r.T R J R T T w.r.r.t.u.u.j.j.j.k.k.k.k.k.k.k.k.k.k.l.l.k.k.k.k.M.M.M.M.M.M.J.J.K.L.I.I.I.I.OXOXOXOXOXOXOXOXOXOXOXOXOXOXOXI.I.I.OXOXOXOXOXL.L.L.K.K.L.L.oXL.L.L.L.L.L.oXoXK.F.F.D.D.D.D.D.D.S.S.S.S.Z.Z.V.v.V.v.v.n.n.n.v.v.n.n.h.a.i.y.y.p.g.g.m.m.m.m.m.N.N.N.N.v.s.&.P G S P #.$.=.$.#.#.#...P P P G S S P P #.U P G G A Z H Z G P $.i.x.n.n.x.6.>.$.v y *   - $ $ - - - - - $ & = * * & & & & & & & $ $ - - - - - $ $ $ & & * 5 5 w u i j j z z z z z z z j j j j j x ~ ! { { { ! ! b j u 5 & & @     @ @                   .   ",
"z z c z z z c c c c c c c v M M M M m m m m m m m D L L ] L L ] ] [ | | | | |  . .X.X.X.;.6.C.).3XfXMXZXZXFXGXGXZXZXGXGXGXGXGXGXGXGXGXGXGXGXGXGXZXGXGXGXGXGXGXGXGXGXGXGXGXGXGXGXGXGXZXZXZXZXZXZXZXAXAXAXCXnXmXmX5X_.]._.]._.oXoX+X+X$X#X+X#XOX#X-X-X-XOXoXOXOX-X-X-X-X-X-X-X-X-X#X-X-X-X-X-X-X-X-X-X-X-X-X%XOXOXOXOXI.I.I.I.L.L.U.U.K.K.J.J.J.J.A.A.A.A.M.M.M.M.M.M.A.A.J.J.K.U.U.U.I.I.I.I.I.I.I.I.I.I.L.L.U.U.J.U.U.L.U.U.U.U.L.U.U.U.K.K.K.K.K.K.K.K.U.U.U.K.K.K.K.U.L.P.P.OXP.P.P.P.P.L.L.U.K.J.J.J.A.A.A.M.m.k.k.k.j.g.f.f.f.u.f.p.p.p.p.p.p.p.p.p.y.r.r.r.r.r.r.r.r.p.p.f.p.p.f.f.f.p.p.f.f.u.t.r.r.r.r.r.w.R J R T T w.r.r.t.t.u.u.f.j.j.l.l.l.l.k.k.k.M.M.M.k.l.l.l.l.l.l.k.M.M.M.M.M.M.J.K.I.I.I.I.I.I.I.I.P.P.P.OXOXOXOXOXOXOXOXI.I.I.OXOXOXOXOXL.L.L.K.L.L.oXoXL.oXoXL.L.L.L.K.K.F.D.D.D.D.D.D.S.S.S.S.Z.Z.Z.S.v.V.v.n.v.v.v.n.c.x.x.h.a.i.y.y.a.d.g.m.m.m.m.N.N.N.N.S.c.i.U P S S ..=.6.z.z.6.>.=.*.$.#.P P G P #.$.&.&.#.#.#.G G A A A Y #.&.z.n.V.V.C.b.9.;.L < + - $ $ - - - - - - $ $ = * & & * & & * & & $ @ @ $ - - - $ $ $ & & = * 5 5 t u i i i i i i i i i u u u u j x ~ ! ! ! ! b j u 5 & & $                             .   ",
"z z c c z z c c c c c c v v M M M m m m m m D D L L ] ] ] ] ] ] ] [ | | } } }  .X.X.+.+.9.C.`.3XfXSXZXGXFXFXZXZXZXZXGXGXGXGXGXGXGXGXGXZXGXGXGXGXGXGXGXGXGXGXGXGXGXGXGXGXGXGXGXGXGXGXZXZXZXZXZXAXAXAXCXCXnXmXmXpX5X].].]._._._.oX+XoX+X$X+X#X#X#X-X-XOXoXL.I.OX%X-X-X-X-X-X-X-X-X-X-X-X-X-X-X-X-X-X-X-X-X%XOXOXOXOXOXI.I.L.L.U.L.K.K.K.K.J.J.A.A.A.A.M.M.M.M.M.M.M.M.A.A.J.J.K.U.U.U.I.I.I.I.I.I.I.U.U.U.U.U.U.U.J.J.J.J.U.U.U.K.K.K.J.J.A.A.A.A.A.A.A.J.J.J.J.J.J.J.J.J.U.L.P.P.P.P.P.P.L.L.L.K.J.J.J.J.A.A.M.m.k.k.k.j.f.f.f.f.f.f.f.p.p.p.p.p.r.&.T Y Y J J J J J J J J Y T T w.r.p.u.u.u.u.u.u.t.r.r.r.r.r.r.T R J R T w.w.r.r.t.t.u.u.u.j.j.l.l.l.l.k.k.k.M.M.M.M.k.l.l.l.l.l.l.l.l.l.M.M.M.J.K.K.I.I.I.I.I.I.I.I.I.I.I.P.P.OXOXOXOXOXI.I.I.OXOXOXOXOXL.L.L.L.L.L.L.oXoXoXoXL.L.L.L.K.K.F.F.D.D.D.D.S.S.m.S.S.v.v.Z.V.V.V.v.n.v.v.v.v.c.x.h.h.a.i.y.p.p.d.g.m.m.m.N.N.N.N.N.N.g.=.U G S P #.>.6.x.x.x.z.>.=.$.#.P G P U $.=.=.=.=.&.&.#.U G G G G U $.=.z.n.(.(.(.V.9.;.L < + $ $ - - -     - - $ $ & & & * & & & & & $ - - @ - - - - $ $ $ & & & & & 5 5 5 t t t t u u u u u u u u u j k ~ ! ! b b j u 5 & # @   . . .                         ",
"d d z z c c c c c c v v v M m m m m m m m m D L ] ] ] ] ] ] ] | | | } }  . . . .X.+.;.b.(.}.qXzXCXGXGXGXGXGXZXZXZXZXZXGXGXGXGXGXGXGXGXGXGXGXGXGXGXGXGXGXGXGXGXGXGXGXGXGXGXGXZXZXZXZXZXZXZXZXAXAXCXCXnXnXmXmXpXpX$X_.].]._._.oXoX+X+X+X#X+X#X#X-X-X-XOXoXL.oXOX#X-X-X-X-X-X-X-X-X-X-X-X-X-X-X-X-X-X-X-X-XOXOXOXOXOXOXL.L.L.K.K.K.K.K.K.K.K.J.A.A.M.M.M.M.M.M.M.M.M.M.A.J.J.J.K.K.K.U.L.L.I.I.I.I.U.U.U.U.U.U.U.U.J.J.J.A.J.J.J.A.M.M.k.k.j.u.u.u.j.j.j.j.M.A.K.K.A.A.J.K.K.K.U.L.L.L.L.P.L.L.K.J.J.A.A.A.M.M.m.k.k.k.j.g.f.f.f.f.f.f.p.t.t.r.r.T R J J J J J J J J J J J J J Y Y T w.r.r.p.y.y.y.t.t.r.r.r.r.r.r.T R R T T w.r.r.r.t.t.u.u.u.j.j.j.j.k.k.k.k.k.M.M.M.M.M.l.l.l.j.l.l.l.l.l.M.M.M.M.J.K.L.I.I.I.I.L.L.L.L.I.I.I.I.OXOXOXOXOXOXOXI.I.I.OXOXoXL.L.L.K.L.L.oXoXoXL.L.L.L.K.K.K.K.F.F.D.D.D.D.S.m.v.Z.Z.Z.v.v.V.v.v.v.v.v.v.v.v.c.x.h.h.s.i.p.p.f.g.m.m.N.Z.Z.N.N.N.N.S.d.%.U P S P $.>.x.b.b.x.6.=.$.#.P P P #.%.i.s.s.i.=.&.&.#.U U Y Y Y -.&.=.z.c.n.S.(.(.V.x.;...g * X . -       - - $ $ $ & & & = * * = & & $ - - $ - - - $ $ $ $ $ & & & & & & * * * * 5 5 5 5 5 5 5 5 5 u i c b b j j u 5 * & -     . .   - @ @ @ @ @ @ @ @       ",
"z d z z c c c c c c v v M M m m m m m m D D L L ] ] ] ] ] ] | } } }  . . . .X.O.*.;.b.^.}.qXbXCXGXGXGXGXGXGXZXZXZXZXGXGXGXGXGXGXGXGXGXGXGXGXGXGXGXGXGXGXGXGXGXGXGXGXGXGXGXGXZXZXZXZXZXZXZXZXCXVXVXnXnXmXpXpXpXiX]._.G.]._.oXoXoXoX+X+X+XOX#X#X#X-X#XOXOXoXOXOX-X-X-X-X-X-X-X-X-X-X-X-X-X-X-X-X-X-X-X#X#XOXOXOXOXOXoXL.K.K.K.K.K.K.J.J.J.J.A.M.M.M.M.M.M.M.M.M.M.M.A.A.J.J.J.K.K.K.U.U.L.I.L.U.U.U.U.U.U.U.U.U.U.U.J.J.M.M.M.M.M.k.l.l.j.u.u.t.t.u.u.u.u.u.j.k.M.M.A.J.K.K.K.K.K.K.U.L.P.L.L.K.J.J.A.A.M.M.m.k.k.k.j.g.g.f.f.f.f.f.f.p.r.r.T R J J J J J J J J J J J J J Y Y Y Y R T w.r.r.r.r.r.t.r.r.w.r.r.T R R T T T w.w.w.r.r.t.t.u.u.u.j.j.j.j.k.k.k.k.k.M.M.M.M.M.M.k.k.l.l.l.l.l.l.l.M.M.M.J.K.K.L.I.I.I.L.L.L.L.I.I.I.I.OXOXOXOXOXOXI.I.I.I.OXOXoXL.L.L.L.L.L.L.L.L.L.L.L.L.K.K.L.K.F.F.D.D.F.D.S.m.m.Z.Z.Z.v.v.v.v.v.v.v.v.v.v.v.v.x.h.a.s.%.&.p.f.g.m.m.Z.Z.Z.Z.N.N.N.m.s.-.U P P ..=.>.z.x.x.z.>.$.#.P P P #.=.s.c.c.z.i.=.&.-.#.#.-.%.i.s.s.s.a.x.c.c.n.N.(.V.b.9.;.X.v : $ - $ $ $ $ $ $ $ $ $ & & = * * * * & $ - - $ - - - $ $ $ $ $ & & $ $ $ $ & & & & & 5 5 5 5 5 5 5 5 5 u j j j u u 0 5 & $ - -       - & & & & & & & & & & & & ",
"c c c c c c v v v v M M M M m m m m m L m m L ] ] ] ] ] ] | } } }  . . . .X.+.+.6.b.).3XfXMXAXGXGXGXGXGXGXGXGXGXZXGXGXGXGXGXGXGXGXGXGXGXGXZXGXGXGXGXGXGXGXGXGXGXGXGXGXGXGXGXZXZXGXZXZXZXZXAXVXnXnXnXxXxXuXpXiXiX_.S._._._.oXoXoXoXoX+X$X#X#X#X#X#XOXOXOXOXOX-X-X-X-X-X#XOXOXOXOX#X#X-X-X-X-X-X-X#X#X#XOXOXOXOXOXoXL.L.K.K.K.J.J.J.J.J.J.A.A.M.M.M.M.M.M.M.M.M.M.M.A.A.J.J.J.K.U.K.U.U.U.L.L.U.U.U.U.U.U.U.U.U.U.U.U.J.A.M.k.k.k.l.j.u.u.u.t.t.t.t.u.u.t.t.t.u.j.j.k.A.J.J.J.K.K.K.J.L.U.L.K.J.D.A.A.M.M.m.k.k.k.j.f.f.g.f.f.f.f.f.t.r.T R Y J J J J J J J J Y Y J J Y Y Y Y Y Y Y R T w.r.r.r.r.r.r.w.w.T T T R R T T T T w.w.r.r.t.t.u.u.u.j.j.j.j.l.k.k.k.k.M.M.M.M.M.M.M.M.M.k.l.l.l.l.l.k.k.M.M.J.J.K.K.U.U.L.L.I.I.I.I.I.I.OXOXOXOXOXOXOXOXI.I.I.L.L.L.L.L.L.L.L.L.L.L.L.L.K.K.K.K.K.F.D.A.A.A.S.S.S.m.m.Z.Z.Z.v.v.v.v.v.v.n.v.v.v.v.v.x.h.a.s.%.&.r.p.g.m.m.N.Z.Z.Z.N.S.S.c.%.#.P P P #.>.>.6.>.>.=.$.#...P P #.&.s.x.n.n.z.i.=.&.-.-.%.s.n.n.n.n.c.z.a.s.p.d.n.n.n.n.b.6.6.*.D a * & & & $ $ $ $ $ $ & & = * * * 5 * & $ - $ $ - $ $ $ $ $ $ $ # $ $ $ $ $ $ $ $ & & 5 5 5 5 5 5 5 5 5 u u u 5 5 5 & $ - - - $ $ & & 5 5 5 5 5 5 5 5 5 5 5 & ",
"c c c c c c v v v v M M m m m m m m m L L L ] ] ] ] [ [ | } } } }  . . . .O.*.;.C.).3XgXMXZXGXGXGXGXGXGXGXGXGXGXZXGXGXGXGXGXGXGXGXGXGXGXGXZXGXGXGXGXGXGXGXGXGXGXGXGXGXGXZXZXZXZXGXZXZXZXAXVXnXnXxXxXzXpXuXiXiXtX_.F.S._._._.oX_.oXoX+X$X#X#X#XOXOXOX#XOXOX%X-X-X-X#X#X#XOXOXOXOXOXOXOX#XOXOXOXOX#XOXOXOXOXOXOXOXL.L.K.J.J.J.J.J.A.A.A.A.A.M.M.M.M.k.k.M.M.M.M.M.M.M.A.J.J.J.K.U.K.K.U.U.U.U.U.U.U.U.U.U.U.K.U.U.U.U.J.J.M.k.k.j.j.u.u.u.t.t.t.t.t.t.u.u.u.u.u.u.u.j.k.M.A.A.K.J.K.K.K.K.D.D.A.A.A.A.M.m.k.k.k.j.j.f.f.f.f.f.f.f.t.r.T J J J J J J J Y Y Y Y Y Y Y Y Y Y Y R Y Y Y Y R T r.r.r.r.r.w.w.T T R R T T T T T T w.w.r.r.t.t.u.u.u.j.j.j.j.l.j.k.k.k.M.M.M.M.M.M.M.M.M.M.k.l.l.l.l.l.l.l.M.M.J.J.J.K.K.U.U.L.L.I.I.I.I.I.OXOXOXOXOXOXOXI.I.I.L.I.L.L.L.L.L.L.L.L.K.K.K.K.K.K.K.K.D.D.A.Z.Z.S.S.Z.m.m.Z.Z.Z.v.v.v.v.v.v.n.v.v.v.v.v.c.x.s.s.i.s.r.p.v.m.m.N.Z.Z.S.S.S.N.d.&.U P ....$.>.>.>.>.*.$.#.#...#.#.&.=.s.x.x.z.s.>.=.&.=.=.a.n.S.S.S.n.c.a.i.%.%.r.i.=.:.n.n.x.b.z.;.| v 0 & = $ $ $ $ $ $ & & = * * * 5 5 * & $ - $ - $ $ $ $ $ $ & # $ $ - - - - - $ & & & & = = = = & 5 5 5 5 5 = & & & $ - - $ & * 5 5 u u u u u u u u u u w 5 ",
"c c c c v v v v v v M m m m m m m D L L ] ] [ ] ] [ | | | }  .}  . . . .+.*.6.C.`.3XgXSXAXZXGXGXGXGXGXGXGXGXGXGXZXGXGXGXGXGXGXGXGXGXGXGXGXGXGXGXGXGXGXGXGXGXGXGXGXGXGXGXGXGXZXZXZXZXAXCXnXnXmXxXpXuXiXiXiXiXiXtX_._._._._._._.oXoX+X+X#X$X#X#X#X#X#X#X#X#X#X-X-X#X#X#X#X#X#X#X#X#X#XOXOXOXOXOXOXOXOXOXOXOXOXoXL.L.K.K.K.J.J.A.M.M.M.M.M.M.M.M.m.k.k.k.k.m.m.m.M.M.A.A.A.J.K.K.K.K.K.K.U.U.U.L.L.L.L.L.U.U.K.K.U.U.U.U.J.A.M.k.l.j.u.u.u.u.u.u.u.u.u.u.u.u.u.u.u.u.u.u.u.k.m.A.A.A.D.D.D.A.A.A.A.Z.M.m.k.k.k.k.j.f.f.f.f.f.f.p.p.r.T T R R R R Y R R R R Y Y Y Y R R R R Y R R R R Y Y R T T T T T T T T T T T T T T T T T T w.r.r.t.t.u.u.u.f.j.j.j.j.k.l.k.k.k.k.k.M.M.M.M.A.A.M.M.l.l.l.l.l.j.l.k.M.M.A.J.J.J.K.K.U.U.L.L.I.I.L.I.OXOXOXOXOXOXOXOXI.I.I.L.L.L.L.L.L.K.L.K.K.K.K.K.K.K.F.F.D.D.Z.N.N.Z.Z.m.m.v.v.Z.Z.v.v.v.v.v.v.v.v.c.x.x.x.x.s.s.i.d.r.d.m.m.m.m.Z.D.D.D.S.N.a.&.#.#.$.$.$.$.$.$.#...P ....#.#.$.=.=.>.>.>.>.=.=.=.i.s.x.n.S.S.S.S.n.z.s.%.%.&.-.-.#.-.=.x.V.V.b.z.6.X.v 0 0 * = $ $ $ $ $ & = = * * 5 5 5 * & $ - $ $ $ $ $ $ $ $ - $ $ - - - - - @ $ & & & * * & & 5 5 5 5 5 = & & & & & & & * t t u u i i j j j j j j j i u w ",
"c c c c v v v v v v m m m m m m m L L L ] | | [ | | | | } }  . . . . .O.*.6.C.).3XgXMXFXGXGXGXGXGXGXGXGXGXZXZXZXZXGXGXGXGXGXGXGXGXGXGXGXGXGXGXGXGXGXGXGXGXGXGXGXGXGXGXGXGXZXZXZXZXAXCXnXnXmXxXpXiXiXiXiXiXuXpXiXF._._.oXoX_._.oX+X+XoXoX#X$X#X#X#X#X#X#X#X#X#X#X#X#X-X#X-X#X#X-X#XOXOXOXOXOXOXOXOXOXOXOXoXoXL.L.K.K.K.K.J.J.A.M.M.M.M.M.M.m.k.k.k.k.k.k.m.m.M.M.M.M.A.A.J.K.K.K.K.K.K.K.U.U.L.L.L.L.L.U.K.K.K.K.U.K.K.A.A.A.M.k.l.j.u.u.u.u.u.u.u.u.u.u.u.u.u.u.f.f.f.f.f.j.k.M.M.A.D.D.A.A.M.M.M.m.m.k.k.k.j.f.f.f.g.g.f.u.t.r.T R R R T T R R T R R T R R R R T T T T T T T T Y R Y R R R R T T T T T T T T T T T T T T w.w.r.r.t.t.u.u.u.u.j.j.j.j.k.j.j.j.l.k.k.k.M.M.M.M.M.M.M.M.k.l.l.l.l.j.l.k.M.M.A.J.J.J.J.K.U.U.U.L.I.L.L.I.I.OXOXI.I.OXI.I.I.L.L.L.L.L.L.L.K.L.L.L.K.K.K.K.F.F.F.F.D.A.N.m.N.Z.m.m.v.v.Z.v.v.v.v.v.c.v.v.c.a.a.s.s.s.s.s.%.a.a.c.m.m.m.m.Z.D.D.S.S.n.d.=.&.$.*.$.$.$.#...P P P ....#.$.$.$.=.&.&.&.&.=.=.=.i.z.n.S.n.n.n.n.z.s.i.%.%.%.&.-.-.#.&.i.x.V.V.n.b.6.*.[ p t * = $ $ $ $ $ & = * * 5 5 5 5 * & $ - $ $ $ $ $ $ $ $ - - - - - - - - $ & & & * * & & 5 5 5 5 5 5 5 5 5 5 * * 5 w t i i j j j j j z z x x j j u u ",
"c c v v v M m m M M m m m m L L L L ] ] ] | | | | | | | } }  . . . .O.+.6.C.).3XfXMXSXGXGXGXGXGXGXGXGXGXGXZXZXZXGXGXGXGXGXGXGXGXGXGXGXGXGXGXGXGXGXGXGXGXGXGXGXGXGXGXGXGXZXZXZXZXZXCXnXnXmXxXpXiXiXiXiXiXuXuXpXiXF._._._._._._.oX+X+XoXoX#X$X#X#X#X#X#X#X#X#X#X#X#X#X#X#X-X#X#X#X#XOXOXOXOXOXOXOXOXOXOXOXoXL.L.K.K.K.K.K.J.J.A.M.M.M.M.m.k.k.k.k.k.k.k.k.m.m.M.A.A.A.A.A.A.K.K.K.K.J.K.K.K.U.U.U.L.U.L.U.K.K.K.K.K.J.A.A.A.A.A.M.k.j.f.u.u.u.u.u.u.u.u.u.u.u.f.f.f.f.f.f.f.f.u.j.k.M.A.A.A.M.M.M.m.m.k.k.k.j.f.f.g.g.f.g.f.p.r.T T R T T T -.-.-.T -.-.-.T T T T T T T T T T T R R Y R Y J R T T T T T T T T T T T T T T T T w.r.r.t.t.u.u.u.u.f.f.f.j.j.j.j.j.j.l.k.k.k.k.M.M.M.M.M.M.k.l.l.j.j.u.l.j.k.M.M.A.J.J.J.J.K.K.L.U.L.L.L.L.L.I.I.I.I.I.I.L.L.L.L.L.L.L.L.L.K.L.L.L.K.K.K.K.F.F.F.F.D.D.A.N.N.Z.Z.v.v.v.v.v.v.v.v.c.c.c.c.a.a.s.s.s.s.a.s.&.i.c.c.m.m.m.m.Z.S.S.S.N.n.a.:.=.=.*.$.....P P P P ..#.#.$.$.$.$.#.#.#.#.#.#.&.=.>.x.n.n.x.z.z.i.=.%.&.&.&.%.r.r.i.&.&.r.i.n.V.V.V.b.9.*.[ c t * = & $ $ $ & = * 5 5 5 5 5 * * & $ $ $ $ $ $ $ $ $ - - - - - -     - $ & & * = = * * * * * * * * * 5 5 * * 5 t i p j j z z z z z z x x x j u w ",
"c c v v v v m m m M m m m m L L L L ] ] [ | | | | | } } } }  . . .O.+.;.C.`.3XfXbXSXFXGXGXGXGXGXGXGXGXGXGXZXZXZXGXGXGXGXGXGXGXGXZXGXGXGXGXGXGXGXGXGXGXGXGXGXGXZXGXGXGXGXZXZXZXZXAXCXnXcXxXpXiXiXuXuXiXuXpXmXmXiX_._._._._._._.oXoXoX+X#X$X$X#X#X#X#X#X#X#X#X#X#X#X#X#X#X#XOX#X#XOXOXOXOXOXOXOXOXOXOXOXoXL.K.K.K.K.K.K.K.D.A.M.M.M.m.m.m.k.k.k.k.k.k.k.k.m.M.M.A.A.A.A.A.A.A.K.K.K.J.J.K.K.K.U.U.L.K.U.U.U.K.K.K.K.A.A.M.A.A.A.A.M.k.j.f.f.f.f.f.f.f.f.f.f.f.f.f.f.f.f.f.f.u.u.f.j.k.m.M.M.m.m.m.m.k.k.k.j.f.f.f.g.f.f.f.f.t.r.T T T T T -.-.-.-.-.-.&.-.-.-.-.-.T -.-.T T T T T R Y R R R R T T T T T T T T T T T T T T T T w.r.r.r.t.t.u.u.u.u.f.f.j.j.j.l.l.j.j.l.l.k.k.k.M.M.M.M.M.M.k.k.l.j.u.u.j.j.k.M.M.A.A.A.A.J.K.K.K.U.L.L.L.L.I.I.L.L.I.I.L.L.L.L.L.L.L.L.L.K.L.L.L.L.K.K.K.F.F.F.D.D.F.D.A.Z.Z.Z.v.v.v.c.v.v.v.v.c.c.x.a.a.a.h.x.x.a.s.i.&.&.c.g.m.m.m.m.Z.S.S.S.N.n.i.=.*.;.*.#.P P P P P P ..#.$.$.$.#.#.P P G G G #.$.=.>.x.x.z.s.>.=.&.-.#.#.#.#.&.%.i.a.i.i.s.s.n.n.n.n.b.x.5.*.| c t * = & $ $ & = * 5 5 5 5 5 5 * * & & & & $ $ $ $ - - - - -         - $ & & * = = * * * * * * * * = = 5 * 5 t u i j j j z z z z z z x x z j u 5 ",
"c c v v M v M M m m m m m L L ] ] ] ] ] | | } } } } } }  . . . . .+.6.C.).1XfXNXAXAXZXGXGXGXGXGXGXGXGXZXZXZXZXZXZXGXGXGXGXGXGXGXZXZXGXGXGXGXGXGXGXGXGXGXZXZXZXZXGXGXGXZXZXZXZXAXVXnXcXxXpXuXiXwXeXuXuXzXmXmXmXpX_._._.S._._._._.oXoX+X#X+X#X#X#X+X#X#X#X#X#X#X#X#X#X#X#XOX#XOXOXOXOXOXOXOXOXOXOXOXoXoXL.L.K.K.K.D.A.A.A.A.M.M.m.m.m.k.k.k.k.k.k.m.m.m.m.m.m.m.M.M.A.A.A.A.A.K.K.K.J.J.K.K.K.U.U.L.J.K.K.K.K.K.J.J.A.A.m.A.A.A.A.M.k.k.f.f.f.f.f.f.f.f.f.f.f.j.j.f.f.f.f.f.f.f.f.f.f.f.k.m.m.m.m.m.m.j.j.g.f.g.g.f.f.f.p.p.r.&.T T T &.&.-.T -.-.-.-.-.-.&.-.-.-.-.-.-.-.-.R R R R Y Y Y T T -.-.T T T T T T T T T T T T T T w.r.r.r.t.u.u.u.u.u.f.f.j.j.j.j.j.j.j.j.j.k.k.k.k.k.M.M.M.M.k.k.k.k.j.j.j.j.j.k.k.M.M.A.A.A.J.K.K.L.L.L.L.L.I.L.L.L.L.L.L.L.L.L.L.L.L.L.L.K.L.L.L.K.K.K.K.F.F.D.F.D.F.F.D.Z.N.m.v.v.v.v.v.v.v.v.c.d.a.a.s.a.c.x.c.s.s.:.&.-.d.v.m.m.m.m.N.m.m.S.n.x.>.>.*.*...P P S S S P P ....#.#.#...P G S S S S G P #.*.=.=.&.$.#.P P G G G G P $.&.=.s.s.s.z.z.z.s.>.>.x.x.z.=.*.| m p * $ $ $ & & * 5 0 5 5 t 5 5 t * * = & $ $ $ $ - - - - -           - $ & = = * * * * & & = = & & & & 5 5 t u i j j j z z k k b b b x j j u 5 ",
"v c v v v v m M m m D D L L ] ] ] ] ] ] | } } } } }  . . . .O.O.+.5.b.^.1XfXbXSXAXAXZXGXGXGXGXGXGXGXGXZXZXZXZXGXZXGXGXGXGXGXZXZXGXZXGXGXGXGXGXGXGXGXGXGXZXZXZXZXGXGXGXZXZXZXAXVXnXcXxXuXiXiXiXiXuXuXzXxXmXnXnXmX_.F._.D.D._._.oXoXoX+X+X+XoXoX#X#X+X#X#X#X#X#X#X#X#X#XOXOXOXOXOX#X#XOXOXOXOXOXOXOXoXL.L.K.K.K.K.A.A.A.A.M.M.m.m.k.k.k.k.k.k.k.k.k.m.m.m.m.m.m.m.M.M.M.A.A.A.A.A.A.A.A.J.J.K.U.U.L.J.K.J.A.J.J.K.A.A.k.M.A.A.A.A.A.m.k.j.u.k.j.u.f.f.f.f.f.f.f.f.f.f.f.f.f.f.f.f.f.f.f.f.m.m.m.m.m.k.j.j.g.f.g.g.f.f.p.p.t.r.&.T &.&.&.&.-.T -.-.-.-.-.-.-.-.-.-.-.-.-.-.R R R T R R Y R R R T T T T T T T T T T T T T T T T w.r.r.r.t.y.u.u.u.u.f.f.j.j.j.j.j.j.j.j.k.k.k.k.k.k.k.k.k.k.k.k.k.k.j.j.j.j.j.j.k.k.M.M.A.A.J.K.K.K.L.L.L.L.L.L.L.L.L.L.L.L.L.L.L.L.L.L.L.K.K.K.K.F.D.D.F.F.F.D.D.D.D.D.D.N.m.m.v.v.v.v.v.v.v.c.d.a.a.s.s.a.c.x.n.i.:.=.&.T d.v.m.m.m.m.m.m.m.n.n.z.=.=.$...L S F Z Z F S P P P P P P P S S Z Z Z Z Z G S P U P P P S Z Z C C Z Z Z U $.$.&.=.=.:.>.=.=.$.$.=.=.z.x.6.*.X.D a = $ - $ & & * 5 t t t t t t t * = & $ $ $ $ - -                 - $ & = = = = & & & & & & & & & & * 5 5 t u i j j z z k x b b b x j j u 5 ",
"M M M M M M m m m m L L ] ] ] ] ] ] [ | } }  . . . .X.X.O.O.+.+.5.b.(.}.fXMXCXZXAXAXZXGXGXGXGXGXGXGXGXZXGXZXZXGXZXGXGXGXGXZXGXZXGXGXGXGXGXGXGXGXGXGXGXGXGXZXZXZXGXGXGXZXZXAXVXnXcXxXuXuXiXiXwXiXuXuXxXmXVXCXCXmX_.F.F.F.F._.oX+XoXoXoX+X+XoXoX#X+X$X#X#X#X#X#X#X#X#X#XOXOXOXOXOX#X#XOXOXOXOXOXOXoXL.L.K.K.K.K.D.A.A.A.M.N.m.m.k.j.j.g.g.j.j.k.k.k.k.k.m.k.m.m.m.m.M.A.A.A.A.A.A.A.A.A.A.K.K.K.U.K.A.K.A.A.A.A.J.A.A.k.M.A.A.A.M.m.M.m.k.k.u.u.j.f.f.f.f.f.f.g.g.f.f.f.f.g.g.f.f.f.f.f.f.g.j.j.j.j.j.g.g.g.f.f.g.g.f.p.p.r.r.r.&.&.&.-.-.-.-.-.-.&.&.&.-.T T T T -.-.-.R R R R R R Y R Y Y Y R T T T T T T T T T T T T T T T &.r.r.r.t.y.t.u.u.u.u.f.f.f.f.f.j.j.j.j.j.j.k.k.k.k.k.k.k.k.k.k.k.j.k.j.j.j.j.j.j.k.k.m.M.A.A.K.K.K.K.K.L.L.L.L.L.L.L.L.L.L.L.L.L.L.K.K.K.K.K.K.D.D.A.A.D.F.D.D.D.D.D.D.Z.m.N.N.v.v.v.v.v.v.c.c.h.a.a.s.a.a.c.x.c.i.i.=.&.-.d.v.m.m.m.m.N.m.N.n.n.>.$.$.P S Z g f f f f F S S S G G S Z Z C C Z C Z C Z F S S S Z Z C f 2 2 2 C C C G P P U U #.$.$.$.#.P P #.$.=.z.6.6.*. .D p * & $ $ & = * 0 0 t t t t t 5 * = & $ $ $ - - - - - - - -     - $ & = = = & & $ $ $ $ $ $ - @ & & & * 5 t i j j z j x x b b b x j l u 8 ",
"M M M M m M m m m D L L ] ] ] ] ] ] [ | } }  . . . .O.X.O.+.+.+.8./.|.rXNXAXZXAXAXAXZXZXGXGXGXGXGXGXGXZXZXZXZXGXZXGXGXGXGXGXGXZXGXGXGXGXGXGXGXGXGXGXGXGXGXZXZXZXZXZXZXZXAXVXnXmXxXuXuXeXwXwXwXiXuXxXcXVXCXAXAXnX$X_._.oX_._.oX+XoXoX+X$X+X+X#X#X$X#X#X#X#X#X#X#X#X#X#XOXOXOXOXOXOXOX+XOXOXOXOXoXL.K.K.K.K.K.K.A.A.M.M.N.M.m.m.j.g.g.g.g.g.g.j.j.m.m.j.k.k.m.m.m.A.A.M.A.A.A.A.A.A.A.A.A.D.K.K.J.K.A.L.A.k.M.A.K.A.M.A.m.m.M.m.m.k.m.m.m.k.g.f.f.g.f.f.f.f.f.g.g.f.f.g.g.g.g.f.f.f.f.f.g.g.g.g.g.j.g.g.f.f.f.f.f.f.f.p.p.r.&.r.&.&.&.&.-.-.-.&.&.-.-.-.T R R R R R R R R Y R R R R R R Y Y Y R R T T T T T T T T T T T T T &.r.r.r.r.t.t.t.u.u.u.u.f.f.f.f.f.f.f.j.j.j.j.j.j.k.k.k.k.k.k.k.k.k.k.j.j.k.j.f.j.j.k.k.k.m.M.M.D.K.K.K.K.K.L.L.L.L.L.L.L.L.L.L.L.K.K.K.K.K.K.D.D.D.A.M.M.D.D.D.D.D.A.D.Z.N.N.m.m.v.v.v.v.v.v.a.d.a.s.a.a.a.a.x.x.c.i.i.:.&.-.a.c.m.m.m.m.N.m.N.n.x.=...P F g g f s < 2 f g Z S F Z Z Z C f f f C C f f f C C Z Z f f f 2 2 2 2 2 C C C C Z Z G P P U #.#.G S G G $.*.*.>.*.*.X.[ c i = $ $ & = 5 0 t t t t t w w * & $ $ $ - - - - - - - -     - $ & = = & & & $ $ - -           & & & * 5 t j j j z k x b b x k j h 7 5 ",
"M M m m m m m m D L ] ] ] ] ] [ ] | | | } }  . . . .X.O.+.O.*.6.C.`.0XMXAXAXAXAXAXZXZXGXGXGXGXGXGXGXZXZXZXZXZXGXGXGXGXGXGXGXGXGXGXGXGXGXGXGXGXGXGXGXGXGXGXZXZXZXZXZXZXAXCXnXmXxXuXuXiXwXwXwXiXuXuXcXnXCXZXZXZXCX$X_._._._._.oXoXoXoX+X$X+X#X#X$X#X#X#X#X#X#X#X#X#X#X#XOXOXOXOXOXoXoXoXOXoXoXoXoXL.K.K.K.K.K.D.A.M.M.N.m.m.m.j.f.f.f.f.f.g.g.g.g.m.j.g.m.j.m.k.m.m.m.m.M.M.M.A.A.A.A.A.A.A.D.D.D.K.A.A.j.M.M.A.m.A.k.A.A.A.m.m.k.k.m.k.m.k.r.g.m.j.f.f.f.g.f.p.g.g.f.p.r.g.g.f.g.g.f.g.g.f.f.f.f.g.g.f.f.f.f.f.f.f.p.p.r.r.&.&.&.&.-.-.-.&.&.-.&.-.T R R R Y Y Y Y Y Y Y Y Y Y Y J Y R Y R Y Y Y R R R R R R T T T -.-.T T r.r.r.r.r.r.t.t.u.u.u.f.f.f.f.f.f.f.f.j.j.j.j.f.j.j.j.k.k.j.j.k.k.k.k.f.u.k.j.j.j.k.k.k.m.m.M.M.A.K.K.K.K.K.K.L.L.L.L.L.L.L.L.L.K.K.K.K.K.K.K.D.D.A.A.M.M.A.D.D.D.A.A.N.N.m.N.m.m.m.v.v.v.v.c.a.a.s.s.s.a.a.a.h.x.x.s.:.:.&.=.a.g.m.m.m.m.m.m.N.n.:.#.P F g f y < < < < 2 f f f f f f f f f f f f f f f f f f f f f f f 2 2 2 2 2 2 2 2 2 2 C C C C C Z Z Z Z A A A G P ..$.$.*.X.[ M i 5 = = = * * 0 t t t t 0 * * & $ $ $ $ - - - - - - - - - $ $ & = = & $ $ $ -     .             - & 5 w u j j k k k x x x k j u 5 8 ",
"M M m m m m m m L L ] ] ] ] ] [ ] | | | }  . . . . .X.O.+.*.6.b.).3XhXAXAXAXAXAXZXZXGXGXGXGXGXGXZXZXZXAXZXZXGXGXGXGXGXGXGXGXGXGXGXGXGXGXGXGXGXGXGXGXGXGXGXZXZXZXZXZXAXCXnXmXxXpXuXiXiXwXwXiXuXuXmXnXCXAXZXZXAXmX]._._._._._._.oXoX_.+X+X+X+X#X$X#X#X#X#X#X#X#X#X#X#X#XOXOXOXOXOXOXOXoXoXoXoXoXL.L.K.K.K.K.D.A.M.M.m.m.m.m.j.f.f.f.f.p.f.f.g.g.g.g.f.m.g.j.m.j.k.k.f.k.k.k.M.M.A.A.M.M.A.A.A.A.A.K.A.j.k.M.M.k.A.A.k.M.A.k.k.k.j.m.m.k.m.g.g.m.j.r.f.g.p.f.p.p.p.p.r.r.r.f.d.f.g.g.g.g.f.f.f.f.f.f.f.f.f.f.f.p.u.p.p.r.r.r.r.r.&.&.-.-.T &.&.-.-.R R R Y Y Y Y Y Y Y Y Y Y Y Y J G Y Y Y R Y Y Y Y R T R R R T R T T T T T r.r.r.r.r.t.t.t.t.u.u.u.f.f.f.f.f.f.f.f.f.j.f.f.f.f.j.k.k.j.j.j.j.j.f.f.u.j.j.j.f.f.j.k.m.k.M.M.M.M.K.K.K.K.K.K.K.K.K.K.K.K.K.K.K.K.K.K.K.K.D.D.D.A.A.A.M.D.D.D.D.A.N.N.m.N.m.m.v.v.v.v.v.c.d.a.a.a.s.a.a.a.a.a.h.x.s.>.:.&.=.a.c.m.m.m.m.m.m.n.x.&.P Z C f s < < < < < 2 f f f f f f f s s s f f f f f f f f f 2 2 2 2 2 2 2 2 2 2 2 2 2 2 f 2 2 2 f C C C Z Z Z Z Z C S P ..$.$.X.[ v i * $ $ = = * 5 5 t t 0 * * $ $ $ $ $ - - - - - - - - - $ $ & = & $ $ $ - -   . .         .   - $ 5 w u j j k k k x x k k j u 5 & ",
"m m m m m m D D L ] ] ] ] ] [ [ | | } } }  . . .O. .O.O.*.5.b.^.|.gXMXAXAXAXAXAXZXZXGXGXGXGXGXGXZXZXAXAXZXZXGXGXGXGXZXZXGXGXGXGXZXZXGXGXGXGXGXGXGXGXGXGXZXZXZXZXZXZXAXnXcXxXpXuXiXiXwXwXiXuXuXxXnXCXAXAXZXAXpX2X]._._._._._._.oX_._.+X+X+X+X+X$X#X$X$X#X#X#X+X#X#X#XOXOXOXOXOXOXoXoXoXoXoXoXL.L.K.K.K.K.D.A.M.M.N.m.m.j.g.f.f.f.p.p.p.p.f.g.g.g.g.f.m.f.g.k.f.f.f.f.f.f.j.k.m.m.m.m.m.M.A.M.M.M.A.M.k.M.M.k.A.A.m.k.M.M.f.f.j.j.m.M.j.j.f.m.g.f.r.f.g.r.p.T p.r.r.r.r.r.t.t.p.g.g.f.f.f.d.d.d.d.f.f.f.f.f.p.u.p.r.r.r.r.r.r.&.&.&.-.-.T -.T R Y Y Y Y Y Y J G G J J Y Y Y G J G G A Y Y Y Y J J Y Y Y Y -.T Y Y R T T T T &.r.r.r.r.r.t.t.t.t.t.u.u.u.u.u.u.u.u.u.u.f.u.u.u.u.f.j.j.j.j.f.f.f.f.u.f.u.f.f.f.f.f.j.k.m.m.M.M.M.M.A.J.J.J.J.J.K.K.K.K.K.K.K.K.K.K.K.K.D.D.D.D.A.D.D.A.D.D.D.D.A.N.N.N.N.m.m.v.v.v.v.v.d.d.a.s.s.s.a.a.a.a.a.h.x.s.>.:.&.%.a.c.v.m.m.m.m.m.n.s.$.S C f f 2 < < < < < 2 f f f s f s 2 2 2 2 2 2 f f 2 2 2 2 2 2 2 2 2 2 2 2 2 2 2 f 2 f 2 2 2 2 2 2 2 C C Z Z Z C C f C C S P X.X. .[ M a : = % = = * * 5 5 5 5 * & $ $ $ $ $ - - - - - - - - $ $ & & $ $ $ - -     .         .     - $ 5 w u j j j x x b b k k j u 5 & ",
"M M m m m m D L ] ] ] ] ] ] | | | | } }  . . . .O.X.X.O.*.6.~.{.fXbXSXFXAXAXAXZXZXZXGXGXGXGXGXGXZXZXAXZXZXGXGXGXGXGXZXZXZXZXGXGXZXZXGXGXGXGXGXGXGXGXGXGXZXZXZXZXZXZXCXvXxXzXuXuXiXwXwXiXiXpXxXmXVXAXAXZXZXZXCXxX$XG._._._._._._._.F.oXoX+X+X+X$X#X$X$X$X$X+X#X#X#XOXOXOXOXOXoXoXoXoXoXoXoXoXL.K.K.K.K.D.A.M.M.N.m.m.j.f.f.f.f.p.t.t.t.t.f.f.g.f.p.m.g.f.g.j.u.f.f.g.f.f.j.k.k.k.k.j.k.M.M.M.M.M.M.k.A.M.j.M.A.A.j.m.A.j.f.j.m.m.M.M.g.g.u.f.r.t.t.f.p.r.T T R r.r.&.r.&.t.r.r.f.f.p.p.f.f.f.d.f.f.f.f.f.p.p.p.t.r.r.r.r.r.r.r.&.&.-.-.T R R R Y Y Y J J J J J A J J J A G G J J J A A Y Y Y J A J Y Y Y -.T T Y R T R R T &.r.r.r.r.r.t.t.t.u.u.t.t.u.t.t.t.t.t.t.t.u.u.u.u.u.u.j.j.j.j.f.f.f.f.t.f.t.f.f.f.u.f.f.j.k.m.M.M.M.M.M.M.A.J.J.J.K.K.K.K.K.K.K.K.K.K.D.D.D.D.D.D.A.D.D.Z.A.N.A.D.A.N.N.N.m.m.v.v.v.v.v.c.d.a.a.s.i.i.s.s.a.a.a.x.a.s.>.:.&.%.a.c.v.m.m.m.m.m.x.=.#.Z f f s < < < < < < 2 s f s s f s 2 2 2 2 2 2 f f 2 2 2 2 2 2 2 2 2 2 f 2 2 2 2 2 2 2 2 2 2 2 2 2 2 C C Z Z Z C C 2 2 2 f F L  . .+. .] v 0 = % & = * * * * * * & & & $ $ $ $ $ $ - - - - - $ $ $ $ $ $ $ -     . . . . . . .     - & 5 w u j j j b x x b k k j u 5 & ",
"M M m m D L L ] ] ] ] ] | | | } }  . . . . .O.O.+.O.X.;.9.C.'.rXbXSXAXAXAXAXAXZXGXGXGXGXZXZXZXZXZXZXZXZXZXZXZXGXGXGXGXGXGXGXZXGXGXGXGXGXGXGXZXZXGXGXZXZXZXZXZXZXZXAXVXvXuXuXuXeXeXwXwXuXuXxXcXnXCXAXZXZXZXZXAXmX5X_._._._._._._._._.oX+X+X+X+X$X$X$X#X#X#X+X+X#X#X#XOXOXOX+XoXoXoXoXoXoXoXL.L.K.K.K.D.M.M.N.m.m.g.g.f.f.f.f.p.t.r.r.r.r.f.g.d.f.p.p.f.g.f.f.r.p.f.f.t.j.j.k.f.k.j.g.j.k.m.A.m.M.m.m.M.j.j.m.m.j.k.m.m.k.f.f.f.m.m.m.j.u.t.u.r.r.g.p.p.T Y T -.y.&.T r.T T r.r.p.p.t.y.p.p.p.p.p.f.f.f.f.p.p.p.t.t.r.r.r.r.r.&.&.&.T T R Y Y Y Y Y Y J A A A A A A A A A A A A A A A A I Y Y J A J J J J R R R Y Y R Y Y T &.r.r.T r.r.r.t.u.t.t.t.t.t.t.r.t.t.t.r.t.t.u.u.u.u.u.u.u.r.f.u.f.f.f.r.t.r.T u.f.t.f.u.u.f.M.m.m.m.M.M.M.A.A.J.J.K.K.K.K.K.K.K.K.D.D.D.D.D.A.A.A.A.A.D.D.M.m.Z.A.A.Z.m.m.m.m.v.v.v.v.c.d.a.a.a.s.i.i.s.s.s.s.a.a.z.s.z.s.%.i.a.c.v.m.m.m.v.v.a.#.S Z f s s y y < y < 2 2 f f s 2 s 2 2 < 2 2 2 2 f f f f s 2 < < < 2 2 2 s s 2 2 f f f f 2 2 2 2 2 2 2 C C Z Z C C C 2 2 < 2 g g F [  .*.0.+.X.d & $ * * = = = * = = = = = = & & & = & $ $ - $ $ $ $ $ $ $ $ X   . . . . . . . .     $ = 5 t i j j j j j k x x j l u 5 & ",
"M m m m D L ] ] ] ] ] ] | } }  . . .O. .O.O.O.O.+.+.*.5.C.).1XfXSXAXAXAXAXAXZXGXGXGXGXGXZXZXZXZXZXZXZXZXZXZXGXGXGXGXZXGXGXGXZXGXGXGXGXGXGXGXZXZXGXGXZXZXZXZXZXZXAXVXvXzXuXuXeXwXwXwXeXuXuXvXvXVXCXAXZXZXZXZXAXnX$X_._.S.S._._._._.oXoXoX+X+XoX+X#X$X#X#X+XoXoX+XOXOXOXOXOXOXoXoXoXoXoXL.L.L.K.K.K.A.A.M.m.m.g.g.d.d.f.f.p.p.t.r.r.r.r.r.p.g.d.p.t.p.p.p.f.p.r.f.f.f.p.f.f.j.f.j.f.f.g.m.m.M.m.m.j.M.j.j.m.j.f.k.k.j.f.j.u.t.m.m.m.f.u.t.u.r.R y.p.p.T T R r.T y.T T r.T T r.&.t.r.r.r.y.y.y.p.u.f.f.f.f.f.p.p.t.t.r.r.r.r.%.%.&.-.T R R Y Y Y Y Y Y A A A A A A A A A H A A A A A A A A I Y J A J H A J Y -.Y R Y J R Y T &.r.&.T T T &.r.r.r.r.t.t.r.r.r.r.t.t.r.r.t.t.u.t.t.t.t.t.r.u.r.t.p.f.r.r.r.T r.p.r.p.u.t.t.f.m.m.m.M.M.M.M.A.D.J.J.K.J.J.K.K.D.D.D.D.D.D.D.D.A.A.A.A.D.D.Z.M.Z.A.A.Z.m.m.m.m.v.v.v.v.d.d.a.a.a.s.i.i.s.s.s.s.a.a.z.z.x.z.=.s.a.c.v.m.m.m.v.c.:.U S F g g s y < < y y y 2 2 2 s 2 s 2 2 2 2 2 2 2 f f f f 2 2 < < 2 2 2 s f f 2 2 f f f f 2 < 2 2 2 f C C Z C C C C C f 2 < < s s d g *.*.5.5.0. .M t = & = * = = = = = = = = * * * * * = & $ $ & & & $ $ $ $ X   . . .           - $ = * w u l j j j j j k k k j u 5 & & ",
"m m m D L ] [ [ ] ] [ | | }  . . . . . .O. .O.O.+.+.;.8./.}.qXSXAXAXAXAXAXAXZXGXGXGXGXGXGXZXZXZXAXZXZXZXZXZXZXGXZXZXZXZXGXGXGXGXGXGXGXGXGXGXZXZXGXGXGXZXZXZXZXAXCXnXvXuXuXeXwXwXwXwXiXuXxXcXVXAXAXZXZXZXZXZXZXnX$X_._.G._._.F.D._.oXoXoX+XoXoXoX+X$X#X#X+XoXoX+X+XOX+X+XOX+XoXoXoXoXL.L.L.K.K.D.A.A.M.m.m.g.g.d.p.p.p.p.p.t.r.r.r.r.r.r.p.d.p.y.y.p.y.r.p.u.r.g.p.p.g.p.p.g.u.f.u.f.g.m.m.j.m.k.f.m.g.f.k.f.f.k.j.u.t.f.f.g.u.j.f.r.r.p.p.Y &.&.r.r.R R y.R r.%.T &.r.T &.r.r.r.&.-.r.p.y.r.r.p.p.f.f.f.p.p.p.t.t.t.r.r.r.%.r.&.T T R R Y J J G J A A A A A A A A A H H H A A A A H H A A I J A J A H G Y R J Y Y J Y Y T T r.&.T T R T T r.r.r.r.r.r.r.r.r.t.t.r.r.t.t.t.t.t.t.r.t.w.t.r.r.r.t.p.r.r.r.r.y.&.r.t.r.r.t.g.m.m.m.m.M.M.A.D.D.D.D.D.D.D.D.D.D.D.D.D.D.D.D.D.A.A.A.D.D.A.Z.Z.A.A.N.m.m.m.m.v.v.v.c.d.d.a.s.s.i.:.:.s.s.s.s.a.a.z.z.z.s.=.s.d.c.v.m.m.v.c.a.&...P F g d s y y y y y y 2 s s s 2 2 2 2 < < < 2 2 f f f f s 2 2 2 2 2 s f f f 2 f f f f 2 2 2 2 2 f C C Z C C C C C C C f s y y a s s D *.6.5.5.5.+.) d t : * = = = = = % = * 5 5 t t 0 5 * = = = = = = $ $ $ X   . . .     - - $ & = 5 5 u i j j j j j j k k j l u & # @ ",
"m m m D ] ] [ [ [ [ | | } }  . . . . . .O.O.O.O.X.*.6.~.'.qXfXZXAXAXAXAXAXAXZXGXGXGXGXGXGXZXZXZXZXZXZXZXZXZXZXGXZXZXZXZXGXGXGXGXGXGXGXGXGXGXZXZXGXZXZXZXZXZXAXVXnXcXzXuXuXwXwXwXeXiXuXuXcXnXCXZXAXZXZXAXZXAXAXmX5X_._._.F._._._.F.oXoXoXoXoXoX+X#X#X#X#X#X+X+X+X+X+X+X+X+X+XoXoXoXL.L.L.L.K.D.D.M.M.m.m.g.d.d.d.a.s.i.y.r.r.r.r.r.r.r.r.p.p.s.i.r.y.%.r.y.p.t.g.p.p.m.p.p.f.p.f.r.f.m.m.m.f.m.g.f.g.m.f.f.k.j.f.g.r.r.f.m.g.p.r.r.T &.d.r.T &.R &.R T Y a.T T %.T r.y.T r.T y.&.T R &.y.r.r.y.p.p.f.f.f.f.p.p.p.t.t.r.r.r.r.&.&.R R Y Y J A A A A A A A A H A A A A H H H H H A H H H A A J J A A Y A G Y Y R J J Y Y Y R R -.-.T T T R T T &.&.&.r.r.r.r.r.r.r.r.r.t.t.t.t.t.t.r.r.T r.T &.&.r.p.r.T r.&.r.T r.r.T T r.p.g.m.m.m.M.M.Z.A.A.D.A.A.A.D.D.A.A.A.A.D.D.D.D.A.A.A.A.A.A.A.A.A.A.A.N.m.m.m.m.v.v.g.d.d.a.a.s.s.i.:.:.s.s.s.s.s.s.s.z.:.=.$.%.d.c.c.v.v.n.x.>.#...P F g g d y y y y y y y y 2 2 2 2 2 2 < < < 2 2 f f f s 2 2 2 2 2 2 s f f f 2 2 f 2 2 2 2 2 2 2 C C C C C C C C C C C f f s s s a a y v +.9.5.5.5.5.+.[ z 0 = = = = = = * * 5 t t t t t 0 0 5 5 5 5 * = % $ X   . .     - - & & * 5 w w i i j j j j j j j j j u 5 & @   ",
"m m m L ] | | | | | } } }  . . . . . .O.O.O.O.+.;.6.C.`.3XfXNXCXAXAXAXAXAXFXGXGXGXGXGXGXGXZXZXZXZXZXZXGXGXGXZXZXZXZXGXGXGXGXGXGXGXGXGXGXGXGXGXGXZXZXZXZXZXAXAXnXcXxXuXiXwXwXwXeXiXiXuXxXnXCXZXZXZXZXZXAXAXAXCXpX$XG.S._.G.F._._._.oXoXoX+XoXoX+X+X+X+X#X#X+X+X+X+X+X+X+X+XoXoXoXL.L.L.K.D.D.A.A.M.m.m.g.d.d.s.i.i.r.%.%.%.%.%.%.&.&.%.r.i.r.p.y.%.s.&.r.%.r.p.y.p.v.d.d.p.p.r.r.r.f.m.m.g.f.u.r.m.m.g.p.f.f.p.k.R r.r.g.g.p.&.T &.y.&.r.T -.&.T Y R A i.&.&.&.%.&.r.r.-.&.&.&.T T Y &.r.r.r.t.t.y.p.p.f.f.f.f.p.p.t.r.r.%.&.T R R Y Y Y J A A A A A A A A H A H H A H H A H H H H A H H A G G A A Y A G J Y R J J Y Y Y Y Y T &.-.&.Y T T R r.&.-.r.r.&.r.r.r.r.r.r.r.r.r.p.p.t.r.r.T T T -.T R %.&.T r.R T R T y.r.r.-.r.p.d.g.m.m.m.m.M.M.A.A.A.A.A.A.A.A.D.D.D.D.A.A.A.A.D.A.A.A.A.A.A.A.Z.m.m.m.m.m.v.c.d.p.a.s.s.s.s.i.i.i.i.i.s.s.s.s.s.s.:.=.#.#.a.c.c.d.v.c.:.$.P [ [ D g g s s y 2 2 2 < < y y y y y y y y y 2 2 2 y s s s 2 < 2 2 2 2 2 2 f f f f f f 2 2 2 2 f f f f f f f f f C C C C C g f s s y 1 y s v X.5.6.6.9.5.*.| M $ - $ * * * * * t t t u i i u t u 0 t t 0 * = % $ -       - - $ & 5 5 w w u i i j j j j j j j j j u 5 & @   ",
"m m L ] | | | | | } } } }  . . . . . .O.+.+.+.;.9.~.`.3XwXvXAXAXAXAXAXAXZXGXGXGXGXGXGXGXZXZXZXZXZXZXGXGXGXGXGXZXZXZXGXGXGXGXGXGXGXGXGXGXGXGXGXZXZXZXZXZXAXAXCXvXxXuXiXeXwXwXwXeXuXuXxXvXVXAXZXZXZXZXZXZXAXAXCXuX].G.S.G.G._._._._.+XoX+X+X+XoX+X+X+X+X+X+X+XoXoXoXoXoXoXoXoXoXoXL.L.K.D.D.A.A.M.m.m.g.d.a.p.i.i.&.&.-.-.&.&.%.%.&.&.&.%.r.%.s.r.%.&.%.&.r.s.i.&.p.g.a.a.y.p.r.r.r.p.v.g.r.r.y.p.g.g.p.p.y.p.g.r.w.p.f.m.f.r.r.r.y.T r.T T r.%.Y R &.Y T %.R %.Y T i.T &.R %.Y T R Y T &.&.&.r.r.r.r.t.y.p.f.f.f.p.t.r.r.&.-.T Y Y Y Y Y Y J A A A A A A A H A H H A V H A H V H H A A H H A A A A A A G G A Y J J Y G J Y Y T -.&.r.T -.T T R r.R t.T -.&.&.&.r.r.r.r.r.r.p.p.t.r.&.R R T &.T T &.&.R r.R &.R R r.r.-.-.T r.r.r.f.m.m.m.m.M.M.Z.D.D.A.A.A.A.D.D.A.A.A.A.A.A.A.A.Z.Z.Z.Z.A.Z.m.m.m.m.m.m.v.g.d.p.a.s.s.s.s.s.s.s.i.i.i.i.s.s.s.s.z.>.$.=.i.d.v.c.c.>.$...L L D v v d s s y y 2 2 < 2 y y y y y y y y y y 2 2 s s 2 2 2 < 2 2 2 2 2 2 f f f f f f f 2 2 2 f f f f f f 2 f f C C C C C g f s s y 1 : y y v ] *.6.9.9.5.*. .v t % % * * * * 5 t t i i i i i i i i i t * * = = $ -     - $ & * 5 w t u i i i i i j j j j j j j u 5 & @ @ ",
"D m L | | | } } } } } }  . . . .X.X.O.O.+.;.5.8.~.`.3XeXxXAXZXAXAXAXAXAXZXGXGXGXGXGXGXGXZXZXZXZXZXZXGXGXGXGXZXZXZXGXGXGXZXZXZXZXZXZXGXGXGXGXZXZXZXZXAXAXCXCXVXvXuXuXeXwXwXwXwXiXuXxXxXnXAXZXZXZXZXZXZXZXAXAXCXuX_.G._._.G._._._._.+X_.+X+XoXoX+X+X+X+X+X+XoXoXoXoXoXoXoXoXoXoXK.K.K.D.D.D.A.M.M.m.g.d.a.i.i.%.&.&.&.-.&.&.%.%.%.U -.&.&.&.%.s.&.&.T %.&.i.i.i.&.i.d.p.i.r.p.y.T r.a.d.p.g.d.p.f.f.p.r.r.&.p.f.R y.d.f.v.a.r.&.r.&.&.&.R T i.T I &.&.Y Y %.Y T A Y %.R T R %.Y T Y Y Y &.R T T &.&.&.r.r.r.y.p.p.p.t.r.r.&.T R Y Y Y Y Y Y G A A A I I A H A H H H A V H Z H H A H A A H H A A A A A Y G G A A G G A J A J T R T -.T r.&.T &.R T Y r.R T T T T T &.&.r.r.r.t.t.r.r.T Y Y R T &.&.&.T Y &.&.&.Y Y &.r.R T T &.&.T r.f.g.g.g.m.M.M.A.A.A.A.A.A.A.A.A.A.M.A.M.M.M.M.M.M.Z.M.M.m.m.m.m.m.m.v.c.d.d.d.a.s.s.i.i.s.i.i.i.i.s.s.s.s.s.s.>.*.#.s.a.c.c.a.i.$...P [ D v v v d s y y y y y 2 2 y y y y 2 2 y y y y 2 2 2 < 2 2 < 2 < < 2 2 2 2 s f f f f f f f f f f f f f f f f f f g C C C C g s s s y 1 : : y y a | 5.8.b.8.9.*.O.D a t 1 : * * * * t t i i j j i i i i i t * * = = $ - - $ & * 5 5 w u i i j i p j j j j j j j u w & $     ",
"D L ] | | | } } } } } }  . . . .X. .O.O.;.5.8.~.}.0XfXvXCXZXZXZXAXAXAXAXFXGXGXGXGXGXGXZXZXZXZXZXZXZXZXGXGXZXZXZXGXGXGXGXZXZXZXZXZXZXGXGXGXGXZXZXZXZXAXAXCXVXvXzXuXiXwXwXwXwXwXuXuXxXmXAXZXZXZXZXZXZXZXZXAXAXCXuX(.(._._._._._.]._._._.oXoXoXoXoX+X+X+X+X+XoXoXoXL.L.L.oXoXoXK.K.K.D.D.D.D.Z.M.m.c.d.p.s.%.&.&.&.$.$.$.&.&.%.%.%.Y -.-.&.&.%.s.-.&.&.&.&.i.&.%.a.%.h.i.y.&.p.y.R %.p.a.y.r.y.a.d.y.r.&.r.&.y.T T y.p.p.d.r.%.&.r.Y R d.Y T &.Y Y &.Y Y %.Y Y Y Y Y T T R &.&.&.&.Y R Y &.R T T T T T T -.&.r.t.p.p.r.r.&.T T Y Y Y Y Y Y Y A A A A I Y A H A V H A A V H H V H A A A A H H A A A A A G A A A A G G A A A A R Y R R R &.-.T &.r.J Y &.T R R T T T T T &.&.r.r.r.&.&.T Y Y Y U &.&.T U Y &.%.%.Y Y T i.Y T R T T R T r.f.d.g.g.m.M.M.M.M.M.M.M.M.M.M.M.M.M.M.M.M.M.M.M.m.m.m.m.m.m.v.v.v.c.g.d.d.a.p.s.i.:.i.s.s.s.s.s.s.s.s.>.s.s.>.#.P >.n.v.x.=.$.#.P S D D v v d s s y y y y y 2 2 < y y y 2 2 y y y < < < < < 2 2 < < < < 2 2 2 2 s s f f f f f f 2 2 2 f f f f f f f C C C C C C g d s s y < 1 : : y a D +.9.b.b.b.9.5.O.[ M c a * * 5 5 5 t u i j j j j j j i i t * * = = $ $ & * * 5 w w i i i j j p p j j j j j i u 5 & -     ",
"D L ] [ | } } } } }  . . . .O.O.O.O.+.*.9.C.).|.fXgXvXCXAXZXZXZXZXZXZXZXZXGXGXGXGXGXGXZXZXZXZXZXZXGXGXZXGXGXZXZXZXZXZXZXGXGXZXZXGXGXGXZXGXGXZXZXZXZXZXAXCXnXxXzXuXwXwXwXwXwXuXuXcXnXVXZXZXZXZXZXZXZXZXZXAXCXmX2X_._._._._._._._._._._._.oXoXoXoXoXoX+X+XoXoXoXoXoXoXoXoXoXK.K.F.F.D.D.D.A.M.m.m.g.p.p.i.&.&.R U U $.$.&.&.%.=.=.U #.$.&.%.&.:.-.&.:.-.U %.U &.a.a.s.%.&.r.p.T &.s.%.%.s.i.d.p.y.%.%.%.%.y.r.&.&.c.&.y.&.R s.A &.A i.%.R R Y Y R R G Y R U Y G T Y Y Y Y R T R T Y Y %.T R R T R Y R R T T T r.y.f.r.r.&.T R Y Y Y Y Y Y G A A H A J Y H H H H H A A H Z C V C Z A A Z H H H H H A A A A H A A A A A A H A Y Y R R R T T -.&.&.&.R R T Y Y -.-.R R T -.&.&.&.p.-.R R Y Y I R &.&.U U -.I -.&.Y Y A &.U T R &.r.T R r.r.d.f.g.m.m.m.m.m.M.M.M.M.M.M.M.M.M.M.M.M.M.m.m.m.m.M.m.m.m.m.m.g.g.d.d.d.p.i.s.i.%.i.s.s.s.s.s.s.i.s.>.:.:.>.P Z $.>.=.$.$.#...S D F v v v d s s y y y y y < < y y y y 2 2 y y < < < < < < < < < 2 2 2 2 2 2 2 s s f f f f f f f 2 2 f C C C C C C C C C C C g g s s s y y y y < < y D *.8.!.!.C.b.6.;.+.X.] c i * = * * 5 t u i i j j j j p i u 0 5 = = & & & * * 5 w t i i i j i l l i p j j j u 0 5 & $ -   ",
"L ] ] [ | } } } } }  . . . . .O.O.+.5.9.!.).|.rXMXSXSXZXAXAXAXAXZXZXZXZXZXGXGXGXGXZXZXZXZXZXZXZXZXZXGXZXGXGXZXZXZXZXZXZXGXGXZXZXGXGXGXZXGXZXZXZXZXZXAXCXnXcXzXuXeXwXwXwXwXuXuXxXvXVXAXZXZXZXZXZXZXZXZXZXnXnXxX2X].S.S.G.G._.S.G._.]._._._.oXoXoXoXoXoXoXoXoXoXoXL.L.oXoXL.F.F.D.D.D.D.Z.N.m.m.g.d.p.r.%.&.&.R U U R $.&.&.&.&.$.$.#.&.&.&.s.&.&.U %.&.&.&.Y %.s.a.i.%.&.&.a.R %.i.%.%.i.i.i.d.i.y.y.y.y.&.&.T T &.i.&.Y R &.&.G Y %.%.Y Y Y Y Y Y U Y U Y Y G Y Y Y Y Y Y &.&.Y Y Y &.T Y T R Y Y Y R R T T r.y.f.r.r.&.T Y Y Y I I I J J A A A A G G H Z H Z H A A Z H C V H Z A A H A H C H H H A A A A A H A A A A H A J Y R R T R R T -.&.&.T J R Y Y R -.R R R T -.T r.-.&.Y Y Y Y U A -.&.&.I Y Y Y &.U I U A Y T Y -.&.T T -.T r.y.p.g.k.m.m.m.m.m.m.M.M.M.M.M.M.M.M.M.m.m.m.m.m.m.m.m.m.c.g.g.g.d.d.a.s.i.i.%.i.s.s.s.s.s.s.s.i.>.:.>.>.>.P Z ..........[ S F F F F F v v d s y y y y y < < y y y y 2 2 y y y < < < < < < < < 2 2 2 2 2 2 2 s s f f f f 2 2 2 2 2 f C C C C C C C C C C f f f s y y y y a a s y s L *.8.!.!.C.8.6.5.;.;.+.] c i * = * * 5 t u i p j j j p i i 0 0 5 = = $ & * * 5 w t i i i i i l l i j j j i u 5 5 & $ -   ",
"] ] | | } }  .}  . . . .X.X.X.O.*.6.b.~.`.3XrXbXSXCXAXAXAXAXAXZXAXZXZXZXGXGXGXGXZXZXAXAXZXZXZXZXZXZXZXGXGXGXZXZXZXZXZXZXGXGXZXZXZXGXZXZXGXZXZXZXZXZXAXnXcXxXuXuXwXwXwXwXwXuXuXcXnXAXZXZXZXZXZXZXZXZXZXZXZXAXxX<X,XV.V.S.G._.S._._._.D.D.F._.oXoXoXoXoXoXoXoXoXoXL.L.L.L.L.F.D.D.D.A.Z.Z.m.m.g.g.p.r.%.&.&.&.R R U R $.$.$.$.$.$.#.U &.$.%.a.U &.U =.&.=.-.U %.i.s.i.&.T &.i.&.i.&.%.%.&.i.i.h.%.%.%.%.%.%.%.i.i.Y i.T Y Y &.Y A R &.%.Y Y Y Y Y Y i.U U G R G Y Y Y Y Y Y &.&.Y Y R &.Y Y Y Y I I Y Y R T T r.y.f.r.r.&.T Y Y Y J J J J G G A A A G A A A A A H H H A H Z H A A A G H A H C H H A A H A A C Z A A A A H A T J T -.T R Y R T T T Y R A R R Y Y R R R T &.R &.U U Y Y Y U &.A U R R A Y I A U -.A &.A G Y Y -.-.-.-.T T T &.r.p.f.m.m.m.m.m.m.M.M.M.M.M.M.m.m.m.m.m.m.m.m.m.m.m.g.g.g.g.g.d.d.p.s.s.i.i.s.s.s.s.s.s.s.>.>.>.>.>.>.>.#.S S S S D L L D D F D D D D v g d s y y y y y y y y y y y 2 y y y y < < < < 2 2 2 2 < < 2 2 2 2 y s f f f f f f 2 2 2 2 C C C C C C C C C f f f s y y y y y a a s s g L *.9.b.b.9.5.;.;.5.6.6.+.] v t = = * = * t t p p j j j p i t 0 * * = & & * * 5 5 t i i i i i l l l j j i i u 5 * & $     ",
"] ] | } } }  .} }  . .X.X.X.X.X.5.b./.}.0XgXvXNXCXCXAXAXAXAXAXAXAXAXZXZXGXGXGXGXZXZXAXAXZXZXZXZXZXZXZXGXGXGXZXZXZXZXZXZXGXGXZXZXZXGXZXZXGXZXZXZXZXAXCXnXcXzXuXeXwXwXwXwXuXuXxXnXVXAXZXZXZXZXZXZXZXZXZXZXnXAXZXxXwXV.V.G._._.G._.].F.F._._._.oXoXoXoXL.oXoXoXoXoXK.K.L.L.F.D.D.D.D.Z.Z.Z.m.m.g.f.t.r.%.&.&.&.R $.U -.U $.&.$.$.#.#.P :.$.=.%.U &.U %.&.&.-.-.i.%.i.%.&.U &.T i.r.&.%.%.&.%.h.i.i.T T T T T &.&.%.T %.&.&.Y Y I I &.T &.Y Y R Y Y Y a.Y Y A Y G A Y Y Y Y Y Y R Y R R T Y I Y Y I A I Y Y T T r.t.p.r.r.r.R Y Y Y Y J J J J G G A A G H A G G A A C V A Z H H A A A G H H H H H H A A H H H V A A A Z H A A Y Y T T -.R Y R R R R J Y Y J R Y J -.Y Y R -.Y Y -.Y U Y U U U I Y U Y I U A G A U Y U Y H Y Y U U Y %.T T Y T &.r.p.j.j.j.m.m.m.M.M.M.M.M.m.m.M.m.m.m.m.m.m.m.k.g.g.g.g.g.g.d.d.s.s.i.i.s.s.s.s.s.i.s.s.>.>.>.>.,.,.=...S F g Z S S L D D F D D D D D F v d y y y y y y y y y y y 2 y < < 2 y y y y 2 2 < < < < 2 2 2 2 y y s f f f f 2 2 2 2 2 C C C C C C C C f f f f s y y y a y a a s a g L *.6.5.5.;.X.X.*.;.6.8.6.+.[ d t * % = = * t i i p p p p i i t * * = = = * * 5 w t i i i i i l l l j i i u t 5 * $ $     ",
"] [ | | }  . . .}  .X.O.+.X.*.6.C.).}.rXbXNXNXCXCXCXAXAXAXAXAXAXAXAXZXZXGXGXGXZXZXZXZXZXZXZXZXZXZXZXZXZXGXGXZXZXZXZXZXZXZXZXZXZXZXZXGXZXZXZXZXZXZXAXnXcXxXzXuXwXqXtXqXwXuXuXcXVXAXZXZXZXZXZXZXZXZXZXZXZXAXZXZXnX<XS.V.V._._._.]._.F._._.oX_.oXoX_.D.F.oXoXoX_.F.oXoXoXF.F.D.D.D.A.Z.Z.m.m.g.d.p.r.r.%.%.&.$.$.$.$.$.U $.$.:.$.U #.U :.#.=.$.#.$.$.=.$.&.-.&.i.=.&.%.c.i.s.U %.Y &.&.&.&.i.&.%.R R R R R i.&.&.i.T R %.Y &.%.Y Y -.%.R Y Y R R Y -.&.A I Y Y Y Y Y Y Y Y Y I Y Y R Y r.Y I Y I I A I Y Y T &.r.t.f.f.r.r.T R R Y Y J Y G G G A A A G H A G G A A H V A H A A A A Z A A H H C C Z A A Z Z H H A A A A H A A A R Y T R T Y R Y Y T J Y R J J Y J A Y Y Y G Y G G Y U U I #.#.I U I C A I A G A I &.Y -.Y V G Y Y Y -.U T J R -.-.r.g.g.g.m.m.m.m.m.m.m.m.m.m.M.Z.m.m.m.m.m.m.g.g.g.f.f.f.f.d.d.s.s.s.i.i.i.i.s.s.s.s.s.:.>.>.>.,.=.$.S F f f g g g F F D D D .. .| L D v d s y y y y y y y y y y < < < < 2 y y y f s 2 < < < 2 2 2 2 2 y y s s s f 2 2 2 f f f C C C C C C C f f f f f f y y a a a a a a a g D [ X.[ | [ L D ..*.6.!.!.b.6. .L y * 1 : : t t i i p p p p a t : * = & * * * 5 t t u i i i i i i l l i i u u 5 & $ $     ",
"] | | | }  . . . .X.X.+.+.*.6.b.).|.rXbXCXCXCXCXCXAXAXAXAXAXAXAXAXAXZXGXGXGXGXZXZXZXZXZXZXZXZXZXZXZXZXZXZXGXZXZXZXZXZXZXGXGXZXZXZXZXGXZXZXZXZXZXAXCXnXcXxXkXeXwXtXtXwXwXuXxXnXVXAXZXZXZXZXZXZXZXZXZXZXZXZXZXAXuX_.(.V.V._._._._._._.F._._._.oXoX_._._.oX_._.F.F.oXoXF.F.F.D.D.A.Z.Z.m.m.g.d.p.y.r.r.%.%.&.$.$.=.$.$.U $.$.:.$.#.#.#.:.$.$.#.U U -.&.#.&.#.&.=.%.T s.a.-.&.&.U U &.&.&.&.%.&.&.U R R R R %.&.&.%.R &.&.R T &.Y Y &.&.Y &.Y U R Y -.&.Y Y Y Y G Y Y Y Y Y Y Y Y Y Y T R Y Y I I I A I Y Y T r.t.p.g.u.p.r.r.T Y I J J G Y I A A A A A A A G G A A A A A A H Z Z Z A A A C V V V H Z C C Z Z A A A A A H A A A Y Y -.%.T R Y Y Y T J Y G Y G Y G G Y G -.G Y G G U P A U U U Y U G Z A G A Z I A -.Y -.Y H A Y Y Y U R -.Y Y Y R -.f.f.g.m.m.k.k.m.m.m.m.m.m.m.m.m.m.m.m.m.m.g.g.g.g.g.g.g.d.d.a.s.s.i.i.:.i.i.i.s.s.>.:.:.:.>.>.,...Z Z f s f f g g F D L ..X.X. .[ D v d s s s s y y y y s s y y 2 2 s s y y s s s 2 < < < 2 2 2 2 2 y y s s 2 2 2 2 2 2 f f C C f f C C C f f f f f f s y a a a a a a a d v L | | [ F g F ..;.x.~././.C.8.;.| v d y 1 1 y a i i p p p a t : * = = * * * 5 t t u i i i i i i l l i i u w 5 & $ $     ",
"[ | |  . . . . . .O.+.*.5.6.!.).1XfXMXSXAXAXAXCXCXAXAXAXAXAXZXZXZXZXZXGXGXGXGXZXZXZXZXZXZXZXZXZXZXZXZXZXZXZXZXZXGXGXZXZXGXGXGXGXGXGXZXZXZXZXZXZXAXnXcXzXuXuXwXqXtXqXwXeXuXcXVXAXZXZXZXZXZXZXZXZXZXZXZXZXGXZXCXwXzX'.n.S.S._._.G.G.F.F._._.F.oX_._.oXoXoXoXoXF.F.oXoXF.F.F.D.D.S.Z.m.m.g.d.p.y.r.r.r.%.%.&.-.$.=.$.$.U $.$.:.$.$.U $.=.$.#.U U U #.&.U #.-.&.&.-.-.a.i.Y -.%.Y &.T R R -.&.&.Y U -.-.R -.&.&.&.&.U &.-.U U &.Y Y &.&.Y &.Y U -.Y U U U Y G Y Y Y I I I Y Y Y Y Y T T A Y Y Y I I I Y Y T -.r.p.f.j.f.f.r.r.T R Y J J G Y I A A A G A G G G A A G G A A H Z Z C Z A Z H H V V V H Z C V H A A A A A A A A A A Y Y -.%.T R R R Y Y Y J Y Y Y Y Y A A Y A G Y A G I I A I U Y U A G A A A I C I Z I U #.U G Z Y G Y Y Y -.Y Y Y Y R r.p.f.g.g.m.m.m.m.m.m.m.k.k.k.m.m.m.m.m.m.g.g.g.g.g.g.g.d.d.a.s.s.i.i.:.:.:.i.s.s.:.:.:.:.>.>.>.P Z F f 2 s f f g F L [ X.*.+.X.| D v d s s s s s s s y s s f f s s f f y y f f f s < < 2 2 2 2 2 2 2 2 2 < 2 2 2 2 2 2 f f f C f f f f f f f f f f f s y a a a i a a a c F [ X.+.X.| F | *.9.C.~.(.).~.C.b.6.X...F s y y a i i p p a a t : * = * * * * 5 t t u i i i i i i l l i i u t 5 * $ $   - ",
"[ | |  . . . . .X.+.+.*.8.C.`.3XfXSXAXZXZXAXCXCXAXAXAXAXZXAXZXZXZXZXGXGXGXGXGXZXZXZXZXZXZXZXZXZXZXZXZXZXGXGXGXGXGXGXZXZXGXGXGXGXGXGXZXZXZXZXZXAXCXnXcXuXuXwX2X2XtXwXwXuXxXnXVXZXZXZXZXZXZXZXZXZXZXZXZXZXAXAXCXeXAX,Xn.(.V._._.S.G._._._._.D._.F._.oXoXoXF.F.F.F.oXF.F.F.D.D.A.Z.m.m.c.d.p.p.r.r.%.r.%.%.%.$.$.=.$.$.U $.$.=.$.$.#.$.&.$.#.U U U U #.U U #.&.-.-.-.s.-.U -.&.-.&.U U U U -.&.Y U -.U -.&.R &.&.R Y %.U R &.&.U &.-.%.R R Y Y -.Y U U -.U G Y Y I A A G A Y R I Y &.Y A J Y Y Y Y Y Y R T &.t.p.f.j.m.u.u.r.T T R R Y Y G G A A A G A Y J G G A G A A H H C C V Z A Z V H H H H A A Z Z A A A A A A A H A G Y Y R R R Y Y T T T Y Y J J Y Y G Y A A Y A A I A A I A G A P I U A G A Z A I A A A A I U U I A Y G G Y Y U Y Y Y I Y T r.p.g.g.g.k.k.m.m.m.m.m.g.k.m.m.m.m.m.m.v.g.g.g.g.g.g.d.a.a.s.i.i.:.:.:.:.:.s.s.:.:.:.:.>.>.>...S P F f f 2 s g F D ..X.*.+.X. .D v d s s s s s s s y s s f f s f f f f f f f f s 2 < 2 2 2 2 2 2 2 < < < < 2 2 2 2 2 f f f f f f f f f f f f f f f s s a a a a a a a d L +.5.6.6.5.;.5.9.C.~.^.~.(.~.V.C.b.x.>.*.P F y y y a a a a a t * * = * * * * 5 t t u i i i i i i l l i i u w 5 & $ $     ",
"| | }  . . . .O. .O.;.8.~.`.0XzXNXAXZXZXAXAXAXAXAXAXAXAXZXZXZXZXZXZXZXGXGXGXZXZXZXZXZXZXZXZXZXZXZXZXZXZXZXZXZXZXZXGXGXGXZXZXZXZXZXZXZXZXZXZXAXAXnXcXxXuXwXqX2X2XqXwXuXzXcXnXAXZXZXZXZXZXZXZXZXZXZXZXZXZXAXAXAXZXnX,Xn.V.V.V.S.S.S._._._._.D._._._.oXoXoX_.F.F._.F.F.F.D.D.Z.Z.m.m.v.d.d.p.i.%.%.%.%.%.%.%.&.&.$.$.$.U $.$.$.$.$.#.$.$.$.#.P U U U #.U U U &.$.-.#.U #.-.U Y &.-.U #.R R U R Y -.&.U -.&.-.&.&.%.&.U &.-.&.%.R &.Y &.&.-.Y Y I Y I Y Y Y G Y Y I G A A A Y T Y &.U I A I Y A A Y Y Y R T &.p.p.g.m.N.g.p.r.r.r.T T Y J A Y A A A A A J G G G A A A A A V V C C Z Z Z C H H H A A A H H A A A A A A A A A Y Y Y Y Y T Y Y T T T T R Y G G Y I Y A A A A Z G A A A A A A G G P A A A Z Z A A A A Z A I U I A G A A A I Y U Y I I H A &.p.p.f.f.g.g.m.m.m.m.m.g.k.m.m.m.m.m.m.m.g.f.f.f.g.d.d.a.s.s.i.:.:.:.:.:.:.:.:.:.:.:.>.>.=.$.P ..>.X.g s s f g F L | X.X... .F v g d s s s s s s s s s s s s s s f f f f f f f y 2 2 2 2 2 2 2 < 2 < < 2 2 s 2 2 2 2 2 f f f f 2 f f f f f f f f f f s a a a i i a a p L +.6.9.b.C.b.b.C.~././.C.b.b.~.V.V.V.C.>.=...L g a y y a a a t 0 * * * * * * 5 t t u i i i i i i i i i u t t 5 & $ -     ",
"| | }  . . .X.+.O.;.9.~.`.0XgXSXAXZXZXAXAXAXAXAXAXAXAXAXZXZXZXZXZXZXZXGXGXGXZXZXZXZXZXZXZXZXZXZXZXZXZXZXZXZXZXZXZXZXGXGXZXZXZXZXZXZXZXZXZXAXAXCXnXxXuXeXwX2X2XtXwXuXuXxXnXCXZXZXZXZXZXZXZXZXZXZXZXZXZXZXZXZXAXZXVX2XV.c.V.V.S.S.S._._._._._._._._.F.F.F._._.F.D.D.D.D.D.Z.N.m.m.v.g.d.p.s.i.r.%.%.%.i.%.%.&.&.#.#.#.P $.#.#.U U U $.$.$.#.I U U U U U I U $.=.#.U U #.-.Y Y &.U U -.-.R U -.Y -.&.U -.&.Y R %.s.U Y &.&.%.%.R &.U %.,.R Y U I I A Y Y Y A Y Y Y A A A A Y R Y T Y I J Y J J J Y Y Y R -.r.f.u.j.N.N.m.g.r.r.t.r.r.T Y A Y A A H A A J G G G A A A G A H C Z A Z Z A H V V Z A Z A H H A A A A A G A A G Y A Y Y J R Y Y Y Y R R R Y Y G G A G U A Z Z A A A A Z A A A A G G A A Z Z Z Z Z A Z A A G I G G G A A A A I P I A U I A Y &.y.f.f.f.g.v.m.m.m.m.m.m.m.m.m.m.g.j.m.g.f.f.f.d.f.d.a.s.s.i.:.:.i.>.:.:.:.:.>.:.:.>.=.$.#.S $.9.C.X.F g g g F L [  . .[ L F v g g s s s s s s s s s s s s s s f f f f f f f y 2 2 2 2 2 2 2 < 2 < 2 2 s f 2 2 f f f 2 f 2 f f f f f f f f f f g f s s a a a a a a < v +.6.8.C.C.C.C.~././.~.b.6.6.b.C.V.V.G.C.x.>.$...L v a y a a t 0 * * * * * * 5 t t u i i i i i i i i i u t t 5 & $ -     ",
"| }  . . .X.X.+.;.9./.{.0XgXSXZXZXZXAXAXCXAXAXAXAXAXAXAXZXZXZXZXZXZXGXGXGXGXGXZXZXZXZXZXZXZXGXGXZXZXZXZXZXZXZXZXZXZXZXZXZXZXZXZXZXZXZXZXAXAXCXnXcXzXuXwXtX2X2XqXrXuXzXnXNXAXZXZXZXZXZXZXZXZXZXZXZXZXZXZXZXZXAXZXVX2XV.c.V.S.(._.S._._.]._.oXoXoX_._.F.F.oXoXD.D.D.D.D.D.N.m.m.v.g.g.d.a.p.i.r.%.%.i.i.%.&.-.&.U U U P #.U U U U U U #.#.U U I U U U I P U #.&.U U U #.-.U U &.U #.-.$.U U &.Y U &.U &.&.Y R %.s.-.U &.&.%.%.R &.&.-.s.U Y Y I A A G Y Y G Y Y I G G A A I Y Y Y I A I J J Y Y Y Y Y T r.r.d.f.m.A.N.N.m.m.r.r.u.r.r.R I Y J A A A A G G G G G G A G A H C A A H Z Z A V C A A H H A A A A A A A A A G G Y A J J A R Y Y Y Y Y Y Y Y Y G Y Z I A P A C C C A A Z Z A A A A A A Z Z Z Z Z Z A C A Z A G I A Z Z A Z A A I G A U P I A Y %.f.f.f.g.k.k.m.m.m.m.m.m.m.m.m.g.g.m.m.g.f.f.d.f.d.p.a.s.s.i.s.s.s.s.:.>.:.>.:.:.=.$...P $.x.~.(.b.*.L F F F F L [ L L F M v g g g d s s s s s s s s s s s s f f f f f f f f y 2 s s 2 2 < < < < 2 2 s f 2 f f f f 2 2 2 2 2 f f 2 f f f f f g f y i a p a a s s < v X.;.6.b.b.b.b.C.C.b.b.6.*.6.6.b.(.V.(.G.C.x.6.;.X.[ v a y a t : * * * * * 5 5 t t u i i i i i i i i i u t t 5 & $ -     ",
" . . . .X.X.+.;.9.!.{.3XgXSXZXGXAXAXAXCXAXAXAXAXAXAXAXAXZXZXZXZXZXZXGXGXGXGXZXZXZXZXZXZXZXZXZXZXZXZXZXZXZXZXZXZXZXZXZXZXZXZXZXZXZXZXZXZXAXCXnXvXxXuXeXtX2X2X2XwXeXuXxXNXCXAXZXZXZXZXZXZXZXZXZXZXZXZXZXZXZXZXZXZXnX,Xn.V.s.n.V.V.S._._.].oXoXoXoXoXoXoXoXoXoXD.A.A.D.A.Z.N.m.m.v.g.d.d.a.i.i.r.r.r.i.i.%.&.#.$.U U U I #.U U U U P U #.U U U I P P P P P U U Y U U U U #.U U -.U -.#.U U Y &.U U &.Y &.R -.&.&.%.i.-.-.Y &.&.Y -.&.%.Y &.U Y I G A A G G A Y Y I G A A A J Y Y A I I Y Y J R R Y Y R -.y.y.d.f.m.D.M.M.M.m.m.f.T p.r.T R Y G A H A A A G G G G G G G A Z Z Z H A Z A H H V A A H H A A H H A A A A A A Y J A J J A Y Y Y Y J Y Y Y Y G A A A I A A G A Z Z C C C A A A A A A Z Z Z Z Z Z Z G V Z Z C A G A Z Z A A Z Z A I G P G I A A T a.f.g.g.g.g.g.g.k.k.m.m.m.m.m.g.g.m.m.g.f.f.d.f.f.a.a.s.s.s.s.i.>.>.s.z.:.:.:.:.$.#.P P *.(.'.|.).C.;...D F F F D F F F v v v c g g s s s s s s s s s s s s f f f f f f f f f f f f s 2 2 < < < 2 2 f f 2 f f f f 2 2 2 2 2 f C C C 2 2 2 f f f y y a a a y 2 2 f Z P X.;.>.6.>.6.x.9.6.6.6.*.6.6.b.V.(.G.G.V.x.C.x.;.X.[ v a y t : * * * * 5 5 5 t t u u u u u i i i i i u t 5 * & $ - -   ",
"X.X.X.X.X.+.;.9./.}.0XBXFXAXAXAXAXAXAXCXAXAXAXAXAXAXZXZXZXZXZXZXZXZXGXGXGXGXZXZXZXZXZXZXZXZXZXZXZXZXZXZXZXZXGXGXGXZXZXZXZXZXZXZXZXZXZXZXCXVXnXcXxXuXwXtX2X2XqXrXuXzXnXCXAXZXZXZXZXZXZXZXZXZXZXZXZXZXZXZXZXZXAXAXnX1X,XV.z.z.x.V.S.(._.]._._.oXoXoX_._._._._.D.S.Z.Z.Z.N.N.m.m.v.c.g.d.a.i.i.r.r.i.i.s.i.&.$.$.U P P P P P P ..P P #.#.P P P P P P P P P I I I U U P U U U &.I #.$.#.#.U U &.&.Y %.-.U -.U -.i.a.&.U -.U U %.U &.-.=.&.U U Y Y A A A G G G I Y I I A A G I Y I Y Y Y T -.R Y Y Y R -.r.p.p.f.j.m.A.m.D.D.m.N.N.f.t.f.r.r.Y I A A H A A G G G G G G G A A P C Z C C G H A H Z A C H A H H H A A A A A G J G A A G A Y Y Y Y Y G G G G G A A A Z A G G G A S Z Z C Z Z A Z Z Z A Z Z Z Z Z Z G C Z Z C Z A A Z C Z Z Z Z A G I I I I Y A Y T p.d.g.g.g.g.g.k.m.m.m.m.m.v.v.c.c.c.g.d.f.d.f.a.s.s.s.s.s.s.>.:.:.s.s.=.>.>.=.:.#...P *.}.qX3X3X`.C.6.X.L F g g F F F D D F v g g g s s s s s s s f f s s f f f f f f f f f f f f f f f s 2 2 f f f f f f f f f f 2 2 C C C Z Z C C 2 2 2 f f f f f s s 2 f Z I I I U $.,.6.x.x.C.C.b.b.b.b.x.x.b.V.V.V.V.V.V.V.V.x.>.*. .D c d a t : 0 0 5 5 5 t t t u u u i i i i i u u t 5 * & $ -   - ",
"......X.*.;.8./.}.0XBXAXFXAXAXAXAXAXAXCXAXAXAXAXAXAXZXZXZXZXZXZXZXZXGXGXGXGXZXZXAXZXZXZXZXZXZXZXZXZXZXZXZXZXGXGXGXGXZXZXZXZXZXZXZXZXZXZXCXnXnXcXuXwXqXtX2X2XwXrXuXxXnXCXAXZXZXZXZXZXZXZXZXZXZXZXZXZXZXZXAXAXZXAXCX,X1X(.x.>.V.n.V.S.(._._._._.oX_._._.D.D.D.D.D.S.Z.Z.N.m.m.m.v.g.d.d.a.i.r.r.r.i.s.s.s.$.$.#.U #.U P P P P P P P #.#.P P P P P P G P P I I U U P P U U U U U #.#.U -.U #.U U $.-.U U &.U U a.s.U &.-.=.Y %.&.U -.:.:.-.U U Y G G A G G G G I G I A A I I Y Y Y T Y R Y Y R T -.-.r.p.f.d.g.m.N.D.m.M.K.D.m.m.A.u.f.g.&.&.R I A H A A G A G G G G A A A Z Z A V H G A A A H H H H A H A A A A A A Y Y A A A A G G Y Y R Y Y G G G G A A A A Z A A G A A G Z A Z Z Z Z Z Z C C Z Z Z Z Z Z Z Z Z C C Z Z A Z C Z C C C Z A G I I A Y A I T y.p.g.g.g.g.g.g.g.k.m.v.v.v.v.c.g.g.f.d.d.d.f.a.s.s.s.s.i.i.:.:.=.:.:.&.=.>.*.*.P ..P ..`.3XqX0X3X`.V.6...F g v F F D L L F F g g g s s s s s s s f f s s f f f f f f f f f f f f f f f f f f f f f f f f f C C f C C C C Z Z A A A Z Z Z Z f f f f f 2 f Z I I U $.,.,.>.z.x.x.V.V.V.~.(.(.(.(.V.V.x.x.x.x.C.V.~.~.C.x.;.X.L v d a t 0 0 5 5 5 t t t t t u u u u i i u u t 5 * & - -   - ",
"..X.X.*.;.b.~.}.0XBXAXGXFXAXZXAXAXAXAXAXAXZXZXZXAXAXZXZXZXZXZXZXZXZXGXGXGXZXZXZXAXZXZXZXZXZXZXZXZXZXZXZXZXZXGXGXGXGXGXGXZXZXZXZXZXZXZXAXCXvXcXuXuXwXtX2X2X2XwXuXuXnXnXAXZXZXZXZXZXZXZXZXZXZXZXZXZXZXZXZXZXZXAXAXcXxX,X].n.s.V.c.S.(._._._._._._.oX_.D.S.N.S.D.D.D.Z.N.m.m.m.v.g.d.d.a.s.i.i.i.i.s.s.s.s.$.$.U P U U U P P P P ..P P P #.P G U P P A G P P P U P I I U U U P #.P $.U #.U U $.$.U Y Y Y &.U -.i.a.R &.&.%.&.Y &.&.%.-.&.%.U Y Y I A A G A I I I I I I I I A I Y Y T R R Y &.&.%.%.r.p.f.f.g.m.m.M.A.M.M.A.A.D.D.N.m.p.p.d.p.&.Y A H A A I A A A A A A A A C H A C Z A A A A H V H A H A A A A A A G Y Y A A A J Y Y Y Y R Y Y G G A A A A A Z A A A A A Z A Z G Z C C C Z Z C C Z Z C C C Z C S C 2 2 C Z Z C C C C C C Z Z A G I Z Y Y I R r.d.d.g.g.g.g.g.g.g.g.g.g.g.g.g.g.g.d.d.d.d.d.a.s.s.s.s.i.i.:.>.:.=.=.*.$.>.$.$.P P P *.).<XqXrX0X3X`.~.6...F F F L L L L L F v g g s s s s s f f f f s s f f f f f f f f f f f f f f f f f f f f f f C f C C C C C C C Z A A I I P P P P G Z f f f f f Z I U ,.,.,.,.,.h.n.V.V.(.(.(._.].].].].(.V.x.z.>.>.x.V.(.].(.~.b.5.X.[ v p a u t 5 5 t t t t t t u u u u u u u u t 5 * $ $ - - - ",
"X.*.;.6.b.^.|.0XBXAXGXGXAXAXAXAXCXAXAXAXAXZXZXZXAXAXZXZXZXZXZXZXZXZXGXGXZXZXZXAXAXZXZXZXZXZXZXZXZXZXZXZXZXZXGXGXGXGXGXGXZXZXZXZXZXZXAXAXnXvXxXwXwXqXtXtX2X2XwXuXzXnXnXAXZXZXZXZXZXZXZXZXZXZXZXZXZXZXZXZXZXAXAXAXnXCXeX5Xn.h.x.x.(._._._._._._._._._.D.N.N.N.N.S.S.Z.N.m.m.v.g.d.d.a.s.p.s.s.s.s.a.s.s.s.$.#.U P P #.U P P P P ..P P P P U P P P P G P P P P U P P I P U P P U I &.#.#.U U $.$.Y -.Y Y U Y i.&.c.i.&.%.&.&.Y %.-.R U -.&.R Y Y I I G A A I I I I I I I I A A Y R Y R T &.%.%.r.r.t.f.f.j.j.m.m.M.M.K.M.M.A.D.D.D.m.m.p.v.g.y.R A H A A A I A A A A A A A Z V A A Z A A V A H V H A A A A A A A A G G A A G J Y Y Y Y Y Y Y Y G G H A H A A V A Z H A Z Z Z Z A Z C C C C C Z C 2 C C C C C C C C C 2 C Z C C C C C C C Z Z A A G Z I I Y T &.p.d.k.g.g.g.g.g.g.g.g.g.g.g.d.d.g.g.d.d.d.a.s.s.s.s.i.i.:.s.>.>.:.:.*.#.>.#...S P P x.}.<X3XrXrX0X3X`.!.>.P F S L L | L L F v g g s s s d g f f f f s s f f f f f f f f f f g g C f f f g g C C C C C C C C C Z Z Z Z Z A I I U U $.U U P Z C C C C Z I U ,.,.,.,.,.h.C.V.(._.].].].'.5X5X,X].G.S.V.h.,.,.x.V.(.].].'./.b.5.+.[ v d p u t 5 5 t t t t t u u u u u u u u t 5 = $ $ - - - ",
"*.6.C.~.`.1XrXbXSXAXFXZXAXAXAXAXAXAXCXCXAXZXZXZXZXZXZXZXZXZXZXZXZXGXGXGXZXZXAXAXAXZXZXZXZXZXZXZXZXZXZXZXZXZXZXGXGXGXGXGXZXZXZXZXZXAXAXCXnXcXzXeXqX2X2X2X2X2XuXkXxXnXAXAXZXZXZXZXZXZXZXZXZXZXZXZXZXZXZXAXAXAXAXAXVXCXuX'._.s.x.x.V.n._._._._.D.D._.D.D.Z.m.m.m.N.Z.Z.m.m.v.c.c.c.d.a.s.i.s.s.s.s.a.s.s.n.$.$.#.P P P P P P P P P P P P P P P P P P G P P P P U P P I P I I U U G &.$.#.Y &.I Y Y &.I G Y &.Y Y &.%.Y %.&.T &.U T &.&.Y Y Y -.Y A A H A A Y P A A A I H A I Y R R R &.%.y.r.r.y.p.f.j.m.m.N.m.Z.j.M.M.M.M.M.A.A.A.D.Z.m.g.m.d.r.I A H A A I A A Y A A A A A V A A A A A H H H A A A A A A A G J J Y Y J Y Y Y Y Y Y Y Y Y I G A A H G H A A C H H Z Z Z Z Z Z Z Z C C C C C Z 2 C C C C C C C C C C 2 C C C C C C C C C Z Z Z S S Z G I G &.-.p.g.k.g.g.g.g.g.g.g.g.g.g.g.f.r.d.c.d.d.a.s.s.s.s.s.s.s.s.>.>.>.:.=.*.#.*.$...P P P ~.1X4X3X0X0X0X0X3X'.~.6.X.[ | X.| L L F F g g d s g g g g g f f g g f f f f f f f f f C Z Z C C C C C C Z Z Z G G S Z Z Z Z Z Z A A I I U U R $.$.U P A Z Z C C I I ,.i.h.h.h.h.V.V.G._.].].].,X,X,X1X1X$X$XF.G.C.,.,.h.S._.].].'.'./.C.5.X.L N p i u t 0 t t t t t u u t t t t t t w * = $ $ -     ",
"b.~.`.}.0XfXMXAXFXFXZXZXZXAXAXCXAXAXCXCXAXZXZXZXZXZXZXZXZXZXZXZXZXGXGXZXZXZXAXCXAXZXZXZXZXZXZXZXZXZXZXZXZXZXZXGXGXGXGXGXZXZXZXZXAXAXAXVXnXxXuXeXqX2X2X2X2XqXuXzXnXNXAXZXZXAXZXZXZXZXZXZXZXZXZXZXZXZXZXAXAXAXAXAXZXxXuXwX].s.x.x.n.n.S.(._._._.D.D.D.D.S.Z.m.m.m.N.m.m.v.c.c.c.c.d.a.s.s.s.s.s.s.a.s.s.z.$.#.#.P P P P P P P P P P P P P P P P P G P P P P P P P P I P P I U U G &.#.Y I $.U -.&.-.Y Y Y U i.i.-.Y Y i.&.T &.i.Y T &.&.&.Y -.U -.Y A G A Y A Y A I P A Y U T T T &.r.y.a.p.f.d.g.j.k.m.m.N.M.A.m.M.M.A.A.M.M.A.A.A.M.m.v.c.p.c.%.A A A I I I I I A A I I A A G V A A A A A A A A I Y A A A Y Y J Y Y Y Y Y Y Y Y R Y Y Y J A A A A A A G A A V H Z A Z Z Z H Z H C C C C C C C C C C C C C C C Z C 2 C C C C C C C C C Z Z Z S Z Z G I G -.T p.g.k.g.g.g.g.g.g.g.g.g.g.g.d.p.d.d.g.d.a.s.s.s.s.s.s.s.s.s.>.>.=.=.#.P #.P ..P P X.(.3XqXqXrXrXrXrXrX3X'.~.9.+.| ....| L L F v g d g g g g Z Z Z Z g g g g Z g Z C Z Z Z F S Z F Z C C C C Z Z S S G S S Z Z Z Z Z A I I U R R R $.$.R U I I A I I Y R ,.h.h.h.h.h.H.V.G.G._.].].$X$X$X$X$X$XoXT.F.G.H.g.H.G._.].'.,X'.`.~.b.;.X.m p p i t t t t t t t u u t t t t t t w * & $ $ -     ",
"'.1XqXfXbXMXAXAXAXZXZXZXZXAXAXCXAXAXAXAXAXZXZXZXZXZXZXZXZXZXZXZXGXGXGXGXZXZXAXAXAXZXZXZXZXZXZXZXZXZXZXZXZXZXZXZXZXZXGXGXZXZXAXAXAXAXCXVXcXuXeXwX2X1X1X2XqXrXzXxXnXAXZXZXZXAXZXZXZXZXZXZXZXZXZXZXZXZXZXAXAXAXAXAXAXAXnXzX,Xx.x.z.x.x.n.S._._._._.F.D.D.S.Z.Z.m.m.m.m.v.c.c.c.c.c.d.d.s.s.s.s.s.s.s.s.i.:.#.#.#.P P ..P P P P P P P P P P P P P G G P P P P P P P P P P P Y G G U &.#.Y Y U U Y $.U U Y -.-.&.%.i.&.&.%.T Y %.%.p.&.&.&.%.s.%.r.r.&.R A A A U A A I I G U &.&.&.%.r.r.p.p.f.g.g.m.m.m.m.M.M.M.D.m.M.M.A.A.M.M.A.A.M.m.m.m.m.m.y.p.R A A J Y Y Y I A A Y Y A A A V A A I Y I G A I Y Y A A G Y Y Y Y Y Y Y Y Y Y Y T R Y I A J A A A A A G G A V H Z Z Z H Z Z Z H C C C C C 2 C 2 2 2 2 2 2 f C C C 2 f f f C C C C C C Z Z Z Z Z Z G I G -.T y.d.g.k.g.g.g.g.g.g.v.g.d.d.d.d.p.d.d.d.a.s.s.s.s.s.s.>.>.>.:.=.*.*.P P P P ..P ..$.'.3XfXfXfXfXfXfXfXrX<X'.~.9.*... ...L L F F g g g g Z F F F F F Z Z Z Z Z Z F Z F Z Z S G S Z Z Z Z Z Z Z S G P P P S A A A A A A I Y U U R U U U U U I I I P I U &.i.h.H.h.h.s.h.H.H.S.G.G.F.].].].].].$X$X$XoXT.F.G.G.G.].$X$X1X'.].(.V.b.;. .c p i t t t t t t t t t t t u u t t 5 * $ $ $ $ $ $ ",
"<XeXzXvXNXNXAXAXAXZXZXAXZXAXAXCXAXAXAXAXAXZXZXZXZXZXZXZXZXZXZXZXZXZXGXGXZXAXAXAXZXZXZXZXZXZXZXZXZXZXGXGXZXZXZXZXZXGXGXGXZXZXZXAXAXAXCXVXxXuXeXqX2X1X,X<XwXuXzXnXnXAXZXZXZXAXZXZXZXZXZXZXZXZXZXZXZXZXAXAXAXAXAXAXAXAXAXnX<Xn.x.s.x.x.n.n._._._._.F.F.D.S.S.Z.N.m.m.m.v.g.c.c.c.c.d.d.a.s.s.s.i.s.s.s.:.=.#.#.#.P P ....P P P P P P P P P P P G G G G G P P P P P P P I P Y G G U =.&.#.U &.-.Y $.U U -.&.Y Y &.r.r.r.r.d.d.T T r.r.r.&.T v.p.d.s.d.r.J J A Y Y H H I A Y &.%.r.r.r.t.u.f.g.j.m.m.m.m.M.M.m.M.K.M.A.M.A.A.M.M.A.A.m.m.M.M.m.m.f.g.t.Y J J Y T T Y J J I Y A V A A A G Y U Y Y G I Y Y A A G Y Y Y Y Y Y Y Y Y Y Y T R Y Y A A A A H Y H G G A H C Z A H H H H Z Z Z C C C C , 2 2 2 2 2 2 2 C C C C 2 2 f C C C Z Z 2 f Z C C Z Z Z G P A U Y r.p.g.m.m.g.g.v.v.m.m.g.d.a.d.d.p.d.d.a.a.s.s.s.>.:.>.:.=.=.=.=.*.$...P #.P ..P X.>.'.<XfXrXfXfXfXfXfXfXqX<X{./.9.*.X...P L F F Z g g Z F F S L S S F S Z Z Z Z Z Z S P S G G G S S S S A Z G P P P P P G G A A G G P U U U U U U U Y Y Y I I U U U &.,.s.h.g.h.s.,.,.h.h.C.H.H.H.G.G.G.G.G.$X$X$X$X$X$X$X].F.].$X$X$X$X].'.(.V.9.;.D p a a t t t t t t t t t t u u t t 5 * $ $ $ $ $ $ ",
"kXvXCXCXCXAXAXZXZXZXZXZXAXAXAXAXAXAXAXAXZXZXZXZXZXZXZXZXZXZXZXZXZXZXZXZXZXAXAXAXZXZXZXZXZXZXZXZXZXZXZXZXGXGXGXZXGXGXGXGXZXZXAXAXAXAXCXnXzXeXqX2X2X1X1X2XrXuXxXnXnXAXZXZXZXZXZXZXZXZXZXZXZXZXAXAXZXZXAXAXAXAXAXAXAXAXCXnXqXV.x.z.z.z.x.V.(._._._._.D.S.S.S.S.S.N.m.v.v.c.c.v.v.v.c.d.a.s.s.a.i.s.s.s.:.#.P P P P P #.#.P P P P P P P P P P P G G G I G I I I I G G P P I P G G Y &.$.-.#.%.&.Y G &.&.-.-.-.&.i.i.y.f.r.p.y.y.p.p.p.p.p.p.p.d.g.d.c.f.r.R J Y Y Y A A Y U -.&.r.t.p.p.u.u.g.g.g.j.k.m.M.M.M.M.M.M.M.M.M.M.M.m.m.m.M.m.m.m.m.m.m.m.f.-.R R J Y -.T R T T Y J A H R Y Y Y Y Y Y Y Y Y Y A G G Y Y Y I J Y Y Y Y Y R T R Y Y Y Y G G A A H A A A A Z Z A A A H Z Z Z Z C C C C 2 2 2 2 2 2 2 2 C C 2 f 2 2 C C C C Z Z 2 2 Z C C Z Z Z S G A Y Y R %.f.g.m.v.m.m.v.m.v.c.d.a.d.d.s.a.a.a.s.s.s.s.>.:.:.=.$.*.=.*.$.#.#.P P #.$...*.x.|.<XqXfXfXfXfXfXfXfXfXqX3X'.~.6.*.$.X.X.S F F g g F S L L P L L S S Z Z C Z Z S P P P I G G G G G G G P P P P P G G G A A G G I U U Y U U Y I I Y Y Y U Y U R $.,.,.s.s.s.,.,.&.&.,.,.h.h.C.H.Z.G.G.G.F.$X$X$X$X$X$X$X$X$X$X$X$X$X$X].].'.(.V.9.X.F a y y t t t t t t t t t t t t t 5 = $ $ $ $ $ $ ",
"cXNXCXAXAXAXZXZXZXZXZXAXAXAXAXAXAXAXAXAXZXZXZXZXZXZXZXZXZXZXZXZXZXZXZXZXZXAXAXAXZXZXZXZXZXZXZXZXZXZXZXZXGXGXGXGXGXGXGXGXZXZXAXAXCXVXnXcXuXwXqX2X1X1X2XqXuXkXmXnXNXAXZXZXZXAXZXZXZXZXZXZXZXAXAXAXAXAXAXAXAXAXAXAXAXAXCXnX2X5Xx.>.z.z.x.V.S._.S._.G.S.S.S.S.N.N.v.m.v.v.v.v.v.v.v.c.d.a.a.s.a.s.a.a.a.:.$.U P P P P P P P P P P P G P P P P P G G G I I I G I G G G P P P G G G I U #.-.&.&.=.&.Y #.$.-.-.&.%.r.r.t.f.r.p.f.f.f.f.f.f.f.f.f.t.f.f.f.t.r.r.T -.-.R Y J Y T R -.r.t.p.u.u.f.f.f.f.f.j.j.m.m.M.M.M.M.m.m.k.k.k.k.j.j.j.j.j.j.j.f.f.f.f.r.r.T R J T -.T r.-.T R J J R Y Y R -.-.Y Y R Y Y G Y Y Y A Y Y Y I J Y Y T T T R Y Y Y Y Y G G A A H A A A A A A A A H H Z Z Z C 2 C C 2 2 2 2 2 2 2 2 2 2 2 2 C f 2 f C C Z Z 2 2 Z C C Z Z Z Z A G U Y U %.d.g.m.m.m.m.v.v.c.d.d.a.a.a.a.a.a.a.s.s.s.i.>.:.>.:.=.$.*.$.#.#.#.....#.*...6.(.,X<XqXrXfXfXfXfXfXfXfXeXrX3X`.~.6.*.$.X...L F F F F S S P P S S S Z Z Z Z Z S I P P P I G G G G I I I P P P G G A A A A A A G I U U Y Y I I A I I I Y R U R &.,.,.,.,.,.,.,.&.$.&.,.,.s.h.h.H.H.G.G.G.G.].].].$X$X$X$X$X$X$XoX].].].$X$X$X].(.C.6.X.F a a y t t t t t t t t t t t w * $ $ $ $ $ $ $ ",
"vXNXCXAXAXZXZXZXZXZXAXAXAXAXAXAXAXZXZXZXZXZXZXZXZXZXZXZXZXZXZXZXZXZXZXZXZXAXAXAXZXZXZXZXZXZXZXZXZXZXZXZXGXGXGXGXZXZXZXZXZXZXAXCXCXvXcXxXeXwX2X1X1X1X2XuXuXxXnXNXCXAXAXZXAXAXAXAXZXZXZXZXAXAXAXAXAXAXAXAXAXAXAXAXAXAXCXnXqX2Xz.>.z.z.z.V.V.S.S.S.S.S.S.S.V.N.n.n.v.v.v.v.v.v.v.v.c.d.a.a.a.c.s.a.s.s.:.&.U U P P P P P P P P P P P P P P P G G I I I I I G G G G G G P G G G G A A A G G I A G G U U -.$.&.&.%.r.t.f.r.p.f.f.f.f.f.f.f.f.f.t.r.f.f.t.t.t.t.T -.p.-.R R -.-.r.r.t.u.u.u.u.f.f.f.u.u.u.j.j.j.j.f.f.j.j.j.f.f.f.u.u.f.f.f.u.f.f.f.f.f.t.r.r.T R R T T r.r.T T T J T -.-.-.-.-.-.R T -.Y G Y Y Y J Y Y Y R R Y Y R R T R Y Y Y Y Y Y G G A G G G Z Z Z A H H H H Z Z Z C 2 C C 2 2 2 2 2 2 2 2 2 2 2 2 C C 2 2 C Z Z C f C C C C C Z Z Z A I Y Y U %.d.g.v.v.g.g.g.g.d.d.a.p.a.a.a.s.a.a.s.s.s.s.>.:.>.:.$.$.$.$.#.#.#.$.$.#.$...b.1X<X<X4X4XfXfXfXfXfXfXfXfXfXqX,X`.C.6.;.$.$...P S S L L S S S S S S S S S S S I P P P P I A A I I I I P P I I G A A Z A A A G G I P P I I I A A A I I Y R $.&.,.,.,.T U U U U #.U $.=.,.,.h.x.C.C.G.G.G._.].].].].]._.F.G.F._.].].].].].$X$X].].(.C.6.+.D d y y t t t t t t t t t t 5 * $ $ $ $ $ $ $ ",
"vXNXCXAXZXZXZXZXZXAXCXCXAXAXAXAXAXZXZXZXZXZXZXZXZXZXZXZXZXZXZXZXGXZXZXZXZXCXCXAXZXZXZXZXZXZXZXZXZXZXZXZXGXGXGXGXZXZXZXZXZXZXAXCXnXcXxXzXeXqX2X1X1X1XqXzXkXcXnXNXCXAXAXAXAXAXZXZXZXZXZXZXAXAXAXAXAXAXAXAXAXAXAXAXAXAXCXVXeX5Xx.z.6.6.z.n.n.V.V.G.S.S.S.S.v.v.v.n.v.v.v.v.v.v.v.v.v.c.a.a.x.v.a.a.s.s.s.=.#.#.U P P P P P P P P P G P P G P G I I I G I I G G G G G G G G G G A G G G A H Z A G A G P #.$.&.&.%.p.y.f.r.u.t.p.u.u.u.u.u.u.u.p.r.t.p.p.p.t.p.p.t.r.r.r.r.r.r.t.p.u.u.u.u.u.u.u.u.u.u.u.u.u.u.u.u.u.u.u.u.u.u.u.u.u.u.u.u.t.t.t.t.t.t.t.r.r.r.r.T T T r.r.T T T T r.-.-.-.&.-.-.R -.R Y G R Y R Y Y Y R R Y Y Y Y R R Y Y Y Y Y Y Y I I G G G G A H Z Z Z Z Z H Z Z Z C C C C 2 2 C 2 2 2 2 2 C C 2 2 C C 2 2 C Z C C C C C C C C Z C Z A I Y U U %.p.g.v.v.g.g.g.g.d.d.a.p.a.a.a.s.a.a.a.s.s.s.>.:.:.=.$.$.$.$.#.#.#.*.*.#...P b.0X4X3X4X4XqXfXfXfXfXfXfXfXgXfXqX,X(.C.9.;.*.*.X.P L L L S S S S S Z S I I I I I P P P I I A A I I Y Y U P I A A Z Z Z A A G G I I I I I A G A A A I Y R R &.%.,.,.R U I I I P P P #.$.=.,.z.z.x.V.(.(.(.(.(.(.G.G.G.S.V.V.S.G.].].].].].$X$X$X].].~.C.6.+.D d y y t t t t t t t t t * = $ $ $ $ $ $ $ ",
"NXCXAXAXZXZXZXZXZXAXCXCXAXAXAXZXZXZXZXZXZXZXZXZXZXZXZXAXZXZXZXZXZXZXZXZXAXCXCXAXZXZXZXZXZXZXZXZXZXZXZXZXZXGXZXZXGXGXGXZXZXAXAXCXnXcXxXuXeXqX<X,X,X<XwXuXzXcXCXCXCXAXAXZXAXAXAXAXZXZXZXAXAXAXAXAXAXAXAXAXAXAXAXAXAXAXAXCXcX'.5XV.z.>.z.n.n.n.V.V.S.S.S.S.V.v.v.v.v.v.v.v.v.v.v.v.v.c.a.c.v.n.x.a.s.a.s.=.&.$.U P P P P P P P P P P P P G P G G G P P P I P G G G G G G G G G A G G A A H H A A Z A A P -.&.a.d.d.g.k.k.k.u.u.f.g.k.f.f.f.f.u.u.y.u.u.y.y.u.u.u.y.r.f.r.f.y.y.u.f.f.f.u.u.u.u.u.u.u.t.u.j.u.f.u.u.u.u.u.u.t.t.t.t.t.t.t.t.r.r.t.t.t.t.r.r.r.t.r.r.T w.w.T &.-.r.&.&.&.-.-.&.&.&.T R Y Y Y Y I I R T T R R R Y Y Y U Y Y Y Y Y U Y Y Y G A A H H Z Z Z C C C Z Z Z Z C C C C 2 2 f f 2 2 2 2 C C 2 2 C C 2 2 C Z C C C Z Z C C C C C Z A I Y Y T %.p.g.v.v.g.d.g.g.d.d.d.a.a.s.a.s.s.a.a.a.s.i.>.:.$.$.#.$.$.$.#.#.X.P P #...$.V.qXqXqX4X<X4XqXeXfXfXfXfXfXfXfXfXqX|.(.C.>.*.*.$...P P L S S S S Z S S S I P P P P P P I I I I I I U U U I A A A Z Z A A G G P P P G G A A A A A A I Y U $.&.=.=.=.U P I A S S I P P #.$.;.>.6.x.C.(.(.(.V.V.b.x.C.C.C.C.C.G.(.].].$X].].].].].].].)./.C.9.5. .M d a y t t t t t t t * $ $ $ $ $ $ $ $ ",
"NXCXAXAXZXZXZXZXAXAXCXAXAXAXAXZXZXZXZXZXZXZXZXZXZXZXZXAXZXZXZXGXGXZXZXZXAXCXCXAXZXZXZXZXZXZXZXZXZXZXZXZXZXZXZXZXGXGXGXGXZXAXCXVXnXcXzXeXwX2X,X5X1X2XeXuXxXnXCXCXCXAXAXAXAXAXAXAXAXAXAXAXAXAXAXAXAXAXAXAXAXAXAXAXAXAXAXCXCXzXqXn.z.z.z.x.x.x.n.V.V.V.V.V.V.v.v.v.v.v.v.v.v.v.v.v.v.v.c.v.v.v.x.a.a.a.s.:.&.$.U P P P P P P P P P P P P P P P P P I P P Y P P I I P P G G G G G A A A A H H A Z Z G A P #.&.c.c.g.k.k.k.k.g.k.k.H.A.A.k.k.f.f.u.u.r.u.k.k.k.m.m.k.k.Z.k.f.u.u.u.u.f.f.k.k.k.f.f.f.f.f.u.u.u.u.f.u.u.u.f.u.u.u.r.r.r.r.r.r.w.w.w.r.t.t.r.r.r.r.r.r.w.w.w.r.r.r.r.&.&.&.&.-.&.T T T R R Y Y Y Y Y R R R Y Y Y Y Y Y Y Y Y Y V V V V 2 V V V C C C C C V C V C C Z Z C C C C C C C C C C C f 2 C C 2 f C Z C 2 2 C C C C C Z C C C C C Z A I U Y T &.i.a.g.v.v.d.g.d.a.d.c.d.d.s.a.s.i.s.a.a.s.:.:.>.$.#.#.$.$.$.#.#.#.P P ..$.*.}.4XrXqX4X4X<X4XqXeXfXfXfXfXfXfXfXfX0X}.(.b.>.*.$.....P L S S S S S S S I I I P P P P P P P P P U U U U I I A Z Z Z Z S A G P G P G G A Z Z C Z Z A I I U U #.#.$.U U P I S S S S S P P X.*.*.>.x.V.(.(.~.C.x.>.>.6.>.x.C.V.(.(.].].'.].].].'.].(.(.~.~.C.C.b.5.| v a a t t t t t w * = $ $ = $ $ $ $ $ ",
"CXAXAXZXZXZXZXZXAXCXAXAXAXAXAXZXZXZXZXZXZXZXZXZXZXZXZXAXAXZXZXGXGXGXZXZXAXCXAXZXZXZXZXZXZXZXZXZXZXZXGXGXGXGXZXZXZXZXZXZXZXAXAXVXvXvXzXwX2X1X5X,X<XwXuXzXcXNXCXAXAXAXAXAXAXAXAXAXCXCXCXCXCXCXAXAXAXAXAXCXAXAXAXAXAXAXAXAXZXuX5Xn.z.x.z.z.z.x.c.x.V.V.V.V.V.v.n.n.v.v.v.v.V.v.v.v.v.v.v.v.c.c.c.c.n.a.s.s.&.$.U P P P P P P P P P P P P P P P U U U U U Y U Y U U U U U U G G G G G A A H H A Z Z A A P #.%.v.v.v.H.H.H.H.H.H.Z.A.Z.Z.+XA.k.k.u.u.w.y.A.A.A.D.D.A.A.Z.Z.k.u.u.u.u.k.Z.A.D.L.L.F.A.A.A.m.m.u.u.u.u.u.u.u.u.u.u.u.u.u.f.f.f.f.j.j.j.j.f.f.u.t.w.w.w.w.r.w.r.r.r.y.r.r.r.T T &.&.T T R R T R T T T R R R Y Y Y Y Y Y Y Y Y G V V V 2 2 2 2 2 C C V V C V V V C C Z Z C C C C C Z C C C C C C C C C C C Z Z Z C 2 2 Z C C Z Z C C Z Z Z Z G P U U T %.%.y.g.v.v.c.d.d.a.d.c.d.d.d.i.i.i.i.s.s.:.:.:.:.#.#.#.#.#.#.P P $...P P #.*.}.qXrXqX4X<X<X<X4XqXrXfXfXfXfXfXfXfXfX4X}./.9.;.$.X...P L S S F S S S S I I I I P P I I P P P P U U P I I A Z Z Z Z Z Z S S S S S S Z Z C C C C Z Z S I P P P P U U U P P G Z Z S S L P X.$.*.>.9.b.C.C.b.6.;.$.$.>.>.9.C.V.(.(.(.].].).(.(.].(.~.C.C.C.~./.~.b.;.[ z a t t t t t w * = $ $ = $ $ $ $ $ ",
"CXAXZXZXZXZXZXAXAXCXAXAXAXAXAXZXZXZXZXZXZXZXZXZXZXZXZXAXAXZXZXGXGXZXZXZXAXCXCXZXZXZXZXZXZXZXZXZXZXZXGXGXGXGXZXZXZXZXZXZXZXAXCXCXvXxXuXqX<X,X5X1X2XwXuXxXvXNXCXAXAXAXAXAXAXCXCXCXCXCXCXCXCXCXCXCXCXCXCXCXCXCXAXAXCXCXCXAXAXnX,X_.V.x.x.>.>.s.z.x.n.n.n.n.n.v.v.n.v.n.v.v.v.Z.c.v.v.v.v.v.c.c.v.v.n.x.a.x.&.$.U P P P P P P P P P P P P P P U U U U Y Y Y U R U #.#.#.#.#.Y G G J G A A H H Z Z Z A A P #.:.v.v.m.Z.H.H.H.H.Z.A.G.G.F.#XD.Z.H.k.l.u.u.D.A.D.D.D.D.9XF.G.A.k.l.f.f.Z.A.U.P.#XoXF.G.F.oX#XoXA.k.u.w.w.w.w.w.k.H.H.H.H.M.k.k.H.H.H.k.k.k.k.f.u.u.w.w.w.w.w.w.f.g.g.f.f.y.r.T T T T T T T T T T y.y.T T R Y J Y Y Y R Y Y I A V V V V V V 2 , 2 2 2 V V V V C C C C Z C C C C Z Z Z Z Z Z Z Z C C C C Z Z Z Z C 2 2 C C C C C C C Z Z Z Z G P U U R %.i.i.a.g.c.d.d.d.d.d.d.a.a.d.r.s.%.r.s.i.:.=.=.$.#.#.U #...#.P P $...P P *.(.,XfXrXqX4X4X<X<X<X4X0XrXrXfXfXfXfXfXfXrX<X'.C.6.*.$...P L S F F F S F F S S S S L P I I L P P P P P I I I Z Z Z C C C Z F F F F F F Z C f f 2 f C Z Z Z I P P P P P ..P P P S F F F S P ..X.6.6.6.9.6.9.>.*.X.X.*.;.9.b.C././.~.V.~.~.V.V.V.V.C.b.b.9.b./.).`./.8.*.m i a t t t w B * = = $ $ $ $ $ $ $ ",
"AXAXZXFXGXZXZXAXCXCXCXAXAXAXZXZXZXZXZXZXZXZXZXZXZXZXZXAXAXZXZXGXGXGXZXZXAXCXAXZXZXZXZXZXZXZXZXGXZXGXGXGXGXGXGXZXZXZXZXZXAXAXCXnXcXzXeX2X1X5X5X1X2XwXuXxXnXNXCXAXAXAXAXAXAXAXAXCXCXVXCXnXVXVXVXVXVXVXVXVXCXCXCXCXCXCXCXCXAXzX<XuX'.C.x.z.s.s.s.s.x.n.n.n.n.n.n.n.n.V.v.v.v.V.h.v.v.v.v.c.c.c.v.n.c.i.a.x.&.$.$.#.P P G P P P P U P P U U U U U U Y #.&.%.%.&.&.&.-.-.-.-.-.Y J J G G A A A Z Z Z S S U &.%.v.Z.Z.A.Z.H.H.H.A.F.G.F.F.T.F.G.A.H.k.u.l.F.L.L.#XT.#X8X#XG.A.A.l.k.k.L.L.T.#X#X#XT.T.oX#X#X:X9XA.H.u.f.u.w.u.A.G.G.G.D.D.A.A.A.A.A.A.Z.Z.H.k.k.f.y.w.w.y.f.G.k.g.g.g.f.f.u.y.r.T T T r.r.y.y.y.y.y.%.T T Y I I I Y Y Y Y G H V V V V V 2 , , 2 2 2 C C C V C C H H H H H Z Z Z Z H H Z Z Z Z Z Z Z Z Z A A Z Z 2 C C 2 C C C Z Z Z Z Z Z I P U U R %.i.y.p.g.d.y.d.a.a.d.d.a.a.a.&.i.&.%.i.a.=.&.&.$.P $.U ..P P ..#.$.X.P P $.}.<XqXrXrXqX4X<X4X4X4XqXqXqXrXfXfXfXfXfXfXrX<X`.V.;...P P L S F F F F F F F F S S S S S F F F S S S S S S Z Z Z Z f f f f C Z g g Z Z g g f f f f C Z Z Z S S S S S S S L L S F Z g F L | X.;.;.;.;.*.*.*.X. ...X.;.6.b.C.~.^./.C.b.b.C.8.6.9.9.x.b.b.9.C.^.`.|.}.^.b.5.} z * i t t * * = = = $ $ $ $ $ $ ",
"AXAXZXFXZXZXAXCXCXNXCXAXAXAXZXZXZXZXZXZXZXZXZXZXZXZXZXAXAXZXZXGXGXZXZXZXAXCXAXZXZXZXZXZXZXZXZXGXZXGXGXGXGXGXGXZXZXZXZXZXAXCXCXvXvXuXwX<X1X5X,X1XqXeXzXxXnXCXCXAXAXAXAXAXCXCXCXCXCXVXCXnXVXnXnXnXnXvXnXVXVXVXCXCXCXCXCXCXnXcXzXcX].x.V.>.s.z.z.s.s.x.n.n.n.n.n.n.c.n.n.n.v.c.c.x.a.v.v.a.a.c.n.c.i.s.a.:.=.%.$.$.#.U P P P U #.#.U U U U Y Y Y Y #.-.&.r.r.r.%.%.&.&.&.&.-.-.-.#.J G G A A Z Z Z S S P $.%.v.Z.Z.A.A.H.H.H.G.F.F.L.F.#XL.G.A.H.k.f.H.L.L.T.#X#XL.#X=XF.F.A.H.H.H.L.T.T.#X#X#XT.T.#X8X:X#XT.A.G.Z.k.g.e.u.G.L.T.T.L.L.L.F.G.G.G.G.A.A.Z.H.k.g.y.y.u.k.g.G.k.k.k.k.k.g.f.f.y.T T w.y.y.y.u.y.p.y.T T R I A I Y Y Y Y Y G H V V V V 2 2 , 2 2 2 2 C C C C C H A H H H H A A A A A A A A H A A A A Z A G G Z A C Z C 2 2 2 C Z Z Z Z Z A I U U U R %.%.%.p.d.d.%.a.a.s.a.a.s.s.s.&.r.&.%.i.s.$.&.*.#.P $.P ........#.$.X.....>.,XqXfXfXfXqXqX4X4X4X4XqXqXqXqXfXfXfXfXfXfXfXrX<X).b.*...P L F F F F F F v F F F F F F F F F F F F S S Z Z Z Z Z g g f f f g g g g g g g f f f f f f g g Z Z Z Z Z Z Z F F F v g g g F L ..X.;.;.+.X.[ [ | | | X.;.9.C.!./././.!.8.5.5.;.;.;.6.9.8.C.C.C.~.).{. X|.{.^.!.5.| z p i t t * * = = $ $ $ $ $ $ ",
"ZXZXZXZXZXAXAXCXNXCXCXAXAXZXZXZXZXZXZXZXZXZXZXZXZXZXZXAXAXZXZXGXGXZXZXZXAXAXAXZXGXGXGXZXZXZXZXGXZXGXGXGXGXGXGXGXZXZXZXZXAXCXnXcXzXeX2X1X5X5X,X<XwXuXzXcXnXCXAXAXAXAXAXCXCXCXCXCXCXCXCXnXVXnXnXnXnXnXnXnXVXVXVXVXCXCXCXCXnXnXCXzX'.(.x.x.z.x.x.s.s.s.x.n.n.n.n.n.x.c.h.n.n.s.c.a.a.v.v.a.x.x.x.a.:.a.s.i.s.>.=.=.$.#.U U U #.#.#.#.#.#.#.#.#.-.-.-.&.r.p.p.p.p.i.i.t.r.r.r.r.&.&.-.J G A A Z Z Z S Z G P =.v.Z.Z.G.A.H.H.Z.F.T.T.T.T.#XT.G.A.H.H.f.A.T.T.T.:XT.T.T.=XL.L.F.A.H.A.T.T.#X&X&X#X#XT.=X9X#X#X#XT.L.G.A.H.g.k.T.T.T.T.T.T.L.F.F.F.F.F.G.G.H.A.H.k.f.u.g.F.Z.A.H.H.H.H.k.g.g.g.p.w.T y.y.y.p.p.p.d.p.y.T R I A I I Y Y Y Y A Z V 2 V 2 2 , , 2 2 2 C Z Z C C H G G G G G G A A G G G G G G G A G A A A A I I A G A G C C Z Z Z Z Z Z Z Z A I Y Y Y R %.%.%.i.a.s.&.i.i.i.s.a.i.i.i.-.%.&.%.%.%.$.$.$.$.P U P $.P P X.#.$.$.$.$.~.4XeXrXfXfXrXqX4X<X<X4XqXqXqXrXrXeXfXfXfXfXfXfXrX1X(.x.$...S F F F F v g v v v v v F v v v v g g g Z Z Z Z Z Z g g g d g g g g g g g g g g f f f s g g g g g g g g g g g g g g g g g v L [  .X.X. .L L L  .X.+.5.9.C.C././.!.!.8.9.5.;.;.6.9.8.b.C.~.~.~./.).{.|.}.{.)./.8.;. .L d i a B * = = $ $ $ $ $ $ ",
"ZXZXZXZXAXAXCXNXvXCXCXAXAXZXZXZXZXZXZXZXZXZXZXZXZXZXZXAXAXZXZXGXGXZXZXZXAXAXAXZXGXGXGXGXZXZXZXGXZXGXGXGXGXGXGXGXZXZXZXZXCXCXcXxXuXwX2X,X5X5X1X2XeXuXxXcXnXCXAXAXAXAXAXCXCXCXCXCXCXCXCXnXVXnXnXnXvXvXvXvXnXnXVXVXCXCXCXCXnXNXCX2X'.'.(.n.x.n.x.>.>.s.s.x.c.x.n.n.x.x.a.n.c.s.h.x.x.x.v.c.x.x.a.s.x.x.i.c.a.s.>.:.=.&.$.#.#.$.#.#.#.#.#.#.#.#.-.-.-.&.r.s.a.d.d.p.p.p.p.p.p.p.r.r.-.-.J G A A Z Z S Z Z I =.v.Z.Z.G.A.Z.H.A.F.T.T.T.#XT.T.T.G.A.H.l.L.T.T.T.#X#X#X=XT.L.U.L.L.H.F.#X#X=X=X&X&X#X#X#X:X$X$X#X#XT.T.T.G.H.H.T.#X$X#XT.T.T.T.F.F.F.F.F.G.G.H.A.H.g.u.H.$XG.Z.Z.Z.Z.H.H.k.k.g.u.y.y.y.y.p.p.p.p.d.d.y.&.R I A I Y Y Y Y Y A C 2 2 2 2 2 , , 2 2 V C H H Z H H G G G G Y J Y Y Y J J G G G G G G A A A A P Y G I G P Z G G G P Z Z Z Z Z A I Y Y Y R &.&.%.y.s.i.R %.i.i.s.s.i.i.i.&.%.&.&.&.$.$.$.$.$.P P P $.P P ..$.X.$.$.*.(.4XfXkXzXfXfXeXqX4X4X4XqXqXqXqXrXfXfXfXfXfXfXfXfX4X}.~.6.X.S g v v v g g g g g g g v g g g g g g g g g g g g g g g g d d f g g g g g g f f f f s s f g g g g g g g g g g d s d d d d g v L q.L L L [  . .*.5.9.9.8.C.!./.!.8.8.9.8.8.5.8.8.C.~././././.^.).`.{.{.).^./.C.b.8.6.5.L p a t * * = = $ $ $ $ $ ",
"ZXZXZXZXAXAXCXNXNXCXCXAXZXZXZXZXZXZXZXZXZXZXZXZXZXZXZXAXAXZXZXGXGXZXZXAXAXAXZXZXZXZXGXGXZXZXZXZXZXZXGXGXGXGXGXZXZXZXZXAXCXnXxXzXeXqX<X,X5X5X1XtXeXuXxXvXVXCXAXAXAXAXCXCXCXCXCXVXCXnXnXnXnXnXnXnXnXnXnXnXnXnXnXnXnXCXCXCXCXCXCXcXvXeX<X>.>.x.n.s.>.>.x.S.x.s.n.x.z.z.x.c.x.h.h.x.x.a.v.c.x.x.h.a.a.s.s.a.s.x.z.:.&.:.:.&.&.:.:.&.#.U U U #.-.-.-.&.%.t.a.d.f.g.g.g.f.p.f.p.p.f.d.p.r.-.Y A H Z Z Z Z Z Z I n.Z.G.S.S.Z.Z.Z.F.T.#XT.T.T.T.T.T.G.H.H.T.T.#XT.#X#X&X=X$XT.T.T.F.A.T.T.#X$X=X=X=X=X=X=X=X=X=X$X$XT.F.F.F.Z.G.T.#X=X:X#X#XT.T.T.T.T.T.T.F.F.G.H.H.g.f.H.Z.9XF.H.A.H.A.H.H.H.g.u.y.y.y.p.p.f.d.d.h.h.y.%.R I I I I Y Y Y Y A C 2 2 2 2 2 , , 2 V H A G G G G G G J Y Y Y Y Y Y Y Y Y Y Y Y A G G Y Y A U I U U U U I G I U I U G S 2 Z C A I I R %.R &.&.%.s.s.%.Y %.i.,.i.i.:.:.i.&.%.&.&.$.$.$.$.$.$.P P #.$.P P #.$.#.#...6.`.<XfXzXzXfXfXfXeXqX4X4XqXqXqXqXrXeXeXeXeXeXeXeXfXfX4X}.~.6...g F F v v g g g g v g v v g g g g g g g g g g g g Z Z g g d g d g g f f f g g g g g g g g g g g g d d d d d a a a d s d g g v v F L  .+.;.5.6.8.C.C.C.C.b.b.8.8.9.9.b.b.b.b.!./.).`.).)./.^.^.).).)./.C.8.8.b.b.8.8.5. .D a 1 1 : = $ $ $ = = ",
"ZXZXZXZXAXCXNXNXNXCXAXAXZXZXZXZXZXZXZXZXZXZXZXZXZXZXZXAXAXZXZXGXZXZXZXAXAXAXZXZXZXZXGXGXZXZXZXZXZXZXGXGXGXGXZXZXZXZXZXAXCXcXxXzXwXtX1X5X5X5X<XwXuXuXcXnXVXCXAXAXAXAXCXCXCXCXCXCXCXnXnXnXnXnXnXnXnXnXnXnXnXnXnXnXnXnXCXCXCXCXCXCXvXvXqXz.>.z.x.z.>.>.x.V.x.x.x.z.h.x.n.c.h.h.n.n.x.h.v.c.c.c.c.x.a.s.a.s.s.x.z.:.&.:.s.:.:.s.s.,.$.#.U U #.-.-.-.&.%.p.f.f.g.v.v.c.g.d.f.f.f.g.v.g.d.p.r.-.G H Z Z Z Z Z P :.S.S.S.Z.m.g.g.F.T.#XT.T.T.T.T.L.G.H.H.T.T.#X#X#X&X=X=X=X#XT.T.F.A.T.#X#X&X:X:X:X:X=X:X:X:X:X:X$X#XT.T.F.Z.G.#X$X=X=X$X$X$X#X#X#X#XT.T.F.F.G.G.Z.g.g.H.G.$XF.G.G.G.G.A.H.H.H.f.y.y.y.f.d.g.g.g.h.h.p.%.R I A A I Y Y Y G H V 2 2 2 2 , 2 V H G Y #.#.U U U Y Y U U Y Y R T U T U Y Y Y R J Y Y Y Y G -.&.Y U &.$.#.U G U P #.P Z C P I A A I $.&.Y R &.,.a.i.&.Y &.i.i.i.,.,.:.:.&.=.&.$.$.$.$.$.$.$.P P $.#.#.P ..$.$.P ..V.'.<XqXfXfXfXkXkXfXrXqX4XqXqXqXqXrXrXeXeXeXeXeXfXfXkXfX4X'.~.5.P F v v v g v g g g g v v g g g g g g g g g g g g Z g Z g d d d g g g f f g g g g g g g g g g g g g d d d s a a a s s d s g g v F L ..X.*.9.9.b.C.C.b.8.9.6.5.5.;.6.8.C.!.!./.).`.).)./.C.!.!././.~.C.8.6.5.8.!.~./.!.9.+.] d 1 * * = $ & = = ",
"ZXZXZXAXAXCXNXNXCXAXAXZXZXZXZXZXZXZXZXZXZXZXZXZXZXZXZXAXAXZXZXGXGXZXZXAXAXAXZXZXZXZXZXGXZXZXGXZXZXZXGXGXGXGXZXZXZXZXAXCXnXcXxXzXwX2X,X5X'.5X2XwXuXxXcXnXVXAXAXAXAXAXCXCXCXCXCXVXCXnXnXnXnXnXnXnXnXnXnXnXnXnXnXnXnXnXnXCXCXAXCXCXNXnX<Xx.z.z.s.x.z.>.z.V.x.x.x.z.h.x.V.z.s.h.x.x.a.n.n.c.n.n.x.a.i.s.a.i.a.x.a.:.&.>.s.:.s.h.i.&.&.U U U U -.-.&.%.i.a.d.c.v.m.m.m.m.v.g.j.j.m.m.v.d.g.p.p.-.G H Z Z Z Z U $.S.S.S.v.d.p.p.F.T.T.T.T.T.#XT.L.G.A.k.T.#X#X#X=X=X:X=X=X&XT.T.F.A.T.#X&X:X9X9X9X:X:X9X:X:X:X9X=X$X#XoXT.A.F.$X$X:X$X=X=X$X$X#X#X$X#XT.L.F.F.G.A.H.g.Z.L.#XF.G.G.G.G.G.A.Z.H.d.y.y.a.d.g.g.g.g.h.h.a.%.R I A A I I Y I G H 2 2 2 2 2 V H A G G Y #.-.-.-.#.Y -.-.-.-.-.-.&.&.-.-.U Y R T Y T T T U Y Y &.U R &.&.&.&.U #.Y #.P I P Z A A I &.R &.Y Y &.%.p.i.&.&.%.i.%.,.,.,.=.:.$.&.&.&.$.$.$.$.#.#.P P $.U $...P #.$.P $.(.}.,X4XeXfXkXkXzXkXeXqXqXqXqXqXrXrXrXeXeXeXeXfXfXfXfXfXfX1X`.C.;.L g g g v v v g g F v v v v v g Z Z g g g g g g F F Z Z g g g g g g g f g g g g g g Z Z Z C g g g g d d d a d d d d d s s g F L | X.;.;.9.9.9.8.9.9.;.;.*.*.*.*.6.b.~././.).`.{.)./.C.6.9.9.8.8.b.8.9.6.;.6.b./.`./.!.8.*.] a : * * = = = * ",
"ZXZXZXAXCXNXNXCXAXAXAXZXZXZXZXZXZXZXZXZXZXZXZXZXZXZXZXAXAXZXZXGXGXZXZXAXAXAXZXZXZXZXZXZXZXZXGXGXZXZXGXGXGXZXZXZXZXZXAXNXnXcXxXuXwX<X5X5X5X,XtXwXuXxXnXVXCXAXAXAXAXAXAXCXCXVXVXVXCXnXnXnXnXnXnXnXnXnXnXnXnXnXnXnXnXnXnXnXCXAXAXCXZXxX'.V.x.z.>.z.x.s.z.x.x.n.s.x.h.x.n.h.i.s.s.s.s.n.n.c.c.c.s.i.s.s.s.:.z.x.a.:.&.>.s.:.h.h.i.&.%.-.U U U -.&.&.%.y.p.d.c.m.m.m.N.m.m.m.m.m.N.N.m.m.v.g.d.r.-.R A Z Z A Y $.n.S.S.v.s.y.%.G.oXT.T.oX#X#X#XL.F.A.u.T.#X#X&X:X:X9X:X=X=X#XT.F.A.T.$X&X:X9X9X9X:X:X9X:X:X:X9X:X$X#X#XT.G.F.:X:X:X:X=X=X&X$X$X#X$X$X#XT.L.F.G.A.H.g.Z.T.T.F.F.F.F.F.G.G.G.Z.g.p.p.d.g.g.g.g.h.h.h.s.,.R I A A I I Y I G H V V 2 2 V H G G J Y R -.&.&.-.-.-.-.-.-.-.-.-.&.&.&.&.-.T T &.T &.&.&.-.Y Y U %.&.&.&.&.&.=.&.I Y %.Y U C A P Y Y $.&.Y Y R &.i.p.i.i.%.,.,.%.%.%.%.=.$.$.=.=.=.=...#.U ..P ..$.#.$...P ..#.#.>.`.'.}.<XqXfXfXkXzXzXfXrXqXqXqXqXrXrXrXeXeXeXeXfXfXfXfXfXfXqX1X).C.X.L g g v v v g g F v v F F v g g Z g g g g g g v F Z Z g g g g g g g f g g g g g g F F Z Z Z g g g g d d a d d d d z d g D [ X.+.;.6.9.6.6.6.6.5.;.X.X.X.+.*.*.6.b./.^.).`.{.{./.!.6.+.*.*.;.;.b.8.8.9.6.9.C./.{.)./.C.9.+.] c t : * = * * ",
"ZXZXZXCXNXNXNXCXAXAXZXZXAXAXAXZXZXZXZXZXZXZXZXZXZXZXZXAXAXZXZXGXGXZXZXAXAXAXZXZXZXZXZXZXGXGXGXZXZXZXGXGXGXZXZXZXZXZXAXNXnXcXzXeXwX1X5X5X5X<XtXuXuXcXnXVXAXAXAXAXCXCXCXCXCXCXCXVXVXnXnXnXnXnXnXnXnXnXnXnXnXnXnXnXnXnXnXnXNXCXCXCXAXcX4X'.V.>.z.n.x.>.z.>.z.z.s.s.h.n.c.h.s.h.s.s.h.n.n.n.c.x.s.:.s.s.s.s.x.z.x.&.&.i.s.:.v.c.s.&.&.&.-.-.&.&.&.&.%.y.p.d.c.m.m.m.m.m.m.m.m.m.N.N.N.m.m.v.g.f.f.t.%.A A A U -.,.n.s.p.y.%.y.G.T.T.T.oXoXoXL.F.G.u.y.T.#X#X&X=X:X9X=X=X:X$XT.T.H.#X$X=X:X9X9X9X9X9X9X9X9X9X:X:X&X#X#XT.G.T.:X:X:X:X=X=X&X$X$X$X$X$X#XT.T.L.F.H.H.g.G.F.F.F.F.F.F.F.G.G.A.Z.v.p.y.a.d.d.d.d.h.h.a.p.:.I 2 V A G G I I A V 2 V C A G J J Y Y Y R -.&.&.&.&.&.&.&.&.&.&.&.&.&.&.&.&.R &.%.&.&.&.&.&.R &.Y %.%.&.%.,.&.-.U U U &.U U U U Y R Y &.&.Y Y R &.%.i.i.s.&.,.%.&.&.%.=.&.$.&.=.=.=.=.P $...P P $.$.#.$.#.......$.x.'.'.}.1X4XrXfXkXzXzXzXfXeXqXqXqXrXrXrXeXeXrXeXeXeXeXfXkXfXfXqX,X).9.X.F g F F F F g Z Z F F F v g g g v g g g g g g g g g Z Z g g g f g g g g g g g g Z Z Z Z Z g g g g d d d d d d d c D  .X.*.;.5.9.8.9.;.*.+.X.X.X. .X.+.*.5.9.9.b.!.~./././.~.C.9.;.X.X.+.*.6.8.!./.!.!.~./.).).`./.b.8.6.+.| m a * = * * ",
"ZXZXAXCXNXvXNXCXAXAXZXZXAXAXAXAXZXZXZXZXZXZXZXZXZXZXZXAXAXZXZXGXGXZXZXAXAXAXZXZXZXZXZXZXGXGXZXZXZXZXZXGXZXZXZXZXZXAXCXNXnXxXuXwX2X,X5X5X5X2XwXuXxXcXnXVXAXAXAXAXCXCXCXVXCXVXCXCXVXVXnXnXnXnXnXnXnXnXnXnXnXnXnXnXnXnXnXnXNXCXCXCXAXvXuX1XV.>.s.z.x.z.>.>.x.x.x.x.x.c.c.x.z.n.x.x.x.x.n.n.x.a.s.s.s.s.s.z.s.z.x.=.,.i.s.s.c.n.c.s.&.&.%.%.%.&.&.%.r.p.d.c.v.m.m.N.m.m.m.M.M.N.N.N.N.N.m.k.k.j.j.f.t.-.A Y Y U $.,.%.%.&.T y.Z.F.T.T.L.L.L.F.A.y.R T T.#X$X$X&X=X:X&X&X=X#XT.T.u.T.#X=X9X9X9X9X9X9X9X9X9X9X9X:X$X#XoXT.H.F.:X:X:X:X:X=X&X$X$X$X$X#X#XT.T.T.G.A.H.g.G.F.F.F.L.F.F.F.G.G.G.Z.m.d.p.p.d.d.h.h.h.h.a.p.%.A V C Z A A G G V V V A G J J J R -.&.Y Y R -.&.%.%.%.%.%.%.%.%.&.&.&.T &.%.&.&.&.&.&.&.T &.&.&.Y %.&.&.%.,.&.:.&.U I &.U U U &.%.I U &.&.R Y &.%.&.i.s.s.R &.&.&.&.&.&.$.$.$.$.$.$.$.#.$.X.P ..$.#.$.$.#.......z.b.}.}.'.}.1X4XrXfXzXzXbXbXfXrXqXqXrXrXrXeXeXrXrXeXeXeXkXkXkXfXfX0X|.^.8.X.v F F F F F F F F F F v v v v g g g g g g g g g g Z Z Z g g g g g g g g g g g Z Z Z Z Z g g g g d d d d d d d c M X.*.*.5.5.9.9.6.;.+. .[ L [ X.X.;.6.9.8.8.8.b.b.8.9.9.9.5.*.X.| +.*.6.8./.).).^.~./.).`.)./.!.8.9.9.5.+.D a : * * * ",
"ZXZXAXVXvXvXCXCXAXZXZXZXAXAXZXZXZXZXZXZXZXZXZXZXZXZXZXAXAXZXZXGXZXZXZXAXAXAXZXZXZXGXGXGXZXGXZXZXZXZXGXGXZXZXZXZXZXAXCXnXcXzXeXwX1X'.'.5X5X2XwXuXxXmXVXAXAXAXAXAXCXCXCXCXCXnXVXCXnXnXnXnXnXnXnXnXnXnXnXnXnXnXnXnXnXnXnXnXNXCXCXCXCXNXnXeX(.z.x.s.x.x.>.>.x.x.x.x.x.h.c.c.x.V.n.c.x.c.c.x.z.s.s.s.s.s.z.a.:.s.s.i.i.i.s.x.c.n.c.s.%.%.i.s.s.&.&.i.i.p.d.c.v.m.m.N.N.Z.Z.Z.Z.M.N.N.N.N.m.m.N.N.j.f.f.&.&.R I Y $.&.&.&.%.%.y.g.F.F.F.F.D.D.k.T T R T L.#X$X#X#X&X=X#X#X&X#XT.L.w.T.#X=X9X9X9X9X9X9X9X9X9X9X:X:X&X#XoXT.d.Z.:X:X:X:X:X:X&X$X#X#X#X#XT.T.T.L.F.A.H.k.G.F.L.L.L.L.L.F.F.G.G.Z.m.y.&.p.a.a.a.a.h.h.a.p.%.C V V V C Z Z G H H G G J -.-.-.-.&.r.T T -.&.r.r.r.r.r.r.r.%.%.%.&.&.&.%.i.%.&.&.&.&.&.T &.&.&.&.&.&.%.,.%.&.i.:.&.I =.U Y &.,.,.Y Y &.%.&.T &.,.&.%.i.i.U &.&.&.&.&.&.$.$.$.$.$.$.$.#.#.$.P $.$.P *.$.#.......'.,X<X1X}.'.}.<XqXfXzXbXzXbXzXfXqXrXrXeXeXeXeXeXeXeXeXeXeXkXkXfXfXfX0X|.(.9...F g F F F F F F F F F v F F F v g g Z g Z g g g Z Z g g g g Z Z Z Z g g g g g g Z Z Z Z g d g g c d z z c c c M  .X.*.;.5.6.6.;.+.X.| L L  .+.;.9.8.8.8.8.9.6.6.*.*.+.+.X. . . .;.5.b.!.^.).)./.C.!.~.^./.C.8.9.6.8.8.6. .D d t * * ",
"ZXAXAXnXvXNXCXAXAXZXZXZXZXAXZXZXZXZXZXZXZXZXZXZXZXZXZXAXAXZXZXGXGXZXZXAXAXAXZXZXZXGXGXGXZXZXZXZXZXZXGXGXZXZXZXAXAXCXNXcXxXuXwXqX,X'.'.5X,XtXwXuXxXmXVXAXAXAXAXAXCXCXCXCXCXnXVXnXnXnXnXnXnXnXnXnXnXnXnXnXnXnXnXnXnXnXnXnXNXNXNXCXCXnXNXcX1XV.V.x.x.x.>.>.z.z.z.z.x.s.n.c.n.n.n.x.z.x.h.z.a.s.s.s.z.z.a.s.i.s.%.a.s.:.s.n.v.c.s.&.a.s.i.i.a.%.&.a.p.r.p.p.v.m.m.m.A.A.A.Z.Z.Z.N.N.N.N.N.N.M.M.k.j.f.f.t.p.-.T U U %.%.i.p.y.p.F._.F.F.S.Z.y.T R I w.F.T.T.#X#X$X&X#X#X$X#XT.F.R L.#X=X9X9X9X9X9X9X9X9X9X9X:X:X&X#XoXoXy.g.:X:X:X:X:X:X$X$X#X#X#X#X#XT.T.T.F.A.H.k.G.L.L.L.L.L.F.F.G.D.G.Z.m.Y J i.p.p.p.a.h.a.a.s.&.V V V V V V C G G Y R -.-.T T r.r.&.&.&.&.r.r.r.r.r.r.r.r.r.r.%.&.&.%.r.r.r.&.%.i.&.&.T T &.%.%.%.%.%.&.:.%.&.:.i.,.#.%.$.U &.,.&.,.Y &.%.%.&.&.%.&.%.%.%.R %.%.&.&.&.$.#.$.#.$.#.$.$.#.P $.P *.$.P *.$.$.....>.'.4XrXqX1X}.'.1X<XqXfXzXbXzXbXzXrXqXrXeXeXeXeXeXeXeXeXeXeXkXkXkXfXfXfX0X}.~.6...F F F F F F F F F F v F F F v g g Z g Z g g g Z Z g g g g Z Z Z g g g g g g g Z Z Z g g d g g c d z z c c c v [  .X.+.5.5.;.*. . . . .X.+.5.9.b.b.8.8.9.6.;.*. . . .| |  .X.X.6.9.C.!.!.~.!.b.9.b.C.~.~.8.5.5.6.8.C.C.9.*.[ d * * ",
"ZXAXCXNXvXNXCXAXAXAXAXAXZXZXZXZXZXZXZXZXZXZXZXZXZXZXZXZXZXZXZXZXZXZXZXZXAXAXZXZXZXZXZXZXZXZXGXGXGXGXGXZXZXZXZXAXCXCXNXvXcXkXwX2X,X5X5X,X<XqXuXzXcXnXCXAXAXAXAXCXCXCXCXVXVXVXVXVXCXCXCXVXnXnXnXnXnXnXnXnXnXnXnXnXnXnXnXnXnXnXVXCXCXnXnXnX2X(.'.C.z.z.>.>.s.s.z.x.n.z.x.x.x.z.x.s.s.x.z.x.z.z.x.:.z.x.h.s.i.s.s.x.i.i.h.v.n.x.i.%.&.i.s.a.i.%.s.i.a.a.a.p.g.m.m.M.A.A.A.A.N.M.N.M.M.M.Z.N.N.N.j.k.j.f.f.f.j.f.r.-.p.i.i.y.y.p.D.F.F.D.m.f.g.T T u.Z.G.L.oXL.#X#X#X#X#X:X#X#Xk.R H.&X=X=X=X=X&X&X&X9X#X&XyX:X:X$X#X#XT.R g.$X$X-X-X$X$X$X#X#X#XT.T.T.T.T.L.F.Z.u.T D.T.F.F.F.F.F.F.G.Z.A.Z.h.H V I i.y.p.%.a.a.a.i.Y V V V V A J G J Y -.-.-.r.r.-.r.r.r.r.r.r.y.y.y.y.y.y.y.y.r.r.r.&.&.r.i.%.%.%.%.r.&.%.T &.&.i.i.i.&.,.&.i.&.%.,.:.,.%.%.&.&.%.,.&.s.&.&.&.i.%.%.i.&.%.%.&.&.%.&.-.=.=.#.$.$.$.$.#.$.U #.P #...$.#...$.$.*...P ~.,XqXeXrX4X,X}.}.1X4XrXkXbXbXbXbXfXeXrXeXeXeXeXeXrXeXeXeXeXfXfXfXfXfXfXfX0X}.~.*.[ F F F F F F F F v v v v v v v v g g g g g g g g Z g v v v v Z g g g Z Z g g g g g g g g g g c d g g c z z v M [ | X.*.*.X. .L [ X.*.;.6.8.C.!.C.b.8.;.;.*.+.X. . . .X.+.;.;.b.!.!.C.b.9.6.;.;.5.6.6.6.6.;.*.5.b././.~.8.5. .L d ",
"ZXAXCXvXvXCXCXAXZXAXAXAXZXZXZXZXZXZXZXZXZXZXZXZXZXZXZXZXZXZXZXZXGXZXZXZXAXAXZXZXGXGXZXZXZXZXGXGXGXGXZXZXZXZXZXAXAXCXNXvXxXuXqX1X5X5X5X,X2XwXuXxXcXnXCXAXAXAXAXCXCXCXCXVXVXVXCXVXCXCXCXVXnXnXnXnXnXnXnXnXnXnXnXnXnXnXnXnXnXnXnXCXCXVXnXnXqX'.5XV.z.s.z.z.=.>.x.n.V.z.x.x.z.>.s.:.z.s.n.x.x.n.s.z.x.z.s.s.s.s.s.s.:.s.c.v.x.x.i.%.i.a.s.a.s.r.a.i.d.d.d.d.g.k.m.m.Z.A.A.A.A.A.A.A.M.M.A.N.N.N.D.k.k.k.j.j.m.j.f.t.p.i.i.y.p.p.Z.S.Z.m.g.p.f.y.u.m.D.D.F.L.oXoX#XL.#X-X#X#XL.u.r.g.=X&X8X:X$X$X$X$X8X9X:X9X=X$X$X#XoXF.R g.$X$X$X$X$X$X#X#XT.T.T.T.T.T.L.F.F.A.T R F.oXG.G.D.G.G.G.G.Z.Z.S.&.A H I I Y &.i.a.s.%.%.V V V A J Y -.-.-.-.&.r.p.&.-.p.p.p.y.y.t.t.t.t.y.y.y.y.y.y.r.r.r.%.%.y.i.r.&.r.r.r.%.%.%.%.&.%.i.%.&.i.&.i.%.&.%.:.:.%.&.&.&.%.,.,.s.%.%.&.i.%.i.a.&.&.%.&.&.&.$.&.:.$.#.#.$.$.$.U $.P #.P #.#.$.....$.*.*.#.=.`.<XqXeXeXqX<X}.}.,X<XqXfXzXbXbXbXbXzXfXeXeXeXeXeXrXeXeXeXeXfXfXfXfXfXfXzXfX3X'.b.;.| F F F F F F F v v v v F F v v g g g g g g g g g g v v v g Z g g g Z Z g g g g g g g g g d g d g g c c d c v M [  . .| [ [ | X.+.5.9.b.C.!./.C.8.5.*.*.+.X.X.+.*.5.6.9.8.8.8.b.b.8.6.;.*.*.*.*.;.;.6.;.*.*.5.b./.).{.^.!.9.*. .",
"ZXAXNXvXNXCXAXAXAXAXAXAXZXZXZXZXZXZXZXZXZXZXZXZXZXZXZXZXZXZXZXGXGXZXZXZXAXAXZXZXGXGXZXZXZXZXZXGXZXZXZXZXZXZXZXAXCXCXvXcXzXeX4X,X'.'.5X1X2XeXuXxXcXnXCXAXAXAXAXCXCXCXCXVXCXCXCXCXVXCXVXVXCXVXnXnXVXVXnXnXnXnXnXnXnXnXnXnXnXnXnXnXCXCXnXnXnXuXwX'.x.z.x.z.=.>.x.x.x.>.z.s.z.:.s.:.z.s.n.x.n.n.s.n.x.h.s.s.s.s.s.i.i.x.n.v.a.a.s.i.a.a.a.s.a.s.d.s.d.d.g.g.g.g.m.m.A.A.A.A.D.D.D.A.A.M.A.M.N.N.D.m.N.N.N.N.N.j.j.t.p.i.p.y.y.p.g.m.m.g.d.g.d.f.g.Z.F.D.G.F.oX#X#XoX$X$XoXL.Z.r.u.u.#X$X:X:X$X$X$X$X$X$X9XyX$X$X$XoXT.G.R h.$X$X$X$X$XoXoXT.T.T.T.F.T.F.F.F.F.v.Y Y v.oXG.G.G.G.G.G.G.Z.H.g.I H A A A A Y &.i.i.%.&.J J Y R -.-.-.-.&.r.t.t.t.p.t.t.p.p.p.p.p.p.p.t.p.y.i.y.y.r.r.%.%.r.i.i.i.y.&.r.r.r.%.r.%.y.&.%.i.%.R %.%.%.i.&.$.i.i.&.&.&.,.,.%.i.a.p.i.R %.,.s.a.&.&.=.&.%.&.-.&.:.$.#.P P $.$.P #.P ..P #.$.$.#.#.*.=.#.#.x.,X4XrXrXeXrX4X,X}.}.1X4XrXzXbXbXbXbXbXfXfXfXeXeXeXrXeXeXeXeXeXeXfXkXfXfXgXgXfX3X).b.*.L F F F F D D F v F F F F F F Z g g g g g Z Z Z Z Z Z v v g g g g Z Z Z Z Z Z F Z F g g g g g g g d d z z c g M L L D L  .+.;.5.9.b.C.!.~.~.C.9.;.*.*.*.;.5.6.9.b.C.b.b.8.9.8.6.;.*.*.+.+.*.;.6.9.9.9.9.9.8.b./.).}.)./.C.8.;.",
"AXCXvXNXNXCXAXAXAXAXAXAXZXZXZXZXZXZXZXZXZXZXZXZXZXZXZXZXZXZXZXGXGXZXZXZXAXAXZXZXGXZXGXZXZXZXZXGXZXZXZXZXZXZXAXCXCXCXvXcXkXwX2X,X'.5X5X2XqXeXuXxXcXnXCXAXAXAXAXCXCXCXCXVXCXCXCXCXVXVXVXVXCXVXnXnXnXVXnXnXnXnXnXnXnXnXnXnXnXnXnXnXnXCXVXnXvXxXxXqXV.x.x.z.>.s.z.z.z.>.s.s.z.s.x.s.s.x.z.n.V.z.n.n.x.s.s.h.s.s.i.:.a.n.n.x.s.a.s.s.v.c.a.s.c.s.c.a.g.d.g.g.g.g.m.m.Z.Z.A.A.D.D.D.D.A.Z.A.M.N.N.m.M.D.M.N.N.N.m.j.f.p.p.y.y.p.p.g.g.g.d.g.v.p.g.m.D.oXD.A.F.F.$XoX$X$X$X$XF.y.y.y.u.F.$X#X:X#X#X$X#X$X$X$X$X$X$XoXoXT.Z.T y.$X$X$X$XoXoXT.L.F.F.F.F.F.F.F.G.S.y.R Y %._._.G.S.G.G.G.Z.Z.g.R I A H A A A Y Y -.&.&.-.T R T T &.r.r.r.t.t.p.p.p.p.p.p.p.d.a.a.a.p.p.p.p.p.i.y.y.r.r.%.%.r.a.s.y.%.%.%.%.%.r.%.&.i.%.i.%.%.R %.%.%.s.&.Y i.:.&.-.&.,.%.,.s.a.a.i.R %.%.p.s.%.&.=.%.%.&.&.-.:.=.$.P P #.#.P ..P P P $.*.*.#.#.*.=.P #.C.1X4XqXqXrXfXqX<X}.}.,X<XqXfXzXbXbXbXzXzXfXfXeXeXeXrXeXeXeXeXeXeXfXfXfXkXzXgXfXrX|.).b.*.F F F F F F F v F F F F F F Z g g g g g Z Z Z Z Z Z g g g g g g Z Z v Z Z Z F g F g g g g d g g g z z z c c v D D L  .+.;.6.9.C.C.C.!.~.C.8.6.;.;.;.6.6.b.b.b.b.b.8.8.8.6.6.5.+.+.+.+.+.6.8.C.~.~.~.~.~.!.!.~.^.).)./.C.b.6.",
"CXNXvXvXNXCXAXAXAXAXAXZXZXZXZXZXZXZXZXZXZXZXZXZXZXZXZXZXZXZXZXGXGXZXZXZXAXAXZXZXZXZXZXZXZXZXGXGXZXZXGXZXZXZXAXCXNXNXcXxXeXqX<X5X'.5X,X2XwXeXzXcXnXnXCXAXAXAXCXCXCXCXCXCXCXCXVXVXVXVXVXVXVXVXVXVXnXnXCXCXnXnXnXnXnXnXnXnXnXnXCXCXCXCXCXCXnXnXvXqX(.x.>.z.x.s.>.>.z.>.z.>.z.z.z.x.s.n.V.n.V.x.V.x.z.s.s.z.i.s.s.s.c.n.n.c.n.c.c.x.c.v.a.i.c.c.c.c.d.g.g.g.g.g.m.m.m.M.A.A.D.D.A.A.A.A.A.M.D.M.M.M.D.D.M.N.N.N.m.j.f.f.p.p.p.r.p.f.f.f.f.g.f.g.N.D.D.D.D.D.A.$Xm.k.k.g.f.u.u.u.u.u.f.F.#X+XF.L.#X:X$X$X#X#X$XoXoXF.oXd.T r.#X$XoXoXoXF.oXF.F.D.D.F.F.F.G.G.Z.R T T R p.v.g.Z.Z.Z.Z.Z.T T A A J J J J J J J R T T T T T -.r.r.r.r.t.d.t.t.p.p.p.p.f.p.d.f.f.a.p.p.p.p.p.i.y.r.r.r.r.r.r.i.p.r.%.%.%.T %.i.&.&.i.i.i.&.i.I %.&.s.i.%.Y s.&.-.U &.%.%.%.s.a.a.i.T &.i.i.i.s.&.=.:.:.%.&.#.=.=.$.P S #.P P P P P $.$.*.=.$.#.$.=.,.>.).<X4XqXqXrXfXrX4X,X}.}.1X4XrXkXzXbXbXbXzXzXfXeXeXeXeXrXrXeXeXeXeXfXkXfXfXfXzXfXfXrX|./.6...F v D F F F F F F F F F F g g g g F F Z Z Z Z F F F g g g g g g g g g F F F g v g v g g g g g c c c c c c g M D | +.5.9.8.b.C.C.C.!.C.9.6.6.6.9.b.!./.^.^./.~.!.8.6.6.5.;.*.*.X.+.;.9.C.~.~./.).{.}.).).).^.).!.b.9.8.9.8.",
"CXvXvXNXCXCXAXAXAXAXAXZXZXZXZXZXZXZXZXZXZXZXZXZXZXZXZXZXZXZXZXZXGXZXZXZXAXAXZXZXZXZXZXZXZXZXGXGXGXZXGXZXZXAXAXCXNXvXvXzXeXqX<X'.'.5X,X<XwXeXzXcXnXnXCXAXCXCXCXCXCXCXCXCXCXCXVXVXCXCXVXVXVXVXVXVXnXnXnXnXnXnXnXnXnXnXnXnXnXnXCXCXCXCXCXCXVXCXvXwX'.(.>.z.x.s.>.>.z.z.z.z.z.s.n.x.z.n.n.x.n.x.V.z.s.z.z.s.s.s.x.n.n.c.n.V.S.v.n.n.c.d.a.i.c.c.d.d.m.c.g.p.g.g.m.m.m.m.Z.A.D.D.A.A.A.A.A.M.D.M.M.M.M.D.D.M.N.N.N.m.j.f.f.u.u.f.j.u.f.f.f.f.u.f.j.m.m.m.m.m.+XD.j.j.f.u.t.t.u.u.u.u.u.k.K.oXoXoX#X6X#X#X#X#X#X#XoXoXL.w.r.y.F.L.oX#XoXL.oXL.D.f.f.A.L.F.Z.m.r.Y R Y R T r.T T T T T R T Y Y J J J T R R T T T T T T -.r.r.r.t.t.t.t.t.g.d.t.d.d.f.d.d.d.f.f.a.p.p.p.p.p.i.r.r.r.r.r.r.r.%.r.%.%.%.&.&.&.%.&.&.i.%.i.T a.R &.%.%.%.Y U s.-.U R &.&.%.%.i.a.p.i.&.%.%.:.:.s.%.%.:.i.%.&.-.=.$.#.$.P P P ..L P ..$.$.>.=.$.#.$.*.,.V.'.4XqXqXrXrXeXfXrX<X|.}.,X<XqXfXzXbXbXbXbXbXzXfXeXeXeXrXrXeXeXeXeXfXkXfXfXfXfXzXfXfXqX}./.6...F F F F F F F F F F F F g g F F F F Z Z Z Z F F F g g Z g g g g g g F F F g v g g g g g g g c c c c c c v D [ X.;.9.8.8.b.b.b.b.9.9.6.6.9.8.C./.^.).`.).^./.C.9.5.5.;.*.*.*.;.6.8.!.^.).).).).{.}.}.}.`.).).b.9.6.6.b.C.",
"NXvXNXCXCXAXAXAXAXAXZXZXZXZXZXZXZXZXZXZXZXZXZXZXZXZXZXZXZXZXZXZXGXZXZXZXAXAXZXZXZXZXZXZXZXZXGXGXGXGXGXZXZXAXAXCXvXvXxXzXwX<X,X'.5X5X,X<XeXuXzXcXnXnXCXAXCXCXCXCXCXCXCXCXVXVXVXVXCXCXCXCXVXCXVXVXnXVXVXnXnXnXnXnXnXnXnXnXVXVXCXCXVXCXCXCXCXCXvXuXtX].x.x.x.s.>.>.z.z.z.z.z.n.x.n.z.c.x.s.z.x.n.:.>.x.z.:.s.z.n.n.x.x.c.V.V.n.v.c.v.a.s.a.c.c.d.c.g.c.g.g.g.g.m.m.m.m.Z.A.D.D.D.A.D.A.D.D.D.D.M.M.D.D.D.M.N.M.N.N.m.m.j.j.j.j.M.f.j.j.j.j.j.j.j.j.j.j.j.j.j.j.j.j.j.j.f.u.f.j.j.j.j.j.u.j.j.u.j.M.A.A.A.A.oXL.K.D.t.r.w.r.r.f.m.D.D.m.k.u.T T T T u.r.w.R Y R T R T T &.&.r.r.r.r.r.u.r.r.T -.r.r.r.r.r.r.r.r.r.-.r.r.r.t.p.p.p.p.p.p.f.f.f.f.d.d.d.f.f.f.a.p.p.p.p.p.y.r.r.r.r.r.r.r.r.&.&.r.i.%.&.&.&.%.i.i.&.i.&.s.&.&.,.&.%.R &.i.&.U &.%.&.%.,.%.h.%.%.&.%.%.%.s.:.&.%.:.s.:.=.&.&.$.$.P P P P ..L P ..#.$.>.>.$.#.$.>.x.(.}.qXqXrXrXrXrXfXfXqX1X}.}.1X4XrXkXzXbXbXbXbXbXzXfXfXeXeXrXeXeXeXeXeXfXfXkXfXkXkXzXfXfX3X}.~.;.[ F F F F F F F F F F F F F F F F F F F Z Z v v F F F F F F Z F Z F F F F g F g g g g g g g c c c c c c v D | +.5.9.8.9.9.9.6.6.5.6.9.b.C.~./.).).`.`.`.^.~.9.;.;.;.;.;.;.;.9.b.!./.).).).).^.^.).`.{.{.`.).C.9.6.9.C.~.",
"vXvXNXCXAXAXAXAXAXAXZXZXZXZXZXZXZXZXZXZXZXZXZXZXZXZXZXZXZXZXZXZXGXZXZXZXAXAXZXZXZXZXZXZXZXZXGXGXGXGXZXZXAXAXCXNXvXvXzXuXqX<X5X'.'.5X,X2XeXuXxXcXnXnXCXAXCXCXCXCXCXCXCXVXVXVXVXVXCXCXCXCXCXCXVXVXnXVXVXnXnXnXnXnXnXnXnXnXVXVXCXCXVXCXCXnXnXCXvXzXeX].'.x.x.s.>.>.z.z.z.z.x.x.n.n.x.x.x.>.z.x.n.:.s.s.:.:.s.s.x.n.:.x.n.n.n.c.a.a.v.s.i.a.c.c.d.c.p.d.v.Z.g.g.k.m.m.m.Z.A.D.D.D.A.D.D.D.D.D.D.M.M.M.D.D.M.M.N.M.M.j.k.M.A.A.k.M.k.j.k.k.j.M.k.j.j.j.j.j.j.j.j.j.k.M.k.j.j.j.j.j.j.j.k.M.M.k.j.k.M.k.k.k.k.k.l.j.f.u.f.j.k.j.f.u.t.r.w.t.r.w.r.r.w.u.u.t.t.t.r.r.r.t.t.f.f.f.f.f.f.t.t.t.u.u.t.r.r.r.r.r.r.r.r.r.r.r.r.t.t.t.f.p.p.p.p.f.j.g.g.g.d.d.d.a.a.p.p.p.p.p.i.r.r.r.r.y.y.r.r.y.&.T r.i.%.&.T &.i.s.i.&.i.i.i.&.%.%.%.&.%.%.%.%.$.&.%.&.i.,.&.s.%.%.%.%.&.%.i.&.%.%.i.s.%.&.&.=.$.#.#...P P L P ....#.$.>.;.$.#.$.b.(.).`.qXqXrXrXrXrXfXfXrX1X,X}.,X<XqXfXzXbXbXbXbXbXxXzXfXfXeXeXeXeXeXeXeXfXfXkXfXkXfXfXzXfXrX3X`.b.*.[ F F F F F F F F F F F F F F F F F F g g v v v v F F F F F F Z Z F F F g g g g g g g g g c c c c c c v M | X.;.6.6.5.;.;.;.;.5.5.8.C./.^.).).).`.`.).~.C.5.*.*.;.;.5.6.9.b.!.~.~././././.C.b.b.C.^.).).).!.b.8.b.~.).",
"vXvXNXCXCXCXAXAXAXAXZXZXZXZXZXZXZXZXZXZXZXZXZXZXZXZXZXZXZXZXZXGXGXZXZXZXAXZXZXZXZXZXZXZXZXZXZXZXZXZXZXZXAXAXCXvXvXxXzXeXqX1X'.'.'.5X1XqXeXuXxXcXnXCXAXCXCXCXCXCXCXCXCXCXCXCXCXCXCXCXCXCXCXCXCXCXCXCXCXCXnXnXnXnXnXnXVXVXCXCXCXCXnXCXVXnXnXnXvXcXwX5X(.x.x.6.>.6.6.z.z.z.x.n.n.x.x.x.x.x.x.x.z.:.s.>.>.>.s.s.z.s.s.x.c.x.x.x.c.c.n.i.%.a.v.v.s.a.g.v.v.d.g.g.v.m.m.m.Z.A.D.D.D.D.D.D.D.A.A.M.M.M.M.D.M.M.M.N.M.M.m.M.M.M.M.M.M.k.M.M.M.M.k.k.j.j.j.j.j.j.j.j.j.j.j.j.k.M.M.M.M.M.M.M.M.M.M.M.M.M.M.M.J.M.k.M.M.M.M.M.M.M.M.M.k.k.j.j.j.u.u.u.u.u.u.j.k.M.f.f.f.f.u.u.u.u.f.f.f.f.u.u.u.u.f.f.t.t.r.t.t.t.t.t.f.t.t.t.t.t.f.f.f.f.f.f.f.f.g.g.d.d.d.f.p.p.s.p.p.p.p.y.r.r.r.r.y.i.y.&.s.r.&.%.r.%.%.T &.%.i.T %.R i.%.%.%.%.%.%.i.:.&.,.&.&.&.%.i.:.-.:.,.,.&.%.&.&.%.$.%.:.s.i.=.$.&.&.$.$.$.#.L P P ......X.$.*.*.$.#.#.b.(.,XqXqXqXqXqXqXrXfXfXeXqX<X,X}.1X4XrXfXzXzXzXbXbXbXzXzXeXeXeXeXeXeXeXeXfXfXfXkXkXkXkXzXzXfXrX3X).b.$.L D F F F F F F F F F F F F F F F v v v F F F F F F F F F F F F F F F Z g g g g g g g g c v v v v v v M  .X.+.*.*.+.X.X.+.*.6.b.C.~.^.^.).).`.`.).~.b.6.;.*.*.;.9.8.C.~.).).).).).).^.~.C.b.9.b.b.!.(.).~.C.C./.).`.",
"vXNXCXCXCXCXAXAXAXAXZXZXZXZXZXZXZXZXZXZXZXZXZXZXZXZXZXZXZXZXZXGXGXZXZXZXAXZXZXZXZXZXZXZXZXZXZXZXZXZXZXZXAXCXCXvXxXxXzXeXqX1X'.'.5X,X<XqXuXzXxXcXnXCXAXCXCXCXCXCXCXCXCXCXCXCXCXCXCXCXCXCXCXCXCXCXCXCXCXCXnXnXnXnXnXnXVXVXCXCXCXCXnXnXnXnXnXcXcXcXxXuX_.V.z.6.>.6.z.z.z.z.x.n.x.x.x.x.x.x.n.x.>.>.s.s.>.:.s.s.s.z.z.x.x.h.a.x.c.n.c.s.i.h.d.v.a.c.g.v.v.d.g.g.v.v.m.m.Z.A.D.D.D.D.D.D.D.A.A.A.M.M.M.D.M.M.M.M.M.M.M.M.M.M.M.M.M.M.M.M.M.M.M.M.M.M.M.M.j.j.j.M.M.M.k.k.M.M.M.M.M.M.M.M.M.M.D.M.M.M.K.M.K.A.k.M.M.M.M.M.M.M.M.M.M.M.M.m.k.k.j.j.j.j.j.j.k.k.j.j.j.j.j.j.j.j.j.j.j.j.f.f.f.f.f.f.f.t.f.t.t.f.f.j.t.f.u.u.f.f.f.f.f.f.f.f.f.f.g.g.d.d.d.f.p.p.p.p.p.p.p.y.r.r.r.r.r.y.r.&.s.p.r.T %.&.%.T &.&.&.T %.R i.%.%.%.%.&.T &.i.:.&.&.&.R %.%.%.&.,.,.,.&.&.&.&.&.-.%.:.s.:.%.$.%.&.$.$.$...P P P ........#.$.$.$.#.#.C.).1XrXqXqXqXqXqXrXfXfXfXeXqX1X|.,X<XqXeXzXzXzXbXbXbXzXzXfXeXeXeXeXeXeXeXeXfXfXfXkXkXkXkXzXfXfXrX1X).b.*.L F F F F F F F F F F F F F F F v v v F F F F F F F F F F F F F F F Z F F v v g g g g c v v v v v v v [ |  .X. . .[ [ +.;.b.C.~./.).^././.~.~.C.8.6.;.5.6.9.8.C.C.~.^.).`.).)././.~.C.b.b.b.b.C.~.).).(./.~.(.).).",
"vXCXCXAXCXCXAXAXAXAXZXZXZXZXZXZXZXZXZXZXZXZXZXZXZXZXZXZXZXZXZXGXZXZXZXZXZXZXZXZXZXZXZXZXZXZXZXZXZXZXZXZXAXAXCXvXxXzXuXwXtX1X'.'.'.,X2XwXuXzXxXcXnXAXCXCXCXCXCXCXCXCXCXCXCXCXCXCXCXCXCXCXCXCXCXCXCXCXCXCXnXnXVXnXnXnXVXVXVXCXCXCXVXVXnXvXvXcXcXcXzXuX].V.z.6.>.z.z.z.z.6.z.x.x.z.x.x.x.x.V.z.>.z.>.>.>.:.>.>.s.x.x.z.s.i.s.x.x.c.x.a.h.c.d.v.a.c.g.v.v.d.v.v.v.g.v.m.Z.A.D.D.D.D.D.D.D.D.D.A.A.A.D.A.A.M.M.M.M.M.M.M.D.K.K.M.M.M.M.M.M.M.M.M.M.M.M.M.M.l.l.M.M.M.M.M.M.M.M.M.M.M.M.J.J.K.M.M.M.M.K.M.K.A.k.M.M.M.M.M.M.M.k.k.M.M.M.M.M.M.M.M.M.M.j.j.j.j.j.j.j.j.j.j.k.j.j.j.j.j.j.j.j.j.j.f.f.f.N.t.k.f.f.j.t.j.f.f.f.f.f.f.f.f.f.f.f.f.f.f.d.d.d.f.p.p.p.p.i.i.r.r.%.%.%.%.%.r.r.%.i.s.i.%.T &.&.&.%.&.Y &.%.R i.%.%.i.%.Y &.R %.i.&.%.%.Y %.%.:.,.,.%.%.%.$.&.&.$.&.=.:.:.:.=.&.=.$.$.#.#.......P P ......#.#.$.#.#.#.b.(.}.qXqXqXqXqXqXrXfXfXeXfXeXqX,X}.1X4XrXfXzXzXbXbXzXzXzXzXfXeXeXeXeXeXeXeXfXfXfXkXkXkXfXkXfXzXfXqX,X(.x...F F F F F F F F F F F F F F F F v F F F F F F F F F F F F F F F F F F F F Z g g g g g g g v v v v M F D L L L L [ [ *.6.b.C.~././.~.C.b.b.9.6.6.;.6.6.b.C.C.~./.^.^././.~.~.C.b.b.b.!.~././.(.).).).).).).).).).",
"NXCXCXCXCXAXAXAXAXAXZXZXZXZXZXZXZXZXZXZXZXZXZXZXZXZXZXZXZXZXZXZXZXZXZXZXZXZXZXZXZXZXZXZXZXZXZXZXZXZXZXZXAXCXCXvXxXxXuXwXtX,X'.'.5X,X2XeXuXzXxXnXCXAXCXCXCXCXCXCXCXCXCXCXCXCXCXCXCXCXCXCXCXCXCXCXVXCXCXCXnXnXVXVXnXnXVXVXVXCXCXCXVXVXnXvXvXcXcXcXxXeXqX_.z.6.>.z.z.>.z.>.z.z.x.z.x.x.x.x.x.z.z.s.>.>.:.:.>.>.x.x.s.s.:.:.a.x.x.n.a.h.v.v.v.v.s.s.g.c.v.d.v.v.v.v.v.m.Z.A.A.D.D.D.D.D.D.D.D.A.A.A.D.A.A.M.M.M.M.M.M.M.K.K.K.J.M.M.M.M.M.M.M.M.M.M.M.M.M.M.M.M.M.M.M.M.B.B.B.J.M.M.J.J.K.K.M.M.M.M.M.M.J.M.k.M.M.M.M.M.M.M.j.M.M.M.M.M.M.M.M.M.M.M.M.M.M.M.M.M.M.M.M.k.k.k.k.k.k.j.j.j.j.j.j.j.f.f.f.N.f.j.j.f.k.f.f.f.f.f.f.f.f.f.f.f.f.f.f.f.d.d.f.f.p.p.p.p.i.i.r.r.&.&.%.%.%.%.r.r.r.s.i.%.&.R &.&.i.T I &.&.R i.%.%.i.%.%.Y &.%.,.i.i.i.U :.:.%.:.%.%.&.%.U &.=.U =.=.=.:.=.&.&.=.$.$.....P ....P P P ..X.#.$.#.#.#.#.z.~.'.1XqXqXqXqXqXqXrXfXfXeXfXfX<X}.,X<XqXfXzXzXbXbXbXzXzXzXfXeXeXeXeXeXeXeXfXfXfXfXkXkXfXfXkXfXfXfXqX|./.>.| L F F F F F F F F F F F F F F F F F F F F F F F F F Z Z F F F F F F F F F g g g g g g g v v v v v g v F F L [ ..X.;.6.b.C.C.~.C.b.x.9.>.;.;.>.6.6.9.C.C.~./.(./.~.C.b.b.b.6.6.x.C.(.`.{.).}.`.).).`.'.).).).).",
"NXCXCXCXCXCXAXAXAXAXZXZXZXZXZXZXZXZXZXZXZXZXZXZXZXZXZXZXZXZXZXGXZXZXZXZXZXZXZXZXZXZXZXZXZXZXZXZXZXZXZXAXAXCXVXvXvXxXuXwX<X,X'.'.5X1XqXeXuXzXxXnXCXCXCXCXCXCXCXCXCXCXCXCXCXCXCXCXCXCXCXCXCXCXCXCXCXCXCXCXCXCXCXVXVXVXVXCXCXVXCXVXCXVXVXvXcXcXcXcXzXuXqX'.V.z.z.>.>.>.z.>.>.z.z.x.x.>.>.x.x.z.z.z.>.>.>.:.>.:.z.:.>.:.:.s.x.n.:.x.i.x.n.v.S.v.i.a.d.c.v.v.g.v.m.d.S.Z.Z.N.Z.Z.D.D.D.D.D.D.D.A.A.A.A.A.A.M.M.A.K.K.M.M.K.M.J.M.M.J.K.K.M.M.M.M.M.M.M.B.B.B.M.M.M.M.K.K.J.J.J.J.J.M.J.K.K.K.M.J.K.M.M.M.K.M.M.M.M.M.M.M.M.M.M.M.D.M.M.M.M.M.K.M.M.M.M.M.M.M.M.M.M.M.M.M.M.M.k.M.M.M.M.j.j.j.j.j.j.j.j.j.j.j.j.j.j.j.p.f.f.j.f.f.f.f.f.f.f.f.d.d.d.f.f.f.p.p.p.p.y.r.r.r.%.%.%.%.&.%.r.r.&.i.y.&.%.Y &.%.r.T H &.&.%.i.%.%.i.%.i.I R %.%.i.i.:.$.:.&.&.:.:.&.$.&.#.=.=.P =.%.=.&.=.&.&.=.$.$.#.P L ....P ..$.#.$.#.#.#.P P $.>.V.`.,X4XqXqXqXqXqXrXrXeXfXfXfXqX,X,X1X4XrXfXzXbXbXzXzXzXzXzXfXeXeXeXeXeXfXfXfXfXkXkXkXkXkXzXzXzXkXeX3X`.V.*.S S F F F F F F F F F F F F F F F F F F F F F F F Z Z F Z Z Z F F F F F F g g g g g g g v v v v v v v g F L X.;.6.b.C.C.C.C.b.x.6.;.*.$.$.*.>.b.V.V.~.~././.~.C.8.6.>.;.;.$.*.6.V.(.}.1X1X|.}.`.).).).(.).).).",
"NXCXCXCXCXCXAXAXZXZXZXZXZXZXZXZXZXZXZXZXZXZXZXZXZXZXZXZXZXZXZXGXGXZXZXZXZXZXZXZXZXZXZXZXZXZXZXZXZXZXAXAXCXCXnXvXvXzXeXtX1X5X'.'.5X<XqXeXuXzXxXnXCXAXCXCXCXCXCXCXCXCXCXCXCXCXCXCXCXCXCXCXCXCXCXCXCXCXCXCXCXCXCXVXVXVXVXVXCXVXCXVXCXCXnXvXcXcXcXcXxXkXrX1X_.(.z.z.6.>.>.>.>.>.z.x.x.s.s.x.z.s.s.s.>.>.>.>.>.:.>.>.>.>.s.h.z.n.i.x.h.n.n.v.S.d.a.p.d.c.c.v.g.v.a.m.Z.m.g.g.M.Z.A.D.D.D.D.K.J.A.A.A.A.A.M.M.M.K.K.K.M.J.M.K.J.J.J.K.K.K.M.M.B.M.B.B.J.B.J.J.J.J.J.J.K.K.J.J.J.J.J.J.K.K.K.K.M.K.K.M.M.M.M.M.M.M.M.M.M.M.M.M.M.M.D.M.M.M.M.M.K.M.M.M.M.M.M.M.M.M.M.M.M.M.M.M.M.M.M.M.M.M.j.j.j.j.j.j.j.j.j.j.j.j.j.j.f.f.f.j.f.f.f.f.f.f.f.f.d.d.f.f.f.f.p.p.p.y.r.r.r.r.r.r.r.%.%.%.y.i.&.&.&.T %.R &.%.%.&.Y Y T &.%.%.%.:.,.%.&.%.%.%.%.&.$.=.=.#.U =.:.&.$.&.$.=.=.U $.=.=.$.=.=.$.$.$.$.$.P L ........$.$.#.P P P P P U =.n.(.}.4X4XqXqXqXqXqXrXfXfXfXfXrX3X,X1X<XqXeXzXxXbXzXzXbXbXzXfXeXeXeXeXeXeXfXfXfXkXkXkXkXkXzXzXzXzXkXeX1X`.C.$.L S L S F F F F F F F F F F F F F F F F F F F F F F F F F F S F F F F v Z g g g v v v v v v v v F F L L X.*.9.b.C.V.C.C.b.x.6.>.;.;.;.;.>.9.C.~./.(.).`./.C.b.9.;.;.*.*.*.>.b.~.(.}.3X1X<X,X'.`.).(.(.).(.(.",
"CXCXCXCXCXAXAXAXAXAXZXZXZXZXZXZXZXZXZXZXZXZXZXZXZXZXZXZXZXZXZXGXGXZXZXZXZXZXZXZXZXZXZXZXZXZXZXZXZXZXZXAXCXCXvXvXxXuXwXtX,X'.'.'.5X2XwXuXuXxXcXnXCXAXAXCXCXCXCXCXCXCXCXCXCXCXCXCXCXCXCXCXCXCXCXCXCXCXCXCXCXCXVXVXVXVXCXCXCXCXCXVXCXCXnXcXcXcXcXcXcXzXuXqX5X(.>.>.z.z.>.>.>.>.>.z.z.z.z.z.z.s.s.s.s.>.>.>.>.>.:.>.:.>.s.h.x.s.s.n.n.n.n.c.c.a.d.i.d.d.c.v.g.p.m.m.D.S.m.m.Z.A.D.D.D.D.D.K.A.A.A.A.A.M.M.M.M.K.K.K.M.M.K.K.K.K.K.K.K.K.J.J.J.J.J.J.J.J.J.J.K.K.K.K.K.K.J.J.J.J.J.J.K.K.K.K.M.K.K.M.M.M.M.M.M.M.M.M.M.M.M.M.M.M.D.M.M.M.M.M.K.K.M.M.M.M.M.M.M.M.M.M.M.M.M.M.M.M.M.M.M.M.k.j.j.j.j.j.j.j.j.j.j.j.j.j.j.j.j.f.j.f.f.f.f.f.f.f.d.f.f.f.p.p.p.p.i.r.r.r.r.&.&.r.%.%.%.r.r.i.&.&.&.T r.R &.%.%.&.R R R R &.s.%.,.$.Y U U &.&.$.U $.$.#.$.#.&.=.&.$.$.#.=.&.$.$.$.&.$.=.&.$.$.$.$.#.P L $.$...P ..#.P P P U #.#.U $.x.(.'.4XqXqXqXqXqXqXrXrXeXeXfXeXqX1X,X1X4XrXfXzXzXxXxXbXxXzXfXfXfXfXfXkXkXfXkXfXfXkXkXkXkXzXzXzXzXzXkXfX1X).b.$.P L L L S F F F F F F F F F F S F F F S F F F F F S S S S S S F F F Z Z g g g v v v v v v v F D L ..X.;.9.C.~././.~.C.b.x.9.9.6.6.9.6.b.V.~.(.`.`.`.`./.~.V.V.V.C.b.b.x.C.(.`.'.,X<X1X<X<X,X}.`.(.(.(.(.(.",
"CXCXCXCXCXCXAXAXAXAXZXZXZXZXZXZXZXZXZXZXZXZXZXZXZXZXZXZXZXZXZXGXGXZXZXZXZXZXZXZXZXZXZXZXZXZXZXZXZXZXAXAXCXnXvXcXuXeXqX<X5X'.'.'.,X2XwXuXuXxXcXnXCXAXAXAXCXCXCXCXCXCXCXCXCXCXCXCXCXCXCXCXCXCXCXCXCXCXCXCXCXCXCXCXVXVXCXVXCXCXCXCXCXnXvXcXcXcXcXcXcXzXkXrX4X'.V.x.z.x.,.>.>.>.>.>.z.z.z.z.s.s.s.s.>.>.:.>.>.z.>.>.:.>.s.h.:.c.n.s.n.n.n.x.i.v.s.i.a.d.c.v.y.v.m.m.Z.Z.Z.Z.A.D.A.D.D.D.D.J.A.A.A.A.A.M.A.M.A.K.K.K.D.M.K.K.K.K.K.K.K.K.J.K.K.K.K.K.K.K.K.K.K.K.K.K.K.K.J.J.J.J.J.J.K.K.K.K.M.K.K.M.M.K.M.M.M.M.M.M.M.M.M.M.M.M.M.M.M.M.M.M.M.K.M.M.M.M.M.M.M.M.M.M.M.M.M.M.M.M.M.M.M.M.M.k.k.k.j.j.j.j.j.j.j.j.j.j.m.m.j.f.f.f.f.f.f.f.f.d.f.f.f.p.p.t.p.y.r.r.r.%.%.T T &.%.%.r.%.%.r.%.&.%.T %.Y &.%.%.&.Y i.Y Y &.a.%.,.,.$.U U $.U $.$.$.U P &.$.$.$.$.&.&.U $.&.$.$.$.$.$.=.=.$.$.$.$.#.P P $.$...P P P P P P $.=.=.#.$.z.~.`.4X4XqXqXqXqXqXrXrXeXeXfXeXrX<X,X,X3XqXeXzXxXxXxXbXbXbXzXfXfXfXfXkXkXkXfXfXfXkXfXfXfXzXzXzXzXzXzXzXqX}.~.9.$...P L L S F F F F F F F F F S S F F S F S S S S S S S S S S S F F F Z Z g v F F F F L L [ L L  .X.*.6.b.~.(.`.).(.~.b.b.b.C.b.b.C.C.~./.).`.'.'.'.`.`.).`.`.(.(.(.(.(.).'.}.,X<X4X<X<X<X,X,X'.`.`.`.).(.",
"CXCXCXAXCXAXAXAXAXAXAXZXZXZXZXZXZXZXZXZXZXZXZXZXZXZXZXZXZXZXZXZXZXZXZXZXZXZXZXZXZXZXZXZXZXZXZXZXZXZXAXAXCXnXvXxXuXrXqX1X'.'.'.'.1X2XwXuXzXxXcXnXCXAXAXAXAXAXCXCXCXCXCXCXCXCXCXCXCXCXCXCXCXCXCXCXCXCXCXCXCXCXCXCXVXCXCXCXCXCXCXCXnXnXcXcXcXcXcXcXxXzXuXeXqX,X_.(.x.x.s.>.>.>.>.>.x.>.x.z.>.z.>.>.>.>.*.>.>.>.>.>.>.s.s.z.z.x.s.n.V.V.:.a.x.c.i.a.a.c.c.r.a.g.v.m.m.Z.S.D.A.D.A.A.A.D.D.D.A.M.A.A.A.A.A.M.M.J.K.K.K.M.J.K.K.K.K.K.K.K.K.K.K.J.J.K.K.K.K.K.K.K.K.K.K.K.K.K.K.M.M.J.M.M.K.K.M.K.D.D.A.K.m.M.M.M.M.M.M.M.M.M.M.M.M.M.M.M.M.M.M.D.M.N.N.N.M.M.M.M.M.M.M.M.M.M.M.M.M.M.M.M.M.m.k.k.j.j.j.j.j.j.k.k.j.j.m.j.g.f.f.f.f.g.g.g.f.f.f.f.f.p.y.y.y.r.r.r.r.r.%.T -.%.r.r.r.r.%.Y y.T i.&.&.Y &.%.&.&.Y i.U Y &.a.%.:.s.U $.U #.U I #.$.#.P $.$.#.#.#.$.&.#.$.&.$.#.$.$.$.=.=.$.#.#.#...L ..$.....P P P P P =.s.s.:.#.$.>.V.).|.4XqXqXqXqXqXqXrXeXfXeXfXeX4X1X,X<X4XrXfXzXbXbXzXzXxXzXzXfXfXfXkXuXuXuXkXkXkXkXkXkXkXzXzXzXzXzXzXfX0X}./.9.*.....L L S S S S S S S L ........P S S S S S S P P ....$.$.$...P S F F Z g g F ..X.*.;.*.;.;.;.;.6.9.C.~./.(.).(.).~.~.~.~.~.~.~.~.(.`.'.|.|.}.'.'.'.'.}.}.}.'.'.'.,X1X<X4XqXqXqXqXqXqXqX<X1X,X,X}.|.}.",
"CXCXCXAXCXAXAXAXAXAXAXZXZXZXZXZXZXZXZXZXZXZXZXZXZXZXZXZXZXZXZXZXZXZXZXZXZXZXZXZXZXZXZXZXZXZXZXZXZXZXAXCXVXvXvXzXuXrXqX1X'.'.'.'.1X2XwXuXzXxXcXnXCXAXAXAXAXAXCXCXCXCXCXCXCXCXCXCXCXCXCXCXCXCXCXCXCXCXCXCXCXCXCXCXVXVXCXCXCXCXCXVXnXcXcXcXcXcXcXcXzXzXuXeXwX<X5X_.V.z.>.s.>.>.>.>.x.>.s.z.>.>.x.x.:.>.=.>.>.>.>.s.z.z.z.z.z.s.n.n.c.i.i.x.v.&.c.v.d.c.y.a.d.d.m.m.Z.Z.Z.Z.Z.A.A.A.A.A.D.A.M.M.A.A.A.A.A.M.M.J.K.K.K.M.K.K.K.K.K.K.K.K.K.K.K.J.J.K.K.K.K.K.K.K.K.K.oXoXoXoXoXK.K.K.K.K.K.J.K.oXK.K.K.K.M.K.K.A.M.M.M.M.M.M.M.M.M.M.M.M.M.M.M.D.M.M.M.N.N.M.M.M.M.M.M.M.M.M.m.M.M.M.M.m.m.m.k.k.j.j.k.k.k.k.k.k.j.j.j.j.g.f.f.g.g.g.f.f.f.f.f.f.p.p.y.y.r.r.r.r.r.&.&.&.%.%.r.r.r.r.r.&.&.T i.%.%.&.&.&.T &.Y &.&.Y &.s.:.:.:.$.#.#.$.$.P U $.P U $.P U U P $.&.#.$.&.#.#.$.$.$.=.*.$.#.#...P P ........P P P $.#.>.h.h.:.#.$.,.b.(.,X4XqXqXqXqXqXqXrXrXfXfXfXfXqX1X,X1X4XqXfXzXzXbXzXxXxXzXzXfXfXkXkXuXkXkXkXkXkXkXfXfXkXzXzXzXzXzXzXzXfX0X}.~.9.*.....P L P L P P L P ....X.$.#...S L L L P P ..$.*.*.>.>.*.$.....L S S F S P X.*.5.6.9.9.9.8.b.b.C.~.(.).(.(.).(.(.(.(.(.).`.`.`.`.}.|.1X<X1X,X}.}.|.,X1X1X1X1X1X<XtXqXwXeXeXeXeXeXrXqXqX<XtX3X<X3X<X",
"CXCXCXAXCXAXAXAXAXAXAXAXZXZXZXZXZXZXZXZXZXZXZXZXZXZXZXZXZXZXZXZXZXZXZXAXZXZXZXZXZXZXZXZXZXZXZXZXZXAXAXCXnXvXvXzXeXrXtX1X5X'.'.'.1XqXeXuXzXxXcXnXCXAXAXAXAXAXCXCXCXCXCXCXCXCXCXCXCXCXCXCXCXCXCXCXCXCXCXCXCXCXCXCXVXVXVXVXCXCXCXVXnXcXcXcXcXcXcXxXzXzXuXeXeXqX<X'._.x.z.>.>.>.>.>.s.>.>.z.>.>.x.x.>.:.>.>.>.>.z.z.z.z.x.x.z.s.x.z.:.x.c.s.s.a.a.d.v.i.a.a.g.v.m.S.S.m.m.A.D.A.A.A.A.A.A.A.M.M.A.A.A.A.J.A.K.K.K.K.K.A.K.K.oXoXK.K.K.K.K.K.K.K.K.K.oXOXoXoXOXOXOX#X7XOXOXOXOXOXoXoXoXoXK.K.oXOXOXoXoXK.K.oXL.K.D.A.A.A.M.M.D.D.D.K.D.M.D.M.K.K.M.M.D.M.M.M.M.M.M.M.M.M.M.M.M.M.M.M.M.M.N.m.m.M.j.k.k.k.k.k.m.m.j.j.j.j.f.f.f.f.d.g.f.f.f.f.f.f.p.p.y.r.r.r.r.r.r.&.-.&.&.%.r.r.r.r.r.i.&.&.%.i.%.%.&.&.R %.Y &.%.U &.i.:.%.=.=.$.U #.=.#.#.$.I P $.P P P P $.=.#.$.$.#.#.$.$.#.=.$.$.#...P L ..$.........P P =.:.s.x.x.s.$.#.$.x.(.,X4XqXqXqXqXqXrXrXrXrXfXfXfXrX4X1X1X<X4XrXfXzXbXzXzXxXzXzXzXzXzXkXkXkXkXkXkXkXfXfXfXkXkXzXzXzXzXzXzXgXfX3X'.~.6.*.X...............$.$.$.*.*.*.$.P ..P ......*.>.>.6.>.>.*.*.X...P P P P ..$.;.6.9.b.b.C.C.C.~.~.~.~.(.).(.).).).).`.`.`.'.}.}.}.}.,X1X<X3X<X1X,X,X1X<X<XqXqX4XtXtXqXwXeXzXzXzXzXzXfXeXrXrXrXwXrXrXrX",
"CXCXCXAXCXAXAXAXAXAXAXAXZXZXZXZXZXZXZXZXZXZXZXZXZXZXZXZXZXZXZXZXZXZXZXAXZXZXZXZXZXZXZXZXZXZXZXZXAXAXAXVXvXcXxXzXeXwXtX1X5X'.'.'.1XqXeXuXzXxXcXnXCXCXAXAXCXCXCXCXCXCXCXCXCXCXCXCXCXCXCXCXCXCXCXCXCXCXCXCXCXCXCXCXVXVXVXVXCXCXCXVXnXcXcXcXcXcXxXzXzXzXuXeXrXqXqX<X'.(.n.&.>.>.>.>.>.>.=.z.z.x.z.x.z.>.z.>.z.z.z.z.z.z.x.x.s.z.:.:.x.V.s.x.v.a.i.a.d.d.p.a.g.v.Z.m.m.Z.A.A.A.A.A.A.A.A.A.A.A.A.J.J.A.A.A.A.K.K.K.K.K.K.K.L.oXoXoXK.K.K.K.K.oXOXOXOXOXOXOXOXOXOXOX#X-X-X-X-X-X-X#X#X#X#XOXoX-X-X:XOXoXK.+XOXoXoXK.K.L.oXL.K.K.K.K.K.K.M.K.D.K.K.D.D.K.D.D.M.M.M.M.M.M.M.M.M.M.M.M.M.M.M.M.m.m.m.m.m.N.N.N.N.m.k.j.j.j.j.f.f.f.f.f.f.f.f.f.f.p.p.p.p.r.r.r.r.r.r.r.&.-.&.&.&.r.r.r.i.i.%.%.&.T %.&.%.&.&.Y i.Y U %.U &.s.:.#.:.$.:.P P =.$.=.U P G $.P P P P $.=.#.$.$.#.#.$.$.U $.$.$.P P P L ..X.P ....P P P :.s.x.x.c.s.=.$.$.6.~.}.4XqXqXqXqXqXrXrXrXrXfXfXfXrX4X<X,X1X<XqXfXzXzXzXzXxXzXzXzXzXzXkXkXfXkXkXkXkXfXfXfXkXkXkXzXzXzXzXzXzXzXrX3X`.V.6.$.X...........$.$.*.*.=.*.*.$...........$.>.6.6.6.>.>.*.*.........X.$.*.;.6.x.b.b.C.C.~.~././.~.~./.(.(.(.).).).).`.`.}.}.}.}.,X,X<X<X3X<X1X1X1X<X3X4XqXqXqXqXqXwXrXuXzXzXzXzXzXzXzXzXuXuXzXzXzXzX",
"CXCXCXAXCXAXAXAXAXAXAXAXZXZXZXZXZXZXZXZXZXAXAXAXAXAXAXAXZXZXZXZXZXZXAXAXAXZXZXZXZXZXZXGXGXZXZXZXAXCXVXvXvXxXzXuXeXwX2X,X'.'.'.5X1XqXeXuXzXxXcXnXCXCXCXCXCXCXCXCXVXVXVXVXCXCXCXCXVXVXVXVXCXCXCXCXCXCXCXCXCXCXCXCXCXCXCXCXCXCXVXnXcXcXcXcXcXxXxXuXzXuXuXeXrXqX2X2X1X].(.>.:.>.>.>.>.>.>.z.z.z.x.z.z.:.>.>.z.z.x.s.>.z.x.z.z.z.:.x.n.x.n.n.a.i.a.d.a.a.d.d.d.c.g.m.Z.S.D.S.Z.A.A.A.A.A.D.A.A.A.J.J.A.A.A.A.K.K.K.K.K.K.K.L.L.L.oXoXL.oXoXoXoXOXOXOXOXOXOXOXOXOXOXOX#XOXOX-X-X-X-X-XoXoX-XOXOX-X-X:X-XoX#X-X-X-XoX+XOXOXOXOXOX#XOXoXK.K.K.K.K.K.D.K.K.K.A.M.M.M.M.M.M.M.M.M.M.M.M.M.M.M.M.m.m.m.M.m.m.m.m.m.m.k.j.m.j.j.f.f.f.f.f.f.f.p.f.f.p.p.p.y.r.r.r.r.r.r.y.r.y.r.&.-.%.%.p.y.r.%.%.&.&.&.&.-.&.&.R $.&.%.%.&.U s.:.$.s.$.,.U P =.*.$.$.*.P P S U P $.$.#.#.$.$.#.#.$.#.P $...P P P P P ....P $.$.P P #.z.n.n.c.n.h.>.$.$.>.~.'.<X4X4XqXqXqXrXrXrXrXeXfXfXfXrX4X1X1X<X4XrXfXzXzXzXxXxXzXzXzXzXkXkXkXkXkXkXkXfXuXeXfXfXfXzXzXzXbXbXbXbXbXrX,X(.b.*.....#.$.$.*.>.>.>.>.>.=.*.$...#.#.$.*.>.z.x.x.z.>.=.$.$.......$.*.>.6.9.x.b.b.b.C.C.~.^.(.(.).(.(.).).).).).).).).`.'.'.}.,X,X,X,X1X1X1X1X1X1X<X4XqXqXqXqXqXqXwXrXuXzXzXzXzXxXxXzXzXzXzXxXxXxXxX",
"CXCXCXAXCXAXAXAXAXAXAXAXZXZXZXZXZXZXZXZXZXAXAXAXAXAXAXAXZXZXZXZXZXZXAXAXAXAXZXZXZXZXZXGXZXZXZXAXAXCXnXvXvXxXzXuXeXwX<X,X'.'.'.5X<XqXeXuXxXxXcXnXCXCXCXCXVXnXCXVXVXVXVXVXCXCXCXCXVXVXVXVXCXCXCXCXCXCXCXCXCXCXCXCXCXCXCXCXCXVXVXvXcXcXcXcXxXzXzXzXuXeXeXwXwXqX2X2X2X'._.z.>.:.>.>.>.>.>.>.z.z.z.x.z.:.>.>.z.z.x.>.>.x.x.x.x.=.x.s.n.n.x.n.a.x.h.i.c.c.a.a.c.d.Z.m.Z.S.S.S.Z.Z.Z.A.A.A.D.D.D.A.J.J.A.A.A.A.D.K.K.K.K.K.K.L.L.L.oXoXoXoXoXoXoXOXOXOXOXOXOXOXOXOXOXOXOXOXOX#X-X#X#X#XOXoXOX#X-X#X-X-XOX-X#XOX-X-X#XOXOXOXOXOX#X-X#X+XL.K.K.K.K.K.K.K.K.K.A.A.M.M.A.M.M.M.M.M.M.M.M.M.M.M.m.M.m.M.M.m.m.m.m.j.k.j.j.j.j.f.f.f.f.f.f.f.f.p.p.p.p.p.p.y.y.r.r.r.r.r.r.r.r.r.&.-.-.r.&.%.%.&.&.&.Y %.-.U &.R &.-.%.i.i.%.U =.i.$.>.#.=.P I *.*.#.$.$.$.I S U P $.$.#.#.$.$.#.#.$.P P $.P P P P P L ....L X.$.P #.=.h.n.V.c.n.x.i.$.#.=.n.`.,X4X4XqXqXqXrXrXrXrXrXeXfXfXfXqX<X,X1X4XqXeXzXzXzXxXxXzXzXzXzXzXzXkXkXkXkXkXfXuXeXfXfXfXzXzXzXbXbXbXbXMXzXqX5X(.b.*...$.*.*.>.>.>.>.>.=.*.$...#.#.$.=.>.z.x.x.x.>.=.$.#.......$.;.6.6.x.x.x.9.x.9.b.b.~./.(.(.).).`.`.`.).).).(.(.(.(.'.'.}.,X,X,X,X,X,X1X1X1X<X<XqXqXqXqXqXqXqXwXrXuXzXxXxXxXxXzXzXzXzXzXxXxXxXxX",
"CXCXCXAXCXAXAXAXAXAXAXAXZXZXZXZXZXZXZXZXZXAXAXAXAXAXAXAXZXZXZXZXZXZXAXAXAXAXZXZXZXZXZXZXZXZXAXAXCXCXnXcXvXxXzXuXwXqX<X,X'.'.'.,X<XwXuXzXxXxXcXnXCXCXCXCXVXVXVXVXCXCXCXCXCXCXCXCXCXCXVXVXCXCXCXCXCXCXCXCXCXCXCXCXCXCXCXCXVXVXvXvXcXcXcXxXzXzXzXuXeXeXeXeXwXqX2X2XqX1X'.n.x.>.>.>.>.>.>.=.>.z.z.z.z.>.>.>.>.>.z.>.s.x.x.x.>.>.s.x.n.n.z.x.s.n.i.s.c.c.a.a.c.Z.v.Z.S.S.S.S.Z.Z.Z.A.A.A.D.D.D.D.D.D.D.D.A.A.D.K.K.K.K.K.K.K.L.L.oXoXoXoXoXoXoXOXOXOXOXOXOXOXoXoXOXoXoXOXOXOXOXOXOXOXOXOXOX-XOXOX:X6X6XoX-XoX#XoXK.#XOXOXOXOXOXOXOXoXL.K.K.K.K.K.K.K.K.K.J.A.A.A.M.M.M.M.M.M.M.M.M.M.M.M.M.m.m.m.m.m.m.m.j.j.f.f.f.g.g.f.f.p.p.p.p.p.p.p.p.p.p.p.p.p.p.y.r.r.%.&.r.r.r.r.r.&.%.r.T &.&.-.&.&.&.Y U $.&.U &.&.&.:.i.,.U :.&.=.>.#.=.U P #.*.P P #.=.P S P P $.$.#.#.$.$.#.#.#.P P ..P P P P P P $.$.P ..#.P =.s.a.n.V.v.v.c.s.=.#.$.x.(.}.4XqXqXqXqXrXrXrXrXrXrXrXfXfXrX<X1X1X<X4XrXfXzXbXxXxXzXzXzXzXkXzXkXkXkXkXkXfXuXeXfXfXkXzXzXzXbXbXbXbXMXbXfX4X}.~.x.*.*.*.>.>.>.>.=.*.*.#.....#.$.=.6.x.x.x.z.>.=.$.#.#.#.$.$.>.6.x.x.b.x.6.6.>.6.9.x.C.~./.(.(.).`.`.'.`.`.).).).`.`.'.'.5X,X,X,X1X1X1X1X<X<X<X<XqXqXqXqXqXqXqXwXeXuXzXzXzXzXzXzXzXzXzXzXzXzXzXzX",
"CXCXCXAXCXAXAXAXAXAXAXAXZXZXZXZXZXZXZXZXZXAXAXAXAXAXAXAXAXZXZXZXZXZXAXAXAXAXAXZXZXZXZXZXZXAXAXCXCXVXvXcXxXzXzXeXwXqX<X5X'.'.'.,X<XwXuXzXxXxXcXnXCXCXCXCXVXVXVXVXCXCXCXCXCXCXCXCXCXCXVXVXCXCXCXCXCXCXCXCXCXCXCXCXCXCXCXCXVXvXvXcXcXcXxXxXzXzXuXeXeXrXeXeXwXqX2X2XqX<X5XV.V.x.>.>.>.>.>.*.,.>.z.z.z.>.>.>.>.>.z.>.x.V.x.s.:.>.s.n.V.n.n.s.s.%.x.x.a.a.c.c.v.v.Z.Z.S.S.S.S.Z.Z.Z.Z.Z.A.A.D.D.D.D.D.D.D.A.A.D.K.K.K.K.K.K.K.L.L.oXoXL.L.oXL.oX+X+X+XOX#XOXoXoXoXoXoXoXOXOXOXOXOXOXoXOX-X-X-X-X-XOX-XoX#X-X#XOX+XoX-X+XOXOXOXoXoXoXoXL.K.K.K.K.K.K.K.K.K.J.A.A.A.A.M.M.M.M.M.M.M.M.M.M.M.m.m.m.m.m.j.j.m.j.j.f.f.f.f.g.f.f.p.p.u.p.p.p.p.p.p.y.y.y.y.p.y.r.r.%.&.&.r.r.r.r.r.i.r.i.&.-.-.&.%.U Y Y U &.&.&.&.Y &.:.i.$.&.=.=.,.#.$.P U P $.P G #.....G P P $.$.#.#.$.#.#.#.#.I P ..S P P P P P $.$.......P :.a.x.v.v.v.v.c.a.:.$.$.6.~.`.1XqXqXqXqXrXrXrXrXrXrXrXeXfXfXqX1X,X1X4XrXfXzXzXxXxXzXzXzXzXkXkXkXkXkXkXkXfXuXuXfXkXkXzXzXzXbXbXbXbXbXbXzXfXqX`.V.6.*.=.>.>.;.*.*.*.#.#.#.#.$.*.6.z.x.x.z.6.>.*.$.#.$.$.=.>.z.x.b.b.b.b.6.>.;.>.6.9.C.~./.(.(.(.`.'.'.`.'.'.`.`.'.'.'.'.5X,X,X,X,X,X1X1X1X1X<X<XtXqXqXqXqXqXqXqXwXeXeXeXwXeXeXuXzXzXuXuXzXzXzXzX",
"CXAXAXAXAXAXAXAXAXAXAXAXAXAXZXAXZXZXZXZXZXZXZXAXAXAXAXAXAXAXZXZXZXAXAXCXAXAXAXZXZXZXZXZXAXAXAXCXCXVXvXvXxXzXuXeXqXtX1X'.'.'.'.1X<XwXuXzXxXxXcXnXCXCXCXCXnXnXnXnXnXnXnXnXCXCXCXCXCXCXCXCXCXCXCXCXCXCXCXCXCXCXCXCXCXCXCXCXCXvXvXvXcXcXxXuXuXuXuXeXwXwXwXwXqXqX2X2X4X4X<X'.(.V.x.=.>.>.=.=.>.>.>.6.6.>.>.*.>.>.6.x.b.>.z.s.:.>.x.n.V.n.n.s.i.i.x.c.s.a.c.v.v.c.v.S.S.S.D.m.m.Z.Z.A.Z.A.D.D.D.A.A.A.D.D.D.D.D.K.K.K.K.K.K.K.L.L.oXoXL.L.L.L.oXoXoXoXOX+XoXoXoXoXL.oXoX+XoXOXOXOXOXoX#X-X#X+X+XK.L.#XOXOX+XoX-X#X-X#X+XOX#XK.L.L.L.L.L.L.A.K.K.D.A.A.D.A.A.A.A.A.M.M.M.M.M.M.M.M.M.M.M.m.m.m.m.m.j.j.j.j.f.f.f.f.f.f.g.f.f.p.p.p.y.p.y.y.y.y.y.y.y.y.i.p.y.r.%.&.%.%.%.%.&.i.i.i.&.R R R &.,.U -.-.U U %.&.$.&.-.#.&.:.$.$.$.>.$.=.I ..P P P P #.P ..P P P #.$.#.#.#...#.#.P I P ..I P P P P P $.....P P P s.x.c.v.v.v.v.v.x.>.$.$.>.C.'.<X4XqXqXqXqXrXrXrXrXrXrXeXfXfXrX<X1X1X4XqXfXzXzXxXxXzXzXzXzXzXzXzXkXkXkXkXkXkXkXkXkXkXkXzXzXzXzXbXbXbXbXbXbXfX<X).C.6.=.>.>.=.*.$.$...#.$.$.*.>.6.x.x.z.>.=.*.$.$.$.$.=.>.x.x.b.b.b.x.6.>.;.*.;.>.x.V.~.~.(.(.).`.`.'.'.'.'.`.'.'.'.'.'.}.}.,X,X,X,X1X1X1X<X<X<X<X<X2XtXqXqXqXqXqXqXtXtXtXtXwXeXuXuXzXzXxXxXxXxX",
"CXAXAXAXAXAXAXAXAXAXAXAXAXAXZXAXZXZXZXZXZXZXZXAXAXAXAXAXAXAXZXZXZXAXCXCXAXAXAXZXZXZXZXAXAXAXCXCXVXnXvXvXzXzXuXrXqX2X1X'.'.'.5X1X<XwXuXzXxXxXcXnXCXCXCXCXnXnXnXnXnXnXnXnXCXCXCXCXCXCXCXCXCXCXCXCXCXCXCXCXCXCXCXCXCXCXCXCXCXnXvXvXcXcXxXuXuXuXuXwXwXwXwXwXqXqX2X2X4X4X4X<X'.(.n.>.>.>.,.,.>.>.>.>.>.>.>.=.6.>.>.z.x.z.z.s.:.z.n.n.x.n.n.:.i.a.c.c.v.v.c.c.d.c.m.S.D.S.Z.m.m.m.m.Z.A.A.A.D.D.D.A.A.A.D.D.D.D.K.K.K.K.K.K.K.L.L.oXoXoXoXoXoXoXL.L.oXoXL.L.L.oXoXoXoXoXoXL.oXOX#XOXoXOXOX#XoX+XK.K.L.#X-X-X-XOXOXOX+X+XOXL.oXL.L.L.K.K.K.A.D.A.K.A.M.M.A.A.A.A.M.M.M.m.m.m.m.m.m.m.m.m.m.m.m.m.m.j.j.g.f.f.f.f.f.f.f.f.f.f.p.p.y.r.r.r.r.t.r.r.y.r.r.y.p.p.y.r.%.%.%.r.%.T %.r.i.%.-.R U R &.U &.&.U Y $.&.U &.%.$.U ,.U =.#.$.$.$.#.P P P P S ..P P P P P P #.$.$...P P P P P P P P L P P P P P $.P P P $.x.c.v.m.m.v.v.v.c.s.&.$.>.x.(.5X<XqXqXqXqXqXqXrXrXrXrXrXfXfXfX4X1X1X<XqXeXzXzXxXxXzXzXzXzXzXzXzXkXkXkXkXkXkXkXkXkXkXkXzXzXzXzXbXbXbXbXbXbXbXfX1X(.b.6.>.>.*.$.$...#.$.*.*.*.>.6.6.6.>.*.$.$.$.$.$.=.>.z.x.x.x.x.x.>.;.;.*.;.>.x.C.~./.(.(.(.`.`.`.'.'.'.'.'.'.'.'.'.'.}.}.5X5X,X,X,X,X1X1X1X1X1X1X<X<XqXqXqXqXqXtXtXtXtXtXwXwXuXuXpXzXuXuXxXxX",
"CXAXAXAXAXAXAXAXAXAXAXAXAXAXAXAXZXZXZXZXZXZXZXAXAXAXAXAXAXAXZXZXZXAXCXCXCXAXAXAXZXZXAXCXCXCXCXVXVXnXvXvXzXzXuXrXqXtX1X'.'.'.5X1X2XwXuXzXxXxXcXnXCXCXCXCXnXNXnXnXnXnXnXnXCXCXCXCXCXCXCXCXCXCXCXCXCXCXCXCXCXCXCXCXCXCXCXCXCXnXvXvXcXcXxXuXuXuXeXwXwXwXwXqX2XqXqXqXqX4X2X4X<X'.V.>.>.>.,.;.>.;.*.*.>.=.>.>.>.>.>.x.z.x.>.>.s.x.x.x.z.x.=.s.s.c.c.n.V.v.c.d.c.v.Z.v.c.v.y.g.g.g.k.m.Z.A.A.D.D.A.D.A.A.A.A.D.D.K.K.K.K.K.K.K.L.L.L.L.L.L.L.L.L.L.L.L.L.L.L.L.oXoXoXoXoXoXoXoXoXOX#X+XoXL.+XoXOXoXoXoXoXoX+X+XOXoXoX+XoXoXK.L.L.K.K.D.D.A.D.A.A.A.A.M.M.M.M.M.M.M.M.m.k.k.k.k.k.k.k.k.m.k.k.j.j.j.f.f.f.f.f.f.f.f.f.f.f.p.p.p.y.y.r.r.r.r.r.r.r.r.r.r.r.y.i.y.y.i.i.i.r.&.Y &.&.i.%.&.U R U Y $.U U $.U U U $.$.&.&.U =.U =.P #.#.#.$.S P P ..S ..P P S P P P P $.$.P P P P P P P P P P P P P P P #.P #.$.:.n.v.v.m.m.m.v.v.c.s.%.$.$.z.V.'.,X4XqXqXqXqXrXrXrXrXrXrXrXfXfXqX<X,X1X4XeXkXzXzXxXxXzXzXzXzXzXzXkXkXkXfXfXkXkXzXkXkXkXzXzXzXzXzXzXbXbXbXbXbXzXrX,X(.n.6.*.*.$.$.$.$.*.*.*.=.=.=.>.=.*.$.$.#.$.$.*.=.z.x.z.z.z.6.>.*.*.;.;.6.9.C.C.~.(.(.(.).`.'.`.'.'.`.`.'.'.'.'.'.'.}.}.}.5X,X5X,X,X,X1X,X1X1X1X1X<X2XtXtXtXtXqXqXwXwXqXwXwXuXuXpXpXpXpXxXxX",
"CXAXAXAXAXAXAXAXAXAXAXAXAXAXAXAXZXZXZXZXZXZXZXZXAXAXAXAXAXAXZXZXAXAXCXNXNXAXAXAXAXAXCXCXCXCXVXVXVXvXcXxXzXzXuXrXqXtX1X'.'.'.5X1X2XwXuXzXxXxXcXnXVXCXCXCXnXnXnXnXnXnXnXnXVXCXCXCXCXCXCXCXCXCXCXCXCXCXCXCXCXCXCXCXCXCXCXCXCXnXvXvXcXcXxXuXuXeXwXwXwXwXwXtX2XqXqXqXqXqX2X2X2X1X(.x.>.>.;.;.>.;.*.*.>.=.>.>.=.>.z.x.z.b.>.s.x.x.x.x.s.>.z.=.x.n.n.n.V.n.v.v.v.S.v.v.d.p.g.g.g.v.m.m.Z.Z.A.A.Z.Z.Z.A.A.A.A.D.D.K.K.K.K.K.K.K.L.K.K.K.K.K.K.K.K.K.L.L.oXoXoXoXoXoXoX+X+XoXoXOXoXOX#XOXD.D.#XK.K.oXoXoXOXoXoXoXoXOX+X+XK.oX+XA.K.K.K.D.A.M.D.A.A.M.M.M.M.M.M.M.M.M.M.m.k.k.k.k.j.j.k.k.k.j.j.g.f.f.f.f.f.f.u.u.f.f.p.p.p.p.p.y.r.r.r.r.r.r.r.r.r.r.r.r.r.r.r.r.y.y.y.y.i.&.Y R &.%.%.&.Y -.U I $.U U $.U U $.=.#.U $.:.U $.$.P $.P P $.Z I P ..Z P P P Z P P L P $.$.P P S S P P L P P P P P P P P I P >.z.,.x.v.v.m.m.v.v.v.c.s.=.$.$.>.C.(.'.<XqXqXqXqXrXrXrXrXrXrXrXfXfXrX4X1X1X4XrXkXzXxXxXxXzXzXzXzXzXzXkXkXkXfXfXkXkXzXkXkXkXzXzXzXzXzXzXbXbXbXbXbXbXfXqX|.(.x.=.$.$.$.$.*.*.>.>.=.=.*.*.$.$.$.#.$.$.=.=.>.z.z.z.z.>.=.*.$.*.;.6.x.C.C.~.~.(.(.).).(.(.(.`.`.`.`.`.'.'.'.'.'.}.}.}.5X5X5X5X,X,X,X,X,X,X,X1X1X<X2X2X2XtXqXwXwXwXwXwXwXuXuXpXpXpXpXxXxX",
"CXAXAXAXAXAXAXAXAXAXAXAXAXAXAXAXAXAXAXAXAXAXAXAXAXAXAXAXAXAXAXAXAXAXCXNXNXCXCXCXAXCXCXCXCXCXVXVXnXvXvXxXzXzXuXrXqX2X1X'.'.'.'.,X2XwXuXzXxXxXcXnXnXnXnXnXNXNXNXNXnXnXnXnXnXnXnXnXCXCXCXCXCXCXCXCXCXCXCXCXCXCXCXCXCXCXCXCXVXvXvXcXcXcXxXuXiXuXwXwXwXwXtX2XtXtXtXtXtXtXqXqXqX<X'.(.b.$.>.;.>.;.=.;.>.*.>.>.>.>.z.x.z.x.z.z.x.x.z.z.s.s.>.s.v.V.V.n.v.n.v.S.v.c.i.d.g.d.m.v.v.m.Z.m.Z.Z.A.A.A.A.A.A.A.A.D.D.D.D.K.K.K.K.K.K.K.K.K.K.K.K.K.K.L.L.L.oXoXoXoXoXoXoXoXoX+XoXoXA.oXoX+X+X+X+X+X+XoXA.+XoX+XoXD.oXOX+XoXoXD.oXD.M.D.D.D.D.A.A.A.A.A.m.k.m.M.M.M.M.M.m.m.k.k.k.k.k.j.j.j.j.j.g.f.f.f.f.f.f.f.f.p.f.f.f.f.p.t.y.p.p.y.y.r.r.r.r.r.r.r.r.r.r.y.r.&.&.r.y.y.y.i.&.Y Y U %.&.:.&.G G U I U #.U U U $.&.$.#.#.$.#.$.P P $.P P G P L P ....P P S S P P S P #.P P L L S P P I P L G I P P P P P P x.n.c.n.v.v.v.v.m.v.v.c.x.:.$.$.*.x.(.'.,X4XqXqXqXrXrXrXrXrXrXrXfXkXfXqX1X1X<XqXeXzXzXxXxXcXcXcXcXzXkXkXfXkXkXfXkXfXeXeXeXkXzXzXzXzXzXcXcXcXbXcXbXbXbXfX4X'.V.>.*.$.$.*.=.>.>.>.>.=.$.$.$.$.#.#.$.=.>.>.z.z.z.>.=.*.$.$.*.;.>.9.b.b.C.C.C.~.~.~.~.(.(.(.).(.`.`.`.`.'.'.'.'.'.}.'.}.,X5X5X,X1X1X,X1X,X,X,X1X<X<X2X2XtXqXwXwXwXwXwXwXiXiXpXpXpXpXpXpX",
"CXAXAXAXCXAXAXAXAXAXAXAXAXAXAXAXAXAXAXAXAXAXAXAXAXAXAXAXAXAXAXAXAXCXNXvXvXCXCXCXCXCXCXCXCXCXvXvXvXcXvXxXzXzXuXrXqX2X1X'.'.'.'.,X2XwXuXzXxXxXxXcXnXnXnXnXnXnXnXnXnXnXnXnXnXnXnXnXCXCXCXCXCXCXCXCXCXCXCXCXCXCXCXCXCXCXCXVXnXvXcXvXcXxXxXuXiXuXwXwXwXwXtXtXtXtXtXtXtXtXqXqXrXqX<X'.V.x.$.;.;.=.=.;.>.>.>.>.>.>.6.z.z.6.x.z.s.s.>.>.s.s.>.z.V.V.V.n.n.V.n.c.v.a.i.v.v.g.d.m.Z.Z.Z.m.m.Z.A.A.A.A.A.D.A.A.D.D.D.D.D.D.D.K.K.D.D.K.K.K.K.K.K.K.L.L.L.L.L.oXoXoXoXoXoXoXoXoXD.D.oX+XoXD.F.oX+XoXoXD.+XoXD.oX+XoXoXD.K.oXK.K.D.D.A.N.N.M.A.A.A.M.M.m.j.m.M.N.N.N.N.m.k.j.j.j.j.j.j.j.j.j.j.f.f.f.f.f.f.f.f.p.p.f.f.f.f.p.y.y.p.p.y.y.r.r.r.r.r.r.r.r.r.r.r.r.&.&.%.y.y.y.r.%.&.&.U U %.%.:.$.Y G U I P U U U U $.$.U P U *.#.$.P $.P P I ..P L P P P L S P P P S P P P P L Z P P P P P I I P P P P P #.#.x.n.c.v.v.v.v.m.m.v.v.c.x.s.&.#.*.x.V._.}.1X4XqXqXrXrXrXrXrXrXrXfXkXkXfX4X1X1X4XrXkXzXxXxXcXcXcXcXzXzXkXkXkXkXfXkXfXuXeXeXkXkXzXzXzXzXxXcXcXbXcXbXbXbXxXfX<X).b.>.$.$.*.=.>.>.>.=.*.$.$.$.$.$.*.=.>.z.z.z.6.>.=.=.$.$.$.*.;.9.8.C.C.C.C.b.b.C.V.V.~.~.(.(.(.`.`.`.`.`.'.'.'.}.}.}.,X,X5X5X5X1X1X1X1X1X,X1X1X<X<X<X2XtXqXwXwXwXwXwXwXiXuXuXpXzXzXpXpX",
"AXAXAXAXCXAXAXAXAXAXAXAXAXAXAXAXAXAXAXAXAXAXAXAXAXAXAXAXAXAXAXAXAXAXNXvXvXCXCXCXCXCXVXVXCXCXnXvXvXvXvXxXzXzXuXwXqX2X1X'.'.'.'.,X<XwXuXuXzXzXzXcXcXcXnXnXnXvXnXnXnXnXnXnXnXnXnXnXnXnXVXnXNXNXCXCXCXCXCXCXCXCXCXCXCXCXCXnXvXcXxXxXxXxXuXuXiXiXwXwXwXtXtXtXtXtXtXtXtXqXqXwXuXeXqX<X).(.;.*.=.=.;.;.;.>.>.>.>.>.>.6.6.>.z.z.z.z.z.x.s.i.s.c.V.n.x.x.n.x.x.n.h.v.c.d.g.Z.m.v.c.v.v.v.m.Z.Z.A.A.A.A.A.A.A.D.D.D.D.D.K.F.A.D.F.K.K.K.K.K.K.K.K.K.K.K.D.A.D.oXoX+XoXoXoXoXF.A.oXF.oXF.D.D.A.F.+XoXoX+X+XD.oX#XD.oXA.K.oXoXD.D.D.D.D.D.D.A.A.M.M.m.m.f.m.m.m.m.m.m.m.j.f.f.j.g.g.f.f.f.f.f.f.f.p.f.f.f.f.f.p.p.f.f.f.f.p.p.y.y.r.r.r.r.r.r.r.r.r.r.r.r.r.r.r.r.%.r.r.r.r.%.%.&.&.&.Y $.&.:.=.#.P I P P I P $.P $.$.#.P P $.U $.P $...S P #.P S P P P L S P P P S P P ..P S S P P S P P P P P P P P #.$.=.x.n.c.v.v.v.v.m.m.v.v.v.c.s.&.#.$.6.V.(.'.,X4XqXqXqXrXrXrXrXrXrXfXfXkXfXqX1X1X1XqXeXzXzXcXcXcXcXcXcXzXkXkXzXzXkXkXkXeXeXeXeXkXzXzXzXzXxXcXcXcXcXbXbXvXvXfXrX,X(.b.=.$.*.*.=.=.=.*.*.$.$.$.*.=.>.z.z.x.z.6.>.=.=.=.=.>.;.>.9.b.b.C.C.b.x.9.9.x.b.V.V.~.(.(.(.`.`.`.`.'.'.}.}.,X,X,X,X,X,X5X,X1X1X1X1X1X1X1X1X<X<X<X<XtXqXwXwXwXwXwXwXuXuXuXuXzXzXpXpX",
"AXAXAXAXCXAXAXAXAXAXAXAXAXAXAXAXAXAXAXAXAXAXAXAXAXAXAXAXAXAXAXAXAXAXNXvXvXCXCXCXCXCXVXVXCXCXnXvXvXvXvXxXzXzXuXrXqX2X1X'.'.'.'.,X<XwXuXzXzXzXzXxXxXxXcXcXcXvXnXnXnXnXnXnXnXnXnXnXnXnXVXnXnXNXCXCXCXCXCXCXCXCXCXCXCXCXVXvXcXxXxXzXzXuXuXuXuXuXwXwXqXtXtXtXtXtXtXtXtXqXqXwXuXeXrXqX}.'.x.=.=.=.;.;.>.>.>.6.=.>.>.>.>.z.>.>.>.>.s.z.s.s.s.n.n.s.:.i.:.a.n.V.v.v.a.v.d.p.d.g.c.g.v.m.m.Z.Z.A.A.A.Z.Z.A.A.D.D.D.D.K.D.D.D.D.D.D.K.K.K.K.K.K.K.K.D.D.D.K.D.K.K.K.K.F.D.F.m.A.F.D.A.A.oXD.oXoXoXA.oXoXF.oXF.+XA.oXoXD.D.D.K.oXN.D.D.D.D.A.M.m.m.M.k.f.k.m.m.m.m.m.j.f.f.f.f.g.f.f.f.f.f.f.f.u.u.f.f.f.f.f.p.p.f.f.f.f.p.p.p.r.r.%.&.&.r.r.r.r.r.r.y.r.y.r.i.i.y.r.%.%.%.i.&.Y Y U &.U -.=.$.&.=.P G I U P $.I U $.&.#.U P P I P #.#.Z P $.P P S P P S S P P P S I P ..P S P P P P P I P P P P I P #.=.>.x.n.n.v.v.v.v.v.m.v.v.v.x.s.=.#.$.>.n.(.`.}.1X4XqXqXrXrXrXrXrXrXeXfXfXfXfX4X1X1X4XrXkXzXxXcXcXcXcXcXzXlXzXzXzXkXkXkXeXuXeXeXeXkXzXzXzXxXcXcXcXcXbXbXvXvXzXfX4X}.(.>.*.*.*.=.=.*.*.$.$.$.$.>.>.z.x.x.x.z.>.=.=.=.>.6.6.z.x.b.C.C.C.b.9.6.>.6.9.b.V.V.~./.(.(.`.'.`.'.'.}.,X,X,X,X,X,X,X,X,X,X1X1X1X1X1X1X1X1X<X<X<X<XtXqXwXwXwXwXwXwXiXuXiXuXzXpXpXpX",
"AXAXAXAXCXCXAXAXAXAXAXAXAXAXAXAXAXAXAXAXAXAXAXAXAXAXAXAXCXCXAXAXAXCXvXvXvXCXCXCXCXCXCXCXCXVXnXnXvXvXvXxXzXzXuXrXqX2X1X'.'.'.'.,X2XwXeXuXzXzXzXzXxXxXcXcXcXcXvXvXnXnXnXNXNXnXNXNXNXNXNXNXCXCXCXCXAXAXAXAXCXCXCXCXCXCXNXvXcXcXxXxXkXuXuXuXuXrXwXwXqXtXtXtXqXqXqXtXtXtXwXwXeXeXuXzXqX<X~.>.>.>.>.*.*.*.*.*.*.*.x.>.6.6.>.>.$.>.z.s.s.s.z.s.x.z.=.:.s.a.n.S.v.c.v.h.s.v.m.d.p.c.Z.Z.Z.Z.Z.A.A.A.A.A.A.A.D.D.D.D.D.D.D.D.D.D.K.K.K.D.D.K.K.K.D.D.D.D.K.D.D.D.oXoXoXD.m.m.m.m.N.N.m.A.m.F.oXD.D.oXD.D.oXoXoXF.F.D.D.K.D.D.D.D.A.A.M.N.m.m.m.M.f.f.f.j.m.N.g.m.j.f.f.f.f.f.j.f.f.f.f.f.f.p.p.u.p.f.f.p.f.f.f.f.f.f.f.p.p.p.r.r.r.-.&.r.i.y.y.y.r.p.r.y.i.i.i.i.i.&.&.Y &.&.R Y U U U U &.#.$.>.P G P P I U P P $.&.$.$.U P P P P $.Z S #.P P S P S S S P P P P S S P ..P P S P P P S P $.P S P $.=.s.z.x.n.v.v.v.v.v.m.m.m.v.v.c.s.=.$.$.>.x.V._.}.1X4XqXrXrXrXqXrXrXeXeXeXkXkXfXqX<X1X<XrXeXzXbXcXcXcXcXbXzXzXzXkXkXkXeXeXeXeXuXkXzXzXzXzXxXxXbXbXcXcXcXbXbXvXbXzXeX<X'.~.z.>.*.*.*.$.$.$.$.$.>.6.z.x.x.z.z.>.=.=.=.>.z.z.x.x.C.C.C.b.9.6.;.;.;.>.6.9.C.C.~.(.(.).'.'.'.'.}.,X,X,X,X,X,X,X,X,X,X,X1X1X1X1X1X1X1X1X<X2X2X2XtXqXwXwXwXwXwXwXeXiXiXuXuXuXuXuX",
"AXAXAXAXCXCXAXAXAXAXAXAXAXAXAXAXZXAXAXAXAXAXAXAXAXAXAXAXCXCXCXCXAXCXvXvXvXCXCXCXCXCXCXCXVXVXnXnXvXcXvXxXzXzXuXrXqX2X1X'.'.'.'.,X<XwXeXuXzXzXzXxXxXxXcXcXcXcXvXvXnXnXnXnXNXNXNXNXNXNXNXNXCXCXCXCXCXAXAXAXCXCXCXCXCXCXNXvXnXcXxXxXzXzXuXuXuXrXwXqXqXtXtXtXqXqXtXtXtXtXwXwXeXuXuXzXvXrX(.x.>.>.>.=.*.*.*.*.=.>.z.>.>.=.>.*.$.>.z.z.s.z.z.s.s.&.:.s.%.a.n.x.n.S.v.c.v.d.a.d.a.v.Z.Z.m.Z.Z.A.D.A.A.A.A.A.A.A.A.A.A.A.A.D.D.D.K.K.K.K.K.K.D.D.D.D.D.D.K.K.D.D.D.oXD.m.m.m.m.m.m.m.D.m.A.m.F.A.m.Z.oXD.oXoXF.N.m.A.A.N.A.D.D.A.M.N.N.N.f.j.m.N.f.f.j.j.j.f.m.m.f.f.f.f.f.u.f.f.f.f.f.f.u.p.p.p.u.f.f.p.f.f.f.f.f.f.f.p.y.p.r.y.r.r.&.r.r.y.y.r.r.r.%.r.r.r.%.%.%.&.&.Y R &.&.R U Y U U =.$.#.#.$.G G U I U U U U #.$.$.$.P P P P $.P S P P S S P S S S S P ..P L Z S #.P P P $.P P P P P P P #.&.:.a.x.n.n.n.v.v.v.v.m.m.m.v.v.c.a.=.$.#.*.z.V._.'.1X4XqXrXrXrXrXrXrXrXeXeXfXkXfXeX4X<X<X4XeXkXzXbXcXcXcXbXzXzXzXzXzXkXeXeXeXeXuXkXkXzXzXzXzXzXzXbXcXcXcXcXvXvXvXbXzXfX4X'.~.6.*.=.*.$.$.$.$.;.6.6.z.x.z.z.>.=.*.=.>.z.z.x.x.b.C.b.b.6.5.;.*.;.;.>.6.9.C.C.~.(.(.).'.'.'.'.}.,X,X,X,X,X,X,X,X,X,X,X1X1X1X1X1X1X1X1X<X2X2XtXtXqXtXtXwXwXwXwXwXwXiXiXiXuXuXuX",
"AXAXAXAXCXCXAXCXAXAXAXAXAXAXAXAXAXAXAXAXAXAXAXAXAXAXAXAXCXCXCXCXAXCXnXvXvXCXCXCXCXVXVXVXVXnXvXvXvXvXvXxXzXzXeXrXqX2X1X'.'.'.'.,X<XqXeXuXkXkXzXzXxXxXcXcXcXcXvXvXvXvXnXnXnXnXnXnXnXnXNXNXNXNXCXCXCXCXAXAXCXCXCXCXCXCXNXvXnXcXxXxXzXzXuXuXuXwXwXqXqXqXtXtXqXqXtXtXqXwXwXwXuXuXzXvXvXeX<X'.b.x.>.>.>.>.>.>.>.6.>.>.>.*.>.$.=.s.x.x.>.z.x.>.&.:.a.=.:.h.x.x.S.c.s.v.v.a.s.d.v.Z.D.S.Z.N.Z.Z.Z.A.A.A.A.A.A.A.A.M.M.M.A.A.D.D.K.K.K.L.K.K.D.D.K.L.L.K.K.K.D.D.oXN.m.D.A.f.N.f.m.m.D.m.N.m.m.m.g.m.D.Z.Z.D.D.A.m.N.N.m.M.M.M.N.N.N.N.N.f.f.j.m.f.f.j.j.f.f.m.j.f.f.f.f.f.t.f.f.f.f.f.f.p.p.p.t.r.u.f.f.f.f.f.f.f.f.f.p.r.r.p.y.y.r.r.%.r.i.r.r.r.&.r.%.%.%.&.%.&.R -.Y Y &.%.&.U U Y U $.$.#.U &.U G P I P #.U U U #.$.=.U P P S #.P G P ..S P P S S Z S P ..P Z P P P Z L S ..P P P P G P $.=.:.s.x.c.n.n.v.v.v.v.m.m.m.m.v.v.c.z.:.$.$.$.z.V.(.'.1X<XqXrXrXqXrXrXrXeXeXeXeXkXkXkXqX<X<X4XrXfXzXzXbXcXcXcXzXzXzXzXzXkXeXeXeXeXeXeXkXkXuXuXzXzXxXbXcXcXbXbXvXvXvXvXbXzXfX<X`.V.>.=.*.$.$.$.>.>.6.6.6.6.>.>.=.*.*.=.>.z.x.b.b.b.b.9.6.;.*.*.*.;.>.6.9.x.C.C.~.(.(.).'.'.'.'.}.,X,X,X,X,X,X,X1X1X,X,X1X1X1X1X<X1X1X1X2X2X2X2XtXtXtXtXwXwXwXwXwXwXiXiXiXiXuXuX",
"AXAXAXAXAXAXAXAXAXAXAXAXAXAXAXAXAXAXAXAXAXAXAXAXAXAXAXAXAXCXCXCXCXCXvXvXvXCXCXCXCXVXVXVXvXvXnXnXvXvXvXxXzXzXeXwXqX2X1X'.'.'.'.,X1XqXeXeXuXuXkXzXzXxXcXcXcXcXcXcXcXcXvXvXvXnXnXnXnXnXNXNXNXNXCXCXCXCXAXAXCXAXCXCXCXNXnXcXcXcXxXxXuXuXiXuXuXwXqXqXqXqXtXtXqXtXtXtXqXwXwXuXuXzXvXvXNXvXrXqX).(.>.>.;.;.>.>.>.x.>.>.x.=.z.=.:.z.x.x.>.x.x.>.:.s.=.=.x.x.n.n.n.i.a.a.a.a.a.a.d.v.m.g.Z.Z.m.Z.Z.Z.Z.Z.A.A.A.A.A.A.A.A.A.A.D.D.K.L.K.D.D.D.K.K.K.K.L.K.K.K.D.D.D.m.m.D.N.A.f.f.N.M.m.A.f.D.f.f.c.N.m.m.D.D.N.c.Z.m.m.N.N.N.N.N.N.m.N.N.f.f.j.j.f.f.f.j.f.j.u.f.f.f.f.f.f.r.f.f.f.f.f.p.u.p.p.t.r.t.p.p.p.f.f.p.f.f.d.p.r.r.p.y.y.y.y.%.r.r.r.r.r.T r.&.%.&.&.&.&.U R Y I &.%.&.-.U U U P #.$.#.P &.U G P P U #.#.#.#.$.$.P P I S S P S P $.P P P S S Z Z P ..P Z S S P P ..S P P P P S S $.>.:.i.a.x.c.n.n.v.v.v.v.v.m.m.m.v.v.c.a.:.$.$.$.>.V.(.'.5X1XqXrXrXqXqXrXrXeXeXeXeXkXkXkXeX4X<X<X4XeXfXzXbXcXcXbXbXbXzXzXzXkXeXeXeXeXeXeXeXeXeXeXzXzXzXzXbXbXcXcXvXvXvXvXbXbXbXrX|.(.z.=.$.$.$.>.>.>.6.>.>.>.>.=.*.$.=.>.z.x.x.n.C.V.6.>.;.X.*.*.;.>.>.6.9.b.C.C.~.(.(.).`.'.'.'.'.}.,X,X,X,X,X,X1X1X,X,X1X1X1X1X<X1X1X1X2XtX2X2XtXtXtXtXtXtXtXwXwXwXwXwXiXiXuXuX",
"AXAXAXAXAXAXAXAXCXAXAXAXAXAXAXAXAXAXAXAXAXAXAXAXAXAXAXCXCXCXCXCXCXCXvXcXvXVXCXVXVXnXnXnXvXvXnXnXvXcXxXzXzXuXeXwXqX<X1X'.'.'.'.5X1X4XwXeXuXuXkXkXzXxXcXcXcXcXvXvXcXcXcXcXvXvXnXnXnXnXNXNXNXNXCXCXCXCXCXCXCXCXCXCXNXNXnXcXcXxXzXzXkXuXuXeXiXwXqXqXqXqXqXtXtXtXtXqXwXwXuXuXzXcXcXnXnXvXxXeXqX,Xx.>.>.=.>.>.>.>.*.>.=.*.>.>.s.x.>.z.x.x.z.>.x.s.s.x.x.x.n.z.s.a.h.i.a.s.c.S.m.Z.Z.m.m.N.m.m.Z.Z.Z.Z.Z.Z.Z.Z.A.A.A.A.A.A.D.D.K.D.D.A.A.A.D.K.K.D.K.K.K.K.D.D.D.N.N.N.D.j.r.g.m.D.f.N.g.m.p.f.f.f.c.D.D.N.N.m.f.d.N.f.N.j.N.D.N.j.j.N.f.j.f.j.m.f.f.f.f.f.t.f.j.g.f.f.f.t.f.f.f.f.p.p.p.p.u.p.t.r.t.p.p.p.p.p.f.f.d.p.r.r.p.y.i.i.r.&.&.%.r.r.%.T &.&.%.%.&.&.&.Y &.&.P U U &.&.P U U P P U #.P $.P G I G P P P #.$.$.$.P P S P S S S P #.P P P S S S S P ..P S F P P ..P S S P S G P P &.:.:.s.z.c.c.c.v.v.v.v.v.v.m.m.m.v.v.c.a.:.&.$.$.>.n.(.'.5X<X4XqXrXrXrXrXrXeXrXeXeXfXkXkXfXqX4X<X4XrXfXzXbXcXcXcXbXbXzXzXzXzXkXkXeXeXeXeXeXeXeXeXuXzXzXzXxXcXbXbXcXcXvXbXvXvXzXfXqX}.V.>.$.=.*.>.6.>.>.>.>.=.*.$.$.*.>.6.x.x.n.b.x.6.;.*.*.+.*.;.6.9.b.b.b.b.C.~.~.(.(.).`.'.'.'.'.}.5X5X,X,X,X,X1X,X,X,X,X1X1X1X<X<X1X<X2XtX2X<XtXtXtXtXtXtXtXtXwXwXiXiXiXuXuXiX",
"AXAXAXAXAXAXAXAXAXAXAXAXAXAXAXAXAXAXAXAXAXAXAXAXAXAXAXCXCXCXCXCXCXVXvXcXvXVXCXCXCXnXnXnXvXvXnXnXcXcXxXzXzXuXeXwXqX<X1X'.'.'.'.5X1X2XwXeXeXuXkXkXkXzXxXcXcXcXcXcXcXcXcXcXcXvXnXnXnXnXNXNXNXNXNXCXCXCXCXCXCXCXCXNXNXnXvXcXxXxXzXkXuXuXuXrXiXwXqX2XqXqXtXtXqXqXtXqXwXwXuXuXxXcXvXnXnXnXnXxXzX<XC.z.>.=.=.>.>.>.>.>.*.>.>.6.s.z.>.z.x.x.>.>.>.x.x.s.n.n.x.n.n.x.h.a.:.a.v.n.Z.v.v.Z.m.m.m.m.N.Z.Z.Z.Z.Z.Z.Z.A.A.A.A.A.A.D.D.K.A.M.A.A.A.D.D.D.D.D.D.K.D.D.N.N.N.N.j.f.p.m.m.m.m.m.m.j.t.r.f.g.t.N.N.S.m.N.v.f.f.m.j.m.j.N.N.m.j.j.m.m.m.f.m.m.f.f.g.g.f.t.f.j.f.f.f.p.f.f.f.f.f.f.p.p.p.u.u.p.t.r.t.t.p.p.p.f.p.p.p.y.y.y.p.i.r.r.%.R -.%.r.%.&.&.&.%.&.&.&.R -.Y &.U U U U &.U U U P P P U U G $.S P S G P #.P P $.#.P ..G P Z P S S ..P ..P P S S P P ..P P S L L ..P L S P G I U #.=.:.>.s.z.x.c.v.v.v.v.v.v.v.m.m.m.v.v.c.a.i.%.$.$.:.x.(.'.5X1X<X4XrXrXrXrXrXeXrXeXeXkXfXkXfXrX4X<X<XqXeXzXbXbXcXcXbXbXbXbXzXzXzXkXkXeXeXeXeXeXeXeXuXuXzXzXxXxXxXxXcXcXbXbXvXvXbXbXfXqX`.V.>.=.>.6.>.>.>.>.=.*.$.$.*.>.6.6.x.x.x.z.>.>.$.$.X.X.*.;.6.9.b.b.b.b.V.~.(.(.(.`.`.'.'.'.'.}.5X5X,X,X,X,X1X,X,X,X,X,X1X1X<X<X<X<X<X2X<X<X2XtXtXtXtXtXtXtXwXwXiXiXuXuXiXuX",
"AXAXAXAXAXAXCXCXCXCXAXCXAXAXAXAXAXAXAXAXAXAXAXAXAXAXAXCXCXCXCXCXCXCXvXcXvXCXCXCXCXnXnXnXvXvXnXnXcXvXxXzXzXuXeXwXqX<X1X5X'.'.'.'.1X2XwXeXeXeXuXkXuXkXzXxXcXcXcXcXcXcXcXcXcXvXnXnXnXnXNXNXNXNXCXCXCXCXCXCXCXCXCXNXNXnXcXxXxXxXzXuXuXuXuXrXwXwXqXtXtXtXtXtXtXqXqXwXwXuXuXuXxXcXvXVXnXvXNXvXvX4X~.~.z.>.>.>.>.*.>.>.>.6.>.z.>.>.>.>.z.>.>.>.s.x.x.s.z.n.n.V.a.i.%.%.c.n.S.c.a.c.d.d.g.v.m.Z.Z.Z.S.Z.Z.Z.Z.Z.A.A.A.A.A.D.D.D.D.A.Z.Z.A.D.D.D.D.D.D.F.D.D.N.N.N.N.g.f.p.g.N.m.N.m.Z.m.m.p.d.N.d.f.D.m.N.v.m.g.d.g.f.m.g.c.Z.m.g.m.j.g.j.f.p.m.j.f.f.f.g.f.t.f.j.g.f.f.f.f.f.f.f.f.f.f.p.p.p.p.p.p.p.r.t.t.t.t.p.t.p.p.y.y.y.p.p.r.r.r.%.&.-.T &.-.-.&.&.&.&.R U U Y $.#.U U U $.#.P U P P P P P U P I P P P P P P P P ....P P P Z ..S S P P ..P P S L P P P P P P S S P P P S S I P $.&.:.:.s.h.x.x.c.v.v.v.v.v.v.v.m.m.m.v.v.v.x.s.%.$.#.&.z.(.'.'.1X<X4XqXrXrXrXrXeXrXeXeXfXfXkXkXeXrX4X<X4XrXkXzXbXcXcXcXcXbXcXcXzXzXzXkXkXeXeXeXeXeXeXeXuXzXzXxXxXxXxXbXcXbXvXbXbXbXbXzXfX1X(.b.>.6.>.>.>.>.=.*.$.$.$.>.6.z.z.6.6.>.>.=.$.$.$.$.$.;.;.9.b.b.b.b.b.C.~./.(.(.).`.'.'.'.'.}.5X5X,X,X,X,X1X,X,X,X,X,X1X1X<X2XtX2X<X<X<X<X<XtXtXtXtXtXtXtXwXwXeXeXeXuXuXuX",
"AXAXAXAXAXAXAXAXAXCXCXCXAXAXAXAXAXAXAXAXAXAXAXAXAXAXAXCXCXCXCXCXCXCXvXcXcXVXCXVXnXnXnXnXvXvXnXnXcXvXxXzXuXuXeXwXqX<X1X5X'.'.'.'.1X2XwXrXeXeXeXuXuXuXkXzXxXcXcXcXcXcXcXcXcXcXnXnXnXnXNXNXNXNXCXCXCXCXAXAXCXCXCXNXnXnXcXxXzXzXzXuXuXuXrXwXwXwXqXtXtXtXtXtXtXqXwXwXwXuXuXzXxXcXvXVXnXnXNXNXbX4X`.'.V.z.>.>.>.>.>.>.>.>.x.z.>.=.>.>.>.>.>.:.z.s.z.x.n.n.n.%.%.:.x.n.n.a.i.i.c.d.d.d.c.c.m.S.A.S.S.Z.Z.Z.Z.Z.Z.Z.A.A.A.D.D.D.D.m.m.D.M.D.D.F.F.D.D.D.D.N.N.N.N.j.f.g.f.N.m.m.m.m.m.m.f.t.c.d.p.m.N.m.N.g.m.d.f.g.f.N.f.c.Z.c.f.m.m.f.p.p.t.f.f.f.f.g.j.f.t.f.j.g.f.f.f.f.f.f.j.f.d.f.f.p.u.p.p.p.p.p.t.r.p.t.y.r.p.p.y.y.p.p.p.i.r.r.r.%.&.&.&.&.R &.&.&.-.U U I U U $.#.U P $.#.I #.U P P P G P P G G #.P Z G P P I P ..I P P S L S S P L P P P S S P P S P L P P P P P P S Z P P :.=.:.i.a.h.x.c.v.v.v.v.v.v.v.v.m.m.m.v.v.c.d.s.%.#.$.&.s.(._.'.,X1X4XqXqXrXrXrXeXeXeXeXfXfXfXkXfXeX4X4X4XqXeXzXbXcXcXcXcXcXcXcXxXzXzXzXkXeXeXeXeXrXrXeXeXzXzXxXxXxXxXbXbXbXvXbXbXbXbXxXzXrX}.(.b.>.>.>.>.=.*.*.$.$.*.>.6.z.6.>.>.=.*.$.$.$.*.;.;.9.9.C.C.b.b.b.b.b.C.V.~.(.(.`.'.'.'.'.}.5X5X,X,X,X,X,X,X,X,X,X,X1X1X<X2X2X<X<X1X<X<X<X<XtXtXtXtXtXtXwXwXwXeXeXeXuXuX",
"AXAXCXCXCXCXCXCXCXCXCXCXAXAXAXAXAXAXAXAXAXAXAXAXAXAXAXCXCXCXCXCXAXCXNXvXvXNXVXVXnXvXvXnXvXvXvXvXvXvXxXzXzXuXrXqXqX<X1X5X'.'.'.'.1X2XwXrXeXeXuXeXuXuXuXzXxXxXxXxXcXcXcXcXcXcXvXvXnXnXnXnXnXNXNXCXNXCXCXAXAXCXnXnXnXnXcXxXzXzXuXuXuXeXwXwXqXqXqXqXqXqXtXtXqXwXwXwXwXuXzXxXcXcXnXnXnXnXVXCXcXzXrX<X`.z.>.=.>.6.z.>.*.>.>.>.,.>.>.>.>.=.=.=.s.>.z.n.V.x.:.s.i.s.x.v.i.a.v.v.v.c.g.v.s.d.m.S.D.S.S.Z.Z.Z.Z.Z.Z.Z.D.D.A.D.D.D.A.m.N.D.M.Z.D.K.F.D.D.D.D.m.N.N.m.m.m.f.f.g.d.m.N.m.v.g.Z.g.c.g.d.v.m.N.m.m.m.g.c.c.f.D.p.g.m.t.f.f.t.g.f.t.t.p.f.f.f.g.j.f.u.f.f.f.f.f.f.f.f.f.g.f.f.f.f.p.p.p.p.p.p.p.t.r.y.p.p.r.r.p.p.p.p.i.i.y.%.%.&.%.%.&.&.&.-.&.-.&.U $.&.#.G #.U U I I U U I U #.U P P #.P G P S G $.P S P P S S P S P L L S L P ..S S P P S S L L L P L P ..P S S S Z C P =.:.:.i.s.a.h.c.c.v.v.v.v.v.v.v.m.m.m.m.v.v.v.c.s.%.$.$.&.s.V._.'.,X1X<XqXqXrXrXrXrXrXeXeXeXeXeXkXzXeXqX4X4XqXeXkXzXbXcXbXbXcXcXcXcXbXzXzXuXeXrXeXeXeXeXuXuXuXzXzXzXxXxXxXbXcXcXvXvXcXcXbXzXkXqX'.~.x.>.=.=.$.*.*.*.=.>.6.z.6.>.>.=.*.=.*.$.*.>.6.9.b.C.C.b.b.9.9.x.b.C.V.~.(.(.`.'.'.'.'.}.5X,X,X,X,X,X1X,X,X,X1X1X1X1X1X<X<X<X<X<X1X1X<X<X<X2XtXtXtXtXqXqXwXwXwXwXwXwX",
"AXAXCXCXCXCXCXCXCXCXCXCXAXAXAXAXAXAXAXAXAXAXAXAXAXAXAXCXCXCXCXCXAXCXNXvXcXvXnXnXvXvXvXvXvXvXvXvXvXvXzXzXzXuXrXqXqX<X1X5X'.'.'.'.1X2XqXrXeXeXeXeXeXuXuXzXzXzXxXxXxXxXcXcXcXcXvXvXvXvXnXnXnXNXNXCXNXCXCXAXAXCXnXnXcXcXcXxXzXzXuXuXeXeXwXqXqXqXqXqXqXqXtXtXqXwXwXwXeXuXxXxXcXcXnXnXnXnXVXCXcXvXcXrX,XV.x.>.>.6.6.>.=.>.>.=.>.>.>.>.>.>.=.=.>.z.>.n.z.&.z.s.:.a.a.i.i.s.a.c.c.c.d.a.d.c.m.S.D.S.Z.m.m.Z.Z.Z.M.Z.D.D.D.D.D.M.m.D.D.m.M.Z.D.D.F.D.A.A.N.D.m.m.N.g.f.m.f.f.m.g.c.v.f.d.N.g.m.m.g.d.v.d.N.m.v.m.N.N.f.f.t.f.g.r.f.f.t.f.t.t.r.t.f.f.f.g.f.f.f.f.f.f.f.f.f.f.f.f.f.f.f.f.f.p.t.t.p.p.p.p.t.r.t.p.p.t.r.r.p.p.p.i.y.r.&.&.&.&.&.&.-.&.-.-.Y -.%.I Y &.G U #.#.U U P U $.I $.$.P G P P G P P Z P #.P P #.P L P G S S L S P P P S S P P S P L S P P L S ..P S S Z Z A #.:.,.:.i.s.a.h.c.c.v.v.v.v.v.v.v.m.m.m.m.v.v.v.x.s.%.$.$.&.s.V.(.'.,X1X<XqXqXqXrXrXrXrXeXeXfXeXeXeXzXfXrX4X4X4XrXfXzXbXcXbXbXcXcXcXbXbXzXzXeXeXrXrXrXrXeXeXeXuXzXzXzXxXxXxXxXcXcXvXvXcXvXvXcXbXfX4X'.~.6.*.>.$.*.=.>.>.6.z.6.>.>.=.*.*.=.=.>.>.6.x.b.b.C.C.b.9.6.6.9.b.C.C.~.(.(.).`.'.'.'.}.5X,X,X,X1X1X1X,X,X,X,X,X,X1X1X1X1X1X1X1X1X1X1X1X<X<X2X2X2X2XtXtXtXqXwXwXwXwX",
"AXAXAXCXCXCXCXCXCXCXCXCXAXAXAXAXAXAXAXAXAXAXAXAXAXAXAXCXCXCXCXCXCXCXnXcXcXvXnXnXvXvXvXvXvXvXvXvXvXvXxXzXzXuXrXqXqX2X1X5X'.'.'.5X1X2XqXrXeXeXrXeXeXuXuXzXzXzXxXxXxXxXcXcXcXcXvXvXvXvXnXnXnXNXNXCXNXCXCXCXCXNXnXnXcXcXcXxXuXuXuXeXeXeXwXqXqXqXqXqXqXqXqXqXwXwXwXeXuXuXxXcXnXnXnXnXnXnXCXVXNXvXvXzXqX<Xx.x.>.6.>.$.>.>.>.$.>.>.>.>.>.,.=.=.=.*.s.:.=.>.s.s.s.:.:.s.v.v.c.a.s.s.a.a.v.m.Z.S.S.Z.m.m.m.m.m.m.Z.Z.D.D.D.D.D.A.Z.D.D.Z.Z.A.D.D.F.A.m.Z.m.m.m._.m.N.m.d.f.f.m.g.m.S.g.m.N.c.N.Z.a.N.y.v.v.p.t.d.v.d.r.N.d.f.c.f.r.f.t.t.t.f.r.t.f.f.f.m.p.g.j.f.t.p.f.f.f.p.f.f.f.f.f.f.f.f.t.t.p.p.p.p.p.r.t.t.p.p.i.r.y.p.p.i.r.%.&.&.&.&.&.&.-.U -.U U I U U I #.I G U U #.$.#.I P U $.#.P P S #.I P P S S #.P P ....L L P Z Z P Z P P P Z Z S S S P L Z P P L S P L S S S Z P ,.>.,.:.i.a.a.h.h.c.v.v.v.v.v.v.v.m.m.m.m.m.v.n.c.s.:.$.$.$.s.V.(.].5X1X<XqXqXqXqXqXrXrXrXeXfXeXeXfXkXfXrX4X4X4XqXeXzXbXbXbXbXcXcXvXvXcXzXzXzXkXeXrXrXrXeXeXeXeXzXzXzXxXxXxXxXcXcXvXvXvXvXvXvXbXbXfX4X(.x.>.>.*.=.>.>.6.z.6.>.>.=.*.$.*.=.>.6.x.x.b.C.b.C.b.9.6.;.;.6.b.C.V.~.(.(.(.`.'.'.}.}.,X,X,X,X1X1X1X1X,X,X,X,X1X,X,X,X,X,X1X1X1X1X1X<X1X1X<X<X<X<X<X<X<X2XtXtXtXqX",
"AXAXAXCXCXCXCXCXCXCXCXCXAXAXAXAXAXAXAXAXAXAXAXAXAXAXAXCXCXCXCXCXCXCXnXcXcXvXvXnXvXvXvXvXvXvXvXvXvXvXxXzXzXuXrXwXqX2X1X5X'.'.'.'.1X<XqXrXeXeXrXeXeXeXuXuXzXzXxXxXxXxXcXcXcXcXcXcXcXcXnXnXnXnXNXNXNXNXCXCXCXNXnXcXcXcXxXuXuXuXuXwXeXwXwXqXqXqXqXqXqXqXqXqXwXwXwXeXuXzXxXcXnXnXnXnXnXnXCXVXNXvXvXcXzXzX(.C.>.>.>.$.>.>.;.=.;.>.>.>.>.>.>.=.=.z.s.>.>.z.s.:.i.h.x.n.v.c.a.i.&.%.a.g.v.Z.Z.S.Z.Z.m.m.m.m.m.m.Z.Z.D.D.D.F.D.D.D.F.D.Z.Z.D.D.Z.D.m.m.A.N.N.D.N.m.m.m.c.f.g.d.c.g.N.p.c.N.c.S.D.a.m.c.S.m.p.p.m.d.g.p.v.c.d.c.g.&.f.t.r.r.f.r.t.f.f.f.j.r.g.j.f.r.t.f.f.f.f.f.f.f.f.f.f.f.f.t.t.t.p.p.f.p.r.t.r.r.p.p.r.r.p.i.i.r.&.-.-.-.R -.-.U Y U U U Y G #.U A I V I I U U P #.P P P P U #.Z $.I P P P S P P S P P P S P Z f P Z P P P Z F S S L P P Z P P L L P L F S S Z $.>.s.:.%.i.s.a.h.h.c.v.v.v.v.v.v.v.m.m.m.v.v.v.v.x.s.:.&.$.$.s.n.(._.'.1X<X4XqXqXqXqXrXrXrXeXeXeXfXfXfXfXrX4X4X4X4XrXkXzXbXbXcXcXcXvXvXvXbXzXzXzXeXrXrXrXrXeXeXeXuXzXzXxXxXxXxXcXcXvXvXvXvXvXvXbXbXkXrX'.~.x.*.=.>.>.6.z.z.>.>.=.*.$.$.$.>.>.z.x.b.C.C.b.C.b.6.;.*.*.;.b.C.V.~.(.(.(.`.'.'.}.}.,X,X,X,X1X1X1X1X,X,X,X,X,X,X,X,X,X,X,X,X,X1X1X,X1X1X1X1X1X<X<X<X<X<X2XtXtXtX",
"AXAXAXAXCXCXCXCXCXCXCXCXAXAXAXAXAXAXAXAXAXAXAXAXAXCXCXCXCXCXCXCXCXCXvXvXcXcXcXnXnXvXvXvXvXvXvXvXvXxXzXzXzXuXeXwXqXtX1X,X'.'.'.'.5X<X4XwXeXeXeXeXeXeXeXuXzXzXzXzXxXxXcXcXcXcXcXcXcXcXnXnXnXnXNXNXNXCXCXCXCXNXnXcXxXxXxXzXuXuXeXeXeXwXwXqXqXqXqXqXqXqXqXwXwXeXeXuXzXxXcXcXnXnXnXnXnXnXCXnXNXvXvXvXvXzXqX(.V.x.=.$.>.;.*.=.*.>.6.x.>.;.*.>.z.6.z.z.z.:.:.z.s.n.n.x.c.n.V.S.s.c.d.a.v.Z.Z.S.Z.m.v.m.m.m.m.m.Z.Z.A.D.D.F.D.D.D.F.Z.Z.Z.D.D.N.m.A.A.D.D.m.m.m.m.m.m.f.N.f.t.g.N.N.m.c.m.N.S.d.v.r.d.m.d.&.p.p.d.S.g.d.d.g.g.d.r.f.p.T f.f.-.f.p.f.f.f.f.f.f.f.r.u.f.f.f.f.f.f.g.f.f.f.f.f.p.r.t.t.p.f.p.t.p.t.r.p.p.r.r.t.r.y.r.&.&.&.-.U U -.$.U U U U P P I #.#.P A C G I U $.P $.U P $.$.P ....P P P P S Z S P P S P S P S Z S S P P P P Z Z S P P P Z P P P P P L ..S Z P >.i.:.i.i.i.s.a.a.d.c.c.v.v.v.v.v.v.v.v.m.m.m.v.v.h.s.%.&.$.$.=.x.S._.5X,X<X<XqXqXqXrXrXeXeXeXeXeXfXfXfXfXeXqX4X4X4XrXfXzXbXcXcXbXvXvXvXcXbXzXzXzXeXeXrXrXeXrXrXeXeXuXzXzXzXxXxXcXcXcXcXvXvXbXvXbXbXbXkXqX'.V.6.>.>.6.z.z.>.>.>.=.*.*.=.>.>.6.x.x.b.b.b.9.6.>.;.X.X.;.9.C.C.~.(.(.(.).'.'.'.}.,X,X1X,X,X,X,X,X1X,X,X1X1X,X,X,X,X,X,X,X,X1X1X,X,X1X1X1X1X1X1X<X<X<X<X2XtXtXtX",
"AXAXAXAXCXCXCXCXCXCXCXCXAXAXAXAXAXAXAXAXAXAXAXAXAXCXCXCXCXCXCXCXCXCXvXvXcXvXcXnXnXvXvXvXvXvXvXvXvXvXzXzXzXuXeXwXqXtX1X1X5X'.'.'.5X1X2XqXrXeXeXeXeXeXeXeXuXzXzXzXxXxXcXcXcXcXcXcXcXcXvXvXvXnXnXNXNXNXNXCXCXNXnXcXxXxXzXuXuXuXeXwXwXwXqXqXqXqXqX2X2XqXwXwXwXeXuXuXxXxXcXnXnXnXnXnXnXnXCXnXNXvXvXvXvXvXzXqX'.~.>.>.>.;.=.;.>.>.>.>.>.>.>.>.=.>.x.z.z.z.x.x.z.x.c.x.v.v.v.V.v.c.c.v.v.v.Z.Z.Z.v.v.m.m.m.m.m.Z.Z.A.D.D.D.D.Z.M.Z.m.M.Z.D.D.Z.A.m.A.F.D.N.m.m.m.Z.m.m.N.g.g.m.v.g.g.g.S.S.S.c.d.&.r.r.v.r.t.r.g.v.d.g.t.r.f.m.p.f.p.t.r.t.-.f.p.f.j.f.f.f.f.f.p.u.f.f.f.f.p.f.g.f.f.f.f.f.f.t.t.t.t.f.p.t.f.p.p.y.r.r.r.r.r.i.i.%.&.&.-.-.U U $.-.#.I U U P I P U U P A Z U P #.U $.#.P #.$.#.#.P P P S L P S F P P Z S L P P S S S S L P P S Z S L L L Z P P P P L I P I P $.>.>.:.i.s.s.a.a.a.d.c.v.v.v.v.v.v.v.v.v.m.m.m.v.c.a.s.:.&.$.#.=.x.V.(.5X,X<X<XqXqXqXrXrXeXeXeXeXeXeXfXfXfXeXeXqX4X4XrXeXzXzXbXcXcXvXvXvXcXbXzXzXzXkXeXrXrXrXrXrXrXeXuXuXuXzXzXzXxXcXcXcXvXvXbXbXbXbXbXbXkX4X'.V.x.>.6.z.6.>.=.*.*.*.=.>.>.6.6.z.6.6.6.6.>.*.*.$.X.*.6.b.V.~.(.(.(.).`.'.'.'.}.,X1X1X,X,X,X,X,X,X,X,X1X1X,X1X,X,X,X,X,X1X1X1X,X,X1X1X1X1X1X1X<X<X<X<XtXtXtXtX",
"AXAXAXAXCXCXCXCXCXCXCXCXCXCXCXCXCXCXAXAXAXAXAXAXCXCXCXCXCXCXCXCXCXCXvXvXvXvXvXvXnXvXvXvXvXcXcXcXvXxXzXzXzXuXeXwXqXtX<X1X,X'.'.'.5X1X2X4XrXeXeXeXeXeXeXeXeXzXzXzXxXzXxXxXxXxXcXcXcXcXcXcXcXnXNXNXNXNXNXCXCXNXnXcXxXxXzXuXuXeXeXwXwXwXqXqXqXqXqX2X2XqXwXeXeXuXzXzXxXcXcXnXnXnXnXnXnXnXCXnXNXvXvXvXNXvXvXzXqX'.x.>.;.;.=.;.>.>.>.>.6.>.6.>.>.>.z.z.x.z.>.:.x.z.z.n.n.n.v.v.Z.v.h.c.c.v.v.v.v.c.m.Z.Z.m.m.m.Z.Z.A.D.D.D.A.M.A.D.Z.D.D.Z.Z.D.N.D.F.D.F.N.m.m.m.N.m.N.m.m.m.g.f.g.g.v.m.g.m.d.p.r.p.f.c.p.r.t.f.d.g.f.&.f.d.f.c.d.f.d.r.t.-.f.f.g.m.j.f.f.f.f.u.p.u.f.f.f.p.f.g.f.f.f.f.f.f.f.t.t.t.p.p.t.f.p.y.r.r.r.r.r.r.r.%.%.&.&.-.-.#.U I #.&.$.P P U P U #.U G A P A P #.$.P $.P P U $.$.P P P S S L S Z S P S f S P P L S S S Z P P S S S L S L S L P P P S P P ..$.:.>.:.i.s.a.a.a.a.d.c.c.v.v.v.v.v.v.v.v.m.m.m.v.v.c.h.s.:.%.$.#.&.z.V.(.'.,X1X<XqXqXqXqXrXeXeXeXeXeXfXfXfXfXzXeXqX4X4XqXeXkXzXzXcXcXcXcXbXcXcXbXzXzXzXeXeXrXrXrXrXrXrXeXeXeXuXzXzXzXzXcXcXvXbXbXbXnXvXnXnXbXfX4X`.V.z.>.>.>.=.*.$.*.*.>.6.z.6.>.>.>.>.*.*.*.*.$.$.*.6.b.C.~.(.(.).`.`.'.'.'.'.}.}.,X,X,X,X,X,X,X,X,X,X1X1X1X1X1X1X1X1X1X1X1X1X,X,X1X1X1X1X<X<X<X<X2XtXtXtXqXqX",
"AXAXAXAXCXCXCXCXCXCXCXCXCXCXCXCXCXCXAXAXAXAXAXAXCXCXCXCXCXCXCXCXCXCXvXvXvXcXvXvXnXvXvXvXvXcXcXcXvXxXzXzXzXuXeXwXqXtX<X1X1X5X'.'.5X1X2X4XrXeXeXeXeXeXeXeXeXuXzXzXxXxXxXxXxXxXcXcXcXcXcXcXcXnXnXNXNXNXNXCXCXNXnXcXxXxXzXzXuXeXeXwXwXqXqXqXqXqXqX2X2XwXwXeXuXuXzXxXxXcXcXnXnXnXnXnXnXnXCXnXNXNXNXvXNXvXvXvXeX<XV.>.;.*.;.>.$.=.>.>.6.>.x.>.>.=.>.x.x.s.z.V.n.h.h.n.V.V.v.v.v.v.h.i.c.c.v.v.c.c.m.Z.Z.m.m.m.Z.Z.D.D.Z.D.Z.M.A.D.Z.D.D.Z.Z.D.D.D.D.oX_.A.N.N.m.d.m.m.g.g.d.d.g.m.N.N.v.v.S.N.p.y.d.p.f.p.&.d.r.d.m.r.d.f.f.d.S.d.f.v.p.f.r.f.f.g.m.j.f.f.f.f.f.t.t.f.f.f.p.f.g.f.f.f.f.f.f.f.f.p.t.t.p.t.p.p.y.r.r.r.r.r.r.r.&.&.r.%.&.-.U U #.Y U $.#.P P P P P U U P G I G U $.P #.#.P P $.$.P S P P S S S S S S S f Z Z P P L S Z Z P P L S Z P L L P S P P P S P $.$.=.:.:.>.s.a.a.a.a.a.d.c.c.v.v.v.v.v.v.v.m.m.m.m.v.v.c.h.a.:.=.$.#.&.s.V.(.'.,X1X<XqXqXqXqXrXeXeXeXeXrXeXfXfXfXfXfXrX4X4XqXeXfXkXzXbXcXbXbXbXcXcXzXzXzXzXuXeXrXrXrXrXrXrXrXeXeXeXeXuXzXzXxXcXcXcXbXbXnXvXnXnXbXkXrX1X~.x.>.*.=.*.$.$.*.>.6.z.z.6.>.>.*.*.$.$.$.$.$.$.5.b.C.~.(.(.).`.`.'.'.'.'.'.}.}.,X,X,X,X,X,X,X,X,X,X1X1X,X,X1X1X1X1X<X<X1X1X,X,X1X1X1X1X<X<X<X<X2XtXtXtXtXqX",
"CXAXCXAXCXCXCXCXCXCXCXCXCXCXCXCXAXAXAXAXAXAXAXCXCXCXCXCXCXVXnXVXCXVXnXvXcXxXvXvXvXvXvXcXvXvXvXxXcXxXxXzXzXkXeXrXqX4X<X1X,X,X'.'.5X1X<XqXwXrXrXeXeXeXuXeXrXeXkXzXzXzXxXxXxXxXcXcXcXcXvXvXcXvXNXNXNXNXCXCXNXnXcXcXxXzXzXuXeXeXrXwXqXqXqXqXqXqXqXqXqXqXwXeXuXxXxXcXvXcXcXnXnXnXnXnXnXnXVXnXVXVXVXVXNXNXCXCXCXrX(.$.=.$.>.>.*.=.>.b.,.6.z.>.6.>.>.z.z.x.x.n.s.h.z.x.V.n.x.a.a.s.%.d.V.d.i.s.m.m.m.Z.Z.m.A.m.g.m.M.D.M.D.M.M.A.D.D.D.D.A.A.D.D.m.D.D.D.N.m.m.m.N.m.m.g.f.c.f.g.N.N.N.g.N.g.v.t.f.f.f.v.g.r.-.d.d.p.d.f.f.p.p.g.f.f.m.m.p.f.f.j.j.j.j.j.f.f.f.f.t.t.f.r.j.t.f.g.f.f.f.f.f.f.d.d.p.t.p.p.p.p.p.t.r.r.r.%.r.r.r.%.-.%.%.&.-.U U U U U G #.$.U U P P $.U U P I G P =.$.U #.$.P $.*.P S P P P S S P Z S P Z Z S P P S S Z Z S P L S Z P P P P S P P S S $.=.,.:.:.>.i.s.s.a.a.a.h.d.g.c.c.v.v.v.v.v.v.m.m.m.m.v.v.c.a.s.:.=.$.U =.s.V.(.].,X1X<X<X4XqXqXrXrXrXrXrXeXeXfXfXkXkXkXeXqX4XqXrXfXkXzXbXcXcXcXcXcXbXbXbXzXzXkXeXeXrXrXrXeXeXeXeXeXeXuXuXzXzXxXcXcXcXvXvXvXvXvXvXbXzXfXqX'.V.>.$.#.$.$.$.=.>.z.x.z.6.>.;.*.$.$.X.X.$.*.>.9.b.C.C.~./.(.).`.`.'.'.'.'.}.}.,X,X,X,X,X,X1X1X1X1X1X1X1X1X1X1X1X1X1X1X1X1X1X1X1X1X1X<X<X<X<X<X2XtXqXtXtXtX",
"CXAXAXCXCXCXCXCXCXCXCXCXCXCXCXCXAXAXAXAXAXAXAXCXCXCXCXCXCXVXnXVXCXVXnXvXcXvXvXvXvXvXvXcXvXvXvXxXcXxXxXzXzXkXeXrXqX4X<X1X1X,X5X'.5X1X<XqXwXrXrXeXeXeXuXeXeXeXeXzXzXzXxXxXxXxXcXcXcXcXvXvXcXvXNXNXNXCXCXNXnXcXcXxXzXzXuXuXeXeXwXqXqXqXqXqXqXqXqXqXqXwXrXeXzXxXxXcXcXcXcXnXnXnXvXnXnXnXnXnXVXVXVXVXNXNXCXCXvXzX<Xz.V.>.>.6.*.*.>.z.>.>.6.>.z.x.x.>.x.x.h.s.n.n.x.z.h.x.c.v.n.x.v.v.c.s.v.c.m.m.m.m.m.A.f.g.g.m.Z.M.Z.M.m.A.D.D.D.D.D.D.D.D.N.D.A.oXN.m.g.m.m.m.f.f.m.g.N.N.N.N.N.g.m.d.d.m.t.g.m.v.v.r.t.p.v.f.d.m.f.r.t.f.d.d.g.m.f.t.g.m.j.j.j.m.m.g.f.f.f.u.t.u.u.r.u.f.g.f.f.f.f.f.f.f.f.f.p.p.p.p.p.p.t.t.r.r.r.&.%.i.y.&.&.i.&.-.U U U U #.U P $.G P #.P P U P P P P G P $.U P *.P P P $.P P P P P S S L P S S Z S S S Z S S S S P S S S P P P P P P S P P $.>.>.>.>.s.s.s.s.a.a.a.h.d.g.c.c.v.v.v.v.v.v.m.m.m.m.v.v.c.a.s.:.%.$.U =.s.n.(.].5X1X<X4X4XqXqXrXrXrXrXrXeXeXfXfXfXfXkXeXqX4X4XrXeXkXzXbXcXcXcXcXcXbXcXbXzXzXzXeXeXrXrXrXeXeXeXeXeXeXuXuXkXzXxXxXcXcXcXvXvXnXvXvXvXcXzXfX,X_.b.=.#.$.*.*.>.6.z.z.6.>.;.*.$.$.*.*.*.>.6.9.b.b.C.C.V.~.(.(.).`.`.'.'.'.'.'.'.'.,X,X,X,X,X,X,X,X,X1X,X,X,X,X1X1X,X,X1X1X1X1X1X1X1X<X<X<X<X2X2XtXqXtXtXtX",
"AXAXAXAXCXCXCXCXCXCXCXCXCXCXCXCXCXCXCXCXCXCXCXCXCXCXCXCXCXVXVXVXnXnXnXnXvXxXxXvXvXvXvXcXvXvXxXxXcXxXxXxXzXkXeXwXqX4X<X<X1X,X,X'.5X1X<XqXwXrXrXeXeXuXuXuXeXeXzXzXzXzXzXzXxXxXbXbXcXcXcXcXcXnXNXCXCXCXNXnXcXcXcXzXkXkXuXuXrXwXqXqXqXqXqXqXqXqXqXqXqXwXeXuXzXxXxXcXcXcXnXnXnXnXvXvXnXnXvXvXVXVXVXVXNXNXCXCXvXvXzX(.'.z.=.>.*.*.>.>.>.>.>.>.x.x.x.>.x.z.>.>.x.h.s.i.n.x.x.x.h.a.c.s.s.v.c.m.m.m.m.m.g.g.m.N.m.m.m.Z.Z.m.M.Z.A.D.D.D.D.D.D.D.N.D.A.D.A.m.g.m.m.A.r.j.g.N.m.D.D.D.m.f.t.N.f.d.v.m.g.t.v.r.p.d.d.f.d.m.p.r.t.v.p.f.g.f.f.f.g.m.m.m.m.m.m.j.f.f.f.p.t.p.f.m.f.f.g.g.f.f.f.f.f.f.f.p.p.p.p.p.p.p.p.r.r.i.y.%.&.r.i.%.&.&.-.-.-.-.$.&.#.I U I U I U P $.G P P P P A G #.P $.G P P P #.P P P P P Z Z P P F L Z Z S Z Z S S S L S F Z P P P P P P P S #.$.=.>.>.>.s.s.s.s.s.s.a.h.d.g.c.c.v.v.v.v.v.v.v.v.v.m.m.v.v.c.a.s.:.=.&.$.$.>.n.S._.5X1X<X<X4XqXqXqXrXrXrXrXrXeXeXeXfXkXkXfXrX4X4XrXeXkXzXbXcXcXcXcXcXcXcXbXcXzXzXuXeXrXrXrXeXeXeXeXeXeXuXuXkXzXzXxXcXcXcXvXvXnXvXvXvXbXcXzXqX,X(.z.*.$.=.>.>.6.6.6.>.>.*.*.$.*.*.>.6.9.b.b.b.b.9.9.x.C.V.~.(.).`.`.`.'.'.'.'.'.'.'.}.}.5X5X5X5X,X,X,X,X,X,X,X,X,X,X,X1X1X1X1X1X1X<X<X<X2X2X2XtXtXtXqXqX",
"AXAXAXAXCXCXCXCXCXCXCXCXCXCXCXCXCXCXCXCXCXCXCXCXCXCXCXNXVXnXnXnXvXvXvXvXvXxXxXvXvXvXcXvXvXvXxXxXcXbXxXzXzXeXeXqXqX4X<X<X<X1X,X'.5X1X<X4XwXrXrXeXeXuXuXuXeXeXkXkXzXzXzXzXxXxXbXbXcXcXcXcXcXnXNXCXCXNXnXcXcXcXxXkXuXuXuXeXrXqXqXqXqXqXqXqXqXqXqXqXwXwXeXzXxXxXxXcXcXcXnXnXnXnXvXvXnXnXnXvXVXVXVXVXNXNXCXCXCXvXbX1X}.V.z.$.=.*.*.>.6.>.>.6.b.6.:.>.>.>.s.z.h.z.c.n.>.s.n.v.s.n.a.a.c.v.S.c.m.m.m.m.m.m.Z.Z.Z.A.Z.Z.M.m.D.m.A.D.D.A.D.F.D.D.F.D.D.m.D.m.m.A.N.j.m.N.f.N.m.N.N.N.m.f.d.d.f.d.f.d.d.t.g.c.p.p.p.p.f.g.t.t.f.g.t.f.f.f.g.f.g.g.k.m.m.m.m.j.f.f.f.t.t.u.j.j.t.f.f.g.f.f.f.f.f.f.f.p.y.p.p.p.p.p.t.r.r.r.r.i.r.%.%.i.%.-.-.-.-.-.#.$.$.#.U U #.#.P P P #.U U I A G I A P I $.S P P G $.P ..L S S S L P S S S Z Z Z Z S S S L S Z S P P P S P P P G $.&.:.>.>.>.s.s.s.s.s.s.a.h.d.g.c.c.v.v.v.v.v.v.v.v.v.m.m.v.v.c.a.s.:.%.$.$.$.:.x.S.(.5X,X<X<X4XqXqXqXrXrXrXrXrXeXeXeXeXfXkXfXeXqX4XqXeXkXzXzXcXcXcXcXcXcXcXcXcXzXzXuXeXrXrXrXeXeXeXeXeXeXeXeXeXzXzXzXxXcXcXvXvXvXnXvXvXvXcXcXzXqX}.(.x.>.=.>.>.>.>.>.>.=.$.X.$.*.>.6.x.b.b.b.b.9.6.;.>.x.b.V.~.(.).`.'.'.'.'.'.'.'.'.'.'.'.'.'.5X5X5X5X,X,X,X5X5X5X,X,X1X1X1X1X1X1X<X<X<X2XtXtXtXtXtXqXqX",
"CXCXCXCXCXCXCXCXCXCXCXCXCXCXCXCXCXCXCXCXCXCXCXCXCXNXNXNXnXvXvXvXvXvXvXvXvXvXvXvXcXvXvXcXvXvXvXcXvXbXxXzXzXuXeXqXqX4X<X<X<X1X1X,X,X1X<X4XqXrXeXeXuXeXuXuXeXkXkXzXzXzXzXzXxXxXxXxXxXxXbXbXcXnXNXCXCXNXnXcXcXcXxXkXuXuXuXeXrXqXqXqXqXqXqXqXqXqXqXwXwXrXuXzXxXxXcXcXcXcXnXnXnXnXvXvXnXnXvXvXnXnXnXnXNXNXNXNXCXCXNXzX4X(.b.=.=.=.=.*.>.>.>.x.x.6.>.z.,.z.x.z.h.c.c.s.h.z.z.s.h.x.s.x.S.v.v.S.Z.Z.c.c.Z.Z.A.A.F.m.D.A.m.Z.D.Z.Z.Z.D.D.D.F.F.D.oXD.D.D.m.m.m.m.N.j.f.m.j.N.N.N.f.m.m.f.g.f.g.d.r.v.g.g.f.d.f.p.r.f.f.p.p.f.f.t.t.g.f.f.f.f.g.f.j.m.m.m.k.f.f.f.f.f.f.f.f.f.f.f.f.f.f.f.f.p.f.f.f.f.p.p.p.p.p.p.t.r.&.%.r.p.y.&.&.%.%.&.-.-.-.#.-.-.-.#.#.#.#.U G U I P #.$.$.P S P P I P $.#.G P P Z P P S S S P S Z S S S F S Z f S S L S S S S P P ..S G G P #.$.&.:.:.>.s.s.s.s.s.p.s.a.h.h.g.c.c.c.v.v.v.v.m.m.v.v.m.m.v.c.c.a.s.:.%.$.$.$.=.x.V._.'.,X1X<X4XqXqXrXrXrXrXrXrXrXeXeXeXfXkXfXrXqX4XqXeXkXzXzXbXbXbXbXcXcXbXbXcXxXzXzXeXrXrXrXeXeXeXeXeXeXeXeXuXuXkXzXxXxXbXcXvXvXnXnXvXvXvXvXbXkX4X'.~.z.>.>.>.>.>.*.=.$.#.X.$.*.>.6.b.b.b.C.6.6.>.;.>.6.9.x.V.(.(.).`.`.'.'.'.'.'.'.'.'.'.'.'.'.'.5X5X5X,X,X,X5X,X,X1X1X1X1X1X1X<X<X<X<X<X2X2XtXqXtXtXqX",
"CXCXCXCXCXCXCXCXCXCXCXCXCXCXCXCXCXCXCXCXCXCXCXCXNXNXNXvXvXvXvXvXvXvXvXvXvXcXvXxXvXcXcXcXvXvXvXvXvXbXzXzXzXeXeXqXqX4X<X<X<X1X,X,X,X1X<X2XqXrXeXuXuXeXuXuXeXuXkXzXzXzXzXzXxXxXxXxXxXxXcXcXcXnXCXCXCXNXnXcXcXcXzXkXuXuXeXrXqXqXqXqXqXqXqXqXqXqXwXwXwXeXzXzXxXcXcXcXcXcXcXnXnXnXnXvXnXnXvXvXnXnXnXnXNXNXNXCXCXSXCXNXbX`.b.>.*.=.$.*.>.>.6.x.>.>.>.x.>.x.z.>.x.s.s.x.n.x.z.a.i.:.s.c.v.v.v.S.Z.c.m.c.S.S.A.A.A.D.F.Z.M.Z.A.Z.m.m.m.A.D.F.F.D.D.D.D.D.m.m.m.m.m.g.g.g.f.k.N.m.N.N.m.f.f.N.g.d.p.v.d.g.r.f.v.g.f.g.t.r.d.d.f.r.p.f.p.f.f.f.f.f.j.f.f.j.f.t.f.f.f.f.f.f.f.f.f.f.f.f.f.f.f.p.f.f.f.f.p.p.p.p.t.r.d.r.&.&.%.r.r.&.-.%.%.&.&.&.-.-.-.$.#.#.#.#.#.#.G U P G $.#.#.#.#.#.P P ..P P P I P P S S P P S P S Z S S S Z S S f S L P S P S S P P P G G P #.&.=.:.:.>.:.>.i.s.i.p.p.s.a.h.h.g.c.c.c.v.v.v.v.m.m.v.m.m.m.v.v.c.h.s.:.=.$.$.$.=.x.S.].'.,X1X<X4XqXqXrXrXrXrXrXrXrXeXeXeXeXkXfXrXqX4XqXeXfXkXzXbXbXbXbXcXcXbXbXcXxXxXzXkXeXrXrXeXeXeXeXeXeXeXeXeXuXuXkXzXxXxXbXbXvXvXnXvXvXnXvXvXbXeX<X(.n.6.>.>.>.*.$.$.$.X.$.$.*.>.6.9.9.9.6.6.;.;.*.;.;.6.6.C.~.(.).`.`.'.'.'.'.'.'.'.'.'.'.'.'.'.5X5X5X,X,X,X,X,X,X1X1X1X1X1X1X<X<X<X<X<X<X2X2XtXtXtXtX",
"CXCXCXCXCXCXCXCXCXCXCXCXCXCXCXCXCXCXCXCXCXCXCXCXNXNXNXvXvXvXvXvXvXvXvXvXvXvXvXxXvXcXcXcXvXvXvXvXvXbXzXzXzXuXeXqXqX4X<X<X<X1X,X,X,X1X<X2XqXrXeXuXuXuXuXuXuXuXzXzXzXzXzXzXxXxXxXxXxXbXcXvXvXNXCXCXNXNXnXcXcXcXxXkXuXuXeXwXqXqXqXqXqXqXqXqXqXqXrXrXeXuXzXzXcXcXcXcXcXcXnXnXnXnXvXvXnXnXVXVXnXnXnXnXCXCXCXCXCXCXCXCXvX1XV.6.*.=.*.*.>.>.>.x.>.>.>.>.=.6.x.x.h.>.>.z.:.:.%.%.s.n.v.v.v.v.Z.m.c.Z.c.m.S.S.D.S.Z.F.D.A.A.A.Z.Z.m.m.m.A.D.F.F.D.D.D.D.D.m.N.N.c.f.g.g.g.t.g.m.m.N.m.v.v.m.m.d.N.g.c.p.g.r.d.m.N.d.c.r.r.g.g.t.r.f.d.t.f.f.f.f.g.f.f.f.f.f.p.f.f.f.f.f.f.f.f.f.f.f.f.g.g.f.p.f.f.f.f.p.p.p.r.r.r.d.r.-.&.-.%.r.-.-.%.%.&.&.&.-.-.-.-.U U U #.#.$.U A I U Z U &.&.$.#.#.......P I Z S P Z Z P P S P S Z S S S S Z S Z L P ..L P S S S P P G P #.*.:.:.:.:.>.i.i.i.s.s.s.s.a.h.h.g.g.c.c.c.v.v.v.v.m.m.v.m.m.m.v.v.c.a.s.:.=.$.$.$.=.x.S.].'.,X1X<X4XqXqXrXrXrXrXrXrXrXrXrXeXeXuXfXrXqX4XqXeXfXkXzXbXbXbXbXcXcXbXbXbXcXxXxXzXeXrXrXwXwXeXeXeXeXeXeXrXeXeXuXzXzXxXxXbXbXvXvXnXnXnXnXvXbXzXeX5X(.x.>.>.*.$.$.$.$.*.$.*.*.>.>.6.>.;.*.*.*.*.*.;.;.6.6.x.V.(.(.`.`.'.'.'.'.'.'.'.'.'.'.'.5X5X5X5X5X,X,X,X,X,X,X,X1X1X1X<X<X<X<X<X<X<X<X<X2X2X2XtXtX",
"CXCXCXCXCXCXCXCXCXCXCXCXNXCXCXCXCXCXCXCXCXCXCXNXNXvXvXvXvXcXvXvXvXvXvXvXvXvXvXxXvXcXcXcXvXvXvXvXvXbXzXzXzXuXeXqXqX4X<X<X<X1X,X,X1X1X<X2XqXrXeXuXkXuXuXuXuXuXzXzXzXzXzXzXxXxXxXxXxXbXcXcXvXNXNXNXNXnXvXcXcXxXzXkXuXeXrXwXqXqXqXqXqXqXqXqXqXqXrXeXeXzXzXxXcXcXcXcXcXcXnXnXnXnXvXvXnXnXVXVXnXnXnXvXCXCXCXCXCXCXCXCXzXfX'.b.=.=.*.=.>.;.>.x.>.6.>.$.>.z.x.s.:.s.s.>.>.>.:.s.n.s.i.x.S.S.v.a.c.c.m.m.S.A.A.Z.D.D.m.D.D.A.Z.m.m.A.D.A.D.F.F.F.F.F.D.m.N.D.N.m.t.g.m.g.f.m.N.m.m.j.m.D.m.m.N.v.m.g.t.g.p.c.m.m.f.d.r.g.c.m.t.r.d.f.t.g.f.f.f.f.f.f.f.f.j.f.f.j.f.j.g.f.p.f.f.g.g.g.g.g.f.p.g.f.f.f.p.y.r.r.r.t.p.r.&.&.&.&.&.-.&.%.%.&.&.&.-.Y -.#.U U U U $.$.U A P P P P U &.$...P $.$.P P P S f S S S Z S ..P S g S S S S S P Z P P ..L P S S S G P P #.*.=.:.:.i.i.i.i.i.i.s.s.s.s.a.h.h.g.c.c.c.c.v.v.v.v.m.m.v.m.m.v.v.c.c.a.s.,.=.$.$.$.=.z.S.].'.,X1X<X4X4XqXqXrXrXrXrXrXrXrXrXrXeXeXeXrX4X4XqXrXeXkXzXbXbXbXbXcXcXbXbXbXcXbXxXzXkXeXrXwXwXeXeXeXeXeXeXrXrXeXeXeXzXzXxXbXbXbXvXvXvXnXNXnXvXbXkXqX'.~.>.*.$.#.#.$.$.;.;.*.;.>.;.;.*.$.$.$.*.*.*.;.6.x.x.x.V.~.(.).`.'.'.'.'.'.'.'.'.5X5X5X'.5X5X5X5X,X,X,X,X,X,X1X1X1X1X<X<X<X<X<X<X<X<X<X<X<X2X2XtX",
"CXCXCXCXCXCXCXCXCXCXNXNXNXNXNXNXCXCXCXCXCXCXCXNXNXvXvXvXvXvXvXvXvXvXnXnXvXvXvXvXcXvXvXvXcXcXcXcXcXbXzXzXzXeXeXqXqX4X<X<X<X1X1X,X,X1X<X4XqXrXeXuXuXuXuXuXuXuXzXzXzXzXzXzXzXzXxXxXxXcXvXvXvXNXCXNXNXnXvXcXcXxXzXuXeXeXwXqXqXqXqXqXqXqXqXqXqXwXeXeXuXzXzXxXvXvXvXvXvXvXvXvXvXvXvXvXnXvXnXnXnXnXVXVXCXCXCXCXCXCXCXCXCXzX<X}.>.$.=.>.>.;.;.>.=.>.>.>.z.x.>.z.:.:.>.=.x.=.s.z.a.i.a.S.S.c.i.s.v.m.Z.Z.Z.S.S.Z.D.m.A.D.A.Z.Z.Z.m.m.m.D.D.D.D.D.A.D.D.N.D.D.m.f.f.m.f.g.p.g.m.N.f.g.D.N.D.Z.N.m.S.S.v.t.g.v.m.g.r.d.f.d.v.m.g.t.f.f.r.t.g.-.f.f.f.f.f.f.j.p.f.j.g.g.g.p.t.p.d.g.g.f.f.g.f.d.g.d.p.p.y.t.r.%.r.d.p.r.&.&.%.-.r.U &.&.&.&.$.U &.Y $.$.U P U #.P #.P P S Z Z P G P =.$.P ..P $.Z P X.C Z S S Z F $.P S Z S S S Z Z L S P L L L L S S G P P #.$.=.:.i.i.i.i.s.s.s.s.s.s.s.s.a.a.d.g.g.g.v.c.v.m.v.v.v.v.m.m.m.v.v.c.c.a.s.,.,.&.$.$.=.z.S.].'.,X1X<X4X4X4XqXrXrXrXrXrXrXrXrXeXeXeXeXrXqX2XqXqXeXeXzXxXxXxXxXcXcXbXbXbXcXcXxXzXzXeXrXrXrXeXeXrXrXrXrXeXeXeXeXuXuXzXzXxXcXcXcXcXvXnXnXvXvXvXbXbX4X'.n.6.$.$.$.=.>.>.>.>.>.*.*.$.$.X.X.$.$.*.*.6.x.C.V.V./.(.(.`.].'.'.'.'.'.'.'.'.5X}.5X5X,X,X,X,X,X,X,X,X1X1X1X1X1X1X<X<X<X<X<X<X<X<X1X<X<X<X2X2X",
"CXCXCXCXCXCXCXCXCXCXNXNXNXNXNXNXNXNXCXNXNXNXNXNXvXvXvXvXvXcXvXvXvXvXnXnXvXvXvXvXcXvXvXvXcXcXcXcXcXcXzXzXzXeXeXqXqX4X<X<X<X<X1X,X,X1X<X4XqXrXeXuXuXuXuXuXuXuXzXzXzXzXzXzXzXzXxXxXxXcXvXvXvXNXNXNXNXnXcXcXcXzXzXuXeXrXqXqXqXqXqXqXqXqXqXqXwXrXeXuXuXzXzXxXvXvXvXvXcXvXvXvXvXvXvXvXvXvXnXnXnXnXVXVXCXCXCXCXCXCXCXCXCXbXrX<XV.b.C.z.>.;.;.>.=.>.>.>.z.x.,.>.>.:.$.s.:.z.s.i.a.a.x.c.%.i.d.v.v.m.Z.Z.Z.Z.S.S.A.Z.D.Z.m.m.m.m.Z.m.Z.Z.A.D.D.A.A.D.D.D.D.D.D.p.N.f.d.d.f.N.N.f.f.N.m.N.N.N.m.m.m.N.m.f.c.g.f.t.d.d.d.m.g.v.g.t.g.f.R f.g.t.T r.f.g.f.f.f.t.f.f.g.f.p.d.r.t.f.f.f.f.f.f.f.f.f.d.p.t.t.t.r.%.r.d.i.r.%.-.&.R Y T &.&.&.&.-.-.Y #.#.&.#.P #.#.P U #.#.P P C S P P $.$.#.P G G P Z P S C P S F F ....S Z S S S S S S S I S L L I I S P P #.&.=.:.:.i.i.i.i.s.s.s.s.s.s.s.a.a.a.d.g.g.g.v.c.v.v.v.v.v.m.m.m.v.v.v.c.x.a.i.,.=.&.$.$.&.h.V.].'.,X,X1X<X4X4XqXqXqXrXqXrXrXrXrXeXeXeXeXqX4X<XqXqXeXeXzXxXxXxXxXcXcXbXbXbXbXcXxXzXkXeXrXrXrXeXeXrXrXrXrXeXeXeXeXeXuXzXzXzXxXcXcXcXvXnXnXvXvXnXvXbXrX1X(.x.*.$.>.>.>.>.>.>.*.*.$.$.$.$.*.*.;.>.6.b.b.C.V.~.(.(.`.].].'.'.'.'.'.'.5X5X,X,X5X5X,X,X,X,X,X,X,X,X,X,X1X1X1X1X<X<X<X<X1X1X1X1X1X<X<X<X2X2X",
"CXCXCXCXCXCXCXCXCXCXCXCXNXNXNXNXNXNXNXNXNXNXNXNXnXvXvXvXvXcXvXvXvXvXnXnXvXvXvXvXcXvXvXvXcXcXcXcXcXbXzXzXzXkXeXqXqX4X<X<X<X<X<X1X,X1X<X2XqXrXeXuXuXuXuXuXuXuXzXzXzXzXzXzXzXzXxXxXcXvXvXNXNXNXNXNXvXvXvXcXxXzXzXuXeXwXqXqXqXqXqXqXqXqXqXwXrXeXuXkXzXzXxXcXcXcXvXvXvXvXvXvXvXvXvXvXvXvXnXnXnXnXCXCXVXVXCXCXCXCXCXCXVXvXzXuX<X,X'.x.>.;.;.>.;.>.>.>.>.z.>.>.>.s.x.:.z.s.=.c.n.n.a.:.c.v.Z.v.v.m.Z.Z.Z.Z.Z.Z.D.A.D.m.m.m.m.Z.A.D.A.Z.m.D.D.m.N.D.D.F.F.D.g.v.f.f.m.g.g.g.g.c.d.m.g.N.m.m.m.N.c.N.N.m.v.d.f.f.d.f.g.g.d.g.d.p.c.c.T t.t.p.-.t.f.g.f.d.f.r.p.f.g.u.p.p.r.r.p.p.f.d.d.d.f.f.f.f.p.r.t.t.y.r.r.p.p.y.r.%.U -.-.Y -.-.-.-.&.Y $.-.#.$.#.U A U =.#.$.$.$.$.P G P A P #.$...P P #.P L P Z L L S F L L L S S S S S S S L F L L L I I P P #.$.=.:.:.i.i.i.s.s.s.s.s.s.s.s.s.a.h.d.g.g.c.g.v.v.v.v.v.v.v.v.m.m.v.v.v.c.x.a.i.,.=.&.$.$.$.z.V.].5X,X1X1X4X4X4XqXqXqXrXqXqXqXrXrXeXeXfXeXqX4X<XqXqXeXeXzXxXxXxXxXcXcXbXbXcXcXcXxXzXzXeXrXrXrXrXrXrXrXrXrXeXeXeXeXeXuXuXzXzXxXcXcXcXvXnXnXvXvXvXvXbXkXqX'.V.z.>.>.>.>.>.>.>.*.$.$.$.*.;.6.6.9.9.x.x.b.C.V.~.).(.`.].].'.'.'.'.}.}.5X5X,X,X5X5X,X,X,X,X,X,X,X,X,X,X,X,X,X,X1X1X1X1X1X1X<X<X<X<X2X2XtXtX",
"CXCXCXCXNXCXCXCXCXCXCXCXNXNXNXNXNXNXNXNXNXNXNXvXvXvXvXvXvXcXvXvXvXvXvXnXvXvXvXcXcXcXcXcXcXcXcXcXcXbXzXzXzXkXeXwXqX4X<X<X<X<X<X1X1X1X<X2XqXrXeXuXuXuXuXuXuXuXzXzXzXzXzXzXzXzXcXcXcXvXvXNXNXNXvXvXvXcXcXxXxXzXuXeXrXqXqXqXtXqXqXqXqXqXqXwXrXeXuXkXzXzXcXcXvXvXvXvXvXvXvXvXvXvXvXvXvXvXnXnXnXnXCXCXVXVXVXVXCXCXCXCXVXvXvXvXzXeXqX>.>.;.;.>.;.>.>.>.>.x.x.V.n.n.x.n.n.s.n.n.n.s.s.n.v.c.v.Z.v.m.Z.S.m.m.Z.Z.D.S.D.k.m.m.Z.F.D.F.D.m.Z.A.N.g.m.A.D.D.F.N.m.f.g.g.f.g.t.v.N.m.m.p.v.m.d.g.m.N.d.v.N.N.v.g.g.m.t.f.v.p.p.d.f.p.g.v.r.T p.f.t.t.f.f.f.d.d.r.u.p.f.f.p.r.r.r.t.f.d.p.d.f.f.f.f.p.y.y.y.p.p.y.r.p.y.r.i.i.r.U &.Y -.-.U -.-.&.Y &.&.U U &.U G #.&.#.#.$.$.P U G P G P #...P P P ..P P S S S S S F L L F S F S S S S P S L L S L S P #.$.=.:.:.:.:.i.i.s.s.s.s.s.s.s.s.s.a.h.d.g.g.c.c.v.v.v.v.v.v.v.v.m.m.v.v.c.c.h.s.i.,.=.$.$.$.=.h.V.].5X,X1X<X4X4X4XqXqXqXrXqXqXqXrXrXeXeXkXeXqX4X<XqXqXrXeXzXzXxXxXxXxXxXxXxXcXcXcXxXzXzXeXrXrXrXrXrXeXrXrXrXeXeXeXeXeXeXuXzXzXzXxXxXcXvXnXnXvXvXnXvXbXzXfX<X`.V.z.>.>.>.>.>.*.$.$.$.*.>.6.6.b.b.b.b.b.9.x.b.V.(.(.(.).`.].'.'.'.}.}.5X5X,X,X5X5X,X5X,X,X,X,X,X,X,X,X,X5X,X,X,X,X1X1X1X1X<X<X<X<X2X2XtXtX",
"CXCXCXCXNXNXNXNXNXNXCXCXNXNXvXvXNXNXvXvXvXvXvXvXvXvXvXvXvXvXvXcXvXvXvXvXvXvXvXbXbXcXcXcXcXcXcXcXcXbXxXzXzXuXeXwXqX4X<X<X<X<X<X<X1X1X<X2XqXrXeXuXuXuXuXuXuXuXzXuXzXzXzXzXzXzXbXcXcXcXvXNXNXNXvXvXcXvXcXxXzXzXuXrXwXqXqXqXqXqXqXqXwXwXwXwXrXeXuXkXzXxXcXcXcXcXvXvXvXvXvXvXvXvXvXvXvXvXnXnXnXVXCXCXCXCXCXCXCXCXCXVXVXvXvXvXvXzXrXb.*.;.;.,.,.>.>.>.6.z.x.x.x.n.x.V.n.V.S.n.n.z.V.V.c.c.v.v.v.v.Z.v.v.v.m.Z.Z.Z.A.S.Z.Z.A.D.D.D.D.F.D.m.g.Z.m.N.D.A.N.N.m.d.v.t.v.g.f.v.m.m.d.d.Z.m.p.f.v.N.t.m.g.v.g.m.c.c.f.d.d.t.r.f.g.r.g.g.&.r.t.f.f.t.f.f.r.f.g.T p.p.f.g.f.r.t.r.t.p.g.p.r.p.p.p.p.p.y.y.y.p.p.s.i.y.r.i.i.r.i.-.&.U U %.U -.$.=.#.#.%.U =.U U P U #.#.$.$.#.P P U P P P X.#.P ..S ..X.P L S S S F S S S F F S S S S S P S S P S L I ..$.=.:.:.:.i.i.s.s.s.s.s.s.s.s.s.s.s.a.a.d.g.c.c.c.c.c.v.v.v.v.v.v.v.v.v.v.c.c.h.s.i.,.=.&.$.$.=.s.V._.5X,X1X<X4X4X4XqXqXqXqXqXqXrXrXrXeXeXfXeXwXqX<X<XqXrXeXzXzXzXxXxXxXxXxXxXxXxXxXxXxXzXeXeXeXeXrXrXeXeXeXeXeXeXeXeXeXeXuXuXzXzXxXcXcXvXvXnXnXnXnXnXnXbXzXfX<X).V.6.>.>.>.*.$.$.$.*.*.6.6.b.b.b.b.b.x.6.9.b.V.(.(.(.(.`.`.`.'.'.}.}.5X5X5X5X5X5X,X,X5X5X,X,X,X,X,X,X5X5X5X,X,X,X1X1X1X1X<X<X<X<X2X2XtXtX",
"CXCXCXCXNXNXNXNXNXCXCXCXNXNXvXvXNXNXvXvXvXvXvXvXvXvXvXvXcXvXvXvXcXcXvXvXvXvXvXbXbXcXbXbXcXcXcXcXcXcXxXzXzXuXeXwXqX4X<X<X<X<X<X<X1X1X<X2XqXrXeXuXuXuXuXuXuXuXuXuXzXzXzXzXzXzXcXcXvXcXvXCXNXvXvXvXvXcXxXzXzXuXeXwXwXqXqXqXqXqXqXqXwXwXwXwXrXeXuXkXzXcXcXcXcXcXvXvXvXvXvXvXvXvXvXvXvXvXnXnXVXVXCXCXCXCXCXCXCXCXCXVXvXvXvXvXvXCXqXC.;.>.>.;.,.>.>.>.>.6.z.x.z.n.V.x.n.n.x.V.n.V.S.v.S.S.v.v.c.v.p.d.v.v.m.Z.m.Z.Z.S.S.S.D.F.F.F.F.F.D.m.m.m.m.m.Z.D.m.N.d.m.m.p.c.g.c.m.m.v.p.c.d.v.r.g.c.r.d.N.m.m.g.m.d.c.d.d.p.t.r.t.d.r.f.d.r.f.r.f.d.f.f.t.f.f.d.r.t.p.f.f.p.r.p.r.r.t.g.f.r.r.r.r.p.r.r.y.y.p.p.s.p.r.r.r.%.&.%.%.U -.U =.#.U &.$.&.U &.&.#.#.&.&.#.P U $.$.U P #.P U P I P ..P P P P P P S S L Z f F S S S F S S S S S P S Z P Z P P $.=.:.:.:.:.i.i.s.s.s.s.s.s.s.s.s.s.s.s.a.d.g.c.c.c.c.c.g.v.v.v.v.v.v.v.v.c.g.h.a.s.i.,.=.$.$.$.=.s.V._.'.,X1X<X4X4X4XqXqXqXqXqXqXqXrXrXeXeXfXeXwXqX<X<XqXrXeXkXzXzXzXzXzXzXxXxXxXxXxXxXxXzXuXeXeXeXrXrXeXeXeXeXeXeXeXeXeXeXuXuXkXzXzXxXcXcXvXvXnXnXnXnXnXnXbXzXeX1X(.b.>.>.=.*.$.$.$.$.>.6.x.b.b.b.b.b.6.>.6.x.C.V.(.(.).(.`.`.'.'.}.}.5X5X5X5X5X5X5X5X,X,X5X5X,X,X,X,X,X,X,X,X1X1X1X1X1X1X<X<X<X<X2X2XtXtX",
"NXNXCXCXNXNXNXNXNXNXCXCXNXNXvXvXNXNXvXvXvXvXvXvXvXvXvXvXcXvXcXcXcXcXvXvXvXvXvXcXcXcXxXcXcXcXcXcXcXxXzXzXzXuXeXrXqXqX<X<X<X<X<X<X1X<X<X2XqXwXeXeXuXuXuXuXuXuXuXuXuXuXzXzXzXzXcXcXvXvXNXNXNXvXvXcXcXxXzXzXkXuXeXwXqXqXqXtXqXqXwXwXwXwXrXeXeXuXzXxXxXcXcXcXcXcXvXvXvXvXvXvXvXnXnXnXnXnXVXVXVXCXCXCXCXCXCXCXCXCXCXvXvXvXvXvXvXeX'.(.>.x.x.=.>.>.>.>.>.>.6.z.z.x.>.V.V.z.n.n.V.n.x.n.v.v.x.a.s.i.v.d.v.v.m.m.m.Z.S.S.S.S.D.D.D.D.F.F.D.m.N.m.m.N.N.N.g.D.v.g.m.g.c.m.N.N.N.v.g.d.v.f.d.c.-.f.f.d.g.p.g.g.d.m.m.c.f.d.f.p.g.f.f.d.r.f.t.f.f.p.t.t.g.f.f.p.p.p.f.f.p.r.t.t.r.t.f.f.p.r.r.&.r.r.r.y.p.p.p.p.r.r.r.i.%.-.&.%.-.&.Y $.#.#.&.$.&.U &.%.U #.U $.$.#.#.$.$.U U P #.P P P P P ..Z P S P L S S L Z g Z S S S F L L S L S P S Z S S P P =.>.>.:.:.:.i.i.s.s.s.s.s.s.s.s.a.a.s.a.a.d.c.c.c.c.c.c.g.v.v.v.v.v.v.v.v.v.g.d.a.s.i.,.=.&.$.$.&.:.n._.5X1X1X<X4X4X4XqXqXqXqXqXrXrXrXrXeXfXkXfXwXqX<X<XqXrXeXkXzXzXzXzXzXzXxXxXxXxXxXxXxXxXzXuXeXeXrXrXrXrXeXrXeXeXeXeXeXeXeXuXkXkXzXzXxXcXcXvXvXnXnXnXnXnXnXbXzXqX'.V.6.>.*.=.*.*.*.*.6.6.x.b.b.b.x.6.>.*.;.>.b.C.~.(.(.(.`.`.'.'.'.}.}.}.}.5X5X5X5X5X,X5X,X,X,X,X,X,X,X,X1X1X<X<X<X<X<X<X<X<X<X<X2X2XtXtX",
"NXNXCXCXNXNXNXNXNXNXNXNXNXNXvXvXNXNXvXvXvXvXvXvXvXvXvXcXcXvXcXcXcXcXvXvXvXvXvXcXcXbXxXcXcXcXcXcXbXxXzXzXzXuXeXrXqXqX<X<X<X<X<X<X1X<X<X2X4XwXeXeXuXuXuXuXuXuXuXuXuXuXzXzXzXzXcXcXvXvXNXCXNXvXvXbXcXxXzXkXuXeXrXwXqXqXqXtXqXqXwXwXwXwXrXeXkXzXxXcXcXcXcXcXvXvXvXvXvXvXvXvXnXnXnXnXnXnXVXVXCXCXCXCXCXCXCXCXCXCXVXvXvXvXvXvXvXxXqX1Xx.C.b.;.>.,.>.>.>.>.>.z.>.x.x.x.z.n.n.x.x.n.s.s.v.n.v.V.c.c.d.d.v.v.v.m.m.Z.S.S.Z.S.D.D.g.m.D.F.A.c.A.c.N.D.Z.c.N.N.m.m.m.v.g.m.Z.Z.N.N.N.N.g.m.m.t.f.g.m.g.m.f.f.g.g.m.S.N.m.m.v.d.m.g.g.g.r.r.f.d.f.r.r.f.f.f.g.g.f.f.f.g.f.p.t.t.r.r.r.p.f.p.t.r.p.r.r.p.p.p.p.r.r.&.r.r.&.-.-.-.%.&.&.U U &.#.&.-.U $.&.#.#.U P U U #.$.$.#.U U P P P P P P P S S S L S S S L S Z F S F F F S L S L S P S Z Z S $.$.>.:.>.:.:.:.i.i.s.s.s.s.s.s.s.a.a.a.s.a.a.d.c.c.c.c.c.c.g.v.v.v.v.v.v.v.v.c.g.h.a.s.i.%.%.=.$.$.$.:.x.(.5X1X1X<X4X4X4XqXqXqXqXqXrXrXrXrXeXfXkXfXrXqX<X<XqXrXeXkXzXzXzXzXzXzXxXxXxXxXxXxXxXxXzXzXeXeXrXrXrXrXrXrXeXeXeXeXeXeXeXuXuXkXkXzXzXxXcXcXvXvXnXnXnXnXnXnXvXeX1X).x.>.*.*.=.*.*.>.6.6.x.9.9.6.>.>.*.X.$.;.9.C.V./.(.(.`.`.'.'.'.}.5X'.}.}.5X5X5X5X,X,X,X,X,X,X,X,X,X,X1X<X<X<X2X2X<X<X<X<X<X<X2X2XtXtX",
"NXNXNXNXNXNXNXNXNXNXNXNXNXNXvXvXvXvXvXvXvXvXvXvXcXcXcXcXvXvXvXvXvXvXvXcXcXvXvXvXcXxXxXxXbXbXbXcXcXxXzXzXzXkXeXrXqXqX4X<X<X<X<X<X<X<X<X<XqXqXrXeXeXeXuXuXkXzXzXzXzXzXzXzXzXxXvXcXvXvXNXCXnXvXvXxXxXzXzXuXuXeXrXwXqXqXqXqXqXwXwXwXrXrXeXeXkXzXxXcXcXcXvXcXcXcXvXvXvXvXvXvXvXvXnXnXnXnXVXVXCXCXAXCXAXCXAXAXCXCXnXvXvXvXvXvXvXvXuX1XV.V.>.*.$.;.>.>.>.>.>.>.x.x.z.>.n.x.x.z.V.z.s.n.n.n.c.c.m.c.a.v.c.c.v.m.m.Z.S.m.Z.D.Z.v.F.D.D.F.N.m.c.f.N.N.m.m.m.v.m.m.Z.m.g.D.Z.v.m.D.N.Z.m.d.m.N.d.f.f.Z.Z.Z.m.m.m.m.m.m.m.m.m.c.g.f.g.g.r.p.f.d.p.p.p.f.f.f.g.g.f.f.f.d.f.p.&.t.d.t.p.p.p.p.p.p.p.p.r.p.i.r.p.r.s.-.r.%.-.-.&.-.#.&.&.$.U U U &.#.#.#.&.U $.#.&.#.I G P #.#.P $...P P P P P P S Z I L L F L L F g S F S F F L L L L S g S Z I #.$.=.:.:.:.:.:.:.:.i.s.s.a.a.a.a.a.a.a.a.a.a.d.d.g.v.v.v.c.c.g.v.v.v.v.v.v.v.v.c.d.d.a.s.:.%.=.&.&.&.=.:.x.(.'.,X1X<X4X4X4XqXqXqXqXqXrXrXrXrXeXfXkXkXeXqX4X4XqXrXrXuXzXzXzXzXxXxXxXxXxXxXxXxXxXxXzXzXeXeXrXrXeXeXeXeXeXeXeXeXeXeXeXeXuXuXuXzXzXxXxXxXcXcXvXnXnXnXnXnXbXzXrX,X(.z.*.*.;.>.>.>.6.6.6.6.6.*.*.$.*.*.;.;.9.C.V./.(.(.`.`.`.'.'.'.,X,X5X5X5X5X5X5X,X,X,X,X,X5X,X,X,X,X1X1X<X<XtX2XtX<XtX<X<X<X<X2XtXtX",
"NXNXNXNXNXNXNXNXNXNXNXNXNXNXvXvXvXvXvXvXvXvXvXvXcXcXcXcXvXvXvXvXvXvXvXcXcXcXvXcXcXxXxXxXbXbXbXcXcXxXzXzXzXkXeXrXqXqX4X<X<X<X<X<X<X<X<X<X4XqXrXeXeXuXuXuXzXzXzXzXzXzXzXzXzXxXvXcXvXvXNXNXvXvXxXxXzXzXzXuXeXeXrXqXqXqXqXqXqXqXwXwXeXeXeXeXuXzXxXcXxXcXcXcXcXcXvXvXvXvXvXvXvXvXnXnXnXnXVXVXCXCXAXCXCXAXAXAXCXVXvXvXvXvXvXvXvXvXzXqX'.,Xx.>.$.=.>.>.>.>.>.>.z.>.s.x.x.x.x.x.n.s.n.n.S.n.S.v.c.c.v.v.c.v.m.m.m.S.Z.m.Z.v.m.F.A.D.D.A.m.g.g.m.m.m.m.m.m.c.v.m.m.d.g.c.m.N.N.S.D._.D.N.g.v.p.d.v.N.g.v.N.Z.m.v.m.m.m.m.m.m.m.v.m.m.p.g.g.f.f.p.f.f.f.f.g.f.g.g.f.d.f.f.p.&.d.f.f.p.p.p.p.p.p.p.d.y.%.%.r.r.s.&.r.%.-.-.-.-.#.$.#.$.$.#.#.U U $.$.U &.$.$.$.#.$.#.P P P G $.$.P L P L S S L S S L P F L L F g Z P S S L L L I I I C Z Z #.$.=.:.:.:.:.:.:.:.i.i.s.s.a.a.a.a.a.a.a.a.a.a.d.d.g.v.v.v.c.c.g.v.v.v.v.v.v.v.v.c.d.a.a.s.:.%.%.&.&.=.=.:.z.S.'.,X<X<X4X4X4XqXqXqXqXqXrXrXrXrXrXeXfXkXkXrX4X<X4XqXrXeXkXzXzXzXxXxXxXxXxXxXxXxXxXxXzXzXeXeXeXrXeXeXeXeXeXeXeXeXeXeXeXeXuXuXuXuXuXzXxXxXcXcXcXvXnXnXnXnXvXbXzXrX}.~.6.*.>.>.>.>.6.;.;.;.*.*.$.$.$.*.;.>.x.C.V./.(.(.`.`.'.'.'.'.,X,X5X5X5X5X5X5X,X,X,X,X,X,X,X,X,X,X1X1X<X<X<X<X<X<X<X<X<X<X<X2XtXtX",
"NXNXNXNXNXNXNXNXNXNXNXCXNXNXvXvXNXNXvXvXvXvXvXvXcXcXcXcXvXvXvXvXvXvXvXvXvXcXvXcXbXxXxXxXbXbXbXbXxXxXzXzXzXkXeXrXqXqXqX2X<X<X<X<X<X<X<X<X4XqXrXeXeXuXuXzXzXzXzXzXzXzXzXzXzXxXvXvXvXNXNXNXvXcXxXxXzXzXzXuXeXeXrXwXqXqXqXqXwXwXrXrXeXeXkXuXkXzXxXcXxXcXcXcXcXcXvXvXvXvXvXvXnXnXVXVXVXVXCXCXCXCXCXCXAXAXAXAXCXnXnXvXvXvXvXvXvXvXxXzXqXrX'.>.*.*.>.>.>.>.>.>.:.z.x.z.x.x.x.n.n.z.V.n.x.n.x.v.c.v.v.v.c.v.m.v.S.S.Z.v.m.Z.Z.Z.Z.D.D.m.g.f.c.N.N.Z.Z.Z.m.m.m.m.p.p.v.m.m.N.N.S.D.D._._.D.D.m.m.S.N.d.v.Z.D.m.c.g.Z.Z.g.m.m.m.m.m.m.f.g.m.g.d.d.f.f.g.g.f.g.g.d.f.d.f.f.f.f.r.d.d.f.t.r.p.p.p.p.p.a.i.&.%.r.p.r.r.%.&.Y &.-.#.&.$.U U #.#.$.$.#.#.U &.#.I &.:.%.$.$.#.P P Z ..P P P S Z S L I Z Z L f S L F Z Z P S S L I S L I Z C I P $.=.:.:.:.:.:.:.i.i.i.i.s.s.a.a.a.a.a.a.a.a.a.a.d.d.g.v.v.v.c.c.g.v.v.v.v.v.v.g.c.c.d.a.a.s.:.,.=.=.&.&.=.=.s.S.'.,X<X<X4X4X4XqXqXqXqXqXrXrXrXrXrXeXkXzXzXeXqX4X2XqXrXeXkXzXzXzXxXxXxXxXxXxXxXxXxXxXzXzXzXkXeXrXeXeXeXeXeXrXrXeXeXeXeXeXuXuXuXuXuXuXzXxXxXcXcXcXvXvXvXvXvXvXbXzXqX`.C.6.>.>.>.>.;.;.*.*.*.$.$.$.*.;.6.x.C.V.V.~.(.(.(.`.'.'.'.'.'.'.}.}.5X5X5X5X,X,X,X,X,X,X,X,X,X,X1X1X1X1X1X1X1X1X1X1X1X<X<X<XtXtX",
"NXNXNXNXvXvXNXNXNXNXNXCXNXNXvXvXvXvXvXvXvXvXvXcXvXvXvXvXcXcXvXvXvXvXvXvXcXcXvXcXbXxXxXxXxXxXxXxXxXxXzXzXzXkXeXrXqXqXqX2X<X<X<X<X<X<X<X<X2XqXwXrXeXeXuXzXzXzXzXzXzXzXzXzXzXxXvXvXvXNXNXNXvXvXxXxXzXzXuXeXeXwXwXqXqXqXqXqXwXwXwXrXuXuXkXkXkXzXxXcXxXcXcXcXcXcXvXvXvXvXvXvXnXnXVXVXVXVXCXCXCXCXCXCXAXAXAXCXCXvXnXnXvXvXvXvXvXvXvXvXvXqX(.V.>.;.>.>.>.>.>.>.x.z.s.s.z.x.x.n.V.n.n.n.n.n.S.S.v.v.v.a.v.c.v.S.S.S.m.v.Z.Z.Z.m.m.D.D.m.g.m.m.m.N.N.N.N.g.c.d.p.f.v.c.m.Z.v.m.D.D.S.D.oXD._.S.D.D.Z.m.D._.m.m.Z.N.c.c.N.p.g.c.m.g.c.t.f.m.c.g.f.f.g.g.g.f.g.d.p.d.d.d.f.f.d.p.f.d.d.p.r.i.r.r.p.i.r.r.i.&.r.y.r.r.i.&.Y &.-.#.&.&.&.#.U #.#.#.U #.&.U #.#.#.#.#.#.$.$.#.P P S P ..L S S S S S S S S g S S F Z S F Z Z S L S S G C Z $.$.=.:.:.:.:.:.:.:.:.i.i.i.s.s.a.a.a.a.a.a.a.a.a.a.d.d.g.c.g.g.g.g.g.v.v.v.v.v.g.g.c.g.a.a.s.s.:.,.=.=.=.=.=.=.s.V.'.,X<X<X4X4X4XqXqXqXqXqXqXqXrXrXrXrXeXkXzXfXrX4X<XqXqXeXkXzXzXzXxXxXxXxXxXxXxXxXxXxXzXzXzXkXeXeXeXeXeXeXeXeXrXrXeXeXeXeXuXuXuXuXuXuXuXzXzXxXcXcXvXvXvXvXvXvXvXbXfX,X(.C.>.>.>.*.*.*.*.$.$.*.*.*.>.9.b.V.V.~.~.~.(.(.(.(.`.'.'.'.'.'.}.}.5X5X5X5X,X,X,X,X,X,X,X,X,X,X,X,X,X,X,X,X,X,X,X,X1X1X<X<XtXtX",
"NXNXNXNXvXvXvXNXCXCXCXCXNXvXvXvXvXvXvXvXcXcXcXcXvXvXvXvXcXcXcXcXcXcXvXvXvXvXvXvXxXzXxXxXxXxXxXbXxXxXzXzXzXzXeXrXwXqXqX4X4X<X<X<X<X<X<X<X2XqXrXrXrXeXuXzXzXzXzXzXzXzXzXzXxXcXvXvXvXvXvXvXcXvXxXxXzXzXuXeXrXrXwXwXqXqXwXwXwXrXrXeXuXuXkXkXkXzXcXcXcXcXcXcXvXvXvXvXnXnXnXnXVXVXCXCXCXCXCXCXCXCXAXAXAXAXAXCXVXnXnXnXvXnXnXvXvXvXvXvXxXqXqXrXx.*.>.>.>.>.>.>.>.x.V.:.z.x.n.n.n.n.x.n.n.n.c.n.v.v.a.a.a.c.v.v.v.Z.p.m.N.m.m.m.m.Z.D.v.m.m.g.D.N.N.D.v.S.m.d.c.m.N.Z.N.v.v.D.D.N.N.S.D.F.D.D.D.D.d.S.S.Z.g.N.m.N.f.v.m.t.m.D.m.g.f.p.c.m.c.m.t.c.d.p.d.f.d.p.t.f.f.d.f.g.d.f.f.d.d.p.r.y.r.r.i.p.&.y.y.&.r.%.%.i.&.%.%.-.&.G $.&.&.#.#.#.#.$.#.=.U U #.$.#.#.#.U P P P U P S I P P Z S S S S F S S Z S F F Z S S Z ..S P S G S Z A $.=.:.:.:.:.:.:.i.:.i.i.i.s.s.s.a.a.a.a.a.a.a.a.a.a.d.d.g.g.g.g.g.c.v.v.v.v.v.v.v.c.g.d.a.a.s.s.:.%.=.=.&.=.=.=.s.V.'.,X<X<X4X4X4X4XqXqXqXqXqXqXrXrXrXrXeXkXkXfXrX4X<XqXrXeXkXzXzXxXxXxXxXxXcXcXcXxXxXxXxXzXzXzXeXeXeXeXeXeXeXeXeXeXuXuXeXeXuXuXuXuXuXuXuXzXzXxXcXcXvXvXvXvXvXvXvXvXcXrX}.(.x.>.*.*.*.*.$.$.*.*.*.;.6.6.x.b.V.V.~./.(.~.(.(.).`.'.'.'.'.}.'.5X5X5X5X5X5X5X5X5X5X,X,X,X,X,X,X,X,X5X5X5X5X5X,X,X1X<X2XtXtX",
"vXvXvXNXvXvXvXvXNXNXCXNXvXvXvXvXvXvXcXcXvXvXvXvXcXcXcXcXxXxXbXbXcXcXcXcXvXvXvXvXbXzXzXzXxXxXxXxXxXxXzXzXzXzXeXrXwXqXqX4X4X<X<X<X<X<X<X<X2XqXqXrXrXrXeXzXzXzXzXzXzXzXzXzXcXvXvXvXvXNXvXvXxXxXvXxXzXuXuXeXrXwXwXwXqXqXwXwXwXeXeXeXuXuXkXkXzXzXcXcXcXcXcXcXvXvXvXvXnXnXnXnXVXVXCXCXCXCXCXCXCXCXAXAXAXAXCXVXnXnXnXnXnXnXnXvXvXvXvXvXvXzXzXzXz.>.>.z.>.>.>.6.s.s.x.s.z.s.z.n.x.z.n.x.n.c.S.S.S.a.s.v.s.s.c.m.v.c.g.m.m.m.c.d.Z.S.m.D.N.g.D.N.D.Z.c.N.c.g.Z.N.S.N.v.d.S.N.Z.m.D.D.D.D._.Z.S.oXZ.Z.m.N.Z.f.N.d.d.m.g.Z.f.m.m.c.v.p.f.g.f.g.g.t.f.g.r.f.g.f.t.r.d.f.f.f.g.g.d.d.d.d.p.r.r.p.i.r.r.%.r.i.i.r.&.-.&.Y %.%.-.-.I -.U &.=.&.#.U &.$.=.=.P U $.$.$.$.$.G #.P P #.P Z C P S Z Z S S S S S Z S F F S S S Z P S I G P P G P &.=.:.:.:.:.:.:.i.i.i.i.s.s.s.s.a.a.a.a.a.a.a.a.a.a.h.d.g.g.g.g.c.c.g.g.v.v.v.v.c.g.g.d.a.s.s.i.:.%.=.=.&.=.=.=.s.V.].5X<X2X4X4X4X4X4X4XqXqXqXqXrXrXrXrXeXkXkXfXrX4X2XqXrXeXkXzXzXxXxXxXxXxXcXcXcXxXxXxXxXzXzXkXeXeXeXeXeXeXuXeXeXeXuXuXeXeXuXuXuXuXuXuXuXuXzXxXxXcXvXvXvXvXNXvXvXvXvXxXrX}.~.6.*.*.$.$.$.$.*.*.;.>.9.x.x.b.C.C.V.V.~.~.(.~.(.(.`.'.'.'.'.'.'.5X5X5X5X5X5X5X5X5X,X,X,X,X,X,X,X5X5X5X5X5X5X5X,X1X<X<XtXtX",
"vXvXNXNXvXvXvXvXNXvXvXvXvXvXvXvXvXvXcXcXvXvXvXvXcXcXcXcXcXbXbXbXcXcXcXcXvXvXvXcXcXxXzXzXxXxXxXxXxXxXzXzXzXzXeXrXwXqXqX4X4X<X<X<X<X<X<X<X2XqXqXwXrXrXeXeXkXkXzXzXzXzXzXzXvXvXNXNXNXvXvXxXxXvXxXzXzXuXeXrXrXwXwXwXwXwXwXwXeXeXeXeXuXkXzXzXzXcXcXcXcXcXvXvXvXvXNXNXvXvXnXnXVXVXVXVXVXCXCXCXAXCXAXAXAXAXCXnXvXvXvXvXvXvXnXvXvXvXvXvXvXvXvXzX(.n.x.C.=.>.>.>.>.x.x.>.>.z.x.z.s.n.x.n.S.V.x.V.v.v.c.c.v.v.v.S.c.a.d.c.g.g.m.m.m.S.m.m.m.Z.Z.Z.m.D.m.g.d.N.m.D.m.g.c.S.D.S.m.m.D.D.D.D.S.m.Z.oXD.F.v.m.m.p.g.d.d.m.m.Z.g.g.g.g.m.t.g.g.t.g.f.p.g.f.r.f.g.f.p.t.t.p.p.f.d.d.f.d.f.p.p.p.r.p.i.r.r.r.%.i.i.r.&.-.Y Y %.&.&.#.U U U #.&.%.#.U &.&.:.$.$.G $.$.#.$.$.$.G P P G S G Z S P Z Z S Z S S S S S S F S S S S P P P P U U U U =.=.:.:.:.:.i.i.i.i.i.i.s.s.a.a.a.a.a.a.a.a.a.a.a.a.d.d.g.g.g.g.g.g.g.g.v.v.c.c.g.g.d.d.a.s.s.i.:.,.=.%.%.%.=.=.>.V._.5X<X4X4X4XqXqX4X4XqXqXqXqXrXrXrXrXeXkXkXuXqXqX4XqXrXeXkXzXzXxXxXxXbXcXcXcXxXxXxXxXxXxXxXkXkXeXeXuXuXuXuXeXeXeXuXuXeXeXuXuXuXuXuXuXuXuXkXzXxXcXcXvXvXvXNXNXvXvXvXvXzXqX).b.>.$.$.$.$.*.*.>.>.6.6.9.6.6.9.x.b.C.C.V.~.~.(.(.(.'.].'.'.'.'.'.}.5X5X5X5X5X5X5X,X,X,X,X,X,X,X5X5X5X5X5X5X5X,X1X<X<X<X<X",
"vXvXNXNXvXvXvXvXvXvXvXvXvXvXvXvXvXvXcXcXvXvXvXvXcXcXcXcXcXbXbXbXcXcXcXcXvXvXvXcXcXbXxXzXzXzXxXxXxXxXzXzXzXzXeXrXwXqXqX4X4X<X<X<X<X<X<X<X<XqXqXqXrXrXeXeXeXeXkXzXzXzXzXxXvXvXNXNXvXcXvXbXxXxXzXzXzXuXeXwXwXwXwXwXwXwXwXwXeXeXeXuXuXkXzXzXcXcXcXcXcXcXvXvXvXvXNXNXvXvXnXnXVXVXVXVXVXCXCXCXAXAXAXAXAXCXVXvXvXvXvXvXvXvXvXvXvXvXvXvXzXcXcXrX<X).).V.=.>.>.>.z.z.>.x.x.z.>.x.x.s.x.n.n.s.x.V.n.a.a.v.v.V.v.d.p.c.p.v.m.v.m.Z.N.d.c.m.m.D.D.Z.D.m.m.c.m.N.Z.c.c.Z.D.S.N.D.m.Z.D.S.N.N.m.m.D._._.N.c.m.g.f.r.c.g.m.A.m.g.d.f.g.m.r.c.d.r.g.p.p.c.r.d.t.d.d.f.p.T r.f.c.f.f.p.f.p.t.p.p.p.r.r.r.r.r.%.p.r.%.%.%.Y Y &.&.&.Y U U U G I &.&.U $.U #.%.#.U U $.$.$.#.&.P P P P P P L S P S Z S Z S S S F F S F S S S S S S G P $.$.-.#.:.:.:.:.:.:.i.i.i.i.s.i.s.s.a.a.a.a.a.a.a.a.a.a.a.a.d.d.g.g.g.g.g.g.g.g.g.g.g.g.g.g.d.h.s.s.i.i.%.%.=.%.%.%.=.=.s.V._.5X1X<X4X4XqXqX4X4XqXqXqXqXrXrXrXrXeXkXkXuXqXqXqXqXrXeXkXzXzXxXxXxXbXcXcXcXbXbXxXxXxXxXxXzXkXeXuXuXuXuXuXeXeXeXuXuXeXeXuXuXuXuXuXuXuXuXuXzXxXxXbXvXvXvXnXnXvXvXvXvXxXfX,X~.z.*.$.$.*.*.;.>.>.>.>.>.;.*.;.>.9.x.b.b.C.V.V.~.(.(.'.].'.'.'.'.'.'.5X$X$X5X5X5X5X5X5X5X,X,X5X5X5X5X5X5X5X5X,X1X1X<X1X1X",
"vXvXvXNXvXvXvXvXvXvXvXvXvXvXvXvXvXvXvXvXcXcXcXcXcXcXcXcXxXxXxXxXbXbXbXcXvXvXcXcXcXbXxXzXzXxXxXxXxXxXzXzXzXzXeXrXrXqXqXqXqX<X<X<X<X<X<X<X<X4XqXqXwXrXeXeXeXeXkXkXzXzXxXvXvXNXNXNXvXcXvXcXcXxXzXzXzXkXeXrXrXrXeXeXwXwXwXwXrXeXeXuXkXkXzXxXcXcXcXvXvXvXvXvXvXvXvXvXvXvXnXnXVXVXCXCXCXCXCXCXCXCXAXAXCXCXVXvXvXvXvXvXvXvXvXvXvXvXvXcXcXvXvXcXkXeX'.z.>.$.>.>.>.>.6.z.>.*.x.x.z.z.n.n.>.V.V.z.s.x.S.v.S.S.c.%.v.p.c.v.c.v.v.g.g.m.Z.Z.Z.Z.Z.N.d.g.c.v.m.N.g.N.D.m.S.m.m.N.S._._.m.m.c.c.d.Z.S.v.c.m._.p.r.p.m.g.Z.D.N.g.m.m.f.v.r.g.f.r.g.p.d.v.p.p.r.d.p.p.p.p.&.p.f.d.f.f.f.t.t.t.p.p.%.y.y.i.i.%.i.%.%.=.i.Y Y &.&.%.U #.P U U P $.=.U $.:.$.$.$.$.S U #.#.#.$.$.P P P P P P S P S S S Z Z S S S S F F S F L L S S G #.:.:.%.=.:.i.i.i.i.:.i.i.s.s.s.s.s.s.a.a.a.a.a.a.a.a.a.a.a.d.h.d.g.g.g.g.g.g.g.g.g.g.g.g.g.d.d.a.a.s.i.i.%.%.%.%.%.%.%.=.s.V._.'.1X<XqX4X4XqXqXqXqXqXqXqXqXqXqXqXrXeXzXkXrXqXqXqXrXeXkXzXzXxXxXxXxXxXcXcXcXbXbXbXbXbXzXzXkXuXuXuXuXuXuXuXuXuXuXuXuXuXuXuXuXuXuXuXuXuXkXzXzXxXbXvXvXvXvXvXvXvXvXvXbXzXeX'.V.6.$.*.*.*.;.>.>.>.;.*.$...X.*.;.>.>.x.x.x.V.V.V.(.(.(.].].].].].].].].].].].'.5X5X'.'.'.'.5X'.'.'.,X,X,X,X,X,X,X,X,X,X",
"vXvXNXNXvXvXvXvXvXNXvXvXvXvXvXvXvXvXvXvXcXcXcXcXbXcXcXcXxXxXxXxXbXbXbXcXcXvXcXcXcXcXxXxXxXxXxXxXxXxXzXzXzXzXeXrXrXqXqXqXqX<X<X<X<X<X<X<X<X2XqXqXwXrXrXrXrXeXuXzXzXxXcXcXvXNXNXNXvXcXvXcXcXxXzXzXzXkXeXrXrXrXeXeXwXwXwXwXrXeXeXuXkXzXzXxXcXcXcXvXvXvXvXvXvXvXvXvXvXvXnXnXVXVXCXCXCXCXCXCXCXCXAXAXCXVXnXvXvXvXnXvXvXnXvXvXvXvXvXcXcXvXvXcXeXbX1Xz.z.>.=.>.x.x.z.6.z.n.z.z.n.z.V.x.V.V.n.n.n.S.n.v.v.c.s.c.v.v.m.v.v.v.v.v.m.N.Z.D.D.D.N.m.t.p.d.v.v.c.v.d.g.N.N.p.g.N.D._.N.N.d.v.m.m.m.p.p.m.D.D.d.p.Z.S.m.F.D.g.g.v.g.f.d.r.g.g.t.g.p.f.g.p.p.r.d.p.p.p.d.r.t.r.f.d.d.d.f.p.p.p.y.r.i.r.r.%.%.i.i.%.%.&.&.-.Y %.&.U $.$.G P G $.&.#.$.=.=.$.$.#.P Z $.P #.$.$.P P P P P S ..Z S S S S Z F F S F F S S F L P S S P $.=.%.%.=.:.i.i.i.i.i.i.i.s.s.s.s.s.s.a.a.a.a.a.a.a.a.a.a.a.d.h.d.g.g.g.g.g.c.g.g.g.g.d.d.d.d.h.a.s.i.i.i.%.%.%.%.%.%.%.=.>.V._.'.1X<XqX4X4XqXqXqXqXqXqXqXqXqXqXqXrXeXuXkXeXwXqXqXrXeXkXzXzXxXxXxXxXxXcXcXcXbXbXbXbXbXzXzXkXuXuXuXuXuXuXuXuXuXuXuXuXuXuXuXuXuXuXuXuXuXkXkXzXxXxXxXvXcXvXvXvXvXvXvXvXzXkX<X(.C.;.*.*.*.;.;.;.;.*.$.#.U ..#.*.;.>.>.z.x.x.C.V.V.(.(.(.(.]._.].].].].].].].].].].].].].].].].'.'.'.'.5X5X5X5X,X,X,X,X",
"NXNXNXNXvXvXvXvXvXnXNXNXvXvXvXvXvXvXvXvXcXcXcXcXbXcXcXcXxXxXxXxXbXbXbXbXcXcXcXcXcXcXbXxXxXxXxXxXxXxXzXzXzXzXeXeXrXqXqXqX4X<X<X<X<X<X<X<X<X2XqXqXwXrXrXrXrXeXkXzXxXcXvXvXNXNXvXvXvXcXvXcXbXxXzXzXzXkXeXeXeXeXeXeXeXeXwXwXeXeXeXuXzXzXxXxXbXcXvXvXvXvXvXvXvXvXvXvXvXvXnXnXVXVXCXCXCXCXCXCXCXCXCXAXCXVXvXvXnXvXnXnXnXnXnXnXvXvXvXcXvXvXvXvXzXcXeXx.x.b.$.>.z.z.>.>.z.>.>.z.>.x.z.V.V.n.n.n.V.V.x.n.i.v.a.a.a.v.c.d.c.v.m.N.Z.N.N.S.S.m.v.c.Z.m.v.c.a.d.S.N.S.N.v.N.S.D.S.m.S.S.v.S.S.d.d.d.c.v.Z.D.d.r.m.Z.D.Z.N.Z.S.m.p.y.d.p.g.m.p.g.d.y.d.d.d.-.d.d.a.p.d.p.f.r.y.p.d.d.d.p.p.p.p.r.i.r.%.&.&.%.=.%.-.-.i.&.I &.&.#.$.$.#.U A P $.$.$.%.%.&.&.$.P P P #.#.$.$...P P P S S ..g L P S F F S F L g L S Z S S G I I U =.=.&.%.=.i.i.i.i.i.i.s.s.s.s.s.s.a.a.a.a.a.a.a.a.a.a.a.a.d.d.d.d.g.g.g.g.c.c.g.g.g.g.g.d.d.h.a.a.s.i.i.%.%.%.%.%.%.%.,.%.>.n._.'.1X<X2X2X2XqXqXqXqXqXqXqXqXqXqXqXrXeXuXuXuXwXqXqXrXeXkXzXzXxXxXxXxXxXcXcXcXxXcXcXbXbXzXzXkXkXkXkXkXkXuXuXuXuXuXuXuXuXuXuXuXuXuXuXuXuXuXuXkXzXzXxXxXcXvXvXvXvXvXvXvXbXvXeX,X(.x.;.*.*.*.*.*.$.*.$...P P #.=.,.,.>.>.z.x.x.C.V.V.V.(.(.(.(.(.]._._._._.].].].].].].].].].].].].].].$X$X$X$X5X$X$X$X",
"NXNXNXNXvXvXvXvXvXnXNXNXvXvXvXvXvXvXvXvXcXcXcXcXxXbXbXcXxXxXxXxXxXxXbXbXcXxXcXcXcXcXcXxXxXxXxXxXxXxXzXzXzXzXeXeXrXqXqXqX4X<X<X<X<X<X<X<X<X<XqXqXqXwXrXrXrXeXkXzXcXcXvXNXNXNXvXvXvXvXvXcXbXxXzXzXzXkXeXeXeXeXeXeXeXeXwXwXeXeXeXuXzXzXxXxXcXvXvXvXvXvXvXvXvXvXvXvXvXvXnXnXVXVXCXCXCXCXCXCXCXCXCXCXCXnXvXvXnXvXvXnXnXnXnXnXvXvXvXcXcXvXvXvXNXkXkX~.x.~.;.>.=.,.>.>.>.>.n.x.n.V.V.V.z.x.n.n.n.a.c.c.x.n.i.a.v.S.v.v.c.v.S.S.N.N.S.D.v.v.v.v.Z.Z.m.m.m.Z.m.D.S.N.c.S.S.m.N.D.N.g.m.m.s.a.m.v.S.m.m.m.v.v.Z.S.N.Z.D.D.g.p.d.m.v.d.d.v.y.g.f.y.p.d.g.T p.d.p.a.d.p.c.t.r.t.a.d.d.a.a.a.p.r.i.%.&.&.&.%.=.&.-.Y %.i.Y $.%.=.:.P #.#.P #.#.%.$.=.$.$.$.$.P U G $.P #.#.P P P P P P P S L L P F F S F L Z S S S S S S I P #.=.=.%.%.:.i.i.i.i.i.i.s.s.s.s.s.s.a.a.a.a.a.a.a.a.a.a.a.a.d.d.d.g.g.g.g.g.c.c.g.g.g.g.g.d.h.h.a.s.i.:.i.%.%.%.=.%.%.%.,.=.>.n._.'.1X<X4X2X4XqXqXqXqXqXqXqXqXqXqXqXrXeXeXuXuXrXwXqXwXeXkXzXzXxXxXxXxXxXcXcXcXxXcXbXbXbXzXzXkXkXkXkXkXkXuXuXuXuXuXuXeXeXuXuXuXuXuXuXuXuXuXuXkXzXzXzXxXvXcXvXvXvXvXvXvXvXvXxXrX}.~.>.*.$.*.*.*.$.$.X...P #.*.>.>.>.>.>.x.x.x.x.C.V.V.V.S.G.G.G.G.G.G.G.G.G.G.F.F._._._._.].].].].].].].].].].].].$X$X",
"NXNXvXvXvXvXvXvXvXvXNXNXnXnXvXvXvXvXcXcXcXcXcXcXbXbXbXbXxXxXxXxXxXxXxXxXbXbXbXbXbXbXbXxXxXzXxXxXxXxXzXzXkXeXeXeXrXwXqXqXqX2X<X<X<X<X<X<X<X<XqXqXqXqXrXrXrXeXzXzXcXvXNXNXvXvXvXvXcXvXcXxXxXzXzXkXkXuXeXeXeXeXeXeXeXeXeXeXeXeXuXuXzXzXzXxXcXvXvXvXvXvXvXvXvXvXNXNXvXvXVXVXCXCXCXCXCXCXCXAXAXAXAXCXCXVXnXnXnXvXvXvXvXvXvXvXvXvXvXvXcXcXcXcXzXvXrXV.'.'.>.>.>.>.>.>.x.x.6.n.x.x.x.z.x.V.V.x.n.x.n.z.x.:.a.x.v.a.v.v.v.N.N.S.v.N.S.v.v.c.m.v.S.N.N.S.S.S.S.S.g.c.c.m._.S.D.N.S.D.m.m.a.m.S.m.v.S.s.m.m.m.Z.S._._._._.F.v.m.g.m.d.d.d.d.c.r.p.d.c.c.d.r.p.%.p.a.d.p.p.y.r.y.a.a.a.a.a.s.y.%.&.a.-.-.&.=.i.&.#.-.&.&.#.&.#.&.$.U %.U U $.=.&.U $.$.$.$.P P P #.P ..P P P P P P P S P S S ..S S S L P F Z C Z P P U #.$.$.=.=.=.:.:.:.i.i.i.s.s.s.s.s.s.a.a.a.a.a.a.a.a.a.a.a.a.d.d.d.d.g.g.g.g.g.g.g.g.g.g.g.d.c.d.h.a.a.s.i.i.i.i.%.%.=.=.=.=.%.%.:.n._.'.,X<X<X4X4XqXqXqXqXqXqXqXqXqXqXwXeXuXeXeXuXeXrXqXqXeXkXzXzXxXxXxXxXxXbXbXcXcXcXcXbXxXxXzXzXkXkXkXkXkXkXuXuXuXkXuXuXuXuXuXuXuXuXuXuXuXkXkXkXkXzXxXxXxXvXvXcXcXvXvXvXvXvXbXzXqX'.n.>.*.$.*.*.$.$.X.X.$.*.;.>.>.>.>.z.x.x.x.x.C.V.V.V.V.G.H.G.G.G.G.G.G.G.G.F.F.F.F.F.F._.F.].].]._.F.G.G.F.].].$X$X",
"vXvXvXvXvXvXvXvXvXvXNXNXnXnXvXvXvXvXvXcXcXcXcXcXbXbXbXbXxXxXxXxXxXxXxXxXxXxXbXbXbXbXbXxXxXzXxXxXxXxXzXzXeXeXeXeXrXwXqXqXqX2X<X<X<X<X<X<X<X<X2X4XqXqXrXrXrXeXkXzXvXvXNXNXvXvXvXcXcXcXcXxXzXzXkXeXeXeXeXeXeXeXeXeXeXeXuXuXeXuXuXzXzXzXzXxXcXvXvXcXcXvXvXvXvXvXnXnXvXvXVXVXCXCXCXCXCXCXCXAXAXAXCXCXCXVXnXnXnXnXvXvXvXvXnXvXvXvXvXvXcXcXcXcXeXcXzX5X`.(.~.>.>.=.z.>.z.x.x.V.z.z.z.x.x.x.x.n.n.n.x.:.s.&.s.n.v.c.v.m.S.m.N.v.v.N.D.g.Z.m.S.Z.S.S.S.S.N.S.c.v.N.S.g.N._.D._.D.D.S.Z.p.c.m.S.S.S.a.c.v.m.D.Z.N._.D.D.F.S.Z.m.d.v.g.v.S.p.r.r.v.r.d.c.c.&.r.a.&.a.a.p.y.y.y.r.p.a.p.s.s.s.i.%.&.R i.-.&.%.&.&.%.Y &.=.Y &.#.U %.$.#.$.P P &.=.#.#.#.$.#.P P P #.....P P P P P P S S P F S ..S S S P P Z Z Z I #.$.$.$.&.%.%.:.:.i.:.:.i.i.i.s.s.s.s.s.s.a.a.a.a.a.a.a.a.a.a.a.a.d.d.d.d.g.g.g.g.g.g.g.g.d.d.d.d.c.d.a.a.s.p.i.i.i.i.%.%.=.:.=.=.%.%.:.n.(.'.,X<X<X4X4XqXqXqXqXqXqXqXqXqXqXwXrXeXeXeXeXuXrXqXqXrXkXzXzXxXxXxXxXxXbXbXbXbXxXcXbXxXxXzXzXzXzXkXkXkXkXuXuXuXkXuXuXuXuXuXuXuXuXuXuXuXkXkXkXkXzXzXxXxXvXvXvXvXvXvXvXcXvXvXcXzX<X(.x.=.*.*.*.*.$.$.$.*.*.;.>.>.>.>.6.x.x.x.x.C.V.V.V.V.H.H.H.H.G.G.G.G.G.G.G.F.F.F.F.G.F.F.F.F.F.F.G.G.G.G.F.T.$X$X",
"vXvXvXvXvXvXvXvXvXvXvXvXvXvXcXcXvXvXvXvXcXcXvXvXbXcXbXbXxXxXxXxXxXxXxXxXxXxXxXxXxXxXcXxXxXzXzXzXxXxXzXzXkXeXeXeXrXwXqXqXqX2X<X<X<X<X<X<X<X<X2X4XqXqXwXrXeXeXzXxXcXNXNXvXvXvXvXcXbXbXxXzXzXkXeXeXeXeXeXeXeXeXeXeXuXuXuXuXuXzXzXzXzXzXxXxXvXvXvXcXcXvXvXvXvXvXvXvXvXvXVXVXVXCXCXCXCXCXCXCXAXAXCXCXVXnXnXnXvXvXvXvXvXvXvXcXvXvXcXcXcXcXcXvXNXNXzX4X}.,X(.z.>.>.>.>.b.z.x.x.>.>.z.x.z.>.>.s.c.n.s.s.v.a.n.n.x.v.v.n.S.v.N.c.m.S.c.S.S.S.Z.S.S.S.S.S.m.c.m.c.S.S.g.S._.D._._.S.v.v.y.m.m.S.S.v.Z.d.c.m.D.m.S._.N.m.Z.Z.D.m.d.v.c.v.Z.r.t.d.p.&.p.d.d.a.R r.r.a.a.r.r.r.y.-.p.p.p.p.i.s.p.i.i.&.Y -.-.%.&.&.%.%.Y %.#.U %.#.U $.U #.U P $.$.#.$.#.P P P #.P ....P P P P P ..P S Z S Z Z P P L S S L S I P $.$.=.=.:.:.:.:.i.i.i.i.i.i.i.i.s.s.s.s.s.s.a.a.a.a.a.a.a.a.a.a.a.a.d.d.d.d.d.d.d.d.d.d.g.g.d.d.d.d.c.d.h.a.s.p.i.i.i.%.%.%.=.=.=.=.%.%.i.n.(.'.,X<X2X4X4XqXqXqXqXqXqXqXqXqXqXqXrXeXeXeXuXuXeXqXqXrXkXzXzXxXxXxXxXxXbXbXbXbXcXcXcXxXxXzXzXzXzXzXzXzXzXkXkXkXuXuXuXuXkXuXkXkXuXuXuXuXkXkXkXkXzXzXzXxXcXcXcXcXcXvXvXvXvXvXvXvXfX,XV.>.*.$.*.*.*.*.*.*.;.;.>.>.>.>.6.h.x.x.x.C.V.H.H.H.H.H.H.H.H.H.G.G.G.G.G.G.G.G.G.G.G.F.F.F.G.G.G.G.G.F.F.T.oXoX",
"vXvXvXvXvXvXvXvXvXvXvXvXvXvXcXcXvXvXvXvXcXcXvXvXcXcXbXbXxXxXxXxXxXxXxXxXxXxXxXxXxXxXcXxXxXzXzXzXxXxXzXzXkXeXeXeXrXwXqXqXqX2X<X<X<X<X<X<X<X<X<X2XqXqXwXrXeXeXzXcXvXNXNXvXvXvXcXbXbXxXzXzXzXkXeXeXeXeXeXeXeXeXeXeXuXuXuXuXuXuXzXzXzXzXxXxXvXvXvXcXcXvXvXvXvXvXvXnXvXvXVXVXVXCXCXCXCXCXCXCXAXAXCXCXVXnXnXvXvXvXvXvXvXvXvXcXvXcXvXvXvXcXcXcXcXcXbXcXbXeX}.V.*.z.=.z.>.>.z.x.z.z.z.z.x.n.x.x.n.z.:.n.x.x.n.a.a.V.v.n.v.a.S.n.v.v.v.S.N.S.m.S.N.S.S.N.g.v.N.S.S.c.v.D.S.S._.D.m.d.r.v.m.m.S.S.S.m.p.m.Z.D.v._._.m.d.m.D.Z.d.v.m.c.d.d.p.r.p.-.r.d.p.r.p.r.&.%.s.i.i.r.%.r.R y.y.y.i.i.i.i.i.i.&.-.Y U %.i.&.#.:.#.%.U U U $.U $.$.P $.$.#.P U $.$.P P P P P P P P P L L S ..S S Z F F Z S P S S S S S P #.&.:.:.:.:.:.:.:.i.i.i.i.i.i.i.i.s.s.s.s.s.s.a.a.a.a.a.a.a.a.a.a.a.a.d.d.d.d.d.d.d.d.d.d.g.g.d.d.d.d.d.d.h.a.s.i.i.i.i.%.%.%.%.:.=.=.%.%.i.n.(.'.,X<X2XqX4XqXqXqXqXqXqXqXqXqXqXqXrXeXeXeXuXuXeXqXqXrXeXzXzXxXxXxXxXxXbXbXbXbXcXcXcXxXxXzXzXzXzXzXzXzXzXkXkXkXuXuXuXuXkXkXkXkXuXuXuXuXkXkXkXkXzXzXxXxXcXcXcXcXvXcXvXvXvXvXvXvXfX4X'.C.;.*.*.*.*.;.;.;.;.;.>.>.>.>.6.h.h.h.h.C.V.H.H.H.H.H.H.H.H.H.G.G.G.G.F.F.G.G.G.G.G.G.G.G.G.G.G.F.G.F.F.F.F.G.",
"vXvXvXvXvXvXvXvXvXvXvXvXcXcXcXcXvXvXcXcXbXbXbXcXxXxXxXxXxXxXxXxXzXzXxXxXxXxXxXxXxXxXxXxXzXzXzXzXxXzXzXzXkXuXeXeXrXqXqXqXqX2X2X<X<X<X<X<X<X<X<X2XqXqXwXrXeXzXxXvXvXvXvXvXvXvXcXcXcXxXzXzXzXkXeXeXuXkXuXuXeXeXuXuXuXuXuXuXkXzXzXzXzXxXxXcXvXvXvXcXvXvXvXvXnXnXNXNXNXNXCXCXCXCXAXAXAXAXAXAXAXAXCXNXNXNXvXvXvXvXNXvXvXvXvXvXcXvXcXvXvXvXvXvXcXxXvXcXvXvXqX(.x.>.>.>.z.z.z.z.x.z.n.z.z.x.x.x.:.:.V.V.s.x.n.c.N.S.v.v.n.c.n.n.N.S.S.n.D.S.g.S.m.v.d.s.N.S.n.N.N.c.N._.D.D._._.S.&.m.S.m.Z.S.S._.d.d.p.m.m.D.D.m.d.m.m.D.m.c.v.m.v.v.p.g.-.r.&.s.d.a.&.c.a.i.%.r.r.i.y.r.%.&.r.i.a.s.&.%.r.i.i.-.-.-.-.-.&.&.Y =.%.#.U U I U U $.&.U P $.$.U A #.#.P #.P P P P P P ..S L S P S S F Z F Z F Z Z Z Z C P #.$.=.:.:.:.:.:.:.:.i.i.i.i.i.i.i.i.s.s.s.s.s.s.a.a.a.a.a.a.a.a.d.d.d.d.d.d.d.d.d.d.g.g.d.d.d.d.d.d.d.d.d.a.a.a.s.i.i.r.i.i.i.i.:.i.i.i.%.%.>.n._.'.,X<X2X2X2XqXqXqXqXqXqXqXqXqXqXwXrXeXeXeXeXkXeXqXqXrXeXzXzXzXxXxXxXxXxXxXxXxXcXcXcXcXxXxXxXzXzXzXzXzXzXkXkXkXkXkXkXkXuXuXuXuXkXkXkXkXkXkXkXkXkXzXxXxXxXxXcXcXcXcXvXcXvXcXcXvXvXeX1X(.V.>.*.=.*.>.;.;.*.*.;.;.>.>.>.6.h.h.h.C.C.H.H.H.H.H.H.G.G.G.G.G.G.G.G.G.G.G.G.G.H.H.H.H.G.G.F.F.F.F.F.F.G.G.",
"vXvXvXvXvXvXvXvXvXvXvXvXcXcXcXcXvXvXcXcXbXbXcXcXxXxXxXxXxXxXxXxXzXzXxXxXxXxXxXxXxXxXxXxXzXzXzXzXxXzXzXzXzXuXfXeXrXqXqXqXqX2X2X<X<X<X<X<X<X<X<X<X4XqXwXrXkXxXvXNXNXvXvXvXvXvXcXcXcXxXzXzXzXkXeXeXuXuXuXuXeXeXuXuXuXuXuXuXkXzXzXzXzXxXxXcXvXvXvXcXvXvXvXvXnXnXNXNXNXNXCXCXCXCXAXAXAXAXAXAXAXCXNXvXNXNXvXvXvXvXNXvXvXvXvXvXcXvXvXvXvXvXvXvXcXcXcXcXvXeXeX(.x.=.>.=.x.x.x.x.x.>.>.z.s.>.>.s.s.s.V.n.s.x.n.c.v.v.v.v.n.n.c.v.N.n.N.S.S.d.S.S.c.c.c.v.N.S.n.n.m.n.S.S._._._.D.S.c.v.S.Z.S.S.Z.Z.d.p.p.m.m.Z.g.p.d.d.Z.N.m.v.v.v.v.d.p.p.y.&.p.r.d.d.a.i.i.i.i.%.r.%.i.i.%.&.-.&.r.i.r.r.i.s.s.%.#.=.$.-.&.-.Y #.&.$.U U #.#.U G $.$.U #.$.$.#.U U P #...P P P ..S S L L S P S S S S S S F Z Z Z S G $.&.=.:.:.:.:.:.:.i.i.i.i.i.i.i.i.i.i.s.s.s.s.s.s.s.a.a.a.a.a.a.a.d.d.d.d.d.d.d.d.d.d.g.g.d.d.d.d.d.d.d.d.a.a.a.s.i.i.r.r.i.i.i.i.:.:.i.i.%.%.>.n.(.'.,X<X2X2X2XqXqXqXqXqXqXqXqXqXqXwXrXrXeXeXeXzXeXqXqXrXeXzXzXzXxXxXxXxXxXxXxXxXcXcXcXcXxXxXxXzXzXzXzXzXzXkXkXkXkXkXkXkXuXuXuXuXkXkXkXkXkXkXkXkXkXzXxXxXxXxXcXcXcXcXvXcXcXvXcXvXvXbXeX1X(.x.>.>.*.>.>.>.*.*.*.*.;.;.>.>.h.h.h.C.C.V.H.H.H.S.G.G.G.G.G.G.G.G.G.G.G.G.G.G.H.H.H.G.G.F.F.F.F.F.F.G.G.G.",
"vXvXvXvXcXvXcXcXcXcXcXcXcXcXcXcXcXcXcXcXbXbXbXbXxXxXxXxXxXxXxXxXzXzXzXzXzXzXxXxXxXxXxXxXzXzXzXzXzXzXzXzXzXkXeXeXrXwXqXqXqX4X<X<X<X<X<X<X<X<X<X<X2XqXqXrXxXvXNXNXNXNXvXNXvXvXcXbXcXxXzXzXzXkXeXeXuXuXuXuXuXuXkXuXuXuXzXzXzXzXzXzXxXxXcXcXvXvXvXcXvXvXvXvXnXnXNXNXNXNXCXCXCXCXCXCXCXAXAXAXCXNXvXvXNXNXNXNXvXvXvXvXvXvXvXcXvXcXvXvXcXcXvXvXcXcXcXcXvXkXvX'.V.>.=.>.z.z.z.z.>.x.z.>.z.>.>.z.x.z.n.x.s.x.n.c.n.v.v.n.c.n.a.c.v.n.N.S.a.S.S.c.g.v.m.Z.S.m.N.N.n.S.S.S._._._.N.p.m.d.S.Z.S.S.Z.y.d.a.m.c.d.m.p.m.m.c.N.d.v.m.v.d.v.y.r.r.d.r.y.p.a.d.c.&.%.i.s.-.i.&.i.r.%.%.-.-.-.&.%.i.i.s.a.=.-.i.&.-.&.-.Y P $.&.$.U $.$.#.P P $.=.#.#.$.&.$.#.P Z P P P P P S Z S G P S S F S S F S Z Z Z Z U U %.%.:.:.:.:.:.i.i.:.:.i.i.i.i.i.i.s.s.s.s.s.s.s.s.s.a.a.a.a.a.a.a.d.d.d.d.d.d.d.d.d.d.g.g.d.d.d.d.d.d.d.a.a.a.s.i.i.r.%.%.=.=.i.i.:.i.i.i.,.,.i.n._.5X1X<X2X2X2XqXqXqXqXqXqXqXqXwXrXrXrXrXrXeXkXzXuXrXqXrXeXkXzXzXzXzXxXxXxXxXxXxXcXcXcXcXxXxXxXxXzXzXzXzXzXzXzXzXkXkXkXkXuXuXuXuXkXkXkXkXkXkXkXkXzXzXzXzXzXzXcXcXcXcXcXcXcXcXvXvXvXvXzXrX'.~.b.6.>.*.;.;.;.*.*.*.*.;.,.>.h.h.C.C.C.V.V.H.V.G.G.G.G.G.F.G.G.G.G.G.G.G.G.G.G.G.G.F.F.F.T.F.F.F.F.G.G.G.",
"vXvXvXvXvXvXcXcXvXcXcXcXcXcXcXcXcXcXcXcXbXbXbXxXxXxXxXxXzXzXzXzXzXzXzXzXzXzXxXzXzXxXxXxXzXzXzXzXzXzXzXzXzXkXeXeXrXwXqXqXqX4X2X<X<X1X<X<X<X<X<X<X2XqXrXrXcXNXNXNXNXvXvXvXvXvXcXcXcXxXzXzXzXkXeXeXuXuXuXuXuXuXkXuXuXuXzXzXzXzXzXzXxXxXcXcXvXvXvXcXcXvXvXvXnXnXNXNXNXNXCXCXCXCXCXCXCXCXAXCXCXvXvXvXNXNXNXNXvXvXNXvXvXvXvXvXcXvXvXvXcXcXcXcXcXcXcXcXvXCXvXqX'.>.>.x.>.>.>.>.x.b.>.x.n.>.>.n.n.z.n.z.s.x.n.x.c.n.n.v.c.a.c.a.c.S.S.n.n.n.c.c.m.m.N.N.n.g.S.D.v._._.S._.oX_.m.g.S.v.v.m.S.S.S.p.m.y.d.p.p.v.d.c.d.m.m.p.c.m.m.s.v.&.r.p.p.a.T d.d.d.v.%.%.r.r.-.i.-.i.&.%.%.&.&.U Y T %.r.%.i.=.=.=.&.-.-.-.Y G #.&.%.&.#.U $.P P $.$.$.P P $.$.#.#.S P P P ..Z P Z S G P Z S Z F S S Z Z Z Z G &.%.=.:.:.:.i.:.:.i.i.:.:.i.i.i.i.i.i.i.s.s.s.s.s.s.s.s.a.a.a.a.a.a.a.d.d.d.d.d.d.d.d.d.d.d.d.d.d.d.d.d.d.d.a.a.s.i.i.i.i.%.%.=.=.i.i.:.i.i.i.:.:.i.n._.5X1X<X2X2X2XqXqXqXqXqXqXqXqXwXrXrXrXrXrXeXkXzXkXrXqXrXeXkXzXzXzXzXxXxXxXxXxXxXcXcXcXcXxXxXxXxXzXzXzXzXzXzXzXzXkXkXkXkXuXuXuXuXkXkXkXkXkXkXkXkXzXzXzXzXzXzXcXcXcXcXcXcXcXcXvXvXvXvXbXfXqX'.~.b.>.*.;.;.;.*.*.*.*.*.=.,.h.x.C.C.C.V.V.V.G.G.G.G._._.F.F.F.G.G.G.G.G.G.G.G.G.F.T.F.F.F.F.T.F.F.G.G.G.",
"cXcXcXcXcXcXcXcXcXcXcXcXcXcXcXcXxXcXcXcXxXxXxXxXxXzXzXzXzXzXzXzXzXzXzXzXkXkXzXzXzXxXxXxXxXzXzXzXzXzXzXzXzXuXuXeXrXwXqXqXqX4X4X<X<X1X<X1X1X<X<X<XqXwXeXxXvXNXNXNXNXNXvXvXcXvXcXcXbXxXxXzXzXzXzXzXkXkXuXuXuXuXkXkXkXkXzXzXzXzXxXxXxXbXcXvXcXvXvXvXvXvXvXvXNXNXNXNXNXNXCXCXAXAXCXCXAXAXAXCXNXvXNXNXvXvXNXNXNXNXNXvXvXvXvXcXcXvXvXvXcXcXcXcXcXcXvXvXcXvXvXvXqX(.>.x.z.=.>.z.x.x.x.x.z.>.z.x.n.x.>.x.:.S.n.z.n.:.n.n.=.s.c.n.S.S.n.c.n.n.i.N.N.N.a.n.n.S.S.N.N.N.S.S.D.v.N.d.N.N.c.v.Z.S.S.D.s.m.p.v.p.m.m.v.r.d.c.d.d.d.p.v.s.s.r.y.s.d.p.p.d.d.d.c.r.%.%.%.-.i.Y =.%.%.%.&.&.&.&.U Y -.&.%.=.=.=.%.&.-.-.=.#.P P #.=.$.P $.&.#.P #.#.#.G #.$.$.$.P P P Z #.L P S Z S P F S Z Z Z S Z S P P #.&.%.:.:.:.:.i.i.i.i.i.:.:.i.i.i.i.i.i.s.s.s.s.i.p.s.s.a.a.a.a.d.d.d.d.d.d.d.d.d.d.d.d.d.d.d.d.d.d.d.d.d.d.a.a.s.s.i.i.i.r.r.r.=.=.i.i.i.i.i.i.:.=.i.n._.5X1X<X<X<X<XtXqXqXqXqXqXqXqXqXqXqXwXrXrXeXuXzXkXrXwXrXeXkXzXzXzXzXxXxXxXxXxXxXcXcXcXcXcXcXcXcXxXxXxXzXzXzXzXzXzXzXkXkXkXkXkXkXuXuXuXuXuXuXkXkXkXkXxXxXzXzXxXxXcXcXcXcXvXvXcXvXvXvXvXzXeX<X`.V.x.>.*.*.*.*.*.$.*.;.>.>.x.C.C.V.V.V.V.V.G.G.(.].].].].].]._.F.G.G.G.G.G.G.F.].].].].].].F.G.G.G.G.G.",
"cXcXcXcXcXcXcXcXcXcXcXcXcXcXcXcXcXcXcXcXxXxXxXxXzXzXzXzXzXzXkXkXzXzXkXkXeXeXeXuXzXxXxXxXxXzXzXzXzXzXzXzXzXuXuXeXrXwXqXqXqX4X4X<X<X1X1X1X1X1X<X2XqXrXzXvXvXvXNXNXNXNXvXcXcXcXcXxXxXzXzXzXzXzXzXzXkXkXuXuXuXuXkXkXkXkXzXzXzXzXzXzXxXbXcXvXcXcXvXvXvXvXvXvXNXNXNXNXNXNXCXCXAXAXCXCXAXAXAXCXNXvXNXNXvXvXNXNXNXNXNXvXvXvXvXcXcXvXvXvXcXcXcXcXcXcXvXvXvXvXvXvX<Xx.>.x.>.=.x.z.z.z.z.6.>.z.x.z.x.s.n.n.x.n.z.z.s.n.n.z.i.a.x.n.n.a.c.c.n.s.a.S.m.n.c.n.S.S.S.S.a.n.m.c.S.d.d.N.S.N.c.m.S.D.S.S.d.v.d.c.d.m.m.d.r.v.c.d.d.s.c.c.d.p.d.a.a.a.s.d.g.d.d.c.%.r.i.r.-.i.-.%.i.%.&.&.-.-.-.&.&.-.U -.%.=.=.%.&.-.$.%.&.#.I P $.$.P $.&.#.P P #.$.U P ..$.#.P P P Z ..P S L S S S S Z Z Z Z S P U #.&.%.%.:.:.:.:.:.:.i.i.i.i.:.:.i.i.i.i.i.i.i.i.s.s.p.p.s.s.a.a.a.a.d.d.d.d.d.d.d.d.d.d.d.d.d.d.d.d.a.a.a.d.a.a.a.s.s.i.i.r.r.r.r.r.=.=.i.i.i.i.i.i.i.:.i.V._.5X1X<X<X2X2XtXqXqXqXqXqXqXqXqXqXqXwXwXrXeXuXzXkXrXrXrXeXkXzXzXzXzXxXxXxXxXxXxXcXcXcXcXcXcXcXcXxXxXxXzXzXzXzXzXzXzXkXkXkXkXkXkXkXuXuXuXuXuXkXkXkXkXxXxXzXzXxXxXcXcXcXcXvXvXcXcXvXvXvXbXzXrX1X).V.z.>.*.*.*.*.*.;.;.>.9.x.C.V.V.V.V.V.V.(.(.(.].].].].].].].]._.F.F.F.F.].].$X$X].].].].T.F.G.G.G.G.",
"vXcXcXcXcXcXcXcXcXcXcXcXcXcXcXcXcXcXcXcXxXxXxXxXzXzXzXzXzXzXkXkXzXzXuXeXeXrXrXeXeXxXxXxXxXxXzXzXzXzXzXzXzXuXuXeXeXrXqXqXqX4X2X<X<X1X1X1X1X1X<X4XwXeXxXvXvXvXNXNXNXvXcXcXcXcXxXxXzXzXzXzXkXzXzXkXkXkXuXuXuXuXkXkXkXkXzXzXzXzXzXzXxXcXvXvXvXvXvXvXvXvXNXNXNXNXNXNXNXCXCXAXAXAXAXAXAXAXCXNXvXvXNXNXvXvXvXvXNXNXNXvXvXvXvXcXcXvXvXvXcXcXcXcXcXcXvXvXcXcXvXvXeX2XS.x.>.>.>.>.6.6.6.6.z.x.z.>.z.z.n.x.n.>.s.x.V.n.z.s.n.c.z.n.x.c.n.s.n.i.n.S.v.a.c.n.N.c.a.s.N.n.m.S.m.d.c.S.N.N.c.m.S.D.S.S.c.p.c.v.c.m.c.p.-.d.r.p.a.d.v.d.a.c.a.g.c.c.d.d.d.d.d.d.-.i.s.i.-.i.%.-.i.%.&.&.-.-.-.%.%.&.-.-.&.=.=.=.%.$.-.&.-.&.#.G #.$.P #.&.#.P #.#.#.#.P ..#...P P ..Z P P S L S S L F Z Z Z Z Z #.$.=.:.:.:.:.:.:.:.:.:.i.i.i.i.:.i.i.i.i.i.i.i.i.s.s.s.s.s.s.s.a.a.a.a.d.d.d.d.d.d.d.d.d.d.d.d.d.d.h.d.a.a.a.a.a.a.s.i.s.i.i.:.r.r.i.i.i.i.i.i.:.:.i.i.i.:.s.V.].5X1X<X<X2X2XtXqXqXqXqXqXqXqXqXqXqXwXwXrXeXkXzXkXeXrXrXeXkXzXzXzXzXxXxXxXxXxXxXcXxXcXcXcXcXcXcXxXxXxXxXxXxXzXzXzXzXkXkXkXkXkXkXkXkXuXuXuXuXkXkXkXkXzXzXzXzXxXxXcXcXcXcXvXvXcXcXvXnXvXvXbXfXqX,X(.C.6.;.$.*.*.*.>.6.9.b.C.V.V.V.V.V.G.(.(.).].'.'.'.'.'.$X$X].].].].].].].].$X$X$X$X$X$X].].F.G.G.G.",
"vXcXcXcXcXcXcXcXcXcXcXcXcXcXcXcXbXcXxXxXxXxXxXzXzXkXzXzXzXzXkXkXkXuXeXeXrXrXrXrXeXzXxXxXxXxXzXzXzXzXzXzXzXuXuXeXeXrXqXqXqX4X2X<X<X1X1X1X1X1X<X4XeXzXvXvXvXvXvXvXvXvXcXcXcXxXxXzXzXzXzXzXkXzXkXkXkXkXuXuXuXuXkXkXkXkXzXzXzXzXzXzXxXcXvXvXvXvXvXvXvXvXNXNXNXNXNXNXNXCXCXCXAXAXAXAXAXAXCXvXvXvXvXNXvXvXvXvXvXvXNXvXvXvXvXcXcXvXvXvXcXcXcXcXcXcXvXvXcXcXvXvXvXrX'.>.x.(.6.>.x.x.x.x.x.z.>.z.x.V.x.s.z.=.z.n.x.s.n.n.z.s.=.s.c.n.c.n.i.c.S.n.x.i.v.n.c.a.c.S.n.N.S.S.v.g.S.v.S.m.d.m.S.S.Z.S.v.r.c.v.v.m.v.p.r.d.r.d.p.c.d.d.g.g.m.v.d.m.v.p.d.d.d.c.Y r.s.i.-.i.i.-.i.%.&.&.&.&.&.-.-.&.%.-.&.&.=.=.=.$.-.-.U =.=.U G #.P #.$.#.#.U $.P P P P ....S S ..S P L P F S L S F Z Z Z Z S #.$.=.:.:.:.:.:.:.:.:.:.i.i.i.i.:.:.i.i.i.i.i.i.s.s.s.s.s.s.s.s.a.a.a.a.a.d.d.d.d.d.d.d.d.d.d.d.d.d.d.h.a.a.a.a.a.s.i.i.i.i.:.i.i.r.i.i.i.i.i.i.:.:.i.i.:.%.s.V.].5X1X<X<X2X2XtXqXqXqXqXqXqXqXqXqXqXwXwXrXeXkXzXkXeXrXrXeXkXzXzXzXzXxXxXxXxXxXxXxXxXcXcXcXcXcXcXxXxXxXxXxXxXzXzXzXzXkXkXkXkXkXkXkXkXuXuXuXuXkXkXkXkXzXzXzXzXxXxXcXcXcXcXvXvXcXcXvXvXvXvXbXzXfXqX`.~.b.6.*.$.*.*.>.6.x.b.C.V.V.V.(.V.(.(.).].'.'.'.'.'.'.5X$X].].].].].].].$X$X5X$X$X$X$X].]._.F.F.F.",
"vXvXcXcXvXvXvXcXcXcXcXcXcXcXxXxXxXxXxXxXxXxXxXzXzXzXzXzXkXuXkXeXeXeXeXrXrXrXrXrXeXzXxXxXxXxXxXzXzXzXzXzXzXkXeXeXrXwXqXqXqX4X<X<X<X1X1X1X1X<X<XqXkXxXvXvXvXvXvXvXvXvXvXbXxXxXxXzXzXzXzXzXzXkXkXkXkXkXkXkXkXkXkXkXkXkXzXzXzXxXxXbXbXcXvXcXvXcXcXvXvXvXNXNXNXNXCXCXCXCXCXCXAXAXAXAXAXCXNXvXvXvXvXNXNXNXNXNXNXNXvXvXvXvXvXvXvXcXvXvXcXcXvXvXvXvXcXvXcXvXvXvXNX).~.(.C.z.>.z.>.6.z.V.>.x.x.z.n.n.z.n.>.>.V.n.s.c.n.s.s.=.x.n.n.n.x.x.v.S.v.i.c.n.n.c.n.a.S.S.n.S.c.c.v.m.g.v.N.v.d.m.S.S.S.S.v.c.c.d.Z.m.v.&.c.c.p.d.v.p.v.Z.Z.S.m.d.d.p.d.p.d.a.d.c.%.%.s.i.&.%.i.-.-.&.%.%.-.%.&.&.-.-.-.-.%.&.=.Y s.:.-.U U #.=.=.U P $.P #.#...P #.P P P P P P P S P P P S ..C L ..S S f C C P $.&.%.:.:.:.:.i.i.:.:.i.i.i.i.i.i.i.i.i.i.i.i.s.s.s.s.s.s.s.s.a.a.a.a.a.a.d.d.d.d.d.d.d.d.d.d.d.d.d.d.a.d.a.a.a.a.s.i.i.i.y.i.i.i.i.i.i.i.i.i.i.i.i.i.i.i.:.%.s.V.].,X1X<X2X2X2X2X4X4XqXqXqXqXqXqXqXwXrXrXrXeXuXkXkXeXrXrXeXkXzXzXzXzXxXxXxXxXxXxXxXxXxXxXcXcXcXcXbXbXcXcXxXxXzXzXxXxXzXzXkXkXkXkXkXkXkXkXkXkXkXkXkXkXzXzXzXzXzXzXxXxXcXcXcXcXvXvXvXvXvXvXvXbXfXrX4X`.~.x.b.6.>.>.>.6.9.b.b.C.V.V.~.(.(.(.(.].].'.'.'.5X5X5X5X5X].].'.'.'.5X5X5X5X5X5X5X$X$X].].].].$X",
"vXvXcXcXvXvXvXcXcXbXbXcXxXxXxXxXxXxXxXzXzXzXzXzXzXkXkXeXeXeXeXeXeXrXrXrXrXwXwXrXrXeXzXxXxXxXxXzXzXzXzXzXzXkXuXeXrXwXqXqXqX4X2X<X<X1X1X1X<X<XqXrXzXvXvXvXvXvXvXvXvXvXbXbXxXxXxXzXzXzXzXzXzXkXkXkXkXkXkXkXkXkXkXkXkXkXzXzXzXxXxXbXbXcXvXvXvXvXvXvXvXvXNXNXNXNXCXCXCXCXCXCXAXAXAXAXAXCXNXvXvXvXNXNXNXNXNXNXvXvXvXvXvXvXvXvXvXcXvXvXcXcXvXvXvXvXcXvXcXvXvXvXCXvX<X'.x.>.z.6.>.>.n.z.x.6.z.b.V.z.x.x.>.z.V.x.z.V.z.:.z.s.V.S.x.x.s.s.n.a.x.S.v.S.a.x.n.n.n.S.S.n.s.g.c.v.c.m.N.c.a.v.S.S.S.S.a.d.c.v.Z.g.g.y.c.v.p.d.d.d.m.m.m.m.v.a.a.p.d.p.a.d.d.a.i.%.s.i.&.%.r.&.-.-.%.%.%.U &.&.-.-.-.-.&.%.=.-.&.=.%.#.&.#.U &.#.#.#.S #...P P P P P P P P ..P S S P P S P Z S P S S Z S G $.=.%.:.:.:.:.:.i.i.:.:.i.i.i.i.i.i.i.i.s.s.s.s.s.s.s.s.s.s.s.s.a.a.a.a.a.a.d.d.d.d.d.d.d.d.d.d.d.d.a.a.a.a.a.a.a.s.s.i.i.y.i.i.i.i.i.i.i.i.i.i.i.i.i.i.i.i.:.%.s.V.].,X<X2X2X2X2X2X2X2XqXqXqXqXqXqXqXqXrXwXrXeXuXkXzXuXeXeXeXkXzXzXzXzXxXxXzXzXxXxXzXzXxXxXcXcXcXcXbXbXcXcXxXxXzXzXxXxXzXzXlXkXkXkXkXkXkXkXkXkXkXkXkXkXzXzXzXzXzXzXxXxXcXcXcXcXvXcXvXvXvXvXvXbXzXeXqX}.(.V.V.x.6.>.>.>.>.9.x.x.b.V.V.~.(.(.(.].].'.'.'.5X5X5X5X5X'.'.'.5X5X5X5X5X5X5X5X5X5X5X$X].].$X$X",
"vXvXvXcXvXvXvXvXcXbXbXbXxXxXxXxXxXxXxXzXzXkXzXzXkXkXkXeXeXrXeXrXrXrXrXqXqXqXqXqXqXeXzXxXxXbXbXxXxXzXzXzXzXkXeXeXeXwXqXqXqX4X2X<X<X1X1X1X<X<XqXzXxXvXNXNXvXvXvXvXvXvXbXbXxXxXxXxXzXzXzXzXzXkXkXkXkXkXkXkXkXkXkXkXkXkXzXzXzXxXxXbXbXvXvXvXvXvXvXvXvXNXNXNXCXCXCXCXCXCXAXAXAXAXAXAXCXNXvXvXNXNXNXNXNXNXvXvXvXvXvXvXvXvXcXvXvXcXvXvXcXcXvXvXvXvXcXcXvXvXvXvXvXvXcX`.,Xx.V.>.>.x.>.6.>.6.b.~.n.>.z.z.z.x.V.z.n.s.%.a.x.c.S.V.z.x.s.s.a.c.n.n.n.S.s.c.n.n.v.S.S.n.a.n.d.v.c.N.m.g.p.n.m.m.m.m.s.d.v.m.v.g.v.d.c.v.p.d.p.v.m.v.m.m.v.a.y.p.d.r.d.g.c.y.s.r.i.%.-.%.i.%.U &.%.&.%.U &.&.&.&.&.&.$.%.%.&.-.-.%.&.$.$.#.P #.#.#.S P ....P P S P P P P ..P S S P P S S Z S S S Z P #.#.>.=.:.:.:.:.:.:.i.i.i.i.i.i.i.i.s.s.s.s.s.s.s.s.s.s.s.s.a.a.s.s.a.a.a.a.a.a.a.a.d.d.d.d.d.d.h.h.h.d.a.a.d.a.a.a.a.s.p.i.i.i.i.i.i.i.i.i.,.,.i.i.i.i.i.i.i.i.:.%.s.V.'.1X<X2X2X2X2X2X2X2XqXqXqXqXqXqXqXqXqXwXrXeXuXkXzXkXuXeXeXkXzXzXzXzXxXxXzXzXxXxXzXzXxXxXcXcXcXcXcXcXcXxXxXxXzXzXzXzXzXzXkXkXkXkXkXkXkXkXkXkXkXkXkXkXzXzXzXzXzXzXxXxXcXcXcXcXvXvXvXvXvXvXvXvXbXfXfX4X'.).~.b.6.>.;.;.*.;.6.x.x.b.V.~.~.(.(.(.].'.'.}.'.5X,X5X5X'.'.'.'.'.5X5X5X5X5X5X5X5X5X5X$X].5X5X",
"vXvXcXcXvXvXvXvXcXbXbXbXxXxXxXxXzXzXzXzXkXeXkXuXeXeXeXeXeXrXrXrXwXqXqXqXqXqXqXqXqXrXeXzXxXbXbXxXxXzXzXzXzXkXeXeXeXrXqXqXqX4X2X<X<X1X1X1X<XqXrXvXvXNXNXvXvXcXcXvXvXcXbXxXxXxXxXxXzXzXzXzXzXkXkXkXkXkXkXkXkXkXkXkXkXkXzXzXzXxXxXbXbXvXvXvXvXvXvXvXvXNXNXNXCXCXCXCXCXCXAXAXAXAXAXAXCXNXvXvXNXNXNXNXNXvXvXvXvXvXvXvXvXvXcXvXvXcXvXvXcXcXvXvXvXvXcXcXvXvXvXvXvXvXzXqX4X>.x.x.6.>.>.>.x.n.b.x.x.x.:.z.x.n.n.z.x.=.s.z.s.x.V.n.n.n.x.z.c.n.n.n.v.c.c.v.n.n.c.S.a.n.n.n.a.v.v.N.v.g.y.n.N.m.v.m.d.d.c.v.a.c.Z.d.c.v.p.d.p.v.g.m.Z.S.m.c.r.y.d.%.g.c.c.%.a.i.i.%.Y %.%.i.-.%.%.-.-.=.&.&.&.&.&.%.#.=.%.%.&.$.$.&.&.#.#.$.P $...P P P ..#.S S S P P L ..P S S S P S S Z Z f S Z #.=.:.s.>.:.:.:.:.:.:.i.i.i.i.i.i.i.i.s.s.s.s.s.s.s.s.s.s.s.s.a.a.s.s.a.a.a.a.a.a.a.a.d.d.d.d.d.h.h.h.a.a.a.a.a.a.a.s.s.p.p.i.i.i.r.i.i.i.i.i.,.,.i.i.i.i.i.i.i.i.:.,.s.V.'.1X<X2X2X2X2X2X2X2XqXqXqXqXqXqXqXqXqXqXrXeXuXkXkXzXuXeXeXkXzXzXzXzXxXxXzXzXxXxXzXzXxXxXcXcXcXcXcXcXcXxXxXxXzXzXzXzXzXzXkXkXkXkXkXkXkXkXkXkXkXkXkXkXzXzXzXzXzXzXxXxXcXcXcXcXvXvXvXvXvXvXvXvXbXzXzXeX<X'.).~.b.6.>.;.*.*.>.6.x.x.V.~.~.(.(.(.].].'.'.'.'.5X5X5X'.'.'.'.'.5X5X5X5X5X5X5X5X5X5X5X5X5X,X",
"vXvXvXvXcXcXcXbXbXxXxXxXxXzXzXzXzXzXzXkXkXuXuXeXeXeXeXrXrXwXwXqXqXqXqXqXqX4X4XqXqXqXrXeXxXbXcXxXxXzXzXzXzXzXkXeXrXwXqXqXqX4X<X<X<X1X1X<XqXrXxXvXvXvXvXvXcXcXvXvXvXcXcXxXxXxXxXzXzXzXkXkXzXzXzXzXkXkXkXkXkXkXzXzXzXzXzXzXxXxXcXcXcXcXvXvXvXNXvXNXNXNXCXCXCXCXCXAXCXAXAXAXAXAXAXAXCXNXNXNXNXnXnXnXvXvXvXvXnXNXnXvXvXvXvXcXvXvXvXvXcXvXvXvXvXvXcXcXcXvXvXvXvXvXvXzX5X(.x.>.6.6.x.b.b.n.x.6.b.x.z.z.n.(.z.z.s.>.z.:.a.n.n.n.S.s.x.n.n.n.S.s.a.v.c.n.c.a.c.n.g.m.S.n.N.m.m.N.S.s.i.n.S.a.m.m.Z.v.c.v.c.v.m.d.d.v.v.d.m.d.v.v.Z.v.m.d.%.y.d.y.c.p.d.%.s.=.i.i.=.-.%.i.-.%.:.&.$.=.U $.&.i.-.=.$.$.=.=.=.&.#.$.>.P U &.P $...#.P ..S ..S F S P P S ..P P P S P S Z Z C Z P G >.>.i.>.i.:.:.:.i.i.i.:.:.i.i.i.i.i.i.s.s.s.s.a.a.s.s.a.a.s.s.s.s.a.a.a.a.a.a.d.d.d.d.d.d.d.d.d.d.a.a.d.a.a.a.a.a.a.s.s.p.s.s.i.i.r.r.%.%.i.i.,.,.i.i.i.i.i.i.i.i.i.,.s.S.'.1X<X2X2X2X2XtXqXqXqXqXqXqXqXqXqXqXqXqXrXeXuXuXkXkXuXeXuXuXkXzXzXzXzXzXzXzXzXzXzXzXzXzXxXxXxXxXcXcXcXxXcXcXxXxXxXxXxXxXlXlXlXkXkXuXuXuXuXuXuXuXkXkXkXkXkXkXzXzXzXzXcXcXcXcXcXcXvXvXvXvXvXvXvXzXzXfXrX1X}.(.V.x.>.>.;.*.>.6.x.x.C.V.V.~.~.(.].`.].'.'.'.5X5X'.'.'.'.'.'.'.'.5X5X5X5X5X5X5X5X,X,X,X,X",
"vXvXvXvXcXxXxXxXxXxXxXxXzXzXzXzXzXkXkXeXeXeXeXeXrXrXrXrXrXqXqXqXqXqXqX4X2X<X<X<X4XqXrXeXzXxXbXcXxXzXzXzXzXzXkXeXrXqXqXqXqX4X<X<X<X1X<X<XqXuXvXvXvXvXvXvXcXvXvXvXcXxXcXxXxXzXxXzXzXzXzXkXzXzXzXzXkXkXkXkXkXkXzXzXzXzXzXzXxXxXcXcXcXcXvXvXvXnXvXNXNXNXCXCXCXCXCXAXCXAXAXAXAXAXAXCXNXNXNXNXNXnXnXnXvXvXvXvXvXnXvXvXvXvXvXcXvXcXvXvXvXvXvXvXvXvXcXcXvXcXvXvXvXvXvXvXzX'.=.~.x.z.6.x.n.x.x.x.x.x.x.z.n.n.z.x.x.>.s.z.a.n.z.n.n.s.n.S.V.x.c.x.S.a.c.c.a.n.n.d.c.m.S.N.S.S.S.S.N.r.c.N.m.a.S.S.S.Z.m.v.v.v.v.v.m.S.S.m.v.a.c.c.m.c.m.m.d.y.a.g.c.d.a.i.i.i.%.i.i.U i.i.&.%.=.%.-.%.U $.-.%.%.-.$.$.=.%.=.%.$.U =.$.P $.P $.........S P P F S P L S ..P P P S P S Z Z S S =.=.>.i.i.i.i.:.:.:.i.i.i.i.:.i.i.i.i.i.i.s.s.a.s.a.a.s.s.a.a.s.s.s.s.a.a.a.a.a.a.d.d.d.d.d.d.d.d.a.a.a.a.a.a.a.s.s.s.s.s.p.p.s.i.i.i.r.r.%.%.i.i.,.,.i.i.i.i.i.i.i.i.i.:.h.S.'.1X2X<X2X2X2XtXqXqXqXqXqXqXqXqXqXqXqXwXrXeXuXkXkXkXuXeXuXuXkXzXzXzXzXzXzXzXzXzXzXzXzXzXxXxXxXxXcXcXxXxXcXcXxXxXxXxXxXxXlXzXlXkXkXuXuXuXuXuXuXuXkXkXkXkXkXkXzXzXzXzXcXcXcXcXcXcXvXvXvXvXvXvXvXbXbXzXeX4X1X'.(.V.x.>.>.;.>.6.b.b.V.V.V.~.~.(.(.`.].].'.'.'.'.'.'.'.'.'.'.'.'.5X5X5X5X5X5X5X5X,X,X,X,X",
"cXcXcXcXbXbXxXxXxXxXxXxXzXzXzXzXzXkXkXeXeXrXeXrXrXwXwXqXqXqXqXqXqX4X4X<X<X<X<X<X<XqXrXrXkXcXcXcXbXxXzXzXzXkXkXeXrXwXqXqXqX4X<X<X<X1X<XqXrXxXvXNXvXvXvXcXcXvXvXvXbXbXbXxXxXzXxXzXzXzXkXkXkXkXzXzXkXkXkXkXkXkXzXzXzXzXxXxXxXcXvXvXcXcXvXvXNXNXNXCXNXCXCXCXCXCXCXAXAXAXAXAXAXAXAXNXvXvXvXvXnXnXnXnXNXvXNXNXvXNXvXvXvXvXvXcXvXcXcXcXvXvXvXvXvXvXcXcXvXvXvXvXvXNXvXvXbX'.~.}.6.>.x.V.b.x.b.n.x.x.x.x.n.z.x.x.s.n.x.s.c.n.x.x.x.x.V.n.x.v.x.s.n.n.v.a.c.n.v.a.c.N.N.N.N.N.m.m.m.y.n.m.n.s.N.S.Z.S.Z.v.v.c.c.v.v.c.c.v.S.v.m.N.S.v.m.d.d.a.y.d.c.g.i.i.i.%.%.i.i.U i.i.&.&.%.%.%.&.#.$.-.-.#.&.$.$.=.%.=.%.$.#.$.=.#.$.P $.#.P #.#.P ..P Z S P P P P ..P P S P Z C Z P P >.>.>.i.i.i.i.i.i.i.i.i.i.i.i.i.i.s.s.s.s.s.s.a.a.a.a.a.a.a.a.s.s.a.a.a.a.a.a.a.a.d.d.d.d.d.d.d.d.d.d.a.a.a.a.a.p.s.p.i.i.y.i.i.r.i.i.i.r.%.%.i.i.i.i.i.i.s.s.i.i.i.i.:.:.c._.5X1X<X<X<X<X<X<XqXqX4X4XqXqXqXqXqXqXqXrXeXeXuXkXkXkXuXeXuXuXkXkXkXkXzXzXzXzXzXzXzXzXxXzXxXxXxXxXbXbXbXbXcXcXxXxXzXzXxXxXzXzXzXzXkXkXkXkXkXkXkXkXkXkXkXkXkXkXzXzXzXzXcXcXcXcXcXcXbXbXvXvXvXvXvXvXvXxXfXrX4X1X'.(.V.x.6.>.6.x.b.b.V.V.V.V.~.(.].`.'.].'.'.'.'.'.'.'.'.'.'.'.'.5X5X5X5X5X5X5X5X,X,X,X,X",
"cXcXcXcXbXxXxXxXxXzXzXzXzXzXzXzXzXkXeXeXrXrXrXrXqXqXqXqXqXqXqX<X<X<X<X<X<X<X<X<X<XqXqXrXeXxXcXvXbXzXzXzXzXkXeXeXrXwXqXqX4X<X<X<X<X<X<XrXuXcXvXNXvXvXvXcXvXvXvXvXbXbXbXxXxXxXxXzXzXzXkXkXkXkXzXzXkXkXkXkXkXkXzXzXzXzXxXxXxXcXvXvXcXcXvXvXNXNXNXCXNXCXCXCXCXCXCXCXAXAXAXAXAXAXCXvXvXvXvXvXnXnXnXnXNXNXNXNXNXNXvXvXvXvXvXcXvXcXcXcXvXvXvXvXvXvXcXcXcXvXvXvXvXvXNXMXzXfX4X}.x.6.x.x.6.x.n.b.z.z.x.x.x.s.V.z.x.n.s.n.V.a.n.=.a.n.S.x.n.x.%.c.x.n.x.n.n.c.s.c.c.n.S.N.v.v.v.v.m.g.a.v.m.i.v.n.v.Z.m.c.v.c.c.v.m.g.d.m.N.c.m.m.m.c.m.v.y.d.r.%.g.c.i.i.s.%.%.i.i.-.&.a.&.&.&.:.&.-.-.#.#.%.Y $.$.$.=.%.=.%.$.$.#.$.&.#.P #.$.P #.$.P P P Z S P S ..P ..P P F G Z C S $.&.&.%.:.i.i.i.i.i.i.i.i.i.i.i.i.i.i.s.s.s.s.s.s.a.a.a.a.a.a.a.a.s.s.a.a.a.a.a.a.a.a.d.d.d.d.d.d.d.d.a.d.a.a.a.a.p.p.p.p.y.i.i.i.i.r.i.i.i.r.%.%.i.i.i.i.i.i.s.s.s.i.i.i.:.i.n.].'.1X<X<X<X<X<X<X4XqX4X4XqXqXqXqXqXqXwXrXeXeXuXkXkXkXuXuXuXuXkXkXkXkXzXzXzXzXzXzXzXzXxXzXxXxXxXxXbXbXbXbXbXcXxXxXzXzXxXxXzXzXzXzXkXkXkXkXkXkXkXkXkXkXkXkXkXkXzXzXzXzXcXcXcXcXcXcXbXbXvXvXvXvXvXvXvXbXzXeXrX4X,X`.(.V.x.6.6.b.b.b.V.V.V.V.(.(.(.`.'.].'.'.'.5X'.'.5X5X5X5X5X'.5X5X5X5X5X5X5X5X,X,X,X,X",
"cXcXcXxXxXxXxXxXxXzXzXzXzXzXkXkXkXkXeXrXrXrXwXqXqXqXqXqX4X<X<X<X<X<X<X1X1X1X1X1X<X<X4XqXeXzXcXvXcXzXzXzXzXkXfXeXeXrXqXqX4X4X<X<X<X<XqXeXzXvXvXvXvXvXvXvXvXcXcXxXbXxXxXxXxXzXzXzXzXzXzXzXzXzXzXzXzXzXzXzXzXzXzXzXzXzXxXxXxXbXcXcXvXcXvXvXNXNXNXNXNXCXCXCXCXCXCXCXAXAXAXAXAXAXNXvXvXvXvXvXvXvXvXvXNXnXnXnXvXvXvXvXvXvXvXvXcXcXcXcXvXvXvXvXvXvXcXcXvXvXvXvXvXvXvXvXvXfX4X}.n.~.>.z.x.x.x.x.>.z.z.x.x.s.x.x.z.x.n.V.n.s.=.s.n.z.s.S.x.s.s.n.i.n.n.n.c.n.c.n.n.c.c.n.n.n.n.n.m.v.c.c.v.i.a.a.c.n.v.c.v.i.c.c.c.c.c.v.v.c.c.m.v.d.v.m.&.v.d.r.d.c.i.c.s.&.%.-.=.Y %.%.%.&.$.=.&.#.-.U U %.#.#.$.$.=.%.&.&.$.$.#.$.=.#.P ..#...#.$.P P P F S ..Z ..P P P P S Z C G $.=.=.=.=.=.i.i.i.i.i.i.i.i.i.i.i.i.i.i.i.i.p.p.s.s.s.s.a.a.a.s.a.a.a.a.a.a.d.d.d.d.d.d.d.d.d.d.d.d.a.a.a.d.a.a.a.a.s.s.p.i.i.i.%.%.%.r.%.%.i.i.i.i.i.i.i.i.i.i.i.i.i.i.i.i.:.a.S.].5X1X<X<X<X<X<X2XqXqXqXqXqXqXqXqXqXqXrXrXeXeXuXuXuXuXuXuXuXuXuXuXuXuXzXzXzXzXzXxXxXxXxXxXxXzXxXxXxXxXxXxXbXbXxXxXxXxXzXzXxXxXxXkXkXkXkXkXkXkXkXkXkXkXkXkXkXkXxXxXxXxXxXxXxXxXcXcXcXcXcXcXvXcXcXcXcXcXxXzXeXqX1X'.`.(.V.b.x.x.b.b.C.V.V.V.(.(.(.`.'.'.'.'.'.'.'.'.'.'.'.'.5X5X5X5X5X5X,X,X,X,X,X,X,X,X",
"cXcXcXxXxXxXxXzXzXzXzXzXzXzXzXkXkXeXrXrXrXwXqXqXqXqXqX4X<X<X<X<X<X1X1X1X1X1X1X1X1X<X<X4XeXzXcXvXbXzXzXzXzXkXfXeXeXrXqXqX4X4X<X<X<XqXqXeXzXcXvXvXvXvXvXvXvXcXcXxXbXxXxXxXxXzXzXzXzXzXzXzXzXzXzXzXzXzXzXzXzXzXzXzXzXzXxXxXxXbXcXcXvXcXvXvXNXNXNXNXNXCXCXCXCXAXCXCXAXAXAXAXAXCXNXvXvXvXvXvXvXvXvXvXNXNXvXnXvXvXvXvXvXvXvXvXcXcXcXcXvXcXvXvXcXvXcXcXvXvXvXvXvXvXvXvXvXkX4X'.'.n.*.>.z.b.x.>.z.>.x.z.x.z.z.x.x.n.V.V.x.>.>.n.x.z.n.n.c.i.c.n.n.c.n.c.n.n.i.n.v.c.c.n.n.n.N.N.v.n.c.c.c.d.a.s.i.a.c.c.c.i.c.d.c.c.c.v.v.c.c.v.v.i.g.m.%.v.s.&.a.a.i.c.s.&.%.-.=.-.&.%.%.%.-.&.&.$.-.#.#.&.#.U $.&.=.&.$.$.$.#.#.$.*...P ..#...#.#.P P P S S P F P P P L S Z Z Z $.:.&.:.:.>.>.i.i.i.i.i.i.i.i.i.i.i.i.i.i.i.i.p.p.s.s.s.s.a.a.s.s.a.a.a.a.a.a.d.d.d.d.d.d.d.d.d.d.d.d.a.a.a.a.a.a.a.s.p.i.i.i.i.i.%.%.%.r.%.%.i.i.i.i.i.i.i.i.i.i.i.i.i.i.i.i.i.n._.'.,X1X1X<X<X<X<X2XqXqXqXqXqXqXqXqXqXqXrXrXeXeXuXuXuXuXuXuXuXuXuXuXuXuXzXzXkXzXzXzXxXxXxXxXxXzXxXxXxXxXxXxXbXbXxXxXxXxXzXzXxXxXxXzXkXkXkXkXkXkXkXkXkXkXkXkXkXkXxXxXxXxXxXxXxXxXcXcXcXcXcXcXvXvXcXcXcXcXvXxXzXeXqX1X'.`.(.V.x.x.x.b.C.V.V.V.~.(.(.].).'.].'.'.'.'.'.'.'.'.'.5X5X5X5X5X5X,X,X,X,X,X,X,X,X",
"bXcXbXxXxXxXxXzXzXzXzXzXzXkXkXkXeXrXrXrXrXqXqXqXqX2X<X<X<X<X1X1X1X1X1X1X1X1X1X1X1X1X<X<XrXuXxXcXbXzXzXkXkXkXfXeXeXrXqXqX4X4X4X4X4XwXeXzXcXvXvXvXvXvXvXcXvXcXcXxXxXxXxXzXzXzXzXzXzXzXzXzXkXzXkXkXkXkXzXzXzXzXxXxXxXxXbXbXbXcXvXvXvXcXvXvXNXCXNXCXCXCXCXCXAXAXAXAXAXAXAXAXAXNXvXvXvXvXvXvXvXvXvXvXvXvXvXvXvXvXvXvXvXvXvXvXvXcXcXcXcXcXcXcXcXcXcXcXvXvXvXvXvXvXvXvXvXvXvXcX(.>.V.6.x.b.6.=.>.x.>.x.z.x.s.x.n.V.V.n.>.>.x.V.n.=.n.n.x.n.x.n.n.c.n.z.c.c.s.n.c.v.n.c.n.n.N.N.v.v.c.a.d.n.i.r.r.a.c.c.d.i.s.a.c.c.c.c.c.c.c.d.c.i.c.v.i.c.%.&.s.s.%.a.s.&.&.-.%.&.-.%.=.=.$.$.&.&.$.#.U #.$.U #.$.=.$.$.#.U U #.#.$.#.P #.#.....#.P P S S L L F S P S S Z Z P P =.i.=.:.i.i.s.i.i.s.s.s.s.s.s.s.s.s.s.p.p.s.s.s.s.s.s.a.a.a.a.s.a.a.a.a.a.d.d.d.d.d.d.d.d.d.d.d.d.d.d.a.a.a.a.a.a.s.s.p.i.i.i.i.i.%.%.%.%.%.%.=.i.i.i.i.i.i.i.s.i.s.s.i.i.i.i.s.V._.5X1X1X1X<X<X<X<X2X2X2XqXqXqXqXqXqXqXqXrXrXeXeXuXuXuXuXuXuXuXuXuXuXuXuXuXuXkXzXzXzXxXxXcXxXxXzXxXxXxXxXxXxXbXbXxXxXxXxXxXxXxXxXxXxXxXxXxXxXkXkXkXzXzXzXzXzXkXkXxXxXxXxXxXxXxXxXcXcXcXcXcXcXcXvXcXcXcXcXcXvXbXkXrX4X1X'.`.(.V.x.b.b.b.C.V.V.~.(.(.(.(.'.].'.'.'.'.'.'.'.'.'.5X5X5X5X5X5X,X,X,X,X,X,X,X,X",
"xXxXxXzXzXzXzXzXzXkXkXkXeXkXkXeXeXrXrXwXrXqXqXqX2X<X<X<X1X1X1X1X1X1X1X1X1X1X1X1X1X1X1X<XqXeXzXxXzXzXkXkXkXkXfXeXeXrXqXqX4X4X4X4XqXeXkXcXvXvXvXvXvXvXvXvXcXcXxXxXxXxXzXzXzXzXzXzXzXzXzXzXkXkXkXkXkXkXzXzXzXzXxXxXxXxXbXbXbXcXvXvXvXcXvXvXNXNXNXCXCXCXCXCXAXAXAXAXAXAXAXAXCXNXvXvXvXvXvXvXvXvXvXvXvXvXvXvXvXvXvXvXvXvXvXvXvXcXcXcXcXcXcXcXcXcXcXcXvXvXvXvXvXvXvXvXvXvXcXzXx.V.~.>.C.z.=.>.>.>.x.x.z.x.z.z.V.V.n.x.s.z.n.n.x.x.V.n.c.c.n.n.x.S.n.x.c.n.z.c.c.v.n.c.n.n.N.N.v.c.c.a.a.n.i.r.a.c.d.d.a.s.s.d.v.v.v.c.a.c.v.a.s.s.v.a.a.a.&.-.i.i.&.s.a.&.&.-.%.%.Y &.=.:.-.#.#.&.&.$.#.U $.U U $.&.$.$.U P P P ..#.P P #.#.....$.P P S S P S F F P Z S Z P #.$.&.=.s.s.s.s.s.i.i.s.s.s.s.s.s.s.s.s.s.p.p.s.s.s.s.s.s.a.a.a.a.s.a.a.a.a.a.d.d.d.d.d.d.d.d.d.d.d.d.d.d.a.a.a.a.s.s.s.s.p.i.i.i.i.i.%.%.%.%.%.=.=.=.i.i.i.i.i.i.s.i.s.i.i.i.i.i.c.S.].5X1X1X<X<X<X<X<X2X2X4X4XqX4X4XqXqXqXqXrXrXeXeXuXuXuXuXuXuXuXuXuXuXuXuXuXuXkXzXzXzXxXxXcXxXxXzXxXxXxXxXxXxXbXbXxXxXxXxXxXxXxXxXxXxXxXxXxXxXkXkXkXzXzXzXzXzXkXkXxXxXxXxXxXxXxXxXcXcXcXcXcXcXcXvXvXcXcXcXcXcXvXxXeXqX4X,X'.).(.b.b.b.b.C.V.V.V.(.(.(.(.(.'.].'.'.'.'.'.'.5X5X'.5X5X5X5X5X,X,X,X,X,X,X,X,X",
"xXxXxXzXzXzXzXkXkXkXkXkXeXeXeXeXrXqXqXqXqXqXqX4X<X<X<X1X1X1X1X1X1X1X1X1X1X1X1X1X,X,X,X,X<XqXeXzXzXzXkXkXkXzXkXfXeXeXrXqX4X4X4X4XwXeXzXvXvXvXvXcXvXvXvXvXcXbXxXxXxXxXzXzXzXzXzXzXzXkXzXzXzXzXzXzXzXzXzXzXzXzXxXxXxXxXbXxXbXcXvXvXcXvXvXNXNXCXCXCXCXCXAXAXAXAXAXAXAXAXAXAXCXNXvXvXvXvXvXvXvXvXvXvXvXNXvXvXvXvXvXvXvXvXvXvXvXvXvXvXcXcXcXcXcXcXcXcXvXvXvXvXvXvXvXvXvXNXNXvXx.,X(.z.x.>.=.x.>.6.x.x.x.z.z.n.V.n.x.n.x.n.n.z.V.n.n.x.n.x.n.x.a.x.z.n.n.S.n.n.d.v.c.c.n.m.N.N.n.c.c.i.a.a.i.i.a.a.a.a.a.s.a.c.v.a.c.c.a.a.s.=.&.s.a.i.%.a.-.=.=.=.=.=.%.&.i.&.%.=.%.%.%.:.&.#.U $.&.&.$.U $.P P $.&.$.#.U U P P P ..P P #.#.P P #.P P P S S P F P P Z S C P =.>.s.s.s.s.s.s.s.s.s.s.s.s.s.s.s.s.s.s.s.s.s.s.s.s.s.s.s.a.a.a.a.a.a.a.a.a.a.a.d.d.d.d.d.d.d.d.d.d.a.a.a.a.a.a.s.s.s.s.p.i.i.i.i.i.:.:.:.=.:.=.%.i.i.i.i.i.i.i.i.s.s.s.i.i.s.i.i.v._.].5X1X1X1X<X<X<X<X2X2X2XqX4XqXqX4XqXqXwXrXeXeXuXuXuXuXuXuXuXuXuXuXuXuXuXuXuXkXkXzXzXzXzXxXxXxXxXxXxXxXxXxXxXbXbXbXbXcXcXxXxXxXxXxXxXxXxXxXxXlXlXlXlXzXzXlXlXxXxXxXxXxXxXxXxXxXxXxXxXcXcXcXxXcXcXvXcXcXcXvXvXcXvXzXrXqX<X}.`.).(.b.x.x.b.C.V.V.~.(.(.(.(.).'.'.'.'.'.'.'.'.'.5X5X5X5X5X5X,X,X,X,X,X,X,X,X",
"xXzXzXzXkXkXkXeXkXeXeXeXeXeXeXrXwXqXqXqXqX4X<X<X<X<X<X1X1X1X1X1X1X1X1X1X1X1X1X1X,X5X5X5X,X<XqXeXzXzXkXfXfXzXkXkXfXeXrXqX4X4X4X4XrXzXcXcXvXvXvXvXvXvXvXcXbXxXxXxXxXxXzXzXzXzXzXzXzXkXzXkXzXzXzXzXzXzXzXzXzXzXxXxXxXxXbXxXcXcXvXvXcXvXvXNXNXCXCXCXCXCXAXAXAXAXAXAXAXAXAXAXCXvXvXvXvXvXvXvXvXvXvXvXNXNXNXNXvXvXvXvXvXvXvXvXvXvXvXvXvXvXcXcXcXcXcXcXvXvXvXvXvXvXvXvXvXNXkX5X_.<XV.>.=.>.x.x.6.>.z.x.x.z.z.x.n.x.n.V.V.n.z.x.n.n.x.n.x.n.V.x.i.n.n.n.n.S.n.n.c.n.g.n.n.n.n.n.m.v.v.i.c.s.i.s.a.s.a.s.s.s.a.x.a.a.i.x.s.s.i.:.:.i.:.&.=.s.-.%.i.-.a.%.=.&.i.&.%.%.%.=.=.%.$.&.$.$.$.&.$.U $.P P $.$.$.#.P U P P P P P P ..P P P ..P S P S S P S P P S I S $.:.s.s.s.s.s.s.s.s.s.s.s.s.s.s.s.s.s.s.a.a.s.s.s.s.s.s.s.s.a.a.a.a.a.a.a.a.a.a.a.a.d.d.d.d.d.d.d.d.d.a.a.a.a.s.s.s.p.p.p.p.i.i.i.i.=.:.:.:.=.:.=.=.i.i.i.i.i.i.i.i.s.s.s.s.i.i.s.s.S.].'.5X1X1X1X<X<X<X2X2X2X2XqXqXqXqX4XqXwXrXrXeXuXuXuXuXuXuXuXuXuXuXuXuXuXuXuXuXkXkXzXzXzXzXxXxXxXxXxXxXxXxXxXxXbXbXbXbXcXcXxXxXxXxXxXxXxXxXxXxXlXlXlXlXzXzXlXlXzXxXxXxXxXxXxXxXxXxXxXxXcXcXcXcXcXcXvXvXcXcXvXvXcXvXxXeXrXqX1X}.'.(.~.x.x.x.C.V.V.~.(.(.(.(.(.'.'.'.'.'.'.'.'.'.'.'.5X5X5X5X,X,X,X,X,X,X,X,X",
"zXzXzXzXkXkXkXeXuXeXeXeXeXrXrXwXqX4X4X2X<X<X<X<X<X<X1X1X1X1X1X1X1X1X1X1X,X,X,X|.}.}.}.}.}.,X<XqXeXzXkXfXfXzXzXkXfXeXeXqXqX4X4XqXeXxXcXvXvXvXvXvXvXvXvXcXbXxXxXxXxXxXzXzXzXzXzXzXzXkXkXkXzXzXzXzXzXzXxXxXxXxXxXxXxXxXcXcXcXvXvXvXvXvXvXNXCXCXCXCXCXAXAXAXAXAXAXAXAXAXAXAXCXNXvXvXvXvXvXvXvXvXvXvXNXNXNXNXvXvXvXvXvXvXvXvXcXcXvXcXvXvXvXvXcXcXcXcXvXvXvXvXvXvXvXvXxXAXNXeX<X`.rXz.6.b.x.z.z.>.6.x.z.x.x.x.x.n.V.V.V.x.x.n.n.x.n.n.c.S.V.n.n.S.n.c.S.n.n.n.c.N.n.v.n.n.n.n.S.n.n.i.n.s.i.a.s.i.s.i.i.i.s.a.i.i.%.s.s.s.:.i.:.%.&.%.:.:.&.&.i.-.s.%.=.&.:.&.=.%.=.=.=.%.$.&.$.$.$.$.$.P $.#.#.#.#.#.#.#.#.P P P P P P P P P P P P S P S S P P L L P L P >.>.s.s.s.s.s.s.s.s.s.s.s.s.s.s.s.s.a.a.a.a.a.a.a.a.a.a.a.a.a.a.a.a.a.a.a.a.a.a.a.a.d.d.d.d.d.d.d.d.a.a.a.a.a.s.s.s.p.p.p.p.i.i.i.%.%.=.:.:.:.:.:.=.i.i.i.i.i.s.i.i.i.s.s.s.s.i.s.n._.].5X,X1X1X1X<X<X<XtX2X4X2X4XqXqXqXqXqXrXrXeXuXuXuXuXuXuXuXuXuXuXuXuXuXuXuXuXuXuXkXkXzXzXzXxXxXxXxXcXcXxXxXxXxXxXxXbXbXcXcXcXcXxXxXxXxXxXxXxXxXxXxXxXxXxXxXxXxXzXzXxXxXxXxXxXxXxXxXxXxXcXcXcXcXcXcXvXvXcXcXvXvXcXcXcXzXeXrX4X1X}.`.(.V.x.x.C.C.V.V.~.(.(.(.(.].'.'.'.'.'.'.'.'.'.'.5X5X5X5X5X5X5X5X5X5X,X,X",
"zXzXzXkXkXeXeXeXkXeXeXeXrXrXqXqXqX2X<X<X<X<X<X<X<X1X1X1X,X,X1X1X1X1X1X,X,X|.}.}.'.'.'.'.'.}.,X1XrXzXzXfXfXkXzXkXfXeXeXqX4X4XqX4XzXcXcXvXvXvXvXvXvXvXvXcXbXxXxXxXxXxXzXzXzXzXzXzXzXkXkXkXzXzXzXzXzXzXxXxXxXxXxXxXxXxXcXcXcXvXcXvXvXvXvXNXCXCXCXCXCXAXAXAXAXAXAXAXAXAXAXCXNXNXvXvXvXvXvXvXvXvXvXvXNXNXNXNXvXvXvXvXvXvXvXvXcXcXcXcXvXvXvXvXcXcXcXcXvXvXvXvXvXvXvXvXvXvXvXxXqXbXfXV.(.'.>.>.x.>.>.z.6.x.x.z.z.V.V.V.x.n.n.x.x.n.n.n.n.S.n.V.n.n.c.S.S.n.n.n.n.S.n.v.v.n.n.n.N.n.v.i.v.a.s.a.:.:.i.:.:.=.i.s.:.&.:.:.s.:.:.s.=.-.&.:.:.=.=.&.%.=.=.=.%.&.:.%.=.%.=.&.%.=.&.$.$.$.$.$.$.P $.#.#.#.$.#...P #.P P P P ..P G I P P P P S P S S P ..L I P P $.z.s.i.s.s.s.s.s.s.s.s.s.s.s.s.s.s.s.a.a.a.a.a.a.a.a.a.a.a.a.a.a.a.a.a.a.a.a.a.a.a.a.d.d.d.d.d.d.d.d.a.a.s.s.s.s.s.s.p.p.p.i.i.i.%.%.%.%.:.:.:.:.:.=.i.i.i.i.i.s.i.i.i.s.s.s.a.i.a.V._.'.5X,X1X1X1X1X<X<X2XtX2X2X4X4XqXqXqXqXrXeXeXuXuXuXuXuXuXuXuXuXuXuXuXuXuXuXuXuXuXkXkXzXzXzXxXxXxXxXcXcXxXxXxXxXxXxXcXcXcXcXcXcXxXxXxXxXxXxXxXxXxXxXxXxXxXxXxXxXzXzXxXxXxXxXxXxXxXxXxXxXcXcXcXcXcXcXcXvXvXcXvXvXcXcXvXxXzXeXrX4X,X'.`.(.C.b.b.C.V.V.~.(.(.(.(.(.'.'.'.'.'.'.'.'.'.'.5X5X5X5X5X5X5X5X5X5X5X5X",
"zXzXzXzXuXkXuXeXeXeXeXrXrXrXqXqX4X<X<X<X<X1X1X1X1X1X1X1X,X,X1X1X,X,X,X,X,X}.}.'.'.'.'.'.'.'.}.,X4XeXkXkXkXkXzXkXfXeXrXqX4XqXrXkXxXvXvXvXvXvXvXvXvXvXcXxXxXxXzXzXzXzXzXzXzXzXzXzXzXzXzXzXzXzXzXzXzXzXzXzXxXxXxXxXbXbXcXcXcXvXvXvXvXvXNXCXCXCXCXCXCXAXAXAXAXAXAXAXAXAXAXCXNXvXvXvXvXvXvXvXvXvXvXvXvXvXnXnXvXvXvXvXvXvXvXvXcXcXcXcXvXvXvXvXvXvXvXvXvXvXvXvXvXvXnXnXvXvXvXvXbXvX1XeX'.z.>.x.>.>.>.=.6.>.>.z.b.b.V.x.x.n.x.z.n.n.n.n.n.n.V.S.V.n.V.n.c.n.n.S.n.c.n.x.c.n.n.n.v.n.n.x.c.a.s.i.:.:.:.%.,.&.:.=.:.&.s.=.s.:.=.>.=.$.&.:.:.:.:.:.$.:.s.:.%.:.:.&.=.&.$.%.&.%.$.U #.$.$.$.#.P #.$.#.P $.U P P #.P ..P P ..P Z S P P S P S L P S L #.Z P $.#.=.a.s.s.s.s.s.s.s.s.s.s.s.s.s.s.s.s.s.a.a.a.a.a.a.a.a.a.a.a.a.a.a.a.a.a.a.d.d.d.d.d.a.a.a.a.a.a.a.a.a.a.s.s.s.s.s.s.s.a.s.s.i.i.%.%.%.%.%.%.%.%.%.%.%.i.i.i.i.s.s.s.s.i.i.i.i.s.s.v.S.].5X5X,X1X,X1X<X<X<X2X2X4X4X4X4X4XqXqXwXeXeXuXuXuXuXuXuXuXuXuXuXuXuXuXuXuXuXuXuXuXkXkXzXzXzXxXxXxXxXcXcXxXxXxXxXcXcXcXcXcXcXcXcXcXcXcXcXcXcXcXcXxXxXxXxXxXxXxXxXxXxXxXxXxXxXxXxXxXxXxXxXcXcXcXcXcXcXcXcXcXvXcXcXcXcXvXvXbXzXeXqX<X}.'.(.(.V.C.C.V.V.~.(.(.(.(.(.`.].'.'.'.'.'.'.'.'.'.'.5X5X5X5X5X5X5X5X5X5X",
"zXzXzXkXuXeXeXeXeXeXrXrXrXqXqXqX<X<X<X<X<X1X1X1X1X,X,X,X,X,X,X,X,X,X,X,X5X}.'.'.'.'.'.'.`.'.'.}.1XqXeXfXkXkXkXkXfXeXrXqX4XqXfXzXcXcXvXvXvXvXvXvXvXvXcXxXxXxXzXzXzXzXzXzXzXzXzXzXzXzXzXzXzXzXzXzXzXzXzXzXxXxXxXxXbXbXcXcXcXvXcXvXvXNXNXCXCXCXCXCXCXAXAXAXAXAXAXAXAXAXCXNXvXvXvXvXvXvXvXvXvXvXvXvXvXvXnXNXvXvXvXvXvXvXvXvXcXcXcXcXvXvXvXvXvXvXvXvXvXvXvXvXvXvXvXnXvXvXvXvXNXvXfX1X(.x.>.>.>.>.>.;.6.6.>.x.b.V.z.x.x.x.z.z.n.n.n.n.n.S.S.V.n.n.V.n.n.n.S.n.n.c.n.x.x.n.n.n.v.v.n.c.x.a.:.:.:.=.:.=.%.=.:.=.=.=.:.:.:.=.=.:.=.&.&.=.:.:.:.:.#.s.s.&.&.:.:.&.=.&.$.&.&.$.$.U #.#.#.#.#.P $.#.#...$.P P P ..P P P P ..P Z P P P S P S S S S S P S $.>.&.i.s.s.s.s.s.s.s.s.s.s.s.s.s.s.s.s.s.s.a.a.a.a.a.a.a.a.a.a.a.a.a.a.a.a.a.a.d.d.d.d.d.a.a.a.a.a.a.s.s.s.s.p.p.p.s.s.s.s.s.s.i.i.%.%.%.%.%.%.%.%.%.%.%.%.i.i.i.s.s.s.s.s.i.i.i.i.i.a.n._.'.5X5X,X1X,X1X1X<X<X<X2X4X4X4X4X4XqXwXwXeXeXeXeXuXuXuXuXuXuXuXuXuXuXuXuXuXuXkXkXuXuXkXzXzXzXxXxXxXxXcXcXxXxXxXxXcXcXcXcXcXcXcXcXcXcXcXcXcXcXcXcXxXxXxXxXxXxXxXxXxXxXxXxXxXxXxXxXxXxXxXxXcXcXcXcXcXcXcXcXcXcXcXcXcXvXvXvXbXxXfXrX4X1X,X'.(.(.V.V.V.V.~.~.(.(.(.(.).`.'.'.'.'.'.'.'.'.'.'.5X'.5X5X5X5X5X5X5X5X",
"zXkXzXkXuXeXeXeXeXrXqXqXqXqXqX<X<X<X<X<X1X1X1X1X1X,X}.,X,X,X,X,X}.}.}.}.}.'.'.'.'.`.`.`.`.`.'.'.'.<XqXeXkXfXkXkXfXeXrXqXqXrXkXcXvXvXvXvXvXvXvXvXvXcXcXxXxXxXzXzXzXzXzXzXzXzXzXzXzXzXzXzXzXzXzXzXzXzXzXzXxXxXbXbXvXcXvXvXcXvXvXvXvXNXCXCXCXCXCXAXAXAXAXAXAXAXAXAXAXAXCXNXvXvXvXvXvXvXvXvXvXvXvXvXvXvXNXNXvXvXvXvXvXvXvXvXvXcXcXcXvXvXvXvXvXvXcXcXvXvXvXvXvXvXnXnXvXvXvXvXCXbXvX4X`.*.V.x.;.;.>.>.x.;.6.6.x.b.z.x.x.z.>.z.n.n.n.V.S.S.n.n.x.n.V.z.n.V.n.n.n.x.n.z.a.c.n.n.n.n.v.c.a.s.:.:.:.&.=.$.&.,.=.=.=.=.&.=.=.&.&.=.=.=.=.=.:.:.:.>.%.:.:.$.&.:.:.%.:.&.$.$.$.#.$.#.#.$.#.#.#.P $.#...#.$.P P #.P P P P P P P S P L I Z P S S Z ..P ..P >.>.=.a.s.s.s.s.s.s.s.s.a.a.s.s.s.s.s.s.s.s.a.a.a.a.a.a.a.a.a.a.a.a.a.a.a.d.d.d.d.d.d.d.d.a.a.a.a.a.a.s.s.s.s.p.p.p.p.p.p.p.s.i.i.%.%.%.%.%.%.%.%.%.%.%.%.%.i.i.s.s.s.s.s.s.s.i.i.i.:.x.S.].5X5X,X,X,X,X1X1X<X<X<X2X4X4X4X4X4XqXwXeXeXeXeXeXuXuXuXuXuXuXuXuXuXuXkXkXkXzXzXkXkXkXkXzXzXzXzXxXxXxXcXcXcXcXbXbXcXcXvXcXcXcXcXcXcXcXcXcXcXcXcXcXcXcXcXcXxXxXxXxXxXxXxXxXxXxXxXxXxXxXxXxXcXcXxXxXcXcXcXcXcXcXcXcXcXcXvXvXvXbXzXeXqX4X<X|.'.(.(.V.V.V.V.~.~.(.(.(.(.].].'.'.'.'.'.'.'.'.'.'.'.'.'.'.'.5X5X'.'.",
"kXkXzXeXeXeXrXrXrXqXqXqXqXqX<X<X<X<X<X1X1X,X1X1X,X5X}.}.}.}.}.}.}.}.}.}.}.'.'.'.'.`.'.`.`.`.`.'.`.,X<XqXeXkXkXkXeXeXrXqXrXeXzXbXcXvXvXvXvXvXvXvXcXcXcXxXxXzXzXzXzXzXzXzXzXzXzXzXzXzXzXzXzXzXzXzXzXzXzXzXxXxXbXbXcXcXvXvXcXvXvXvXvXNXCXCXCXCXCXAXAXAXAXAXAXAXAXAXAXCXNXvXvXcXcXcXvXvXvXvXvXvXvXvXvXvXNXNXvXvXvXvXvXvXvXvXvXcXcXcXvXvXvXvXvXvXcXcXvXvXvXvXvXvXnXnXvXvXvXvXvXzXbXNXfXx.C.x.*.;.>.6.6.>.>.x.x.z.b.6.z.>.>.z.x.n.V.V.S.S.n.n.z.n.V.a.n.V.n.x.n.x.n.s.a.x.c.c.c.c.x.x.a.s.:.:.=.$.&.#.&.:.&.=.$.=.$.=.=.$.&.&.&.=.=.&.>.:.:.:.s.=.$.=.&.:.:.%.=.&.$.$.#.#.$.#.#.$.#.#.#.#.*.#...$.#.P ..#.P P P P P P P L P P S Z I S P S =.$.=.*.>.:.s.s.s.s.s.s.s.s.s.s.s.a.s.s.s.s.s.s.s.s.a.a.a.a.a.a.a.a.a.a.a.a.a.a.a.a.a.a.a.a.a.a.a.a.a.a.a.a.a.s.s.s.s.s.p.p.p.p.i.i.s.i.%.%.%.%.%.%.%.%.%.%.%.%.i.i.i.i.s.s.s.s.s.s.s.i.i.i.i.n.S.'.5X5X,X1X,X,X1X1X<X<X2X2X2X2X4X2X2XqXwXeXeXeXeXeXuXuXuXuXuXuXuXuXuXuXkXkXzXzXzXzXzXkXkXkXkXzXzXxXxXxXcXcXcXcXbXbXcXcXcXcXcXcXcXcXcXcXcXcXcXcXcXcXcXcXcXcXxXxXxXxXxXxXxXxXxXxXxXxXxXxXxXxXcXxXxXxXcXcXcXcXcXcXvXcXcXcXvXvXvXbXxXfXeXqX4X1X'.'.(.~.V.V.V.V.V.V.(.(.(.(.`.'.'.'.'.'.'.'.'.'.'.'.'.'.'.'.'.'.'.'.",
"kXkXeXeXeXrXrXwXqXqXqXqX4X2X<X<X<X1X1X1X1X,X,X,X,X}.}.}.}.}.}.}.}.}.}.'.'.'.'.'.`.'.'.`.`.`.`.`.`.'.1XqXeXfXkXkXfXeXrXqXrXeXzXbXvXvXvXvXvXvXvXcXbXbXbXxXxXzXzXzXzXzXzXzXzXzXzXzXzXzXzXzXzXzXzXzXzXzXxXxXxXxXcXcXcXcXcXvXcXvXvXvXNXCXCXCXAXAXAXAXAXAXAXAXAXAXAXAXAXCXNXvXcXcXcXcXcXcXvXvXvXvXvXvXvXvXNXNXvXvXvXvXvXvXvXvXvXvXvXvXvXvXvXvXvXvXvXvXvXvXvXvXvXvXvXnXNXNXvXvXvXvXvXvXfX(.C.>.x.x.(.;.6.>.6.x.>.6.z.x.z.x.z.n.z.x.n.S.n.V.n.z.z.n.n.z.n.n.n.x.n.z.x.z.z.x.z.z.x.z.z.x.z.>.s.:.=.&.&.:.&.>.&.=.$.%.&.=.=.$.=.&.$.=.#.=.>.>.z.$.>.=.=.>.&.:.$.=.:.&.$.#.#.$.$.$.$.$.U #.$.#.$.#...$.$.....$.P P P P P P P P P S S Z S P #.S =.>.:.>.s.s.s.a.s.s.a.a.a.a.s.s.a.a.a.a.a.a.a.a.s.s.a.a.a.a.a.a.d.a.d.d.d.d.a.a.a.a.a.a.a.a.a.a.a.a.a.s.s.s.s.s.s.s.s.p.i.i.s.s.i.i.i.%.%.%.%.%.%.%.:.:.i.i.i.i.i.i.i.i.i.i.s.s.i.i.s.s.s.s.%.n._.5X5X,X1X1X<X<X<X<X<X<X<X<X2X2X2X2X4XqXwXeXeXeXeXeXuXuXuXuXuXuXuXuXkXkXkXzXzXzXzXzXzXkXuXuXkXzXzXcXcXcXcXcXcXcXcXcXcXcXcXcXcXcXcXcXcXcXcXcXcXcXcXcXcXcXcXcXbXbXxXxXxXxXxXxXxXxXxXxXxXxXxXxXxXxXxXxXcXcXcXcXcXcXvXvXcXcXcXvXvXvXbXzXfXeXqX4X,X`.(.(.~.V.V.V.V.V.~.(.(.(.`.'.'.'.'.'.'.'.'.'.'.'.'.'.'.'.5X5X'.'.",
"kXeXeXeXrXrXqXqXqXqXqX<X<X<X<X<X<X1X1X,X1X,X,X,X'.'.'.'.}.}.}.}.}.}.}.'.'.`.`.`.`.'.'.`.`.`.`.`.`.'.}.<XrXeXkXkXeXeXrXrXrXeXbXvXvXvXvXvXvXvXvXcXxXxXxXxXzXzXzXzXzXzXzXzXzXzXzXzXzXzXzXzXzXzXzXzXzXzXxXxXxXxXcXcXvXcXcXvXcXvXvXvXNXCXCXCXAXAXAXAXAXAXAXAXAXAXAXAXCXNXvXvXcXvXvXvXcXcXcXcXvXvXvXvXvXvXNXNXvXvXvXvXvXvXvXvXvXvXvXvXvXvXvXvXvXvXvXvXvXvXvXvXvXvXvXvXvXNXvXvXvXvXvXvXvX<XV.;.C.V.~.z.>.>.6.z.6.6.z.z.6.x.z.n.z.x.n.V.n.n.z.c.x.n.n.x.n.n.n.c.c.x.x.z.z.x.z.a.z.z.z.x.z.>.s.=.>.=.&.=.=.>.&.&.&.&.=.=.=.$.=.&.=.>.$.>.>.>.>.=.>.=.=.>.&.=.&.=.=.&.$.#.$.$.$.$.$.$.U #.$.#.$.#.#.$.$.#...#.P P P P S P P P P Z Z S Z P =.U :.s.s.s.a.a.a.a.a.a.a.a.a.a.s.s.a.a.a.a.a.a.a.a.a.a.a.a.a.a.a.a.a.a.d.d.d.d.a.a.a.a.a.a.a.a.a.a.s.s.s.p.p.p.s.s.s.p.p.i.i.i.i.i.i.i.i.%.%.%.%.%.%.%.:.:.i.i.i.i.i.i.i.i.i.i.s.s.i.i.s.s.s.s.s.S.].5X5X,X1X1X<X<X<X<X<X<X<X<X<X<X2X4XqXqXwXeXeXeXeXeXuXuXuXuXuXuXuXuXkXkXkXzXzXzXzXzXzXkXuXeXuXkXzXxXcXcXcXcXcXcXcXcXcXcXcXcXcXcXcXcXcXcXcXcXcXcXcXcXcXcXcXcXbXbXxXxXxXxXxXxXxXxXxXxXxXxXxXxXxXxXxXxXcXcXcXcXcXcXvXvXcXcXcXvXvXvXvXzXzXeXrXqX<X,X'.(.(.V.V.V.V.V.V.~.(.(.(.`.'.'.'.'.'.'.'.'.'.'.'.'.'.'.'.'.'.'.",
"eXeXeXrXrXqXqXqXqXqX2X<X<X<X<X<X1X1X,X,X,X,X,X,X,X'.'.'.}.}.}.'.'.'.'.'.'.`.`.`.`.`.'.`.'.`.`.`.`.`.'.1XqXeXfXkXfXeXrXrXeXlXvXnXvXcXvXcXvXvXcXbXxXxXxXxXzXzXzXzXzXzXzXzXzXzXzXzXzXzXzXzXzXzXzXzXzXzXxXxXcXcXvXvXvXvXvXvXvXvXNXCXNXCXCXAXAXAXAXAXAXAXAXAXAXAXAXAXCXNXvXvXcXvXvXvXcXcXcXcXvXvXvXvXvXvXvXvXvXvXvXvXvXvXvXvXcXcXvXcXvXvXvXvXvXvXvXvXvXvXvXvXvXvXvXvXvXNXvXvXvXvXvXvXbXzXV.`.qXx.(.6.;.>.6.6.x.z.6.6.>.z.z.b.z.x.n.n.n.>.x.x.n.n.n.n.n.n.n.x.x.x.s.s.z.z.x.a.z.x.x.z.s.:.s.&.>.=.*.=.>.:.$.=.=.&.&.=.=.$.=.&.=.>.$.>.=.:.=.s.s.=.=.s.&.=.&.=.=.&.$.#.$.#.#.$.$.$.#.#.$.P $.#.#.$.$.#...#.P P P L S S P P P S Z Z #.$.>.=.i.s.s.s.a.a.s.s.a.a.a.a.a.a.a.a.a.a.a.a.a.a.a.a.a.a.a.a.a.a.a.a.a.d.d.d.d.d.a.a.a.a.a.a.a.a.s.s.s.s.s.s.p.p.p.p.i.i.i.i.i.i.i.i.i.i.i.%.%.%.%.%.%.%.:.:.i.i.i.i.i.i.i.i.i.s.s.s.i.i.i.s.s.s.c._.$X,X,X,X1X1X1X<X<X<X<X<X<X<X<X<X4XqXwXwXeXuXeXuXeXeXuXuXuXuXuXuXzXzXzXzXzXzXzXzXzXzXzXkXuXeXeXeXkXzXxXcXcXcXcXcXcXcXcXcXcXcXvXvXvXvXvXvXcXcXcXcXcXcXcXcXcXcXcXcXcXcXcXcXcXcXxXxXxXxXxXxXxXxXcXcXcXcXcXcXcXcXcXcXvXvXcXcXcXcXvXvXvXbXxXfXeXqX<X<X,X'.(.~.V.V.V.V.V.~.(.(.(.`.`.'.'.'.'.'.'.'.'.'.'.'.'.'.'.'.'.'.",
"eXeXrXrXqXqXqXqXqX2X<X<X<X<X<X<X1X1X,X,X,X5X,X,X,X'.'.}.}.}.'.'.'.'.'.'.`.`.`.`.`.`.'.'.'.`.`.`.`.`.`.}.<XqXeXfXeXeXrXrXuXzXvXNXvXcXcXcXvXvXcXbXxXxXxXxXzXzXzXzXzXzXzXzXzXzXzXzXzXzXzXzXzXzXzXzXzXzXxXxXcXcXvXvXcXcXvXvXvXvXNXCXNXCXCXAXAXAXAXAXAXAXAXAXAXAXAXAXCXvXvXcXcXvXvXvXcXcXcXcXvXvXvXvXvXvXvXvXvXvXvXvXvXvXvXvXcXcXcXcXvXvXvXvXvXvXvXvXvXvXvXvXvXvXvXvXvXvXvXvXvXvXvXvXNXzXrXqXfX`.'.6.;.>.>.>.b.x.6.>.>.z.z.b.z.x.n.x.z.z.s.z.n.n.n.n.n.n.c.x.x.n.s.z.s.s.z.s.z.c.x.z.s.:.:.&.=.=.=.=.>.=.*.>.&.*.&.=.=.$.&.&.&.=.#.:.=.:.%.z.s.=.=.>.&.=.&.=.=.&.&.#.$.U U $.&.$.#.#.#.P $.P #.$.$.#.....P S S S S S S P P Z S P =.>.s.z.s.s.s.a.a.a.a.a.a.a.a.a.a.a.a.a.a.a.a.a.a.a.a.a.a.a.a.a.a.a.a.a.d.d.d.d.d.d.a.a.a.a.a.a.a.a.s.s.s.s.s.s.p.p.p.p.i.i.i.i.i.i.i.i.i.i.%.%.%.%.%.%.%.%.:.:.i.i.%.i.i.i.i.i.i.s.s.s.i.i.i.i.i.s.V._.5X1X,X1X1X1X1X<X<X<X<X<X<X<X<X<X4XqXwXrXeXuXuXuXeXeXuXuXuXuXuXuXzXzXzXzXzXzXzXzXzXzXzXkXuXuXrXeXuXkXxXcXcXcXcXcXcXcXcXcXcXcXvXvXvXvXvXvXcXcXcXcXcXcXcXcXcXcXcXcXcXcXcXcXcXcXxXxXxXxXxXxXxXxXcXcXcXcXcXcXcXcXcXcXvXvXcXcXcXcXvXvXvXvXbXzXeXrX4X<X<X,X(.(.V.V.V.V.V.V.(.(.(.(.`.`.'.'.'.'.'.'.'.'.'.'.'.'.'.'.'.'.",
"eXeXrXrXqXqXqXqX<X<X<X<X<X<X<X1X1X,X,X,X}.}.}.}.}.'.'.'.}.'.'.'.'.`.`.`.`.`.`.`.`.`.`.`.`.`.`.`._.`.'.'.1X4XrXfXfXfXfXfXkXbXnXvXvXvXvXvXvXcXcXbXxXxXxXxXzXzXzXzXzXzXkXkXzXzXzXzXzXzXzXzXzXzXxXxXxXxXxXxXbXbXvXvXcXvXvXvXvXNXCXCXCXCXAXAXAXAXAXAXAXAXAXAXAXAXAXAXCXvXvXcXvXcXcXvXcXcXcXcXvXvXvXvXvXvXvXvXvXvXvXvXcXcXcXvXvXvXvXvXvXvXvXvXvXvXvXvXvXvXvXvXvXvXNXNXvXvXvXcXvXvXvXvXvXbXvXvXbX`.`.;.>.b.*.>.9.x.>.6.x.6.s.x.x.x.z.z.s.s.s.z.x.n.n.x.n.x.x.z.z.z.z.z.s.s.s.s.s.>.z.s.>.>.=.*.=.=.*.*.=.=.=.>.=.$.$.=.=.$.$.&.&.&.$.=.=.:.=.s.>.=.=.=.&.=.=.:.=.$.&.$.$.P P $.$.$.#.#.#.P $.S #.$.#.......P S ..S Z P Z P I S G >.s.s.s.a.a.a.a.a.a.a.a.a.a.a.a.a.a.a.a.a.a.a.d.d.a.a.a.d.d.d.a.a.a.a.d.a.a.d.a.a.a.a.a.a.a.a.a.a.s.s.a.a.s.s.s.s.s.s.s.i.i.i.s.i.i.i.i.i.i.i.=.=.=.=.%.%.%.%.=.=.i.i.i.i.i.i.i.i.i.i.s.s.s.i.i.:.:.s.S.].5X,X1X1X1X1X1X1X<X<X<X<X2X2X<X2X2XqXwXeXeXeXeXeXuXuXuXuXzXzXkXkXzXzXzXzXzXzXzXzXxXzXzXkXkXeXrXrXuXuXzXcXcXcXcXcXcXcXcXcXvXvXvXvXnXvXvXcXcXcXvXvXvXvXcXcXcXcXcXcXcXcXcXcXcXcXcXcXcXcXxXxXcXcXcXcXcXcXcXcXcXcXcXcXcXcXvXvXvXvXvXvXvXvXvXbXzXeXqX4X1X,X'.(.~.V.V.V.V.V.~.(.(.(.).`.`.'.'.'.'.'.'.'.'.'.'.'.'.'.'.'.",
"eXeXrXqXqXqXqX2X<X<X<X<X<X<X1X,X,X,X,X}.,X}.'.'.'.'.'.'.'.`.`.`.`.`.`.`.`.`.`.`.`.`.`.`.`.`.`.`.'.`.`.'.,X<XrXeXfXfXkXkXzXvXnXvXvXvXcXvXcXcXcXbXxXxXxXxXzXzXzXzXzXzXkXzXzXzXzXzXzXzXzXzXzXzXxXxXxXxXxXxXbXbXvXvXcXvXvXvXvXNXCXCXCXCXAXAXAXAXAXAXAXAXAXAXAXAXAXAXCXvXvXcXvXcXcXvXcXcXcXcXvXvXvXvXvXvXvXvXvXvXvXvXcXcXcXcXvXvXvXvXvXvXvXvXvXvXvXvXvXvXvXvXvXvXNXNXvXvXvXcXvXvXvXvXbXvXvXvXbX`.'.;.x.;.(.V.x.9.6.6.x.6.s.x.x.z.z.>.>.>.z.x.x.n.n.x.x.x.z.z.z.z.z.s.z.s.s.s.s.>.>.>.>.=.*.*.=.=.*.$.$.*.:.:.=.$.$.=.=.$.$.&.&.&.=.=.=.=.=.:.=.=.=.&.&.=.=.=.=.$.&.$.$.U P $.$.#.#.$.#.#.$.S #.....P P P P S S S S S G P #.#.U s.a.a.a.a.a.a.a.a.a.a.a.a.a.a.a.a.a.a.a.a.a.a.d.d.a.a.a.d.d.d.a.a.a.a.d.a.a.a.a.a.a.a.a.a.a.a.a.a.s.s.a.a.s.s.s.s.s.s.s.i.i.i.i.i.i.i.i.i.%.i.%.=.=.:.%.%.r.%.=.=.=.i.i.i.i.i.i.i.i.i.s.s.i.i.s.:.>.x.(.'.5X5X1X1X<X1X1X1X<X<X<X<X2X<X<X2X4XqXwXeXeXeXeXeXuXuXuXuXzXzXkXkXzXzXzXzXzXzXzXzXzXzXzXkXkXuXeXrXeXuXkXxXcXcXcXcXcXcXcXcXvXvXvXvXnXvXvXcXcXcXvXvXvXvXcXcXcXcXcXcXcXcXcXcXcXcXcXcXcXcXxXxXcXcXcXcXcXcXcXcXcXcXvXvXcXcXvXvXvXvXvXvXvXvXvXvXbXzXeXqX<X1X}.'.(.~.V.V.V.V.V.~.(.(.(.(.).'.'.'.'.'.'.'.'.'.'.'.'.'.'.'.",
"eXrXqXqXqXqX2X<X<X<X<X<X<X1X,X,X,X,X,X}.5X'.'.'.'.'.`.`.`.`.`.`.`.`.`.`.`.`.`.`.'.'.`.`.`.`.`.`.`.`.`.'.}.<XrXfXfXkXkXlXcXNXNXvXvXvXvXcXcXcXbXxXxXxXxXxXzXzXzXzXzXzXzXzXzXzXzXzXzXzXzXzXzXzXxXxXxXxXbXbXcXcXcXcXvXvXNXNXNXCXCXCXCXAXAXAXAXAXAXAXAXAXAXAXAXAXAXAXCXvXvXcXvXcXvXvXcXcXcXcXvXvXvXvXvXvXvXvXvXvXvXvXcXcXcXcXcXcXvXvXvXvXvXvXvXvXvXvXvXvXvXvXvXvXNXNXvXvXvXcXvXcXvXvXbXbXvXvXbX4X}.<X~.b.zX~.V.>.V.>.x.6.6.x.z.6.>.>.>.>.z.x.x.b.x.z.z.z.z.>.z.z.z.z.s.s.s.s.>.:.>.>.:.=.&.*.=.=.*.$.$.$.=.=.=.*.$.*.*.$.*.$.$.=.=.=.=.=.:.=.&.=.&.$.$.=.=.%.$.&.=.&.#.$.P $.$.P $.$.$.#.#.P P P P S S P P Z Z S G P *.*.=.:.=.z.s.x.x.z.a.a.a.a.a.a.a.a.a.a.a.a.a.a.a.a.a.a.d.d.a.a.a.a.d.d.a.a.a.a.a.d.a.a.a.a.a.a.a.a.a.a.s.s.s.s.s.s.s.s.s.s.s.i.i.i.i.i.i.i.i.i.%.%.r.r.%.%.=.=.%.%.i.i.=.i.i.i.i.i.i.i.s.s.i.i.s.s.i.i.s.:.s.n.].5X,X,X<X1X1X1X<X<X<X<X<X<X<X<X<X2XqXqXeXuXeXeXeXeXuXuXuXuXzXzXkXkXzXzXzXzXzXzXzXxXzXzXzXzXkXkXuXrXrXeXuXzXcXcXcXcXcXcXcXcXnXnXnXnXnXnXnXnXnXnXvXvXvXvXcXcXcXcXcXcXcXcXcXcXcXcXcXcXcXcXcXcXcXcXcXcXcXcXcXcXcXcXvXvXvXvXvXvXvXvXvXvXvXvXvXvXbXbXkXeXqX4X|.}.'.(.V.V.V.V.V.~.~.(.(.(.(.).'.'.'.'.'.'.'.'.'.'.'.'.'.'.",
"rXqXqXqXqX4X<X<X<X<X<X<X1X,X,X,X1X,X}.}.}.'.'.'.'.'.'.'.`.`.`.'.`.`.`.`.`.`.`.`.`.`.`.`.`.`.`.`.`.`.`.`.}.<XqXfXfXkXzXbXcXNXvXvXvXvXvXvXbXbXbXxXxXxXxXxXzXzXzXzXzXzXzXzXzXzXzXzXzXzXzXzXzXzXxXxXxXxXbXbXcXcXvXcXvXvXNXNXNXCXCXCXCXCXAXAXAXAXAXAXAXAXAXAXAXCXCXCXCXvXvXcXvXcXvXvXvXcXcXcXvXvXvXvXvXvXvXvXvXvXvXvXcXcXcXcXcXcXcXcXvXvXvXvXvXvXvXvXvXvXvXvXvXvXNXNXNXNXvXcXvXcXvXvXbXbXvXvXvXzXfXbX'.~.qXV.b.x.b.z.x.6.6.x.z.6.>.>.>.>.x.x.z.x.x.z.z.z.>.>.z.z.s.s.>.s.s.s.>.:.=.=.=.=.&.*.=.*.*.$.$.$.$.=.=.$.$.*.*.$.*.$.$.=.=.=.=.=.=.=.&.&.&.$.&.=.=.&.$.=.>.=.U $.P $.#.P $.$.$.#.P P P P P S S S G S P G P *.s.:.:.>.s.z.s.h.x.x.x.a.a.a.a.a.a.a.a.a.d.d.d.d.a.a.a.d.d.d.a.a.a.a.d.d.a.a.a.a.a.d.a.a.a.a.a.a.a.a.a.a.s.s.s.s.s.s.s.s.i.i.i.i.i.i.i.r.i.%.%.%.%.%.r.r.r.%.=.=.=.=.i.i.i.i.i.i.i.i.i.i.s.i.i.i.i.i.i.i.:.:.s.V.'.5X5X1X1X1X1X1X<X<X<X<X<X<X<X<X<X2XqXwXeXuXuXeXeXuXuXuXuXuXzXzXkXkXkXzXzXzXxXzXzXzXzXzXzXzXzXzXkXeXrXeXeXkXxXcXcXcXcXcXcXcXnXnXnXnXnXnXnXnXnXnXvXvXvXvXcXcXcXcXcXcXcXcXcXcXcXcXcXcXcXcXcXcXcXcXcXcXcXcXcXcXcXcXvXvXvXvXvXvXvXvXvXvXvXvXvXvXvXbXzXkXeXqX,X}.'.`.(.V.V.V.V.~.~.(.(.(.(.).'.'.'.'.'.'.'.'.'.'.'.'.'.'.",
"qXqXqXqX4X<X<X1X<X<X<X<X1X,X,X1X,X,X}.'.'.'.'.'.'.'.'.'.`.`.`.`.`.`.`.`.`.`.`.`.`.`.`.`.`.`.`.`.`.`.`.`.}.<XqXeXkXkXbXbXvXNXvXvXcXcXcXcXxXxXxXxXzXzXzXzXzXzXzXzXzXzXzXzXzXzXzXzXzXzXzXzXxXxXxXxXxXxXcXcXvXvXvXvXvXvXNXNXNXCXCXCXCXAXAXAXAXAXAXAXAXAXAXAXAXCXCXCXCXvXvXvXvXvXvXvXvXvXvXvXvXvXvXvXvXvXvXvXvXvXvXvXcXcXcXcXcXcXcXcXvXvXvXvXvXvXvXvXvXvXvXvXnXnXNXNXNXNXNXvXvXcXcXvXvXvXvXcXvXbXbXbXrX(.1XV.b.(.*.6.x.=.z.>.>.6.6.6.>.>.6.6.6.z.z.z.>.>.x.>.>.z.z.>.>.>.>.6.>.>.=.=.>.=.=.*.=.$.=.*.$.#.#.$.*.$.#.$.$.$.*.$.$.*.=.=.>.=.=.=.*.*.$.&.=.=.=.$.$.>.>.*.P $.P $.P I $.$.#.P P P P S S G S G P G &.P =.>.s.s.s.s.s.a.a.x.x.c.c.a.d.d.a.a.d.d.h.h.h.d.d.d.d.d.d.d.d.d.a.a.d.d.a.a.a.a.a.a.a.a.a.a.a.a.a.a.a.s.s.s.s.s.s.s.s.s.s.i.i.i.i.i.i.i.:.:.=.=.%.%.:.=.%.=.%.%.i.i.i.i.i.i.i.i.i.i.i.i.i.i.i.i.i.i.i.i.:.:.:.:.z._.5X5X5X1X1X1X1X<X<X<X<X<X<X<X<X<X2X4XqXrXeXeXeXeXeXeXuXuXuXuXuXuXkXkXzXzXxXxXxXxXxXzXzXzXzXzXzXkXkXuXeXrXeXkXzXcXcXcXcXcXcXvXnXnXNXNXNXnXnXnXnXnXnXnXnXnXvXcXcXcXvXvXvXvXcXcXcXcXcXcXcXcXcXcXcXcXcXcXcXcXcXcXcXcXcXcXcXvXvXvXvXvXvXvXvXvXvXvXvXvXbXzXeXrXqX1X}.'.(.~.V.V.V.~.~.(.(.(.(.).(.'.'.'.'.'.'.'.'.'.'.'.'.'.",
"qXqX4X4X<X1X1X1X1X1X1X1X,X,X,X,X,X'.'.'.'.'.'.'.'.'.`.`.`.`.`.`.`.`.`.`.`.`.`.`.`.`.`.`.'.`.`.`.`.`.`.`.'.,X4XrXkXkXbXcXvXNXvXvXcXcXcXcXxXxXxXxXzXzXzXzXzXzXzXzXzXzXzXzXzXzXzXzXzXzXzXzXxXxXxXxXxXxXcXcXvXvXvXvXvXvXNXNXNXCXCXCXCXAXAXAXAXAXAXAXAXAXAXCXCXCXCXCXNXvXcXvXvXvXvXvXvXvXvXvXvXvXvXvXvXvXvXvXvXvXvXvXcXcXcXcXcXcXcXcXvXvXvXvXvXvXvXvXvXvXvXvXnXnXNXNXNXNXNXvXvXcXcXvXcXvXvXcXvXbXbXbXbX(.`.`.<XMX$.6.x.V.b.6.>.>.b.>.>.>.>.>.6.6.z.z.>.>.x.>.>.>.>.>.>.>.>.>.>.>.=.=.>.>.*.*.$.$.*.$.#.P P #.$.P P #.$.$.$.$.$.$.$.*.,.$.=.=.$.$.$.=.=.*.*.$.$.>.*.#...#.#.$.P P #.P P P G P S S G P P $.$.$.i.&.s.s.x.x.x.x.x.a.a.a.x.a.c.a.d.d.a.a.d.d.h.d.d.d.d.d.d.d.d.d.d.d.a.a.d.d.a.a.a.a.a.a.a.a.a.a.a.a.a.a.a.s.s.s.s.s.s.s.s.s.s.i.i.i.i.i.i.=.=.%.=.=.%.%.=.=.=.=.%.=.i.i.i.i.i.i.i.i.i.i.i.i.i.i.i.i.i.i.i.:.:.:.:.:.n._.5X5X1X1X1X1X1X1X1X1X<X<X<X<X<X<X2X4XwXeXeXeXeXeXeXeXuXuXuXuXuXuXkXkXkXkXzXxXzXzXzXzXzXzXzXzXkXkXkXkXuXeXeXuXkXzXcXcXcXcXcXvXnXnXnXNXNXnXnXnXnXnXnXnXnXnXvXcXcXcXvXvXvXcXcXcXcXcXcXcXcXcXcXcXcXcXcXcXcXcXcXcXcXcXcXcXcXcXvXvXvXvXvXvXvXvXvXvXvXvXcXzXkXeXqX4X1X}.`.(.~.V.V.V.V.~.(.(.(.).(.'.'.'.'.'.'.'.'.'.'.'.'.'.",
"4X3X<X1X1X,X,X,X,X,X,X,X}.'.'.'.'.'.'.'.`.'.`.`.).(.`.`.).).`.`.`.`.`.`.'.`.`.`.`.`.'.'.'.'.`.`.`.`.`.`.'.,X<XqXkXbXbXbXvXNXvXvXcXcXbXbXxXxXxXxXzXzXzXzXzXzXzXzXzXzXzXzXzXzXzXzXzXzXxXxXxXxXxXxXbXcXvXvXvXvXvXvXvXvXNXNXNXCXCXCXAXCXAXAXAXAXAXAXAXAXAXCXCXCXCXCXNXvXcXcXvXvXvXvXcXcXvXvXvXvXvXvXvXvXvXvXvXvXvXvXcXcXvXcXvXvXcXvXvXvXvXvXvXvXvXvXvXvXvXvXnXNXNXNXvXvXNXvXvXcXcXvXvXvXvXvXbXbXbXbXfXzXeX(.fX}.V.z.x.b.n.>.z.>.x.>.>.>.>.>.>.>.6.6.>.>.z.>.>.>.>.>.>.>.>.>.>.>.=.=.>.=.=.*.#.=.$.#...#.#.#.#.P P #.$.$.$.$.$.#.#.$.$...$.$.#.P #.*.*.$.$.$.$.>...P P ..$.#.P P P P G G P P P P U $.#.>.=.:.s.s.s.a.a.a.x.x.a.a.a.d.d.d.d.c.d.d.d.d.d.d.d.d.d.d.d.d.d.d.d.d.d.d.d.d.d.d.a.a.a.a.a.a.a.a.a.a.a.a.a.a.a.s.s.s.s.s.s.s.s.s.s.i.i.i.i.i.i.%.%.%.=.:.:.=.:.:.=.=.%.%.:.:.:.:.i.i.:.:.i.i.i.i.:.:.i.i.i.i.i.:.:.:.:.z.S.'.5X5X1X<X1X1X1X1X1X1X1X1X<X<X<X<X2XqXwXeXeXeXeXeXeXeXuXuXuXuXuXuXkXkXkXkXkXkXzXzXzXzXzXzXzXzXkXkXkXkXkXuXeXeXkXzXcXcXcXcXcXvXnXnXnXnXNXNXnXnXnXnXnXnXnXnXvXvXcXcXvXvXvXvXcXcXcXcXcXcXcXcXcXcXcXcXcXcXcXcXcXcXcXcXcXcXcXcXvXvXvXvXvXvXvXvXvXvXvXvXvXbXzXeXrXqX<X,X}.`.(.~.V.V.V.V.~.(.(.(.(.(.'.'.'.'.'.'.'.'.'.'.'.'.",
"<X1X,X,X,X,X,X,X}.'.'.'.'.'.'.'.'.'.(.(.(.(.(.(.(.(.(.(.).'.`.'.`.`.'.'.'.`.`.`.'.'.'.'.'.'.`.`.`.`.`.`.'.}.1XqXkXzXbXbXvXNXvXvXcXcXbXbXxXxXxXxXzXzXzXzXzXzXzXzXzXzXzXzXzXzXzXzXzXzXxXxXxXxXxXxXbXcXvXvXvXvXvXvXvXvXNXNXNXCXCXCXCXCXAXAXAXAXAXAXAXAXAXCXCXCXNXNXvXvXcXcXvXvXvXvXcXcXcXcXvXvXvXvXvXvXvXvXvXvXvXvXcXcXvXvXvXvXvXvXvXvXvXvXvXvXvXvXvXvXvXvXnXNXNXNXvXvXvXvXvXvXcXvXvXvXvXcXbXbXbXzXxXvXbXzXzXbX'.x.6.'.~.6.=.*.6.~.>.>.>.>.>.>.6.>.>.>.z.,.>.>.>.>.:.>.>.>.>.=.=.=.=.=.*.$.P >.$.#.#.$.$.$.$.$.$.$.=.$.$.$.$.#.P ....P $.$...P ..$.$...#.#.X.$.P P P P =...P G P G P P P ..$.$.&.s.$.x.=.s.s.a.a.a.a.a.a.a.a.d.a.a.d.d.d.c.d.d.d.d.d.d.d.d.h.d.d.d.d.d.d.d.d.d.d.d.d.d.a.a.a.a.a.a.a.a.a.a.a.a.a.s.s.s.s.s.s.s.s.s.s.s.i.i.i.i.i.=.%.%.%.=.:.:.=.=.=.:.:.=.%.%.:.:.:.:.:.:.:.:.:.i.i.i.i.:.:.:.:.:.:.:.:.:.:.n.(.5X5X1X1X<X1X1X1X1X1X1X1X<X<X<X<X<X2XqXeXeXeXeXeXeXeXeXuXuXuXuXuXuXuXuXkXkXuXuXkXkXkXzXzXkXkXkXkXkXkXkXkXuXeXeXuXkXxXcXcXcXcXvXnXnXnXnXNXNXnXnXnXnXnXnXnXnXvXvXcXcXvXvXvXvXcXcXcXcXcXcXcXcXcXcXcXcXcXcXcXcXcXcXcXcXcXcXcXcXvXvXvXvXvXvXvXvXvXvXvXvXvXcXzXfXrXqX4X<X1X'.(.(.~.V.V.V.V.(.(.(.(.(.'.'.'.'.'.'.'.'.'.'.'.'.",
"'.'.'.'.'.'.'.'.'.'.'.'.'.'.'.`.).(.(.(.(.(.(.(.(.(.(.`.`.'.'.`.`.'.'.`.`.`.`.`.`.'.'.'.'.`.`.`.`.`.'.'.).`.}.qXzXbXbXbXvXvXvXvXcXcXcXcXxXxXxXxXxXzXzXzXzXzXzXzXzXzXzXzXzXzXxXxXxXxXxXxXxXxXbXcXcXcXvXcXvXvXvXvXvXNXCXCXCXCXCXAXCXAXAXAXAXAXAXAXAXCXCXCXCXCXNXvXvXvXvXcXcXcXcXcXcXcXcXcXvXvXvXvXvXvXvXvXvXvXvXvXcXcXcXcXcXcXcXcXvXvXvXvXvXvXvXvXvXvXvXvXvXvXNXNXvXvXNXvXvXvXvXvXvXvXvXvXcXcXcXcXvXvXvXvXvXvX,XNXx.4X'.n.$.z.1XC.=.$.z.C.>.>.>.x.>.>.=.>.=.=.>.z.*.>.>.=.*.*.*.*.*.$.$.#.P #.$.$.$.=.=.>.=.=.=.=.,.=.$.$.$.$.$.#.#...#.#.......$.#.P ....P P P P P ..*.G G P P S P $.&.>.>.=.=.:.i.s.a.a.a.a.a.a.a.a.d.d.d.d.d.d.d.d.d.h.h.d.d.d.d.d.d.d.a.a.d.d.a.a.a.d.d.d.a.a.a.a.a.a.a.a.a.a.a.a.a.a.a.a.a.s.s.s.s.s.s.s.s.s.s.s.i.i.i.i.=.=.:.%.=.%.=.=.i.i.i.i.:.:.=.:.:.:.:.:.:.=.=.=.:.i.:.:.:.:.:.:.:.:.:.:.:.:.s.S.].5X5X1X1X<X1X1X1X1X1X<X<X<X<X<X<X<XtXqXrXrXeXeXeXeXeXeXeXuXuXuXuXuXuXuXuXuXuXuXkXkXkXkXkXkXkXuXkXkXkXkXkXkXuXeXeXuXzXcXcXcXcXcXnXnXnXnXnXnXnXnXnXnXnXnXnXnXnXnXnXnXnXnXnXnXcXcXcXcXcXcXcXcXvXvXvXcXcXcXcXcXvXvXvXvXvXvXvXvXnXnXnXnXvXvXvXvXvXvXvXvXcXvXxXzXeXrXqX4X1X,X`.(.(.V.V.V.V.(.(.(.(.(.'.'.'.'.'.'.'.'.'.'.'.'.",
"`.`.`.`.`.`.'._._.).(._.).(.(.(.(.(.(.(.(.(.(.(.(.(.`.`.`.'.'.`.`.'.'.'.`.`.'.'.`.`.'.'.'.`.`.`.`.`.).).(.(.}.qXzXbXbXbXvXvXvXvXcXcXcXcXxXxXxXxXxXzXzXzXzXzXzXzXzXzXzXzXzXzXxXxXxXxXxXxXxXxXbXcXcXcXvXcXvXvXvXvXvXNXCXCXCXCXCXAXCXCXAXAXAXAXAXAXAXCXCXCXCXNXvXvXvXvXvXcXcXcXcXcXvXvXcXcXvXvXvXvXvXvXvXvXvXvXvXvXvXvXcXcXcXcXcXcXvXvXvXvXvXvXvXvXvXvXvXvXvXvXNXNXvXvXNXvXvXvXvXvXvXvXvXvXcXcXcXcXvXvXvXvXvXvXzXbX(.1XzX(.*.b.CXz.6.#.V.).>.x.V.z.$.*.*.>.=.>.>.*.$.=.>.=.$.*.$.$.$.$.$.$.$.$.$.*.=.>.>.>.>.>.>.>.>.>.,.=.&.&.&.=.$.P P P #.$.#.$.#.P P ..#.P >.P P =.#.#.P $.U U &.>.>.s.s.s.s.s.s.a.a.a.a.a.a.a.d.d.d.d.d.d.d.d.d.d.d.d.d.d.d.d.d.d.d.d.a.a.d.d.a.a.a.a.d.d.a.a.a.a.a.a.a.a.a.a.s.s.s.s.s.s.s.s.s.s.s.s.i.i.i.i.i.i.i.i.%.%.%.%.=.%.=.%.=.=.i.i.i.i.:.:.=.:.:.:.:.:.:.:.=.=.:.:.:.:.:.=.:.=.:.:.:.:.:.:.z.(.'.5X5X1X1X<X1X1X1X1X1X1X<X<X<X<X<X<XqXwXrXrXeXeXeXeXeXeXeXuXuXuXuXuXuXuXuXuXuXuXkXkXkXkXkXkXuXuXuXuXkXkXkXkXkXuXeXeXuXzXcXcXcXcXnXnXnXnXnXnXnXnXnXnXnXnXnXnXnXnXnXnXnXnXnXnXcXcXcXcXcXcXcXcXcXvXcXcXcXcXcXcXvXvXvXvXvXvXvXvXnXnXnXnXvXvXvXvXvXvXvXvXcXcXvXzXkXeXqX4X<X,X'.).(.~.V.V.V.V.(.(.(.(.'.'.].'.'.'.'.'.'.'.'.'.",
"(.(.(.(.(.(.(.(.(.(.(.(.(.(.(.(.(.(.(.(.).).).).).).`.'.'.'.`.`.`.'.'.'.'.'.'.'.'.'.'.'.'.'.'.`.).(.(.~.~.(.'.qXgXbXbXbXvXvXvXvXbXbXcXcXxXxXxXxXxXzXzXzXzXzXzXzXzXzXzXzXzXzXxXxXxXxXxXxXxXxXcXcXvXvXvXvXvXvXNXNXNXNXCXCXCXCXCXAXAXAXAXAXAXAXAXAXAXCXCXCXCXNXvXcXcXvXvXvXvXvXcXcXvXvXvXvXvXvXvXvXvXvXvXvXvXvXvXvXvXvXvXvXvXvXcXcXvXvXvXvXvXvXvXvXvXvXvXvXvXvXNXNXvXNXNXvXcXcXcXcXvXvXvXvXcXcXcXcXvXvXvXvXvXvXvXzXqXNX,XrX(.,X<X(.V.=.2Xn.x.V.,Xx.~.b.=.>.=.>.>.*.$.=.=.*.$.$.$.$.$.$.=.=.$.*.=.:.>.>.>.>.>.>.>.>.>.>.:.:.=.=.=.:.&.$.U #.$.=.$.$.$.$.#.#.#.U $.U $.>.$.=.&.s.=.=.s.s.z.s.s.s.z.a.a.a.a.a.a.a.a.a.d.d.d.d.d.d.d.d.d.d.d.d.d.h.h.d.d.d.d.d.a.a.d.d.a.a.a.a.a.a.a.a.a.a.a.a.a.a.a.a.s.s.s.s.s.s.s.s.s.s.s.s.i.i.i.i.i.i.i.i.%.%.%.%.=.=.%.%.%.%.i.i.:.:.:.:.:.:.:.:.:.:.:.:.:.:.:.:.:.:.:.:.:.:.:.:.:.:.:.:.n._.5X5X5X1X1X<X1X1X1X1X1X1X<X<X<X<X2X2XqXrXrXrXrXeXeXeXeXeXeXuXuXuXuXuXuXuXuXuXuXuXkXkXkXkXkXkXkXuXkXkXkXkXkXkXkXkXuXeXuXuXzXcXcXcXnXnXnXnXnXnXnXnXnXnXnXnXnXnXnXnXnXnXnXnXnXnXnXnXnXnXnXnXnXnXnXnXnXnXvXvXvXvXnXnXnXnXvXvXvXvXnXnXnXnXvXvXvXvXvXvXvXvXvXcXvXcXzXfXrXqX4X1X5X`.(.(.V.V.V.V.(.(.(.(.(.].].'.'.'.].'.'.'.'.'.",
"~.~.~.~.~.~.(.(.(.(.(.(.(.(.(.(.(.(.(.(.).).).).).`.`.'.`.`.'.`.`.'.'.'.'.'.'.'.'.'.'.'.'.'.'.`.).(.~.V.V.~.'.qXzXbXbXbXvXvXvXvXbXbXcXcXxXxXxXxXxXzXzXzXzXzXzXzXzXzXzXzXzXzXxXxXxXxXxXxXxXxXcXcXvXvXvXvXvXvXNXNXNXNXCXCXCXCXCXAXAXAXAXAXAXAXAXCXCXCXCXCXCXNXvXcXcXvXvXvXvXvXvXcXvXvXvXvXvXvXvXvXvXvXvXvXvXvXvXvXvXvXvXvXvXvXvXcXvXvXvXvXvXvXvXvXvXvXvXvXvXvXNXNXNXNXNXvXcXcXcXcXcXvXvXvXcXcXcXcXbXvXvXvXvXvXzXvXvXcXvXNXcXrXvX(.,X'.cX(.C.n.rX(.(.n.$.#.=.$.=.6.$.*.=.$.$.$.$.$.$.*.=.,.>.>.>.>.>.>.>.>.>.>.>.:.>.:.:.=.=.:.=.=.=.=.:.:.:.=.$.=.=.>.=.&.&.:.s.&.>.z.:.s.s.s.c.s.z.a.a.a.s.s.a.a.a.a.a.a.a.a.a.a.d.d.d.d.d.d.d.d.a.a.d.d.a.a.a.a.a.a.a.a.a.a.d.d.a.a.a.a.a.a.a.a.a.a.a.a.s.s.s.s.s.s.s.s.s.s.s.s.s.i.i.i.i.i.:.:.i.=.=.%.%.%.%.%.=.=.%.%.%.%.=.=.:.:.:.:.:.:.:.:.:.:.:.:.:.:.:.:.:.:.:.:.:.:.:.:.:.:.:.:.S.].5X5X5X1X1X1X1X1X1X1X1X1X<X<X<X<XtXqXqXwXwXrXrXrXeXeXeXeXeXuXuXuXuXuXuXuXuXuXkXkXkXkXkXkXkXkXkXuXkXkXkXkXkXkXkXkXkXuXuXuXuXzXxXcXnXnXnXnXnXnXnXnXnXnXnXnXnXnXnXnXnXnXnXnXnXnXnXnXnXnXnXnXnXnXnXnXnXnXvXvXvXvXnXnXnXnXvXvXvXvXnXnXnXnXvXvXvXvXvXvXvXvXvXcXcXvXbXkXeXrXqX<X,X'.).(.(.V.V.V.V.(.(.(.(.(.(.].].].'.].'.'.'.'.",
"~.~.~.~.V.V.~.~.~.(.(.(.(.(.).).`.`.).(._._.`.`.`.`.].'.`.'.'.'.'.`.'.'.'.}.}.'.'.'.'.'.'.`.).(.~.C.x.x.C.(.,XeXbXbXbXbXvXvXvXbXbXcXcXbXxXxXxXzXzXzXzXzXzXzXzXzXzXzXzXzXzXxXxXxXxXxXbXbXvXvXvXvXcXcXvXvXNXNXNXNXNXNXCXCXCXCXAXAXAXAXAXAXAXAXAXCXCXCXCXCXCXNXvXvXvXcXvXcXvXvXvXvXcXcXcXvXvXvXvXvXvXvXvXvXvXvXvXvXvXvXvXvXvXvXvXcXvXvXvXvXvXvXvXvXvXvXvXvXNXNXNXNXvXvXnXvXvXcXcXcXvXvXvXcXvXvXcXcXvXvXvXvXvXvXvXvXvXvXvXvXvXvXvXvXzXAXAXzX'.<X1XeX`.'.C.=.>.$.$.x.$.=.>.*.$.*.*.$.*.=.,.>.>.>.>.>.>.>.>.>.>.>.>.:.:.:.=.=.:.:.:.:.:.:.:.:.:.:.=.:.:.s.s.:.:.s.s.i.s.s.s.s.a.a.a.a.a.a.a.a.a.a.a.a.a.a.a.a.a.a.a.a.d.d.d.d.d.d.d.d.d.d.d.d.d.d.a.d.a.a.a.a.d.d.d.d.a.a.a.a.a.a.a.a.a.a.a.a.s.s.s.s.s.s.p.p.s.s.s.i.i.i.i.i.i.:.:.:.i.=.=.=.=.=.=.=.=.=.=.=.=.=.=.=.:.:.:.:.:.:.:.=.:.:.:.:.=.=.=.=.:.:.:.:.:.:.:.:.:.:.:.x.].'.5X5X1X1X1X1X1X1X1X1X1X<X<X<X<X<X2XqXqXwXwXwXrXrXrXrXeXeXeXeXuXuXuXuXuXuXuXuXuXuXkXkXkXkXkXkXkXuXkXkXkXkXzXzXzXzXzXkXkXuXuXuXzXcXcXcXcXnXnXnXnXnXnXnXnXnXnXnXnXnXnXnXnXnXnXnXnXnXnXnXnXnXvXvXvXvXvXvXvXvXvXvXnXnXnXnXvXvXvXvXnXnXnXnXvXvXvXvXvXvXvXvXvXvXcXvXcXzXfXeXqX4X1X}.'.(.(.(.V.V.V.(.(.(.(.(.(.(.(.(.].'.].'.'.'.",
"~.~.~.V.V.V.V.~.~.(.(.(.).).`.`.`.`.`.`._._.`.`.`.`.'.'.'.'.`.`.'.'.'.'.}.}.}.}.}.}.'.'.).(.~.C.C.6.6.6.V.`.4XzXbXbXbXbXvXvXbXbXcXcXbXbXxXxXxXzXzXzXzXzXzXzXzXzXzXzXzXzXxXxXxXxXxXxXbXbXvXvXvXvXcXcXvXvXNXNXNXNXNXNXCXCXCXCXAXAXAXAXAXCXAXCXCXCXCXCXCXCXCXNXvXvXvXvXvXcXvXvXcXcXcXcXcXcXvXvXvXvXvXvXvXvXvXvXvXvXvXvXvXvXvXvXcXcXvXvXvXvXvXvXvXvXvXvXvXvXNXNXNXNXvXvXvXvXvXcXcXcXvXvXvXcXvXvXcXcXvXvXvXvXvXvXvXvXvXvXvXvXvXvXvXvXxXCXCXxXkXxXkXzX`.'.eXn.(.x.~.~.b.>.=.=.*.*.*.*.*.=.,.:.>.>.>.>.>.>.>.>.>.>.:.:.:.:.=.=.:.:.:.:.:.:.:.:.:.:.:.:.:.>.s.s.s.s.s.s.s.s.s.a.a.a.a.a.a.a.a.a.a.a.a.a.a.a.a.a.a.a.a.a.d.d.d.d.d.d.d.d.a.a.a.a.a.a.a.a.a.a.a.a.d.d.d.d.a.a.a.a.a.a.a.a.s.s.s.s.s.s.p.s.p.p.p.p.i.i.i.i.i.i.i.i.:.:.:.:.=.=.=.=.=.=.=.=.=.=.=.=.=.=.=.=.,.%.:.:.:.:.:.=.:.=.=.=.=.=.=.=.=.=.:.:.:.:.:.:.:.:.s.V.].5X5X,X1X1X1X1X1X1X1X1X1X1X<X<X<X<X2XqXwXwXwXwXwXwXrXrXrXrXeXeXuXuXuXuXuXuXuXuXuXuXkXkXkXkXkXkXkXuXkXkXkXkXzXzXzXzXzXzXzXzXkXuXuXzXcXcXcXcXcXnXnXnXnXnXnXnXnXnXnXnXnXnXnXnXnXnXnXnXnXnXnXnXnXnXvXvXvXvXvXvXvXvXnXnXnXnXvXvXvXvXnXnXnXnXvXvXvXvXvXvXvXvXvXvXcXcXvXbXkXeXrXqX4X1X}.`.(.(.V.V.V.(.(.(.(.(.(.(.(.(.(.].'.].'.'.",
"`.).(.(.~.~.~.~.(.(.(.(.).`.`.`.`.`.`.`.`.`.'.'.'.'.'.'.'.`.'.'.'.'.}.}.}.}.}.}.}.`.).)./.C.b.9.6.6.6.x.(.}.rXvXbXvXbXbXvXvXvXbXcXcXbXbXxXxXxXzXzXzXzXzXzXzXzXzXzXzXzXzXxXxXxXxXxXxXbXbXvXcXvXvXcXcXvXvXnXvXCXCXNXNXCXCXCXCXAXAXAXAXAXCXAXCXCXCXCXCXCXCXNXNXvXcXvXvXvXvXcXcXcXcXcXcXcXcXvXvXvXvXvXvXvXvXvXvXvXvXvXvXcXcXcXcXcXcXvXvXvXvXvXvXvXvXvXvXvXvXNXNXNXNXvXvXNXvXvXvXvXvXvXvXcXcXvXvXcXcXvXvXvXvXvXvXvXvXvXvXvXvXvXvXvXcXvXvXvXvXvXzXzXrX<X4XrX'.<X).,X}.(.x.>.&.*.*.*.*.*.=.=.>.>.>.>.>.>.>.>.:.:.=.=.=.:.:.:.:.:.:.:.:.:.:.:.:.:.:.i.i.i.:.i.i.s.s.s.s.a.a.a.a.a.a.a.a.a.a.a.a.a.a.a.a.a.a.a.a.a.a.a.a.d.d.d.d.a.a.a.a.a.a.a.a.a.a.a.a.a.a.a.a.a.a.a.a.a.a.a.a.s.s.s.s.s.s.s.s.s.p.i.i.p.p.i.i.i.i.i.i.i.i.i.i.:.:.:.:.=.=.=.=.=.=.=.=.=.=.=.=.=.=.=.=.,.,.:.:.:.:.:.:.:.=.:.:.=.=.=.=.=.=.:.:.:.:.:.:.:.:.x.].'.5X5X,X1X1X1X1X1X1X1X1X1X<X<X<X<X<XtXqXwXwXwXwXwXwXrXrXeXeXeXeXuXuXuXuXuXuXkXuXuXuXkXkXkXkXzXkXkXkXkXkXkXkXzXzXzXkXzXzXzXzXzXkXzXuXzXxXcXcXcXcXnXnXnXnXnXnXnXnXnXnXnXnXnXnXnXnXnXnXnXnXnXnXnXnXNXNXvXvXNXnXnXnXnXnXnXnXvXvXvXvXnXnXnXnXvXvXvXvXvXvXvXvXvXvXvXcXvXvXzXkXeXrXqX<X1X'.).(.(.V.V.V.(.(.(.(.(.(.(.(.(.(.].'.].].",
"1X}.'.).(.(.(.(.(.(.(.(.).).).).`.`.`.`.'.`.`.`.'.'.'.'.'.'.}.}.}.}.}.}.}.}.}.'.`.)./.~.b.x.6.;.>.;.6.b.).<XfXvXvXvXbXbXvXvXvXbXcXcXbXbXxXxXxXzXzXzXzXzXzXzXzXzXzXzXzXzXxXxXxXxXxXxXbXbXcXcXvXvXcXcXvXvXvXvXCXCXNXNXCXCXCXCXAXAXAXAXAXCXAXCXCXCXCXCXCXCXNXNXvXcXvXvXvXvXcXcXcXcXcXcXcXcXvXvXvXvXvXvXvXvXvXvXvXvXcXcXcXcXcXcXcXcXvXvXvXvXvXvXvXvXvXvXvXvXNXNXNXNXNXvXnXvXvXvXvXvXvXvXvXcXvXvXcXcXvXvXvXvXvXvXvXvXvXvXvXvXvXvXvXvXvXvXvXvXvXzXNXxXeXeXeXrXrX4X1X<X'.V.z.$.*.*.*.*.*.=.=.:.>.>.>.>.>.>.>.:.>.=.=.=.:.:.:.:.:.:.:.:.:.:.:.:.:.:.i.i.i.:.i.i.s.s.s.s.s.s.a.a.a.a.a.a.s.s.s.s.a.a.a.a.a.a.a.a.a.a.a.a.d.d.d.a.a.a.a.a.a.a.a.a.a.a.a.a.a.a.a.a.a.a.a.a.a.a.s.s.s.s.s.s.s.s.s.s.p.p.i.i.i.p.i.i.i.i.i.i.i.i.i.i.:.:.:.:.=.=.=.i.i.=.=.=.=.=.=.=.=.=.=.=.,.,.:.:.:.:.:.:.:.=.:.=.=.=.=.:.=.=.:.=.:.:.:.:.:.s.V.5X5X5X,X1X1X1X1X1X1X1X1X1X1X<X<X<X<X2XqXqXwXwXwXwXwXwXrXrXeXeXeXeXeXuXuXuXuXuXkXuXuXuXkXkXkXkXzXkXkXkXkXkXkXkXzXzXzXzXzXzXzXzXzXzXzXuXuXzXxXxXcXcXcXcXnXnXnXnXnXnXnXnXnXnXnXnXnXnXnXnXnXnXnXnXnXnXNXNXNXNXnXnXnXnXnXnXnXnXvXvXvXvXnXnXnXnXvXvXvXvXvXvXvXvXvXvXvXcXvXvXbXzXkXeXqX4X<X}.'.(.(.V.V.V.V.(.(.(.(.(.(.(.(.(.].].'.'.",
"<X1X,X5X`.(.(.(.(.(.(.).).'.`.`.'.`.`.'.'.'.'.'.'.'.'.'.'.}.}.}.}.'.'.}.}.'.).).~.C.b.9.6.6.;.;.*.*.6.~.`.4XzXvXvXvXvXvXvXvXbXbXbXbXbXbXxXxXxXxXzXzXzXzXzXzXzXzXzXzXxXxXxXxXcXcXbXbXcXcXvXvXvXvXvXvXvXvXvXvXNXNXNXCXCXCXCXCXCXAXAXAXAXAXCXCXCXCXCXCXCXCXNXvXcXcXcXvXvXvXvXvXcXvXcXcXvXvXvXvXvXvXvXvXvXvXvXvXvXvXvXvXvXvXcXcXcXcXcXcXvXvXvXvXvXvXvXvXvXvXvXvXvXNXNXNXvXvXvXvXvXvXvXvXvXvXcXcXcXvXvXvXvXvXvXvXvXvXvXvXvXvXvXvXvXvXvXvXvXvXcXvXvXcXzXeXeXrXwXqX<X1X5X(.x.>.=.*.*.*.=.=.=.,.>.>.>.>.>.>.>.>.=.=.=.=.>.>.:.:.:.:.:.:.:.:.:.i.i.i.:.:.:.:.i.i.s.s.s.s.s.s.s.s.s.s.s.s.s.s.s.s.s.s.a.a.a.a.a.a.a.a.a.a.a.a.a.a.a.a.a.a.a.a.a.a.a.a.a.a.a.a.a.a.a.a.a.a.a.a.a.a.s.s.s.s.s.s.s.s.s.s.i.i.s.s.i.i.i.i.i.i.i.:.:.:.:.:.:.:.=.=.=.=.=.=.=.=.=.=.=.=.=.=.=.=.:.:.:.:.:.:.:.:.=.=.=.=.=.=.=.=.:.:.:.:.=.=.=.=.s.n._.'.5X,X,X,X1X,X,X,X1X1X<X<X<X<X<X<X<X2XqXqXwXwXwXwXrXrXeXeXeXeXeXeXuXuXeXeXuXuXuXuXuXuXzXzXzXzXzXzXzXzXzXzXkXkXzXzXzXzXzXzXxXxXzXzXzXzXuXkXzXxXcXcXcXmXnXnXnXnXNXNXnXnXnXnXnXnXnXnXnXnXnXnXVXVXVXVXVXVXnXnXnXnXnXnXnXnXnXnXnXnXnXnXnXnXnXnXnXnXnXnXnXnXnXnXnXnXnXvXvXcXcXzXkXeXrXqX<X,X'.'.(.(.V.V.V.V.~.(.(.(.(.(.(.(.(.].'.].",
"4X4X1X,X}.'.'.'.`.`.`.`.`.`.`.`.'.'.'.'.'.'.'.'.'.'.'.}.}.}.}.}.}.}.'.'.`.).^.~.b.9.5.;.;.*.*.*.;.;.9./.}.rXbXvXvXvXvXvXvXvXbXbXbXbXbXbXxXxXxXxXzXzXzXzXzXzXzXzXzXzXxXxXxXxXcXcXbXbXcXcXvXvXvXvXvXvXvXvXvXvXNXNXNXCXCXCXCXCXCXAXAXAXAXAXCXCXCXCXCXCXCXCXNXvXcXcXcXvXvXvXvXvXvXvXcXcXvXvXvXvXvXvXvXvXvXvXvXvXvXvXvXvXvXvXcXcXcXcXcXcXvXvXvXvXvXvXvXvXvXvXvXvXNXNXNXNXvXvXvXvXvXvXvXvXvXvXcXcXcXcXvXvXvXvXvXvXvXvXvXvXvXvXvXvXvXvXvXvXvXvXcXvXvXcXzXuXeXrXwXqX2X<X1X'.V.z.=.*.*.*.=.=.=.=.=.=.=.>.>.>.>.>.:.=.:.:.>.>.:.:.:.:.:.:.:.:.:.:.i.s.:.i.:.:.i.i.s.s.s.s.a.s.s.s.s.s.s.s.s.s.s.s.s.s.a.a.a.a.a.a.a.a.a.a.a.a.a.a.a.a.a.a.a.a.a.a.a.a.a.a.a.a.a.a.a.a.a.a.a.a.s.s.s.s.s.s.s.s.s.s.i.s.i.i.s.s.i.i.i.i.i.i.i.:.:.:.:.:.:.:.=.=.=.=.=.=.=.=.=.=.=.=.=.=.=.=.:.:.:.:.:.:.:.:.:.=.=.=.=.=.=.=.:.:.:.:.=.=.:.=.x.S.].'.,X,X,X,X,X,X,X,X1X1X<X<X<X<X<X<X<XtXqXwXwXwXwXwXrXrXeXeXeXeXeXeXuXuXeXeXuXuXuXuXuXuXzXzXzXzXzXzXzXzXzXzXkXkXzXzXzXzXzXzXxXxXzXzXzXzXzXkXkXkXzXxXbXmXnXnXnXnXNXNXnXnXnXnXnXnXnXnXnXnXnXnXVXVXVXVXVXVXVXVXnXnXnXnXnXnXnXnXnXnXnXnXnXnXnXnXnXnXnXnXnXnXnXnXnXnXnXnXvXcXcXzXzXkXeXqX4X<X}.'.`.(.(.V.V.V.~.(.(.(.(.(.(.(.(.(.].].",
"rXqX4X<X1X1X,X}.'.'.'.'.'.'.'.'.'.'.}.}.}.5X,X,X,X,X}.}.}.}.}.}.'.`.).(.~.V.C.b.5.;.*.*.*.*.*.*.5.5.b.).<XfXbXvXvXvXvXvXvXvXbXbXbXbXbXbXxXxXxXxXzXzXzXzXxXxXxXxXxXxXxXxXxXxXcXcXbXcXcXcXvXvXcXvXvXvXvXvXvXvXNXNXNXCXCXCXCXCXCXAXAXAXAXAXCXCXCXCXCXCXCXCXNXvXcXcXcXcXcXcXcXcXvXvXcXcXvXvXvXvXvXvXvXvXvXvXvXvXvXvXvXvXvXvXcXcXcXcXvXvXvXvXvXvXvXvXvXvXvXvXvXvXvXvXvXvXvXvXvXvXvXvXvXvXvXvXcXcXcXcXcXcXvXvXvXvXvXvXvXvXvXvXvXvXvXvXvXnXnXvXvXcXvXvXcXzXeXeXrXwXqX<X<X5X(.x.>.=.=.=.=.=.=.=.=.=.=.=.>.>.>.:.:.:.:.:.:.:.:.:.:.:.:.:.:.:.:.:.s.s.i.i.:.:.:.i.i.i.s.s.s.s.s.s.s.s.s.s.s.s.s.s.a.a.a.a.a.a.a.a.s.s.a.a.a.a.a.a.a.a.a.a.a.a.a.a.a.a.a.a.a.a.a.a.a.a.s.s.s.s.s.s.s.s.s.i.i.i.i.i.i.i.i.i.i.i.i.i.i.i.:.:.:.:.:.:.:.:.:.:.=.=.=.:.i.i.i.i.=.=.=.=.=.=.=.=.:.:.:.:.:.:.:.:.=.=.%.%.=.=.=.=.:.:.:.:.>.:.>.>.n._.5X5X,X,X,X,X,X,X,X,X1X1X<X<X<X<X<X<X2XqXqXwXwXwXwXwXrXrXeXeXeXeXeXeXuXuXeXeXuXuXuXuXuXuXzXzXzXzXzXzXzXzXzXzXkXkXzXzXzXzXzXzXxXxXzXxXzXzXxXkXlXkXkXkXxXcXnXnXnXnXNXNXnXnXnXnXnXnXnXnXnXnXVXCXVXVXVXVXVXCXVXVXnXnXnXnXnXnXnXnXnXnXnXnXnXnXnXnXnXnXnXnXnXnXnXnXnXnXnXnXnXcXcXcXxXzXuXrXqX<X1X'.'.(.(.V.V.V.V.(.(.(.(.(.(.(.(.(.].].",
"eXrXrXqX4X<X<X1X1X1X,X,X5X}.}.}.}.}.|.}.}.,X,X,X,X,X}.|.|.}.}.}.`.(.~.~.b.9.6.;.*.*.*.*.*.+.*.*.5.6.C.}.rXzXbXvXvXvXvXvXvXvXbXvXcXbXbXbXxXxXxXxXzXzXzXzXxXxXxXxXxXxXxXxXxXxXbXbXcXcXcXcXvXvXcXcXvXvXvXvXvXvXNXNXNXCXCXCXCXCXCXAXAXAXAXAXCXCXCXCXCXCXCXCXCXvXcXcXcXcXcXcXcXcXvXvXcXcXvXvXvXvXvXvXvXvXvXvXvXvXvXvXvXvXvXvXvXcXcXcXvXvXvXvXvXvXvXvXvXvXvXvXvXvXvXvXvXvXvXvXvXvXvXvXvXvXvXvXcXcXcXcXcXcXcXcXvXvXvXvXvXvXvXvXvXvXvXvXvXnXnXvXvXcXvXvXcXzXeXeXrXwXqX2X<X1X].V.z.=.=.=.=.=.=.=.=.=.=.=.=.>.:.:.:.:.:.:.:.:.:.:.:.:.:.:.:.:.:.:.s.s.i.i.:.:.i.i.i.i.s.s.s.s.s.s.s.s.s.s.s.s.s.s.a.a.a.a.a.a.a.s.s.s.s.s.a.a.a.a.a.a.a.a.a.a.a.a.a.a.a.a.a.s.s.s.s.s.s.s.s.s.s.s.s.s.s.i.i.i.i.i.i.i.i.i.i.i.i.i.i.i.:.:.:.:.:.:.=.:.:.:.=.=.=.:.i.i.i.i.=.=.=.=.=.=.=.=.:.:.:.:.:.:.:.:.=.%.%.%.=.=.=.=.:.:.:.:.:.>.>.>.(.'.5X5X,X,X,X,X,X,X,X,X1X1X<X<X<X<X<X<XtXqXqXqXwXwXwXwXrXrXeXeXeXeXeXeXuXuXuXuXuXuXuXuXuXuXzXzXzXzXzXuXuXuXuXuXkXkXzXzXzXzXxXxXzXzXzXzXzXzXxXxXxXzXkXkXkXxXcXnXnXNXNXNXnXnXnXnXnXnXnXnXnXnXVXVXVXVXVXVXCXCXVXVXnXnXnXnXnXnXnXnXnXnXnXnXnXnXnXnXnXnXnXnXnXnXnXnXnXnXnXnXnXvXcXcXcXzXkXeXwX2X<X}.'.'.(.(.V.V.V.~.(.(.(.(.(.(.(.].].].",
"rXrXrXrXqX4X4X4X<X<X<X1X1X,X,X,X,X,X,X,X,X,X,X,X,X,X}.}.}.'.).(.~.C.b.9.>.*.*.+.X.X.X.X.+.*.*.*.;.9./.|.fXbXbXvXbXbXbXbXvXvXcXbXcXcXcXcXxXxXxXxXxXxXxXxXxXxXxXxXxXxXxXxXbXbXcXcXcXcXvXvXcXcXvXvXvXvXvXvXNXNXNXNXNXNXCXCXCXCXCXCXCXCXCXCXCXCXCXCXNXNXNXNXNXvXvXcXcXcXvXvXvXvXcXcXcXcXvXvXvXvXvXvXvXvXvXvXvXvXvXvXvXvXvXvXvXvXvXvXcXcXvXvXvXvXvXvXvXvXvXvXvXvXnXnXvXvXvXvXvXvXvXvXvXvXvXvXvXcXvXvXcXcXvXvXvXvXvXvXvXvXvXvXvXvXvXvXnXnXnXnXvXcXcXcXxXxXzXuXeXeXwXqX<X1X,X_.V.:.$.=.=.=.=.=.=.=.=.=.=.:.:.:.>.>.>.:.>.>.>.>.:.:.:.:.:.:.:.:.>.>.i.:.:.:.i.:.i.s.s.s.s.a.a.a.a.a.a.a.a.a.a.a.s.s.s.s.s.s.s.s.s.s.s.s.s.a.a.a.a.a.a.a.a.a.a.a.s.s.s.s.s.s.s.s.s.s.s.s.s.s.s.s.s.s.i.i.i.i.i.i.i.i.i.i.i.i.i.i.i.i.:.:.:.:.i.i.=.=.=.=.i.i.i.:.:.:.:.:.=.=.=.=.=.=.=.=.:.=.=.:.:.=.=.=.=.=.=.=.=.=.=.=.:.=.=.:.>.:.s.V._.'.5X5X,X5X5X5X,X,X,X,X1X1X1X1X<X<X<X2XqXqXqXqXwXwXwXeXrXrXeXeXeXeXeXeXuXuXuXuXuXuXuXuXuXuXuXuXuXuXuXuXuXuXuXuXuXkXzXzXzXxXxXxXzXzXxXxXxXxXxXxXxXxXlXkXkXzXxXcXnXnXNXNXnXnXnXnXnXnXnXnXnXnXVXVXVXVXVXVXVXVXCXCXVXnXnXnXnXnXnXnXnXnXnXnXnXnXnXnXnXnXvXvXnXnXnXnXnXnXnXnXnXnXvXcXcXxXzXeXrXqX<X1X'.'.].(.V.V.V.V.~./.(.(.(.(.(.].].`.",
"4XqXrXrXqX4X4X4X<X<X<X<X<X1X1X,X,X,X,X,X,X5X}.}.}.}.'.`.).~.V.b.x.6.;.*.*.*.+.+.X.X.X.X.+.*.*.*.6.b.).3XfXbXbXvXbXbXbXbXvXvXcXbXcXcXcXcXxXxXxXxXxXxXxXxXxXxXxXxXxXxXxXxXbXxXcXcXcXcXvXvXcXcXvXvXvXvXvXvXNXNXNXNXNXNXCXCXCXCXCXCXCXCXCXCXCXCXCXCXNXNXNXNXNXvXvXcXbXcXcXvXvXvXcXcXcXvXvXvXvXvXvXvXvXvXvXvXvXvXvXvXvXvXvXvXvXvXvXvXcXcXvXvXvXvXvXvXvXvXvXvXvXvXNXNXvXvXvXvXvXvXvXvXvXvXvXvXvXcXvXvXcXcXvXvXvXvXvXvXvXvXvXvXvXvXvXvXnXnXnXnXvXcXcXcXcXxXzXuXeXeXwXqX2X<X1X'.(.x.:.=.=.=.=.=.=.=.=.=.=.>.:.:.>.>.>.>.>.>.>.>.:.:.:.:.:.:.:.:.:.:.:.:.:.:.i.i.i.s.s.s.s.a.a.a.a.a.a.a.a.a.a.a.s.s.s.s.s.s.s.s.s.s.s.s.s.s.s.s.s.s.s.s.s.s.s.s.s.s.s.s.s.s.s.s.s.p.s.s.i.s.s.s.i.i.i.i.i.i.i.i.i.i.i.i.i.i.i.i.i.i.:.:.:.:.:.i.=.=.:.=.i.i.i.i.=.:.:.:.=.=.i.i.=.=.=.=.=.=.=.=.=.=.:.:.=.=.=.=.=.=.=.=.=.=.=.=.>.s.n.(.'.5X5X5X5X5X5X5X,X,X,X,X1X1X1X1X<X<X<XqXqXqXqXqXwXwXeXeXrXrXeXeXeXeXeXeXuXuXuXuXuXuXuXuXuXuXuXuXuXuXuXuXuXuXuXuXuXuXzXzXzXzXxXxXzXzXxXxXxXxXxXxXxXxXxXlXkXkXzXxXcXnXnXNXnXnXnXnXnXnXnXnXnXnXVXVXVXVXVXVXVXVXCXCXnXnXnXnXnXnXnXnXnXnXnXnXnXnXnXnXnXnXvXvXnXnXnXnXnXnXnXnXnXnXvXcXcXcXzXkXeXqX4X1X,X'.].(.(.V.V.V.~.~.~./.(.(.(.(.].`.",
"4X4XqXqX4X4X4X4X3X<X<X<X<X<X<X1X,X,X,X,X,X}.'.`.`.)./.~.C.x.6.>.*.*.X.X.X.X.X.X.X.X.+.+.X.+.*.*.6./.}.dXbXMXnXvXvXvXvXvXvXvXcXcXcXcXcXcXxXxXxXxXxXxXxXxXxXxXxXxXxXxXxXxXxXxXcXcXcXcXvXvXcXcXvXvXvXvXvXvXNXNXCXCXCXCXCXCXCXCXCXCXCXCXCXCXCXCXCXCXCXNXNXNXNXvXvXcXcXcXcXcXvXvXcXcXvXvXvXvXvXvXvXvXvXvXvXvXvXvXvXvXvXvXvXvXcXcXvXvXcXcXvXvXvXvXvXvXvXvXvXvXvXvXNXNXvXNXvXvXvXvXvXvXvXvXvXvXvXvXcXvXcXcXcXvXvXvXvXvXvXvXvXvXvXvXvXvXnXCXCXnXnXnXvXvXcXxXxXzXuXeXrXwX2X2X<X1X'.V.z.=.=.=.=.=.=.=.=.=.=.=.>.>.>.>.>.>.>.>.>.>.:.:.:.:.:.:.:.:.:.=.:.:.:.:.:.i.s.s.s.s.a.a.a.a.a.a.a.a.a.a.a.a.s.s.s.s.s.s.s.s.s.s.s.s.s.s.s.s.s.s.s.s.s.s.s.s.s.s.s.s.s.s.s.s.p.i.i.s.i.i.i.i.i.i.i.i.s.i.i.i.i.i.i.i.i.i.i.i.i.i.i.:.:.:.i.i.i.i.:.:.:.:.=.=.=.=.i.:.=.=.:.:.:.:.:.:.=.=.=.=.:.:.:.:.:.:.=.=.=.=.=.=.:.:.>.>.>.n.(._.5X5X5X5X5X,X,X,X,X,X,X1X1X1X1X1X<X<XqXqXqXqXqXqXwXwXrXrXrXrXeXeXeXeXeXeXuXuXuXeXuXuXuXuXuXuXuXuXzXzXuXuXuXuXuXuXuXkXzXzXzXzXzXzXzXzXxXxXcXcXcXcXcXbXxXxXlXkXkXlXxXcXvXnXnXnXnXnXnXnXnXnXnXnXVXVXVXVXVXVXVXVXVXVXCXVXVXVXnXnXnXnXnXnXnXnXnXnXnXnXnXnXvXvXnXnXnXnXnXnXnXnXnXnXnXcXvXvXxXzXeXrXqX<X1X}.'.].(.V.V.V.V.V.V.~.(.(.(.(.].`.",
"1X<X4X4X4X4X4X4X4X<X<X<X<X<X1X,X,X,X,X,X,X}.'.).~.~.b.9.6.;.*.X.X.X.X.X.X.X.X.X.X.X.+.+.X.+.+.*.b.).|.fXbXbXbXbXvXvXvXbXcXcXcXcXbXcXcXcXxXxXxXxXxXxXxXxXxXxXxXxXxXxXxXxXxXxXcXcXcXcXvXvXcXcXvXvXvXvXvXvXNXNXNXCXCXCXCXCXCXCXCXCXCXCXCXCXCXCXCXCXCXNXNXNXvXvXvXcXcXcXcXcXvXvXcXcXvXvXvXvXvXvXvXvXvXvXvXvXvXvXvXvXvXvXvXvXcXcXcXcXcXcXvXvXvXvXvXvXvXvXvXvXvXvXNXNXNXNXvXvXvXvXvXvXvXvXvXvXcXcXcXcXcXcXvXvXvXvXvXvXvXvXvXvXvXvXvXvXvXnXVXVXnXnXvXcXcXcXxXzXuXeXeXwXqX2X2X<X,X_.V.>.=.=.=.=.=.=.*.*.=.=.=.>.>.>.>.>.>.>.>.>.:.:.:.:.:.:.:.=.=.%.=.=.:.:.:.i.s.s.s.s.a.a.a.a.a.a.a.a.a.a.a.a.s.s.s.s.s.s.s.s.s.s.s.s.s.s.s.s.s.s.s.s.s.s.s.s.s.s.s.s.s.s.s.s.i.i.p.s.i.i.s.i.i.i.i.i.i.i.i.i.i.s.i.i.i.i.i.i.i.i.i.i.:.:.i.i.i.i.i.:.:.:.:.=.=.=.i.i.=.=.:.:.:.:.:.:.=.=.=.=.:.:.:.:.:.:.:.=.=.=.=.=.:.:.:.:.x.(.].5X5X5X5X5X,X,X,X,X,X,X,X,X1X1X1X1X<X<XqXqXqXqXqXqXwXrXrXrXrXrXeXeXeXeXeXeXuXuXuXeXuXuXuXuXuXuXuXuXuXuXuXuXuXuXuXuXuXkXzXzXzXzXzXzXzXzXxXxXcXcXcXcXcXcXcXxXxXlXkXkXlXxXcXvXnXnXnXnXnXnXnXnXnXnXVXVXVXVXVXVXVXVXVXVXVXVXVXVXnXnXnXnXnXnXnXnXnXnXnXnXvXvXvXvXnXnXnXnXnXnXnXnXnXnXnXcXvXvXcXxXkXeXqX4X<X,X'.].(.~.V.V.V.V.V.V.~.(.(.(.(.`.",
"1X1X<X<X<X<X<X<X<X1X1X1X1X,X,X|.|.}.'.'.`.(./.C.b.9.5.*.*.+.X.X.X.X.X.X.X.X.X.X.X.X.X.+.+.+.*.*.C.`.3XBXbXbXbXvXcXcXcXcXcXcXcXcXxXxXxXxXxXxXxXxXxXxXxXxXbXbXcXcXxXxXxXxXbXbXvXvXcXcXvXvXvXvXvXvXvXvXNXNXCXCXCXCXCXCXCXCXCXCXCXCXCXCXCXCXCXCXCXNXCXNXNXvXvXvXcXvXcXcXcXcXvXvXvXvXvXvXvXvXvXvXvXvXvXvXvXvXvXvXvXvXvXvXvXvXcXcXcXcXvXvXvXvXvXvXvXvXvXvXvXvXvXvXNXNXNXNXNXvXvXvXvXvXvXvXvXvXvXcXcXcXcXcXcXcXvXvXvXvXvXvXvXvXvXcXvXvXcXvXVXCXNXnXvXcXvXvXcXxXkXuXuXrXqX2X2X<X5X'.(.s.>.:.=.*.*.=.=.*.=.=.=.>.>.>.>.>.>.>.>.>.:.:.:.:.:.:.:.=.=.%.%.%.=.:.:.i.s.s.a.a.a.a.a.a.a.a.a.a.a.a.a.a.a.a.a.a.s.s.s.s.s.s.s.s.s.s.s.s.s.s.s.s.s.s.s.s.s.s.s.s.s.s.s.s.s.s.s.s.s.s.p.s.p.p.p.p.s.s.s.s.s.s.s.i.i.i.i.i.i.i.i.i.:.i.i.:.:.:.:.:.i.i.:.:.=.=.:.:.:.:.:.:.:.:.=.=.=.=.%.%.=.=.=.=.=.=.=.=.=.=.=.=.:.:.>.x.V._.'.'.5X5X5X5X,X,X,X,X,X,X,X1X1X1X<X<X<X2XqXqXqXqXqXwXwXrXrXrXeXeXeXeXeXeXeXeXuXuXuXuXuXuXeXeXuXuXuXuXuXuXuXuXuXuXuXuXkXkXzXzXxXxXxXxXxXxXcXxXxXxXcXcXcXcXcXcXcXxXzXkXkXzXzXcXcXnXnXnXnXnXnXnXnXnXnXnXnXnXCXCXCXCXCXCXCXCXVXVXVXVXVXvXnXvXvXvXnXnXnXnXvXvXvXvXnXnXnXnXnXnXcXcXnXnXcXcXvXvXvXcXzXeXrXqX<X1X}.'.`.(.~.V.V.V.V.V.~.(.(.(.(.).",
"5X5X,X1X<X<X4X<X<X<X<X<X,X|.}.}.}.'.`.).(.C.b.9.5.*.X.X.X.X.X.X.X.X.X.X.X.X.X.X.X.X.X.X.*.+.*.;.~.}.0XbXbXbXbXbXcXcXcXcXcXcXcXcXxXxXxXxXxXxXxXxXxXxXxXxXbXbXbXbXxXxXxXxXbXbXvXvXcXcXvXvXvXvXvXvXvXvXNXNXCXCXCXCXCXCXCXCXCXCXCXCXCXCXCXCXCXCXCXNXNXNXNXvXvXcXcXvXcXcXcXcXvXvXvXvXvXvXcXcXvXvXvXvXvXvXvXvXvXvXvXvXvXvXvXvXcXcXcXcXvXvXvXvXvXvXvXvXvXvXvXvXvXvXNXNXNXNXNXvXvXvXvXvXvXvXvXvXvXcXcXcXcXcXcXcXvXvXvXvXvXvXvXvXvXcXcXcXvXvXVXCXCXnXvXcXcXvXcXcXxXuXuXeXwXqX2X2X1X,X_.n.>.>.*.*.*.*.=.=.=.=.=.=.=.:.>.>.>.>.>.>.:.:.:.:.:.:.:.:.=.=.=.=.:.:.s.s.s.a.a.a.a.a.a.a.a.a.a.a.a.a.a.a.a.a.a.a.a.a.s.s.s.s.s.s.s.s.s.s.s.s.s.s.s.s.s.s.s.s.s.s.s.s.s.s.s.s.s.s.s.s.s.s.p.s.p.p.s.s.s.s.s.s.s.i.i.i.i.i.i.i.i.i.i.i.i.i.:.:.:.:.i.i.:.:.=.=.:.:.:.:.:.:.:.:.=.=.=.=.%.%.=.=.=.=.=.=.=.=.=.=.=.=.=.:.z.V._.'.5X5X5X5X5X5X,X,X,X,X,X,X1X1X1X1X<X<X4XqXqXqXqXqXwXrXwXrXrXrXeXeXeXeXeXeXeXeXuXuXuXuXuXuXeXeXuXuXuXuXuXuXuXuXuXuXuXuXkXkXzXzXxXxXxXxXxXxXcXxXcXcXcXcXcXcXcXcXcXxXzXzXkXkXzXzXxXcXnXnXnXnXnXnXnXnXnXnXnXnXCXCXCXCXCXCXCXCXVXCXVXVXVXvXnXvXvXvXvXvXvXvXvXvXvXvXnXnXnXnXnXnXnXnXnXnXcXcXvXvXcXvXxXzXeXqXqX<X,X'.'.(.(.V.V.C.V.V.~.~.(.(.(.(.",
"}.}.}.,X1X1X,X,X,X|.|.|.|.}.}.{.`.)./.~.b.9.;.;.X.X..... . .X.X.X.X.X.X.X.X.X.X.O.O.X.X.*.*.*.9.).|.fXbXbXbXbXbXcXcXcXcXcXxXxXxXxXxXxXxXxXxXxXxXxXxXxXxXbXbXbXbXxXxXxXxXbXbXvXvXcXcXvXvXvXcXvXvXvXvXNXNXNXNXCXCXCXCXCXCXCXCXCXCXCXCXCXCXCXCXCXNXNXNXNXvXvXcXvXvXvXvXcXcXcXvXvXvXcXcXcXcXvXvXvXvXvXvXvXvXvXvXvXvXvXvXvXvXcXcXcXcXvXvXvXvXvXvXvXvXvXvXvXvXvXvXNXNXvXvXNXvXvXvXvXvXvXvXvXvXcXcXvXvXcXcXcXcXvXvXvXvXvXvXvXvXvXcXcXxXvXvXVXCXCXNXnXcXcXnXvXcXxXkXuXuXrXqX4X4XqX<X'.(.x.>.=.$.=.=.=.=.=.=.=.=.=.=.:.>.>.>.>.>.:.:.i.:.:.:.>.:.i.:.:.:.i.i.s.s.a.a.a.a.a.a.a.a.c.c.c.a.a.a.a.a.a.a.a.a.a.a.s.s.s.s.s.s.s.s.s.s.s.s.s.s.s.s.s.s.s.s.s.s.s.s.s.s.s.s.s.s.s.s.s.s.s.s.s.s.s.s.s.s.s.s.s.s.i.i.i.i.i.i.i.i.i.i.i.i.:.:.:.:.i.i.:.:.=.=.:.:.:.:.:.:.:.:.=.=.=.=.%.=.=.=.=.=.=.:.:.:.:.:.:.:.=.s.V.(.'.5X5X5X5X5X,X,X,X,X,X,X,X1X1X1X1X<X<X4XqXqXqXqXqXqXrXrXrXrXrXrXeXeXeXeXuXuXuXuXuXuXuXuXuXuXuXuXuXuXuXuXuXuXuXuXuXuXuXuXkXkXzXzXxXxXxXxXxXxXcXcXcXcXcXcXcXcXmXmXnXcXxXzXzXkXzXzXzXxXcXvXnXnXnXnXnXnXnXnXnXnXCXCXCXCXCXCXCXCXCXCXVXVXVXvXnXvXvXvXvXvXvXvXvXvXvXvXnXnXnXnXnXnXnXnXnXnXcXcXcXcXvXvXcXzXeXrXqX<X1X}.'.`.(.~.V.V.V.V.V.~.~./.(.(.",
"}.}.}.}.}.'.'.'.'.'.'.'.{.`.`.)./.C.b.9.5.*.+........... . . . .X.X.X.X.X.X.X.X.O.O.X.X.*.*.;.x.`.3XfXzXbXbXbXbXcXcXcXcXcXxXxXxXxXxXxXxXxXxXxXxXxXxXxXxXbXbXbXbXxXxXxXxXbXbXcXvXcXvXvXvXcXcXvXvXvXvXNXNXNXNXCXCXCXCXCXCXCXCXCXCXCXCXCXCXCXCXCXNXCXNXNXvXvXcXvXvXvXvXcXcXcXcXvXvXcXcXvXvXvXvXvXvXvXvXvXvXvXvXvXvXvXvXvXvXvXcXcXcXvXvXvXvXvXvXvXvXvXvXvXvXvXvXNXNXvXvXvXvXvXvXvXvXvXvXvXvXcXcXvXvXvXvXcXcXvXvXvXvXvXvXvXvXvXvXxXxXxXvXVXCXCXnXnXcXcXvXvXcXbXxXuXuXeXwXqX4XrX2X,X'.V.>.=.$.=.=.=.=.=.=.=.=.=.=.>.>.>.>.>.>.>.>.s.:.:.s.s.>.s.i.i.i.i.s.s.s.a.a.a.x.a.a.c.c.c.c.c.c.a.a.a.a.a.a.a.a.a.a.s.s.s.s.s.s.s.s.s.s.s.s.s.s.s.s.s.s.s.s.s.s.s.s.s.s.s.s.s.s.s.s.s.s.s.s.s.s.i.s.s.s.s.s.s.s.s.s.i.i.i.i.i.i.i.i.i.i.i.:.:.:.i.i.=.=.=.=.=.=.=.=.=.=.=.=.=.=.=.=.=.=.=.=.=.=.=.:.:.=.:.:.:.:.s.V.(.].5X5X5X5X5X5X,X,X,X,X,X,X1X1X1X1X<X<X4XqXqXqXqXqXqXqXrXrXrXrXeXeXeXeXuXeXuXuXuXuXuXuXuXuXuXuXuXuXuXuXuXuXuXuXuXuXuXuXuXuXkXkXzXzXxXxXxXxXxXxXxXcXcXcXcXcXcXcXcXcXcXcXcXxXzXzXzXzXzXzXxXcXnXnXnXnXnXnXnXnXnXnXVXVXCXCXCXCXCXCXCXCXVXVXVXvXnXvXvXvXvXvXvXvXvXvXvXvXnXnXnXnXnXnXnXmXnXnXcXcXcXcXvXcXvXxXzXeXqXqX<X,X'.'.(.~.V.C.V.V.C.~.~.~.~./.",
"'.`.).).).(.~.~.~.~.~./././.!.C.b.6.;.*.*.+... . . . . . . . . . . .X.X. . .X.X.X.X.X.X.*.*.5.C.`.0XgXbXbXbXbXbXcXcXcXcXcXcXxXxXxXxXzXzXzXzXzXzXxXxXxXxXxXxXxXxXbXbXxXxXcXcXcXcXvXvXcXcXvXvXvXvXvXvXNXNXNXCXCXCXCXCXCXCXCXCXNXNXCXCXCXCXNXNXNXNXNXvXvXvXvXvXvXvXcXcXcXcXvXvXvXvXcXcXvXvXvXvXvXvXvXvXvXvXvXvXvXvXvXvXvXvXvXvXvXvXvXvXvXvXvXvXvXvXvXvXvXvXvXvXNXNXvXvXNXvXvXvXvXvXvXvXvXvXcXcXcXvXvXvXvXvXvXvXvXvXvXvXvXvXcXvXxXxXxXcXnXVXNXNXnXnXcXnXnXnXcXxXkXuXuXrXwX4XwX4X1X5X_.V.>.$.=.=.=.=.=.=.=.*.*.=.=.>.>.>.>.>.s.>.>.>.>.>.s.>.s.s.s.s.s.s.s.s.a.a.a.a.a.a.c.c.d.d.d.d.d.a.a.a.a.a.a.a.a.a.a.a.a.a.a.s.s.s.s.s.s.s.s.s.s.s.s.p.i.i.i.s.p.p.p.p.s.s.s.s.s.s.s.s.s.s.s.s.s.i.s.s.s.s.i.s.s.s.s.s.i.i.i.i.i.i.i.i.i.i.=.=.=.=.=.=.=.=.:.:.=.=.=.=.=.=.=.=.=.=.=.%.=.=.=.=.=.=.:.=.=.:.:.>.V.(.].'.5X5X5X5X,X,X,X,X,X,X1X1X1X1X1X<X<X2XqXqXqXqXqXqXwXwXrXrXrXrXeXeXeXeXeXeXeXeXeXeXuXuXeXuXuXuXuXuXuXuXuXuXuXuXuXuXuXuXuXzXkXkXkXzXxXxXxXxXxXxXxXcXcXxXcXcXcXcXcXcXcXcXcXxXzXzXzXzXzXzXxXcXnXnXnXnXnXNXnXnXnXnXnXnXCXCXVXCXCXCXCXVXVXnXnXnXvXvXvXnXnXnXnXnXnXnXnXnXnXnXnXnXnXnXnXnXnXnXnXnXcXcXcXvXcXvXzXuXrXqX4X1X}.'.).(.V.C.C.C.C.C.C.V.~.~.",
"`.).).(.~.!.b.b.9.9.9.8.8.8.6.6.;.*.X.X.X. . . . . . . . . . . . . .X. . . . . .X.X.X.X.*.*.6.!.}.fXbXzXbXbXbXbXcXcXcXcXcXcXxXxXxXxXzXzXzXzXzXzXxXxXxXxXxXxXxXxXcXxXxXbXcXcXvXvXvXvXcXcXvXvXvXvXvXvXNXNXNXNXCXCXCXCXCXNXCXCXCXNXCXCXCXCXNXNXNXNXNXvXvXvXvXvXvXvXcXcXcXcXvXvXvXvXcXcXvXvXvXvXvXvXvXvXvXvXvXvXvXvXvXvXvXvXvXvXvXvXvXvXvXvXvXvXvXvXvXvXvXvXvXvXNXNXvXvXNXvXvXvXvXvXvXvXvXvXcXcXcXcXvXvXvXvXvXvXvXvXvXvXvXvXcXcXxXzXzXxXcXnXNXNXNXNXnXcXnXnXcXcXxXkXuXeXwXwXqXqX2X,X'.(.x.:.=.=.=.=.=.=.=.$.*.=.=.=.>.>.>.z.z.>.>.>.>.>.s.s.s.s.s.s.s.a.s.a.a.a.a.a.a.a.c.c.d.d.d.d.d.d.d.d.a.a.a.a.a.a.a.a.a.a.a.s.s.s.s.s.s.s.s.s.s.s.s.p.i.i.i.s.p.p.s.p.s.s.s.s.s.s.s.s.s.s.s.s.s.i.s.s.i.s.i.i.s.s.s.s.i.i.i.i.i.i.i.i.i.i.=.=.=.=.=.=.=.=.=.=.%.%.=.=.=.=.=.=.=.=.%.%.=.=.=.=.=.=.:.:.:.&.>.x.(.].'.'.5X5X,X,X,X,X,X,X,X,X1X1X1X1X<X<X<X4XqXqXqXqXqXwXwXwXrXrXrXrXrXeXeXeXeXeXeXeXeXeXuXeXuXeXuXuXuXuXuXuXuXuXuXuXuXuXuXuXuXzXkXkXkXzXxXxXxXxXxXxXxXxXcXxXxXxXbXcXcXcXxXxXxXzXzXzXzXzXzXzXzXvXcXnXnXnXnXnXnXnXnXnXnXnXVXVXVXVXCXCXCXVXVXnXnXnXvXvXvXvXnXnXnXnXnXnXnXnXnXnXnXnXnXnXnXnXnXnXnXnXcXvXvXvXcXvXzXzXeXrXqX<X,X'.`.(.~.V.C.x.b.b.b.C.C.~.",
").)./.!.b.9.6.;.*.*.*.+.+.+.+.X.X. ......... . . . . . . . . . . . . . . . . . .X.X.X.X.*.*.9./.3XfXMXbXbXbXbXbXcXxXxXxXcXcXxXxXzXzXzXzXzXzXzXzXxXxXxXxXxXxXxXxXcXcXcXcXcXcXvXvXcXcXvXvXvXvXvXvXNXNXCXCXCXCXCXCXCXCXCXCXCXCXNXNXCXCXCXCXNXNXNXNXNXvXvXcXvXcXvXvXcXcXcXcXvXvXvXvXcXvXvXvXvXvXvXvXvXvXvXvXcXcXcXcXvXvXcXcXcXcXvXvXvXvXvXvXvXvXvXvXvXvXvXvXvXvXnXnXvXvXNXvXvXvXvXvXvXcXcXcXcXvXvXcXcXcXvXcXvXvXvXvXvXvXvXvXcXvXxXzXzXzXxXcXnXnXNXnXnXcXnXnXnXcXxXkXuXuXrXwX4XwXqX1X1X'.V.s.=.=.=.=.=.=.=.$.=.*.=.=.>.>.6.z.z.s.>.>.>.>.s.s.s.s.a.a.a.a.a.a.x.x.a.a.a.a.c.c.c.c.c.c.c.c.c.c.d.d.a.a.a.a.a.a.a.a.a.a.a.s.s.s.s.s.s.s.s.s.s.s.i.i.s.s.s.s.s.s.s.s.s.s.s.s.s.s.s.s.s.s.s.i.s.s.s.i.i.i.i.i.s.i.i.i.i.:.i.i.i.i.=.=.=.=.=.=.%.%.=.=.=.=.=.=.=.=.=.=.=.=.=.=.=.%.=.=.:.=.=.=.>.:.:.>.x.(.].'.'.5X5X5X,X,X,X,X,X,X1X1X1X1X1X1X<X<X2X4XqXqXqXqXqXwXeXeXeXeXrXrXeXeXeXeXeXeXeXeXeXeXuXuXuXuXuXuXuXuXuXuXuXuXuXuXuXuXuXuXuXzXkXzXkXzXxXxXxXxXxXxXxXxXxXxXxXxXbXbXcXxXxXxXzXxXzXzXzXzXzXzXzXxXcXcXcXcXvXcXnXnXnXnXnXnXVXVXVXVXVXVXVXnXnXvXvXvXvXvXvXvXnXnXnXnXnXnXnXnXnXnXnXnXnXnXnXnXnXnXnXnXvXvXcXcXvXvXbXzXeXrXqX<X1X5X'.).(.V.C.b.9.9.9.9.b.b.",
")./.!.b.6.;.*.X.X.X.X. . . . . . . . . ..... . . . . . . . . . . . . . . . . . .X.X.X.X.*.*.b.).3XgXMXbXbXbXbXbXcXxXxXxXcXcXxXxXzXzXzXzXzXzXzXzXxXxXxXxXxXxXxXxXcXcXcXcXcXcXvXvXcXcXvXvXvXvXvXvXNXNXCXCXCXCXCXCXCXCXCXCXCXCXNXNXNXCXCXCXNXNXNXNXvXvXvXcXvXcXvXvXcXcXcXcXvXvXvXvXcXvXvXvXvXvXvXvXvXvXvXvXcXcXcXcXcXvXcXcXcXcXcXcXvXvXvXvXvXvXvXvXvXvXvXvXvXvXnXnXNXNXNXvXvXvXvXvXvXcXcXcXcXvXcXcXcXcXcXcXvXvXvXvXvXvXvXvXcXcXxXzXzXzXxXxXcXnXNXNXNXnXcXnXnXcXcXxXkXuXeXwXqXqXqX2X<X,X_.n.>.=.=.=.=.=.=.$.=.*.=.=.>.>.6.z.z.s.>.>.>.>.s.s.s.s.z.z.x.x.x.x.c.a.a.a.a.a.c.c.c.c.c.c.c.c.v.c.c.d.d.d.d.a.a.a.a.a.a.a.a.s.s.s.s.s.s.s.s.s.s.s.s.s.s.s.s.s.s.s.s.s.s.s.s.s.s.s.s.s.s.s.s.i.s.s.s.s.i.i.i.i.i.s.i.i.i.i.i.:.i.:.=.=.=.=.=.=.%.%.=.=.=.=.=.%.=.=.=.=.=.=.=.=.%.%.=.=.:.=.:.=.:.:.>.x.(._.'.'.'.5X5X,X,X,X,X,X,X,X1X1X1X1X1X<X<X2X4XqXqXqXqXqXqXwXrXrXeXrXrXrXeXeXeXeXeXeXeXeXeXeXuXuXuXuXuXuXuXuXuXuXuXuXuXuXuXuXuXuXuXzXkXzXkXzXxXxXxXxXxXxXxXxXxXxXxXxXxXxXxXxXxXxXxXzXzXzXzXzXzXzXzXzXxXxXxXcXcXcXnXnXnXnXnXnXVXVXVXVXVXVXVXnXnXvXvXvXvXvXvXvXnXnXnXnXnXnXnXnXnXnXnXnXnXnXnXnXnXnXnXnXvXvXcXcXvXvXvXxXzXeXqXqX<X,X'.`.(.~.C.b.6.9.9.6.6.6.",
"/.C.9.*.*.+.X. . . . . . . . . .| | | | | |  . . . . . . . . . . . . . . . . . . .X.X.X.*.>.C.}.rXzXMXMXbXbXbXcXcXcXxXxXxXxXzXzXzXzXzXzXzXzXzXzXxXxXxXxXxXxXbXbXcXcXcXcXvXvXvXvXvXvXcXcXvXvXNXNXNXNXCXCXCXCXCXCXCXCXCXCXCXCXCXCXCXNXNXNXNXNXNXNXNXNXNXvXcXvXvXvXcXcXvXvXvXvXcXcXvXvXvXvXvXvXcXcXvXvXcXcXvXvXvXcXvXvXcXcXvXvXvXvXcXcXcXcXvXvXvXvXvXvXvXvXvXvXNXNXvXvXvXvXvXvXvXcXvXvXvXvXvXvXvXvXcXcXvXvXvXvXvXvXvXvXvXvXvXvXxXzXkXzXzXzXcXnXnXNXNXnXvXcXvXcXcXxXzXkXuXeXwXqXqXqX<X<X5X(.V.>.>.=.=.=.=.*.*.=.=.=.>.>.>.>.z.z.s.>.>.>.>.s.s.s.z.z.z.x.x.x.a.a.a.a.a.d.c.c.c.c.c.c.c.c.c.c.c.c.c.c.d.d.d.a.a.a.a.a.a.a.s.s.s.s.s.s.s.s.s.s.s.s.s.s.s.s.s.s.s.s.s.s.s.s.s.s.s.s.s.s.s.s.s.s.s.s.i.i.i.i.i.i.i.i.:.:.:.:.i.i.:.:.=.=.=.=.=.=.=.=.=.=.=.=.=.=.=.=.=.=.=.=.=.=.:.:.:.:.>.>.>.z.n.(._.'.5X'.5X5X,X,X,X,X,X,X,X,X,X,X1X1X1X<X<X4XqXqXqXqXqXqXwXrXrXrXrXrXeXeXeXeXeXeXeXeXeXeXuXuXuXeXeXeXuXuXuXuXuXuXuXuXuXuXuXuXuXuXzXzXzXzXxXxXxXxXxXzXxXxXxXxXxXxXxXxXxXxXxXzXzXzXzXzXzXzXzXzXzXzXzXzXcXcXcXcXcXnXnXnXnXnXvXvXnXnXVXVXnXnXnXnXnXnXnXnXnXnXnXnXnXnXnXnXnXnXnXnXnXnXnXnXnXnXnXnXnXnXnXnXvXvXvXvXvXcXcXvXxXzXrXqX4X1X}.'.).(.V.C.6.>.;.;.;.*.",
"C.9.;.*.+.X. . .} } | } | | | | | | | | | | | | | | | | | |  . . . . . . . . . . .X.X.X.*.9./.|.fXzXMXMXbXbXcXcXcXcXxXxXxXxXzXzXzXzXzXzXzXzXzXzXxXxXxXxXxXxXbXbXcXcXcXcXvXvXvXvXvXvXvXcXvXvXNXNXNXNXCXCXCXCXCXCXCXCXCXCXCXCXCXCXCXNXNXNXNXNXNXNXNXNXNXvXcXvXvXvXcXcXvXvXvXvXcXvXvXvXvXvXvXvXcXcXvXvXcXcXvXvXvXvXvXvXcXcXvXvXvXvXvXvXcXcXvXvXvXvXvXvXvXvXvXvXNXNXvXvXvXvXvXvXvXcXvXvXvXvXvXvXvXvXcXcXvXvXvXvXvXvXvXvXvXvXcXvXxXzXkXzXzXzXcXvXnXNXNXNXNXvXcXcXcXcXxXzXkXeXeXwXqXqXqX2X<X5X_.C.>.>.=.=.=.=.*.*.=.=.=.>.>.>.s.z.z.6.>.>.>.s.s.s.s.s.z.x.x.x.a.a.a.a.a.d.d.c.c.c.c.c.c.c.c.c.c.c.c.c.d.d.d.a.a.a.a.a.a.a.s.s.s.s.s.s.s.s.s.s.s.s.s.s.s.s.s.s.s.s.s.s.s.s.s.s.s.s.s.s.s.s.s.s.s.s.i.i.i.i.i.i.i.i.:.:.:.:.i.i.:.:.=.=.=.=.=.=.=.=.=.=.=.=.=.=.=.=.=.=.=.=.=.=.:.:.:.>.=.>.>.x.(._.'.'.5X5X,X,X,X,X,X,X,X,X,X,X,X,X1X1X1X<X<XqXqXqXqXqXqXqXrXrXrXrXrXrXeXeXeXeXeXeXeXeXeXeXuXuXeXeXeXeXuXuXuXuXuXuXuXuXuXuXuXuXuXuXzXzXzXzXxXxXxXxXxXxXxXxXxXxXxXxXxXxXzXzXzXzXzXzXzXzXkXuXzXzXzXzXzXxXxXcXcXcXcXnXnXnXnXnXvXvXnXnXVXVXnXnXnXnXnXnXnXnXnXnXnXnXnXnXnXnXnXnXnXnXnXnXnXnXnXnXnXnXnXnXnXnXvXvXvXvXvXvXcXvXxXzXeXqX4X<X,X'.`.(.~.C.>.;.*.;.*.+.",
"6.*.+.X. . . . .} } | } } } | | | | | | | | | | | | | | | |  . . . . . . . . . . .X.X.X.*.x.(.4XzXbXbXbXbXbXbXcXcXzXzXzXxXxXzXzXzXzXzXzXzXzXzXzXxXxXxXxXxXxXbXbXbXbXvXvXvXvXvXvXvXvXvXvXvXvXNXNXNXNXCXCXCXCXCXCXCXCXCXCXCXCXCXCXNXNXNXNXNXNXNXNXNXNXNXvXvXvXvXvXcXcXvXvXvXvXcXcXvXvXvXvXvXvXcXcXcXcXvXvXvXvXcXcXcXcXvXvXvXvXvXvXvXvXvXvXvXvXvXvXvXvXvXvXvXvXvXvXvXvXvXvXvXvXvXvXvXvXcXcXvXcXvXvXcXcXvXvXvXvXvXvXvXvXvXvXvXvXxXzXzXzXzXzXcXcXnXNXNXNXNXnXvXvXcXcXcXxXzXkXeXeXwXqXqX4X2X1X'._.C.>.=.=.=.=.*.*.*.*.*.=.>.>.>.6.z.z.z.s.s.s.s.z.a.z.z.x.x.x.c.d.a.a.d.d.d.c.c.c.v.v.v.v.v.v.v.v.c.c.c.d.d.d.d.d.d.d.d.a.a.a.a.a.s.s.a.a.a.a.s.s.s.s.s.s.s.s.s.s.s.s.s.s.s.s.s.s.s.s.s.s.s.s.s.s.i.i.i.i.i.i.i.i.i.i.:.=.=.:.=.=.=.=.=.=.=.=.=.=.=.=.=.=.:.:.:.=.>.>.=.=.:.:.:.:.:.>.=.>.x.V._.'.'.'.5X,X1X,X,X,X,X,X,X,X,X,X,X1X1X1X<X<X4XqXqXqXqXqXwXrXrXrXrXrXrXeXeXeXeXeXeXeXeXeXeXeXeXeXeXeXeXeXuXuXuXuXuXuXuXuXuXuXuXuXuXuXzXzXkXkXxXxXxXxXxXxXzXzXxXxXxXxXxXxXzXzXzXzXzXkXzXzXuXuXzXzXzXzXzXxXxXcXcXcXcXcXvXvXvXvXnXvXnXnXVXVXnXnXnXnXnXnXnXnXnXnXnXnXnXnXnXnXnXnXnXnXnXnXnXnXnXnXnXnXnXnXnXnXvXvXvXvXvXcXcXcXvXzXzXrXqX4X1X}.'.).(.V.6.;.$.$.+.+.",
"+.X. . . . . . . .} | } } | | | | | | | | | | | | | | | | |  . . . . . . . . . . .X.X.*.;.C.`.4XzXbXbXbXbXbXcXcXcXzXzXzXzXzXzXzXzXzXzXzXzXzXzXzXxXxXxXxXxXxXbXbXbXbXvXvXvXvXvXvXvXvXvXvXvXvXNXNXNXNXCXCXCXCXCXCXCXCXCXCXCXCXCXCXNXNXNXNXNXNXNXNXNXNXNXvXvXcXvXvXvXcXvXvXvXvXcXcXvXvXvXvXvXvXcXcXcXcXvXvXvXvXcXcXcXcXvXvXcXvXvXvXvXvXvXvXvXvXvXvXvXvXvXvXvXvXvXvXvXvXvXvXvXvXvXcXcXvXcXcXcXcXvXvXcXcXvXvXvXvXvXvXvXvXvXvXvXvXxXzXzXzXzXkXzXcXnXnXnXnXnXnXnXcXcXcXcXcXxXzXkXeXeXwXqXqX4X2X1X'.(.C.>.=.*.=.*.*.*.$.*.*.=.=.>.>.z.z.z.z.z.s.z.z.z.z.x.c.c.c.x.x.a.a.d.d.d.d.c.c.v.v.v.v.v.v.v.v.c.c.c.d.d.d.d.d.d.d.d.a.a.a.a.a.s.s.a.a.a.a.s.s.s.s.s.s.s.s.s.s.s.s.s.s.s.s.s.s.s.s.s.s.s.s.s.s.i.i.i.i.i.i.i.i.i.i.:.=.=.=.=.=.=.=.=.=.=.=.=.=.=.=.=.=.:.:.:.:.:.>.=.=.:.:.:.:.>.>.:.x.V.(.'.'.'.'.5X,X,X,X,X,X,X,X,X,X,X,X,X1X1X1X<X4XqXqXqXqXqXwXwXrXrXrXrXrXrXeXeXeXeXeXeXeXeXeXeXeXeXeXeXeXeXeXuXuXuXuXuXuXuXuXuXuXuXuXuXuXzXzXkXkXxXxXxXxXxXzXkXkXkXkXkXkXkXkXzXzXkXkXzXkXzXzXuXuXzXzXzXzXzXxXxXcXcXcXcXcXvXvXvXvXnXvXnXnXVXVXnXnXnXnXnXnXnXnXnXnXnXnXnXnXnXnXnXnXnXnXnXnXnXnXnXnXnXnXnXnXnXnXvXvXvXvXvXvXcXcXvXxXzXuXeXqX<X,X'.`.(.~.x.>.*.*.*.*.",
"X. . . .}  . . .} } | | } } } } | | | | | | | |  . .| } | |  . . . .} }  . . . . .X.X.*.6.~.}.rXbXbXbXbXbXbXcXcXcXcXxXzXzXzXzXzXzXzXzXzXxXxXxXxXxXxXxXxXbXcXcXcXvXvXvXcXcXcXvXvXvXvXvXnXNXNXNXNXNXNXCXCXCXCXCXCXCXCXCXCXCXNXNXNXNXNXNXNXNXNXNXNXNXNXNXvXvXcXvXvXvXvXvXvXvXvXcXcXvXvXvXvXvXvXvXvXcXcXvXvXvXvXvXcXcXcXvXvXcXcXcXcXcXcXcXvXvXvXvXvXvXvXvXvXvXvXvXvXvXvXvXcXcXcXcXvXvXcXcXcXcXcXcXvXcXcXvXvXvXvXvXvXvXvXvXvXvXvXcXxXzXzXkXkXzXcXcXnXnXnXnXnXnXvXcXcXcXcXcXzXzXkXeXeXwXqXqX4X<X1X'.(.b.>.=.=.=.*.*.*.*.*.*.=.=.>.>.6.z.z.z.z.x.x.x.x.c.c.c.c.c.x.x.d.d.d.d.d.c.c.c.c.c.c.v.v.c.c.g.g.c.c.c.d.d.d.d.d.d.d.a.a.a.a.a.a.a.a.a.a.s.s.s.s.s.s.s.s.s.s.s.s.s.s.s.s.s.s.s.s.s.s.s.s.i.i.i.i.i.i.:.:.:.:.i.:.i.=.=.=.=.=.=.=.=.=.=.=.=.=.=.=.:.:.:.:.=.=.:.:.:.:.:.:.=.:.>.s.x.V.(.'.5X,X5X5X,X,X,X,X,X,X,X,X,X,X1X,X,X1X1X<X<X2XqXqXqXqXqXwXrXrXrXrXrXrXrXrXwXwXeXeXeXeXeXeXeXeXeXeXeXeXeXeXeXeXeXeXeXeXuXuXuXuXuXuXuXuXzXzXkXkXzXzXzXzXlXzXzXkXkXkXkXkXkXkXkXkXkXkXkXkXuXuXuXuXuXzXkXzXxXxXxXcXcXcXvXvXcXcXcXcXnXnXnXnXnXnXnXnXnXnXnXnXnXnXnXnXnXnXnXnXnXnXnXnXnXnXnXnXnXnXnXnXnXnXnXnXnXnXvXvXvXvXvXvXvXcXvXcXbXxXfXqX<X,X'.'.(.(.C.9.;.*.;.;.",
" . . . .} | | | } } } | } } } } | | | | | | | |  . .} } | |  . . . .} }  . . . . .X.+.*.6.(.1XfXbXbXbXcXbXbXcXcXcXcXxXzXzXkXzXzXzXzXzXzXxXxXxXxXxXxXxXxXbXcXcXcXvXvXcXcXcXcXvXvXvXvXvXvXNXNXNXNXNXNXCXCXCXCXCXCXCXCXCXCXCXNXNXNXNXNXNXNXNXNXNXNXNXNXNXvXvXcXvXvXvXvXvXvXvXvXcXcXvXvXvXvXvXvXvXvXcXcXvXvXvXvXvXvXcXcXvXvXcXcXcXcXcXcXcXcXvXvXvXvXvXvXvXvXvXvXvXvXvXvXvXcXcXcXcXvXvXcXcXcXcXcXcXvXcXcXvXvXvXvXvXvXvXvXvXvXvXvXcXxXzXzXkXuXkXzXcXcXvXvXnXnXnXvXvXcXcXcXcXxXzXzXuXuXeXwXqXqXqX<X1X'.(.C.6.>.=.=.*.*.*.*.*.*.=.=.>.>.>.z.z.z.x.x.x.x.c.c.c.c.c.x.x.x.d.d.d.d.d.c.c.c.c.c.c.v.c.c.g.g.c.c.c.d.d.d.d.d.d.d.a.a.a.a.a.a.a.a.a.a.s.s.s.s.s.s.s.s.s.s.s.s.s.s.s.s.s.s.s.s.s.s.s.s.i.i.i.i.i.i.:.i.:.:.i.:.i.=.=.=.=.=.=.=.=.=.=.=.=.=.=.=.:.:.:.:.=.=.:.:.:.:.:.:.:.>.s.z.V.(.'.'.5X5X,X,X,X,X,X,X,X,X,X,X,X,X1X,X,X1X1X<X<X2XqXqXqXqXqXwXrXwXwXwXrXrXrXrXwXwXeXeXeXeXeXeXeXeXeXeXeXeXeXeXeXeXeXeXeXuXuXuXuXuXuXuXuXuXzXzXkXkXzXzXlXzXlXkXkXkXkXkXkXkXuXuXuXuXuXuXuXuXuXuXuXuXuXuXkXzXxXxXxXcXcXcXvXvXcXcXcXcXcXnXnXnXnXnXnXnXnXnXnXnXnXnXnXnXnXnXnXnXnXnXnXnXnXnXnXnXnXnXnXnXnXnXnXnXnXnXvXvXvXvXvXvXvXcXvXcXcXbXzXrX4X1X}.'._.(.~.x.>.;.;.;.",
" . . . .} } | | } } | | | | } | | | | | | | | |  . .} } |  . . . . . .}  . . . .X.X.+.*.9.).3XzXbXcXbXbXbXbXcXcXcXcXxXzXzXzXzXzXzXzXxXxXxXxXxXxXbXbXbXbXcXcXcXvXvXvXcXcXcXcXvXvXvXvXvXvXNXNXCXCXCXCXCXCXCXCXCXCXCXCXCXCXCXCXNXCXCXCXCXCXNXNXNXNXNXNXNXvXvXcXvXvXcXvXvXvXvXvXcXcXvXvXvXvXvXvXcXcXcXcXvXvXvXvXcXvXcXcXvXvXvXvXcXvXcXcXcXcXvXvXvXvXvXvXvXvXvXvXvXvXvXvXvXcXcXcXcXvXvXcXcXcXcXcXvXvXcXcXvXvXvXvXvXvXvXvXvXvXvXvXvXcXxXzXkXuXuXkXzXcXcXvXvXvXnXNXvXcXcXcXcXcXxXzXzXuXeXeXwXqXqXqX<X1X}.(.V.6.>.=.=.*.*.=.*.*.*.=.=.>.>.>.>.z.x.x.x.x.c.c.c.c.c.c.c.c.c.c.d.c.c.d.g.v.v.v.v.v.v.v.v.c.v.v.v.c.c.d.d.d.d.d.d.a.d.d.a.a.a.a.a.a.a.a.a.a.a.a.a.a.s.s.s.s.s.s.s.s.s.s.s.s.s.s.s.s.i.i.i.i.i.i.:.:.:.:.i.:.i.i.:.:.=.=.=.=.=.=.=.=.=.=.:.:.:.:.:.:.:.:.:.:.:.:.:.:.>.s.z.n.(.'.'.'.5X5X,X,X,X,X,X,X,X,X,X,X,X,X,X1X,X1X<X<X<X2XqXqXqXqXwXrXrXwXwXwXrXrXrXrXwXeXeXeXeXwXeXeXeXeXeXeXeXeXeXeXeXeXeXeXuXuXuXuXuXuXuXuXuXuXzXzXkXkXzXzXlXlXlXkXkXkXuXuXuXuXuXuXuXuXuXuXuXuXuXuXuXuXuXuXkXzXxXxXxXcXcXcXcXcXcXcXcXcXcXcXcXcXnXnXnXnXnXnXnXnXnXnXnXnXnXnXnXnXnXnXnXnXnXnXnXnXnXnXnXnXnXnXnXnXnXnXvXvXvXvXvXvXvXcXcXvXvXcXzXeXqX4X5X'.`.(./.C.9.;.;.;.",
" . . .} | [ | | | | | | | | | | | | | | | | | |  . .} } | |  . . . . .}  . . . .X.X.+.*.b.`.qXbXcXcXcXbXbXbXcXcXcXcXxXzXzXzXzXzXzXzXxXxXxXxXxXxXbXbXcXcXcXvXvXcXvXvXcXcXcXcXvXvXvXvXvXvXNXNXCXCXCXCXCXCXCXCXCXCXCXCXCXCXCXCXCXCXCXCXCXCXNXNXNXNXNXNXNXvXvXcXvXvXcXvXvXvXvXvXcXcXvXvXvXvXvXvXcXcXcXcXvXvXvXvXcXvXcXcXvXvXvXvXvXvXcXcXcXcXvXvXvXvXvXvXvXvXvXvXvXvXvXvXvXcXcXcXcXvXvXcXcXcXcXcXcXvXcXcXvXvXvXvXvXvXvXvXvXvXvXvXvXvXxXzXkXuXuXuXzXxXcXvXvXvXvXnXnXvXcXcXcXcXcXxXzXzXuXuXeXwXqXqXqX4X4X,X).V.z.>.=.=.=.=.*.*.*.=.=.=.:.>.>.s.z.x.x.x.c.c.c.c.c.c.c.c.c.c.c.c.c.d.g.c.v.v.v.v.v.v.v.c.v.c.v.c.c.d.d.d.d.d.d.a.d.d.a.a.a.a.a.a.a.a.a.a.a.a.a.a.s.s.s.s.s.s.s.s.s.s.s.s.s.s.s.s.i.i.i.i.i.i.:.:.:.:.i.:.:.:.:.:.=.=.=.=.=.=.=.=.=.=.:.:.:.:.:.:.:.:.:.:.:.:.:.:.s.s.x._.'.5X5X5X5X5X,X,X,X,X,X,X,X,X,X,X,X,X,X,X,X1X<X<X<X2XqXqXqXqXwXwXrXwXwXwXrXrXrXrXwXeXeXeXwXwXeXeXeXeXeXeXeXeXeXeXeXeXeXeXuXuXuXuXuXuXuXuXuXuXzXzXkXkXzXzXlXlXlXkXkXkXuXuXuXuXuXuXuXuXuXuXuXuXuXuXuXuXuXuXuXkXxXxXxXxXcXcXcXcXcXcXcXcXcXcXcXcXcXcXcXcXnXnXnXnXnXnXnXnXnXnXnXnXnXnXnXnXnXnXnXnXnXnXnXnXnXnXnXnXnXnXvXvXvXvXvXvXvXcXcXvXvXbXzXeXrXqX,X'.'.).(.~.b.>.>.>.",
"} } } } [ [ [ [ [ [ | | | | | | | | | | | | | | | | | | | | | | | |  . . . . . .O.X.+.5.~.}.rXvXbXbXbXbXbXbXcXcXbXbXbXxXxXzXxXxXxXxXxXxXxXxXxXxXbXcXcXcXcXcXvXvXvXvXvXvXvXvXvXvXvXvXNXNXNXNXCXCXCXCXCXCXCXCXCXCXCXCXCXCXCXCXCXCXCXCXCXCXNXNXNXNXCXNXNXvXcXvXvXvXcXcXvXvXvXvXvXvXvXvXvXvXvXvXcXcXvXvXvXcXvXvXvXvXcXcXvXvXvXcXcXcXcXcXcXcXvXvXvXvXvXvXvXvXvXvXvXvXvXvXcXvXvXvXvXvXvXvXvXvXcXcXvXvXcXcXcXcXvXvXvXvXvXvXvXvXvXvXvXcXcXxXzXzXkXuXuXzXcXcXvXvXvXnXnXnXvXcXcXcXcXcXxXxXzXuXeXeXwXqXqX4X<X<X1X'.(.V.x.>.:.>.=.=.=.=.=.=.=.:.>.>.s.z.x.x.x.x.c.c.c.c.v.v.v.v.c.c.c.c.v.v.v.v.v.v.v.v.v.v.v.v.v.c.c.c.c.d.d.d.d.d.d.d.d.d.a.a.a.a.a.a.a.a.a.a.a.s.a.a.a.a.s.s.s.a.s.s.s.s.i.s.i.i.s.s.i.i.i.i.i.i.i.i.>.>.:.:.:.:.=.=.:.:.=.=.:.:.:.:.>.>.i.i.>.>.:.:.:.:.:.:.>.s.z.n.(.].5X5X5X5X5X5X5X,X,X,X,X,X,X,X,X,X1X1X1X1X1X<X<X<X<X4XqXqXqXwXrXrXrXrXwXwXrXrXrXrXeXeXwXwXeXeXeXeXeXeXeXeXeXeXeXeXeXeXeXeXeXeXuXuXuXuXuXuXuXuXuXuXkXkXkXkXkXkXzXuXuXuXuXuXuXuXuXuXuXuXuXeXuXuXuXuXuXuXuXuXuXuXzXzXzXzXxXxXcXcXcXmXcXnXcXcXcXcXvXvXvXvXvXvXvXvXvXvXvXvXvXvXnXnXnXnXnXnXnXnXnXnXnXnXnXnXnXnXnXnXnXnXvXvXvXvXvXvXvXvXvXvXvXcXzXkXeXrXqX,X'.`.(.~.C.9.>.>.",
"} | [ [ [ [ [ [ [ [ [ [ | | | | | | | | | | | | | | | | | | | | | }  . . . . . .O.O.*.6./.,XfXvXbXbXbXbXbXbXcXcXbXbXbXxXxXzXxXxXxXxXxXxXxXxXxXxXbXcXxXxXcXcXvXvXvXvXvXvXvXvXvXvXvXvXNXNXNXNXCXCXCXCXCXCXCXCXCXCXCXCXCXCXCXCXCXCXCXCXCXCXNXNXNXNXCXNXNXvXcXvXcXvXcXcXvXvXvXvXvXvXvXvXvXvXvXvXcXcXvXvXvXcXvXvXvXvXvXvXvXvXcXcXcXcXvXvXcXcXvXvXvXvXvXvXvXvXvXvXvXvXvXvXcXvXvXvXvXvXvXvXvXvXvXcXvXvXcXcXvXcXvXvXvXvXvXvXvXvXvXvXvXvXcXcXcXcXxXkXuXuXzXxXcXvXvXvXvXvXnXvXcXcXcXcXcXxXzXkXeXeXeXwXqXqX2X<X<X<X5X'.(.V.x.z.>.=.=.=.=.:.=.=.:.:.:.s.z.z.x.x.c.c.c.c.n.n.v.v.v.c.v.v.v.v.v.v.v.v.v.v.v.v.v.v.c.c.c.c.c.d.d.d.d.d.d.d.d.d.a.a.a.a.a.a.a.a.a.a.s.s.a.a.a.a.s.s.s.s.s.s.s.s.i.i.i.i.s.s.i.s.i.i.i.i.i.>.>.>.i.:.:.:.=.=.:.:.=.=.:.:.i.i.>.>.i.i.>.>.>.>.>.>.>.>.s.z.n.(.].'.5X5X,X,X,X,X5X,X,X,X,X,X,X,X,X,X1X1X1X1X1X<X<X<X<XqXqXqXqXqXrXwXrXrXwXwXrXrXrXrXeXwXwXwXeXeXeXeXeXeXwXwXeXeXeXeXeXeXeXeXeXeXuXuXuXuXuXuXuXuXuXuXkXkXkXkXkXkXzXuXuXuXuXuXuXuXuXuXuXuXeXeXuXuXuXuXuXuXuXuXuXuXzXlXzXzXzXzXxXxXxXxXcXnXcXcXcXcXvXvXvXvXvXvXvXvXvXvXvXvXvXvXnXnXnXnXnXnXnXnXnXnXnXnXnXnXnXnXnXnXnXnXvXvXvXvXvXvXvXvXcXvXvXvXcXzXkXeXqX<X'.`.).(.V.x.>.>.",
"| [ [ [ [ [ [ [ [ [ [ [ | | | | | | | | | | | | | | | | | | | | | |  . . . . . .O.X.;.8.).<XfXvXcXcXbXbXbXbXcXcXbXbXbXxXxXxXxXxXxXxXxXxXbXbXbXbXvXcXcXcXvXvXvXvXcXcXvXvXvXvXvXvXvXvXNXNXNXNXCXCXCXCXCXCXCXCXCXCXCXCXCXCXCXCXCXCXCXCXCXCXCXCXCXNXNXNXNXvXcXvXvXvXcXcXvXvXcXcXvXvXvXvXvXvXvXvXcXcXcXcXcXcXcXcXvXvXvXvXvXvXvXvXcXcXvXvXvXvXvXvXvXvXvXvXvXvXvXvXvXvXvXvXcXvXvXvXvXvXvXvXvXvXvXcXcXvXvXvXvXvXvXvXvXvXvXvXvXvXvXvXvXvXnXnXvXvXcXxXkXuXuXzXxXcXvXvXvXvXvXnXvXcXcXcXcXcXzXzXuXeXeXeXwXqX4X2X2X<X<X1X,X'.].(.S.V.x.x.z.z.s.:.:.:.:.:.s.a.z.x.x.c.v.v.n.n.v.v.v.v.v.v.v.v.v.v.v.v.v.v.v.v.v.v.v.v.c.c.c.c.c.c.d.d.d.d.d.d.d.d.a.a.a.a.a.a.a.a.a.a.a.a.a.a.s.s.s.s.s.s.s.s.i.i.s.s.s.s.s.i.s.s.i.i.i.i.>.>.i.i.>.>.>.>.:.:.>.>.>.>.i.i.i.>.s.s.>.>.>.>.>.>.>.s.z.n.(.].'.'.5X,X,X,X,X,X,X,X,X,X,X,X,X,X1X1X1X1X1X1X1X<X<X<XqXqXqXrXwXwXwXwXrXrXwXwXrXrXrXrXeXeXwXwXeXeXeXeXeXwXwXwXwXeXeXeXeXeXeXeXeXeXeXuXuXuXuXuXuXuXuXuXkXkXkXkXkXkXzXuXuXuXuXuXuXuXeXeXuXuXuXuXuXuXuXuXuXuXuXuXuXuXzXzXzXzXzXzXxXxXxXxXcXnXcXcXcXcXvXvXvXvXvXvXvXvXvXvXvXvXvXvXnXnXnXnXnXnXnXnXnXnXnXnXnXnXnXnXnXnXnXnXvXvXvXvXvXvXvXvXvXcXcXcXcXcXzXfXeX4X}.'.`.(.~.C.>.;.",
"[ [ [ [ [ [ [ [ [ [ [ [ | | | | | | | | | | | | | | | | | | | | | |  . . . . . .O.X.5.b.'.4XfXvXcXcXbXbXbXbXcXcXbXbXbXxXxXxXxXxXxXxXxXxXbXbXcXcXcXcXcXcXvXvXvXvXcXcXvXvXvXvXvXvXvXvXNXNXNXNXCXCXCXCXCXCXCXCXCXCXCXCXCXCXCXCXCXCXCXCXCXCXCXCXCXNXCXNXvXvXcXvXvXvXcXcXvXvXcXcXvXvXvXvXvXvXvXvXcXcXcXcXcXcXcXcXvXvXvXvXvXvXvXvXvXcXvXvXvXvXvXvXvXvXvXvXvXvXvXvXvXvXvXvXcXvXcXvXvXvXvXvXvXvXvXvXcXvXvXvXvXvXvXvXvXvXvXvXvXvXvXvXvXvXnXnXnXnXvXcXxXkXuXkXkXzXcXcXcXvXvXvXnXvXcXcXcXcXxXzXuXeXeXeXeXwX4X4X2X2X2X<X<X1X1X5X5X'.'._.(.(.V.n.s.:.:.:.:.s.a.x.x.c.v.v.n.n.v.v.v.v.v.v.v.v.v.v.v.v.v.v.v.v.v.v.v.v.v.c.c.c.c.d.d.d.d.d.d.d.d.d.a.a.a.a.a.a.a.a.a.a.a.a.a.a.s.s.s.s.s.s.s.s.i.i.i.s.s.s.s.s.s.s.i.i.i.i.>.>.i.i.>.>.>.>.:.:.>.>.>.>.i.i.i.>.i.i.>.>.>.>.>.>.>.z.n.(.].'.'.5X,X,X,X,X,X,X,X,X,X,X,X,X,X,X1X1X1X1X1X1X1X<X<X4XqXqXqXrXwXwXrXwXrXrXwXwXwXwXwXwXeXeXwXwXwXeXeXeXwXwXwXwXwXeXeXeXeXeXeXeXeXeXuXuXuXuXuXuXuXuXuXuXkXkXkXkXkXkXuXuXuXuXeXeXeXeXeXeXuXuXuXuXuXuXuXuXuXuXuXuXuXuXzXzXzXzXzXzXxXxXxXxXcXnXcXcXcXcXcXcXvXvXvXvXvXvXvXvXnXnXvXvXnXnXnXnXnXnXnXnXnXnXnXnXnXnXnXnXnXnXnXnXvXvXvXvXvXvXvXvXvXcXcXcXcXcXbXzXfXqX,X'.`.).(.V.6.;.",
"[ [ [ [ [ [ [ [ [ [ [ [ [ [ [ [ | [ [ [ [ [ [ [ | | | | | | | | | | |  . . . . .+.+.6.~.}.qXkXcXbXbXbXcXcXcXcXbXcXcXcXcXxXxXxXxXbXbXbXbXcXcXcXcXvXvXcXcXvXvXvXvXvXvXvXvXvXvXvXvXNXNXNXNXNXNXCXCXCXCXCXCXCXCXCXCXCXCXCXCXCXCXCXCXCXCXCXCXCXCXCXNXNXNXNXvXvXvXvXvXvXvXvXvXcXvXvXvXvXvXvXvXvXvXcXvXcXcXvXvXcXcXcXvXvXvXvXvXvXvXvXvXcXcXcXvXvXvXvXvXvXvXvXvXvXvXvXvXvXvXvXcXvXvXvXvXcXcXcXcXcXcXcXcXvXvXcXcXvXvXvXvXvXvXvXvXvXvXNXNXnXnXNXNXnXvXcXzXkXuXuXkXzXcXcXvXvXvXvXvXvXvXcXcXcXzXzXuXeXeXeXrXqX4X2X4X2X<X<X1X1X1X<X<X1X1X1X1X5X].(.V.z.s.:.s.s.a.x.x.c.v.n.n.n.v.v.v.v.v.v.v.v.v.v.v.v.v.v.v.v.v.v.v.v.v.v.c.c.c.c.d.d.d.d.d.d.d.d.d.a.a.a.a.a.a.a.a.a.a.a.a.a.a.a.a.s.s.s.s.s.s.s.s.s.s.s.s.s.s.s.s.i.i.>.>.>.>.>.>.>.>.>.>.i.i.i.>.>.>.>.>.>.>.>.>.>.>.s.s.x.V.(.].'.'.5X5X,X,X,X,X,X,X,X,X1X1X,X,X1X1X1X1X1X1X1X<X<X<XqXqXqXqXqXqXrXqXqXqXwXwXwXwXwXwXwXwXwXwXwXwXwXwXwXwXwXwXwXwXwXwXeXeXeXeXeXeXeXeXeXeXuXuXuXuXuXuXuXuXuXuXkXkXkXkXuXuXuXeXeXeXeXeXeXeXwXwXwXeXuXuXuXuXuXuXuXuXkXkXlXlXkXuXzXzXzXzXxXxXcXnXnXnXcXcXcXcXcXvXvXvXvXvXvXvXnXnXnXnXnXnXnXnXnXnXnXnXnXnXnXnXnXnXnXnXnXnXcXcXvXvXvXvXvXvXvXvXvXvXvXcXvXbXbXbXkXeXqX1X'.`.(.~.x.>.",
"[ [ [ [ [ [ [ [ [ [ [ [ [ [ [ [ | | [ [ [ [ [ [ | | | | | | | | | |  . . . . .X.+.*.9./.|.fXzXcXbXbXcXcXcXcXcXbXcXcXcXcXxXxXxXxXbXbXbXbXcXcXcXcXvXvXvXcXvXvXvXvXvXvXvXvXvXvXvXvXNXNXCXNXNXNXCXCXCXCXCXCXCXCXCXCXCXCXCXCXCXCXCXCXCXCXCXCXCXCXCXNXNXNXNXvXvXvXvXvXvXvXvXvXcXcXcXvXvXvXvXvXvXvXcXvXcXcXvXvXcXcXvXvXvXvXvXvXvXvXvXvXcXcXcXcXvXvXvXvXvXvXvXvXvXvXvXvXvXvXvXcXvXvXvXvXcXcXcXcXvXcXcXcXcXcXcXcXvXvXvXvXvXvXvXvXvXvXNXNXnXnXNXNXNXnXvXcXzXuXuXuXkXzXcXcXcXcXcXcXcXvXvXcXcXxXzXkXuXeXeXrXwX4X2X2X2X2X<X<X<X<X<X<X<X<X<X<X2X1X5X'._.S.x.i.s.s.a.a.x.c.n.n.n.v.v.v.v.v.v.v.v.v.v.v.v.v.v.v.v.v.v.v.v.v.v.v.v.c.c.c.c.d.d.d.d.d.d.a.a.a.a.a.a.a.a.a.a.a.a.a.a.a.a.a.s.s.s.s.s.s.s.s.s.s.s.s.s.s.s.s.i.i.>.>.>.>.>.>.>.>.s.s.i.i.i.i.>.>.>.>.s.s.>.>.>.s.x.n.(._.'.'.'.5X5X,X,X,X,X,X,X,X,X,X1X1X,X,X,X,X1X1X1X1X1X<X4XqXqXqXqXqXqXqXqXqXqXqXwXwXwXwXqXqXwXwXwXwXwXwXwXwXwXwXwXwXwXwXwXwXeXeXeXeXeXeXeXeXeXeXuXuXuXuXuXuXuXuXuXuXuXuXuXuXuXeXeXeXeXwXwXwXwXwXwXwXwXwXuXuXuXuXuXuXuXuXkXkXlXlXuXuXzXzXzXzXxXxXxXcXcXcXcXcXcXcXvXcXvXvXvXvXvXvXnXnXnXnXnXnXnXnXnXnXnXnXnXnXnXnXnXnXnXnXnXnXcXcXvXvXvXvXcXcXvXvXvXvXvXcXvXcXbXbXzXfXrX4X}.`.).(.b.6.",
"[ [ [ [ [ [ [ [ [ [ [ [ [ [ [ [ [ [ | | [ [ [ [ | | | | | | | |  . . . . . .X.O.+.*.b.).3XzXbXcXbXbXcXcXcXcXbXbXcXcXcXcXxXxXxXxXcXcXbXbXcXcXcXcXvXvXcXcXvXvXvXvXvXvXvXvXvXvXNXNXNXNXCXCXCXCXCXCXCXCXCXCXCXCXCXCXCXCXCXCXCXCXCXCXCXCXCXCXCXCXCXNXNXNXNXvXvXvXvXvXcXcXvXvXvXvXcXcXvXvXvXvXvXvXcXcXcXcXvXvXcXcXvXvXvXvXcXcXcXcXvXvXcXcXcXcXvXvXvXvXvXvXvXvXvXvXvXvXvXvXvXvXvXvXvXvXcXcXvXvXvXvXcXcXcXcXcXcXvXvXvXvXvXvXvXvXvXvXvXvXnXNXCXCXNXNXnXcXcXzXuXuXuXkXzXcXcXcXcXcXcXcXcXvXcXcXzXzXkXkXeXeXrXqX4X2X2X2X<X<X<X<X<X<X<X1X1X1X<X2X2X<X,X]._.V.n.z.a.a.x.c.n.n.n.n.v.v.v.v.v.v.v.v.v.v.v.v.v.v.v.v.v.v.m.m.m.v.v.v.v.v.c.c.d.d.d.d.c.d.a.a.a.a.a.a.a.a.a.a.a.a.a.a.a.a.s.s.s.s.s.s.s.s.s.s.s.s.s.s.s.s.i.i.s.s.s.s.s.s.s.s.s.s.s.s.s.s.>.>.>.s.s.s.s.s.z.n.V.(.'.5X5X5X5X5X,X,X,X,X,X,X,X,X,X1X1X1X1X1X1X1X1X<X<X<X<X4XqXqXqXqXqXqXwXwXqXqXqXqXwXwXwXwXqXqXwXwXwXwXwXwXwXwXwXwXwXwXwXwXwXwXeXeXeXeXeXeXeXeXeXeXuXuXuXuXuXuXuXuXuXuXuXuXuXuXuXeXeXeXwXwXwXwXwXwXwXwXwXwXuXuXuXuXuXuXuXuXkXkXlXlXuXuXzXzXzXzXxXxXxXxXxXxXcXcXcXcXxXvXcXvXvXvXvXvXvXvXnXvXnXnXnXnXnXnXnXnXnXnXnXnXnXnXnXnXnXnXcXcXcXcXcXcXcXcXvXvXvXvXvXvXvXvXcXcXxXzXfXqX1X'.`.(.V.x.",
"[ [ [ [ [ [ [ [ [ [ [ [ | [ [ [ [ [ | | | [ [ [ | | | | | | | | |  . . . . .X.X.+.5.b.).3XzXbXcXbXcXcXcXcXcXbXbXcXcXcXcXxXxXxXxXcXcXbXbXcXcXcXcXvXvXcXcXvXvXvXvXvXvXvXvXvXvXNXNXNXNXCXCXCXCXCXCXCXCXCXCXCXCXCXCXCXCXCXCXCXCXCXCXCXCXCXCXCXCXCXNXNXNXNXvXvXcXvXvXcXcXvXvXvXvXcXcXvXvXvXvXvXvXcXcXcXcXvXvXcXcXcXvXvXvXcXcXcXcXcXcXcXcXcXcXvXvXvXvXvXvXvXvXvXvXvXvXvXvXcXvXcXvXvXvXcXvXvXvXvXvXcXcXcXcXcXcXvXvXvXvXvXvXvXvXvXvXvXvXnXNXCXCXCXNXNXnXcXzXkXuXuXuXkXzXxXxXxXxXcXcXcXcXcXcXxXxXzXkXeXeXrXqX4X2X2X4X2X<X<X<X<X1X1X1X1X1X1X1X2X2X<X,X5X'._.S.n.x.a.c.c.n.v.v.v.v.v.v.v.v.v.v.v.V.v.v.v.v.m.v.v.v.m.m.m.m.v.v.v.v.v.c.c.d.c.d.c.d.a.a.a.a.a.a.a.a.a.a.a.a.a.a.a.a.s.s.s.s.s.s.s.s.s.s.s.s.s.s.s.s.i.i.s.s.s.s.s.s.s.s.s.s.s.s.s.i.>.>.>.s.s.s.z.z.n.S._.5X'.5X5X5X5X,X,X,X,X,X,X,X,X,X1X1X1X1X1X1X1X1X1X<X<X<X4XqXqXqXqXqXqXqXwXwXqXqXqXqXwXwXwXwXqXqXwXwXwXwXwXwXwXwXwXwXwXwXwXwXwXwXeXeXeXeXeXeXeXeXeXeXuXuXuXuXuXuXuXuXuXuXuXuXuXuXeXeXeXeXwXwXwXwXwXwXwXwXwXwXuXuXuXuXuXuXuXuXkXkXlXlXkXuXzXzXzXzXxXxXzXzXxXxXcXcXcXcXxXxXvXcXvXvXvXvXvXvXvXvXnXnXnXnXnXnXnXnXnXnXnXnXnXnXnXnXnXnXcXcXcXcXcXcXcXcXvXvXvXvXvXvXvXvXcXcXzXxXzXeX4X}.`.).~.C.",
"[ [ ] ] [ [ [ [ [ [ [ [ [ [ [ [ [ [ [ [ [ [ | | [ [ | } } | } } | |  . . .X.O.X.+.5.!.).rXzXbXcXcXcXcXcXcXcXcXcXcXbXbXbXcXcXcXbXxXxXbXcXvXcXcXcXvXvXvXvXvXvXvXvXvXvXvXvXvXvXNXNXNXNXCXCXCXCXCXCXCXCXCXCXCXCXCXCXCXCXCXCXCXCXCXCXCXCXCXCXCXNXNXNXNXvXvXvXvXcXvXvXcXcXcXvXcXcXvXcXvXvXvXvXvXvXvXvXcXcXcXvXvXvXvXvXcXcXcXcXvXvXvXcXcXcXcXcXvXvXvXvXvXvXvXvXvXvXvXvXvXvXvXvXcXcXcXvXvXvXvXvXvXvXcXcXcXcXcXcXvXvXvXvXvXvXvXvXvXvXvXvXvXNXCXCXCXNXNXNXvXcXzXkXuXuXuXzXzXxXzXxXxXcXcXcXcXcXcXxXzXzXzXuXrXwXqX2X4X4X4X2X<X<X<X1X1X1X1X1X1X1X<X2X2X2X2X1X1X'.S.c.a.x.c.n.v.v.v.v.v.n.v.v.v.v.m.Z.N.N.n.n.v.v.S.S.Z.m.m.m.m.v.v.v.v.v.v.c.c.c.c.d.x.a.a.a.a.a.a.a.a.a.a.a.s.s.s.s.s.s.s.s.s.s.s.s.s.s.s.s.s.s.s.s.s.s.s.s.s.s.s.s.s.s.s.s.s.s.>.:.:.:.s.s.z.n.V.(._.].'.5X5X5X5X,X,X,X,X,X,X,X,X,X,X1X1X1X,X,X1X1X1X<X<X<X2XqXqXqXqXqXqXqXqXqXqXqXwXwXwXrXrXwXwXwXwXrXrXrXwXwXwXwXwXwXwXwXwXwXwXwXwXwXwXeXeXeXeXeXeXeXuXuXuXuXuXuXuXuXuXuXuXuXuXuXeXeXeXeXeXeXeXeXeXeXeXeXeXeXuXuXuXuXuXuXuXuXuXuXuXuXuXkXuXkXzXzXzXxXxXxXxXxXxXxXxXxXxXxXxXxXxXcXcXnXnXnXnXnXnXnXnXnXnXnXnXnXnXnXnXnXnXnXnXnXnXnXnXnXnXnXcXcXcXcXcXcXcXcXcXcXvXvXvXcXcXcXbXbXzXkXfX<X'.).(.V.",
"[ [ ] ] [ [ [ [ [ [ [ [ [ [ [ [ [ [ [ [ [ [ | | [ [ | | } } } } | |  . . .X.X.X.*.9./.}.fXzXbXbXcXcXcXcXcXcXcXcXcXcXbXbXcXcXcXcXxXxXbXbXvXvXcXcXvXvXvXvXvXvXvXcXvXvXvXvXvXvXNXNXNXNXCXCXCXCXCXCXCXCXCXCXCXCXCXCXCXCXCXCXCXCXCXCXCXCXCXCXCXNXNXNXNXNXvXvXvXcXvXvXcXcXvXvXcXcXvXcXvXvXvXvXvXvXvXvXcXcXvXvXvXvXvXvXcXcXcXcXvXvXvXvXcXcXcXcXvXvXvXvXvXvXvXvXvXvXvXvXvXvXvXvXcXcXcXcXvXvXvXvXvXvXcXcXcXcXcXcXvXvXvXvXvXvXvXvXvXvXvXvXvXNXCXCXCXCXNXNXvXvXcXzXzXuXeXuXkXkXzXzXxXxXxXxXcXcXcXxXxXzXcXzXuXrXwXqXqX4XqX4X2X<X<X1X1X1X1X1X1X1X1X1X<X2X2X2X2X,X'._.S.n.c.c.c.v.v.v.v.n.v.v.v.v.m.m.N.N.S.S.v.v.S.S.Z.m.m.m.m.m.m.m.v.v.v.v.c.c.c.c.x.x.a.a.a.a.a.a.a.a.a.a.s.s.s.s.s.s.s.s.s.s.s.s.s.s.s.s.s.s.s.s.s.s.s.s.s.s.s.s.s.s.s.s.s.s.>.>.:.s.z.x.V.(.].'.'.5X5X5X5X5X,X,X,X,X,X,X,X,X1X1X1X1X1X1X,X,X1X1X<X<X2X2XqXqXqXqXqXqXqXqXqXqXwXqXwXwXrXrXwXrXwXwXrXwXrXrXwXqXwXwXwXwXwXwXwXwXwXwXwXeXwXeXeXeXeXeXeXeXuXuXuXuXuXuXuXuXuXuXuXuXuXuXeXeXeXeXeXeXeXeXwXeXeXeXeXeXuXuXuXuXuXuXuXuXuXuXuXuXkXkXuXuXzXzXxXxXxXxXxXxXxXxXxXxXxXxXxXxXzXxXcXnXnXnXnXnXnXnXnXnXnXnXnXnXnXnXnXnXnXnXnXnXnXnXnXnXnXnXcXcXcXcXcXvXcXcXcXcXvXvXvXcXcXcXcXbXbXzXfX4X,X'.(.V.",
"[ [ [ [ [ [ [ [ [ [ [ [ [ [ [ [ [ [ [ [ [ [ | [ [ [ } | | | }  . . . . . .X.X.X.*.8.).3XfXzXbXbXcXbXbXcXbXbXcXcXxXcXxXcXcXxXxXcXxXcXcXcXcXcXcXcXvXvXvXvXvXvXcXcXvXvXNXNXNXNXNXNXNXCXCXCXCXCXCXCXCXCXCXCXCXCXCXCXCXCXCXCXCXCXCXCXCXCXCXCXCXNXNXNXNXvXNXvXvXvXvXvXvXvXvXvXcXcXvXvXvXvXvXvXvXvXvXvXcXcXcXcXvXvXvXvXvXvXvXvXvXvXcXcXvXcXcXcXvXvXvXvXvXvXvXvXvXvXvXvXvXvXcXcXcXcXcXcXcXcXvXvXvXvXvXcXcXcXcXcXvXvXvXvXvXvXvXvXvXvXvXvXvXNXCXAXAXCXCXNXNXvXvXbXzXzXuXuXuXkXkXzXzXzXxXxXcXcXcXxXxXxXxXxXzXzXuXeXrXqXqXqX4X2X2X<X1X1X1X1X1X1X<X<X<X2X2X2X2X2X2X,X$X_.V.v.v.v.v.v.v.v.v.v.n.v.m.m.N.S.S.S.v.m.S.S.Z.Z.S.m.Z.m.m.m.S.v.v.v.v.c.c.c.c.x.c.a.a.a.a.a.a.a.a.a.a.a.s.s.s.s.s.s.s.s.s.s.s.s.s.s.s.s.s.s.s.s.s.s.s.s.s.s.s.s.s.s.s.s.z.z.x.n.S.S.].'.5X5X5X5X5X5X5X5X,X,X,X,X,X1X1X1X<X<X<X1X<X1X1X1X1X<X<X<XqXqXqXqXqXqXqXqXqXqXwXwXrXrXwXwXwXwXwXwXwXwXwXwXrXwXwXwXwXwXwXwXwXwXwXwXwXwXwXeXeXeXeXeXeXuXuXuXuXuXuXuXuXuXuXuXuXuXuXuXuXeXeXeXeXeXeXeXwXwXwXwXwXwXrXrXuXuXuXuXuXuXuXuXuXuXuXuXkXkXuXuXzXzXxXxXxXxXxXxXxXxXbXxXxXxXxXxXxXzXcXvXnXnXnXnXnXnXnXnXnXnXnXnXnXnXnXnXnXnXnXnXnXnXnXnXnXnXnXnXcXcXvXvXvXvXcXcXvXvXcXcXcXcXbXbXzXzXkXrX<X}.(.~.",
"[ [ [ [ [ [ [ [ [ [ [ [ [ [ [ [ [ [ [ [ [ [ | [ [ [ } | | |  . . . . . . .X.X.+.;.b.).3XfXzXbXbXcXcXbXbXbXbXbXcXxXxXxXcXcXcXxXcXcXcXcXcXcXcXcXcXvXvXvXvXvXvXcXcXvXvXvXnXNXNXNXNXNXNXCXCXCXCXCXCXCXCXCXCXCXCXCXCXCXCXCXCXCXCXCXCXCXCXCXCXCXNXNXNXNXNXNXvXvXcXvXvXvXvXvXvXcXcXvXvXvXvXvXvXvXvXvXvXcXcXcXcXvXvXvXvXvXvXvXvXcXcXcXcXvXcXcXcXvXvXvXvXvXvXvXvXvXvXvXvXvXvXcXcXcXcXcXcXcXcXcXcXvXvXvXcXvXvXcXcXvXvXvXvXvXvXvXvXvXvXvXvXvXNXCXCXCXCXCXNXNXvXvXvXbXzXzXuXuXuXuXkXkXzXzXzXxXxXcXxXxXzXzXzXxXcXzXzXuXrXqXqXqX4X2X<X1X1X1X1X1X1X1X<X<X2X2X2X2X2X4X4X1X5X].S.c.v.v.v.v.v.v.v.v.n.v.v.N.S.S.S.Z.Z.S.S.Z.Z.S.m.S.m.Z.m.S.N.v.v.v.v.v.v.c.c.c.c.a.a.a.a.a.a.a.a.a.s.s.s.s.s.s.s.s.s.s.s.s.s.s.s.s.s.s.s.s.s.s.s.s.s.s.s.s.s.s.s.s.z.x.x.S._.].5X5X5X5X5X5X5X5X5X5X5X,X,X,X,X1X1X1X<X<X<X<X1X<X1X1X1X<X<X<XqXqXqXqXqXqXqXqXqXqXqXwXwXrXrXwXwXwXwXwXwXwXwXwXwXwXwXwXwXwXwXwXwXwXwXwXwXwXwXwXeXeXeXeXeXeXeXeXeXeXeXuXuXuXuXeXeXeXeXuXeXeXeXeXeXeXeXeXeXwXeXwXwXwXwXrXrXuXuXuXuXuXuXuXuXuXuXuXuXkXkXkXkXzXzXxXxXxXxXxXxXxXxXbXbXxXxXxXxXzXzXxXcXnXnXnXnXnXnXnXnXnXnXnXnXnXnXnXnXnXnXnXnXnXnXnXnXnXnXnXnXvXcXvXvXvXvXcXcXvXvXcXcXcXcXbXbXbXzXkXrXqX1X`.(.",
"[ [ ] ] ] [ [ [ [ [ [ [ [ [ [ [ [ [ [ [ [ [ [ [ [ [ | | | |  . .} }  . . .X.X.+.5.!.}.rXzXbXcXcXcXxXbXbXbXcXcXcXbXcXcXcXcXcXcXcXcXcXcXcXvXvXvXvXcXcXcXvXvXvXvXvXvXvXNXNXNXNXNXNXNXNXCXCXCXCXCXCXCXCXCXCXNXNXCXCXCXCXNXNXNXNXCXCXCXCXCXNXNXNXNXvXvXvXvXvXvXcXcXcXcXcXvXvXvXvXvXvXvXvXvXvXvXvXvXvXvXvXvXcXvXvXcXcXvXvXcXcXvXvXcXcXvXvXcXcXvXvXvXvXvXvXvXvXvXvXvXvXcXcXcXcXcXcXcXcXcXcXvXvXvXvXcXcXvXvXvXvXvXvXvXvXvXvXvXcXvXcXcXcXvXvXCXCXCXCXCXNXNXNXNXvXcXxXzXzXuXuXuXkXkXkXzXzXzXzXcXxXxXzXzXzXzXxXcXcXzXkXeXrXwXqXqX2X<X1X1X1X1X1X1X1X<X<X2X2X2X2X2X2X2X2X1X5X_.S.v.c.c.c.v.v.v.v.n.v.m.m.S.S.S.S.S.S.Z.Z.Z.S.S.S.S.S.S.S.v.v.n.n.n.v.n.c.c.c.x.x.a.a.a.a.a.a.a.a.a.a.a.a.s.s.s.s.s.s.s.s.s.s.s.s.s.s.s.s.s.s.s.s.s.s.>.>.s.s.x.V.(._.].'.5X5X5X5X5X5X5X5X1X1X,X,X,X,X,X,X1X1X<X<X<X1X1X1X1X<X<X<X<X2X4XqXqXqXqXqXqXqXqXqXqXqXwXwXrXrXrXrXwXwXwXwXwXwXwXwXwXwXwXwXwXwXwXwXwXwXwXwXwXwXwXwXeXeXwXeXeXeXeXeXeXeXuXuXuXuXeXeXeXeXeXeXeXeXwXwXwXwXwXwXwXwXwXwXeXeXrXrXuXuXuXuXuXuXuXuXuXuXuXuXkXkXkXuXzXzXxXxXxXxXxXxXxXxXcXcXbXbXxXzXzXzXzXcXcXnXnXnXnXnXnXnXnXnXnXnXnXnXnXnXnXnXnXnXnXnXnXnXnXnXnXnXvXvXcXcXvXvXvXvXcXcXcXcXcXcXvXcXcXzXzXeXrX4X'.(.",
"] [ ] ] ] [ [ [ [ [ [ [ [ [ [ [ [ [ [ [ [ [ [ [ [ [ | | | | } } } }  . . .X.X.+.6.!.}.fXzXbXcXcXcXcXbXbXbXbXcXcXbXbXcXcXcXcXcXcXcXcXcXcXvXvXvXvXcXcXcXcXvXvXvXvXvXvXNXNXNXNXNXNXNXNXCXCXCXCXCXCXCXCXCXCXNXCXCXCXCXCXNXCXNXNXCXCXCXCXCXNXNXNXNXvXvXvXvXvXvXcXcXcXcXcXvXvXvXvXvXvXvXvXvXvXvXvXvXvXvXvXcXcXvXvXcXcXvXvXcXcXvXvXcXcXvXvXcXcXvXvXvXvXvXvXvXvXcXcXcXcXcXcXcXcXvXcXcXcXcXcXvXvXcXvXcXcXvXvXvXvXvXvXvXvXcXcXcXvXvXcXcXcXcXvXCXCXCXCXCXNXNXNXNXNXvXcXzXzXuXuXuXuXkXkXkXzXzXzXzXzXzXxXcXxXzXzXzXzXxXxXzXkXuXrXwXqX4X2X<X<X1X1X<X<X<X<X2X2X2X2X2X2X2X2X2X2X1X$X_.S.v.v.c.v.n.v.v.v.m.m.S.m.N.N.S.S.Z.Z.Z.S.S.S.S.S.S.v.S.v.n.n.n.n.v.v.c.c.c.x.x.a.a.a.a.a.a.a.a.a.a.a.s.s.s.s.s.s.s.s.s.s.s.s.s.s.s.s.s.s.>.s.s.z.s.x.n.S.(._.].'.5X5X5X5X5X5X5X5X5X5X5X5X,X,X1X1X1X1X1X1X<X<X<X1X1X1X<X<X4XqX4XqXqXqXqXqXqXqXqXqXqXqXqXqXqXqXrXrXrXrXwXwXwXwXwXwXwXwXwXwXwXwXwXwXwXwXwXwXwXwXwXwXwXwXeXeXwXeXeXeXeXeXeXeXeXeXeXuXeXeXeXeXeXeXwXwXwXwXwXwXwXwXwXwXwXwXeXeXrXrXuXuXuXuXuXuXuXuXuXuXuXuXkXkXkXkXzXzXxXxXxXxXxXxXxXxXcXcXbXcXxXzXzXzXzXzXxXcXnXnXnXnXnXnXnXnXnXnXnXnXnXnXnXnXnXnXnXnXnXnXnXnXnXnXvXvXcXcXcXcXvXcXcXcXcXcXcXcXvXvXbXzXzXfXrX4X5X`.",
"] ] ] ] ] ] ] ] ] ] ] ] ] ] [ [ [ [ [ [ [ [ [ [ [ [ | | | | } } } }  . .X.O.X.*.6.~.|.fXbXbXcXcXxXxXcXbXcXcXcXcXbXbXcXxXcXcXbXbXcXcXcXcXvXvXvXvXcXcXcXcXvXvXvXvXvXvXvXNXNXNXNXNXNXNXCXCXCXCXCXCXCXCXNXNXNXNXCXCXCXCXCXCXNXNXCXCXCXCXCXNXNXNXNXvXvXvXvXvXvXvXvXcXcXcXcXvXvXvXvXvXvXvXvXvXvXvXvXvXvXvXcXcXvXvXcXcXvXcXcXcXvXcXcXcXvXvXcXcXvXvXvXvXvXvXvXvXcXcXcXcXcXcXvXvXvXvXcXcXcXcXcXvXcXcXcXcXcXcXvXvXvXvXvXvXcXcXcXcXvXvXvXvXvXvXCXCXCXCXCXNXNXNXnXnXvXvXxXzXkXuXuXuXuXkXkXkXzXzXzXzXzXzXxXcXcXxXzXzXzXxXcXxXzXkXeXwXqX2X2X2X2X2X2X2X2X2X2X2X2X2X2X2X2X2X2X2X2X<X1X$X_.S.v.n.v.v.v.v.v.v.m.m.m.N.S.S.Z.Z.Z.Z.S.S.Z.S.S.v.v.v.N.n.m.m.n.v.n.c.c.c.x.x.a.a.a.a.x.x.a.a.a.s.s.s.s.s.s.s.s.s.s.s.s.s.s.s.s.s.s.s.s.z.x.n.V.S.(.].'.5X5X5X5X5X,X,X,X,X,X,X,X,X,X1X1X1X1X1X1X1X<X<X<X1X<X<X1X<X<XqXqXqXqXqXqXqXqXqXqXqXqXqXqXqXqXqXqXqXwXwXwXwXwXwXwXwXwXwXwXwXwXqXwXwXwXwXwXwXwXwXwXwXwXwXwXwXrXrXeXeXeXeXeXeXeXeXeXeXeXeXeXeXrXrXeXeXwXwXwXwXwXwXeXeXeXeXeXeXeXeXuXuXuXuXuXuXuXuXuXuXuXuXzXzXkXkXkXkXzXzXxXxXxXxXxXxXxXxXcXcXcXcXxXxXxXzXzXzXzXxXcXnXnXnXnXnXnXnXnXnXnXnXnXnXnXnXnXnXnXnXnXnXnXnXnXnXvXvXcXcXcXcXvXvXcXcXcXcXcXcXvXvXcXcXbXzXeXrX<X5X",
"] ] ] ] ] ] ] ] ] ] ] ] ] ] [ [ [ [ [ [ [ [ [ [ [ [ | | | | } } } }  . .X.O.X.*.9./.3XfXbXbXcXcXxXxXcXcXcXcXcXcXbXbXbXxXxXcXbXbXcXcXcXcXcXvXvXvXcXcXcXvXvXvXvXvXvXvXNXNXNXNXNXNXNXNXCXCXCXCXCXCXCXCXCXNXNXNXCXCXCXCXCXCXNXNXCXCXCXCXCXNXNXNXNXvXvXvXvXvXvXvXvXvXcXcXcXvXvXvXvXvXvXvXvXvXvXvXvXvXvXvXcXcXvXvXcXcXvXvXcXcXvXcXcXcXvXvXcXcXvXvXvXvXvXvXvXvXcXcXcXcXcXvXvXvXvXvXcXcXcXcXvXvXcXcXcXcXcXcXvXvXvXvXvXvXcXcXcXcXvXvXvXvXcXvXNXCXCXCXCXNXNXNXnXnXnXcXxXzXkXkXuXuXuXuXkXkXkXkXzXzXzXzXzXzXxXcXcXcXcXxXxXxXxXzXzXuXeXwXqX2X2X2X2X2X2X2X2X2X2X2X2X2X2X2X2X2X2X2X2X<X5X]._.S.n.v.v.v.v.v.m.m.v.N.S.S.Z.Z.Z.Z.Z.S.S.S.S.S.v.v.N.n.N.m.n.n.n.v.c.c.x.x.x.a.a.a.x.x.a.a.a.a.s.s.s.s.s.s.s.s.s.s.s.s.s.s.s.s.s.s.x.n.V.S.].].'.5X5X5X5X5X5X5X,X,X,X,X,X,X1X,X1X1X1X1X1X1X1X1X<X<X<X1X<X<X<X<XqXqXqXqXqXqXqXqXqXqXqXqXqXqXqXqXqXqXqXqXwXwXwXwXwXwXwXwXwXwXwXwXwXwXwXwXwXwXwXwXwXwXwXwXwXwXwXwXrXrXwXwXeXeXeXeXeXeXeXeXrXrXrXrXrXrXwXwXwXwXwXwXwXwXeXeXeXwXeXeXeXeXuXuXuXuXuXuXuXuXuXuXuXuXkXzXzXzXkXkXzXxXxXxXxXxXxXxXxXxXcXcXcXcXxXxXxXzXzXzXzXxXxXnXnXnXnXnXnXnXnXnXnXnXnXnXnXnXnXnXnXnXnXnXnXnXnXnXvXvXcXcXcXcXvXvXcXcXcXcXcXcXvXvXvXcXbXzXfXrXqX1X",
"L ] L ] ] ] ] ] ] ] ] ] ] ] ] ] [ [ [ [ [ [ | | | | } } | | } }  . . . .X.X.X.*.8.).3XfXbXbXbXcXcXcXcXcXcXcXcXcXcXcXcXcXcXcXcXcXvXvXvXvXcXcXcXvXvXvXvXvXvXvXNXNXvXvXNXNXNXNXNXNXNXNXNXNXCXCXCXCXCXCXCXCXNXNXCXCXCXNXNXNXCXCXCXCXCXCXCXNXCXNXNXvXvXvXvXvXvXvXvXvXcXcXbXbXvXvXvXvXvXvXvXvXvXvXvXvXvXcXcXcXvXvXvXvXvXvXvXvXcXcXcXvXcXcXcXcXvXvXvXvXvXvXvXvXvXvXvXvXcXcXcXcXcXcXcXcXvXvXvXcXcXcXvXvXvXvXvXvXvXvXvXvXvXvXvXcXcXvXvXvXcXvXNXCXCXCXCXCXVXVXVXVXnXvXcXxXzXkXkXuXuXuXuXkXkXkXkXkXzXzXzXzXxXcXcXcXcXcXxXxXxXxXxXzXzXuXeXqXqX2X2X2X2X2X2X2X2X2X2X2X2X2X2X2X2X2X2X2X2X2X$X]._.S.S.v.v.v.v.n.v.v.N.S.S.m.N.S.S.S.S.S.S.S.S.N.N.n.n.n.n.n.n.n.v.v.c.c.x.x.x.x.a.a.a.a.a.s.s.s.s.s.s.s.s.s.:.:.s.s.s.s.s.z.x.V.S.(.].].'.5X5X5X5X5X1X1X,X,X,X,X1X1X,X,X,X1X1X1X1X1X1X1X1X1X<X<X<X<X<X<XqXqXqXqXqXqXqXqXqXqXqXqXqXqXqXqXqXqXwXwXqXqXwXwXwXwXwXwXwXwXwXwXwXwXwXwXwXwXwXwXwXwXwXwXwXwXwXwXwXwXwXwXwXeXeXeXeXeXrXrXrXrXrXrXrXrXwXwXwXwXwXwXwXwXwXwXeXeXeXeXeXeXeXeXuXuXuXuXuXuXuXuXuXuXuXuXkXkXzXzXkXkXxXxXxXxXxXxXcXcXxXxXcXcXcXcXcXxXxXxXxXzXzXzXxXcXnXnXnXnXnXnXnXnXnXnXnXnXnXnXnXnXnXnXnXnXnXnXnXnXnXnXvXvXvXvXvXvXvXvXcXcXcXcXvXvXvXcXxXzXzXeXwXqX",
"L L ] ] ] ] ] ] ] ] ] ] ] ] ] ] [ [ [ [ [ [ | | | | } } | | } }  . . . .X.X.X.*.b.).0XgXbXbXcXcXcXcXcXcXcXcXcXcXcXcXcXcXcXcXcXcXvXvXvXvXcXcXcXcXvXvXvXvXvXvXNXNXvXvXNXNXNXNXNXNXNXNXNXNXCXCXCXCXCXCXCXCXNXNXCXCXCXNXNXNXCXCXCXCXCXCXNXNXCXNXNXvXvXvXvXvXvXvXvXvXcXcXbXbXvXvXvXvXvXvXvXvXvXvXvXvXvXvXcXcXvXvXvXvXvXvXvXvXcXcXcXvXcXcXcXcXvXvXvXvXvXvXvXvXvXvXvXvXcXcXcXcXvXvXcXcXvXvXvXcXcXcXvXvXvXvXvXvXvXvXvXvXvXvXvXcXcXvXvXvXvXvXNXCXCXCXCXCXVXVXVXVXVXnXvXcXcXzXkXkXuXuXuXuXkXkXkXkXkXzXzXxXxXcXcXcXnXnXcXcXcXxXxXxXxXxXzXuXeXqX2X2X2X2X2X2X2X2X2X2X2X2X2X2X2X2X2X2X2X2X2X1X1X$X]._._.S.S.m.N.N.S.S.S.S.S.S.S.Z.Z.S.S.S.S.S.S.N.n.n.n.n.n.v.n.v.c.c.x.x.x.x.a.a.x.a.a.a.s.s.s.s.s.s.s.>.:.:.i.s.s.a.n.S._.].].'.5X5X5X5X5X5X1X1X1X1X1X1X,X,X1X1X1X1X1X1X1X1X1X1X1X1X1X1X<X<X<X4XqXqXqXqXqXqXqXqXqXqXqXqXqXqXqXqXqXqXqXqXwXwXqXqXwXwXwXwXwXwXwXwXwXwXwXwXwXqXwXwXwXwXwXwXwXwXwXwXwXwXwXwXwXwXeXeXeXeXwXwXwXwXwXwXwXwXwXwXwXwXwXwXwXwXwXwXwXwXeXeXeXeXeXeXeXeXuXuXuXuXuXuXuXuXuXuXuXuXkXkXzXzXkXkXxXxXxXxXxXxXcXcXxXxXcXcXcXcXcXxXxXcXxXzXzXzXzXxXcXnXnXnXnXnXnXnXnXnXnXnXnXnXnXnXnXnXnXnXnXnXnXnXnXnXvXvXvXvXvXvXvXvXcXcXcXcXvXvXvXcXxXxXzXeXrXrX",
"] ] ] ] ] ] ] ] ] ] ] ] ] ] ] ] ] ] ] ] [ [ | | | | } } } | } } } }  . .X.X.+.5.C.{.dXbXbXcXcXcXxXxXcXcXcXcXcXcXcXcXcXcXcXcXcXcXvXvXvXvXcXcXcXcXvXvXvXvXvXvXvXvXvXvXNXNXNXNXNXNXNXNXNXNXCXCXCXCXCXCXCXCXNXNXNXCXCXCXNXNXCXCXCXCXNXNXNXNXCXNXNXNXNXvXvXvXvXvXbXbXcXcXvXvXvXvXvXvXvXvXvXvXvXvXvXvXvXvXvXcXvXvXvXvXvXvXvXvXcXcXvXvXcXcXcXcXvXvXvXvXvXvXvXvXvXvXvXvXcXcXvXvXvXvXvXvXvXvXcXcXcXcXvXvXvXvXvXvXvXvXvXvXvXvXvXvXcXcXcXvXvXvXNXCXCXCXCXCXVXVXVXVXVXVXnXvXcXxXzXzXkXuXuXuXuXuXkXkXkXkXzXzXxXcXcXcXvXnXnXnXcXcXcXxXxXxXxXzXuXeXwXqXqXqXqXqXqX2X2X2X2X2X2X2X2X2X2X2X2X2X2X2X2X2X2X1X1X$X$X]._._._._.S.S.S.S.S.S.S.S.S.S.S.S.S.S.V.n.v.v.n.v.n.v.v.c.x.x.x.x.x.x.x.x.x.x.a.a.z.s.s.s.h.z.x.x.n.n.V.S._.'.5X5X5X5X5X5X5X5X1X1X1X1X1X1X1X1X1X1X1X1X1X1X1X1X<X<X<X<X<X<X2X2X4X4XqXqXqXqXqXqXqXqXqXqXqXqXqXqXqXqXqXqXqXqXqXqXqXqXqXqXwXwXwXwXwXwXwXwXwXwXwXwXwXwXwXwXwXwXwXwXwXwXwXwXwXwXwXwXwXwXrXrXrXrXwXwXwXwXwXwXqXqXwXwXwXwXwXwXwXwXwXwXeXeXeXeXeXeXeXeXuXuXuXuXuXuXuXuXuXuXuXuXkXkXzXzXzXzXxXxXxXxXxXxXxXxXcXcXxXxXxXxXvXvXcXcXcXcXcXzXzXzXzXzXxXcXnXnXnXnXnXnXnXnXnXnXnXnXnXnXnXnXnXnXnXnXnXnXnXnXvXvXvXvXvXvXvXvXvXcXcXcXvXvXvXvXvXxXxXzXeXeX",
"] ] ] ] ] ] ] ] ] ] ] ] ] ] ] ] ] ] ] ] [ [ | | | | } } } | } } } }  . .X.X.+.5.C.{.fXbXbXcXcXcXxXxXcXcXcXcXcXcXcXcXcXcXcXcXcXcXcXvXvXvXcXcXcXcXvXvXvXvXvXvXvXvXvXvXNXNXNXNXNXNXNXNXNXNXNXCXCXCXCXCXCXCXNXNXNXCXCXCXNXNXCXCXCXCXNXNXNXNXCXNXNXNXNXvXvXvXvXvXvXbXbXbXvXvXvXvXvXvXvXvXvXvXvXvXvXvXvXvXvXcXvXvXvXvXvXvXvXvXcXcXvXvXvXcXcXcXvXvXvXvXvXvXvXvXvXvXvXvXcXcXcXvXvXvXvXvXvXvXcXcXcXcXvXvXvXvXvXvXvXvXvXvXvXvXvXvXcXcXcXvXcXcXvXNXNXCXCXCXVXVXVXVXVXVXVXnXnXcXxXzXkXkXuXuXuXuXuXuXkXkXzXzXxXxXcXcXcXvXcXcXnXnXcXcXcXxXvXxXzXzXuXeXwXwXwXwXwXqXqX2X2X2X2X2X2X2X2X2X2X2X2X2X2X2X2X2X2X2X1X1X1X1X1X5X$X$X5X$X$X].].]._.S.S.S.S.S.V.V.n.v.v.n.n.v.c.c.x.x.x.x.x.x.x.x.x.x.x.x.x.x.x.x.n.V.V.V._._.].5X,X,X,X,X,X,X,X,X5X5X,X,X1X1X1X1X1X1X1X1X1X1X1X1X1X1X1X1X<X<X<X2X4X4XqXqXqXqXqXqXqXqXqXqXqXqXqXqXqXqXqXqXqXqXqXqXqXqXqXqXqXqXwXwXwXwXwXwXwXwXwXwXwXwXwXwXwXwXwXwXwXwXwXwXwXwXwXwXwXwXwXwXwXwXwXwXwXwXwXwXqXqXqXqXwXwXwXwXwXwXwXwXwXwXeXeXeXeXeXeXeXeXuXuXuXuXuXuXuXuXuXuXuXuXkXkXzXzXzXzXxXxXxXxXxXxXxXxXcXcXxXxXxXxXvXvXcXcXcXcXcXxXxXzXzXzXzXxXcXnXnXnXnXnXnXnXnXnXnXnXnXnXnXnXnXnXnXnXnXnXnXnXvXvXvXvXvXvXvXvXvXcXcXcXvXvXvXvXvXxXxXzXuXuX",
"L L q.q.] ] ] L L L ] ] ] ] ] ] ] ] ] ] [ [ | | | | } } } } } } } }  . .O.X.*.5.!.}.fXMXbXcXvXvXcXcXcXcXcXcXcXcXcXcXcXcXcXcXvXvXcXcXvXcXvXvXvXvXvXvXvXvXnXnXvXvXNXNXNXNXNXNXNXNXNXNXNXNXNXNXNXNXNXNXNXNXNXNXNXNXNXNXNXNXNXNXNXNXNXNXNXNXNXvXvXvXvXvXvXcXvXvXcXcXbXbXvXvXbXbXvXvXvXvXvXvXvXvXvXvXcXcXcXcXcXcXcXcXcXcXvXvXcXcXvXvXvXvXvXvXvXvXvXvXvXvXvXvXvXvXvXvXvXvXvXvXcXvXvXvXvXcXcXcXcXvXvXvXvXvXvXvXvXvXvXvXvXvXvXvXvXvXvXcXcXvXvXNXNXNXVXVXVXVXVXVXVXVXVXVXnXnXcXxXxXzXzXkXkXuXuXuXuXuXkXkXzXzXxXxXcXcXcXcXcXnXnXnXcXcXcXxXxXxXzXuXuXeXwXwXwXwXwXqXqX2X2X2X2X2X2X2X2X2X2X2X2X2X2X2X2X2X2X2X2X2X2X2X2X2X2X2X<X1X1X1X,X5X5X5X$X].]._.S.S.S.S.V.V.V.V.V.V.S.S.S.S.S.S.S.(.(.(.(.(.(.(._._.].].'.5X5X5X5X5X5X5X,X,X,X,X,X1X,X1X1X1X1X1X1X1X1X1X1X1X<X<X1X<X<X<X<X<X2X4XqXqXqXqXqXqXqXqXqXqXqXqXwXwXwXwXqXqXqXwXqXqXwXwXwXwXqXqXwXwXwXwXwXwXwXwXwXwXwXwXwXwXwXwXwXwXwXwXwXwXqXqXwXwXwXwXwXwXwXwXwXwXwXwXwXwXwXwXqXqXqXqXwXwXwXwXwXwXwXwXeXeXeXeXeXeXeXeXeXeXuXuXuXuXuXuXuXuXuXuXuXuXkXkXzXlXlXlXxXxXxXxXxXxXxXxXcXcXxXxXxXxXxXcXcXcXcXcXcXcXxXzXzXzXzXzXcXvXNXNXnXnXnXnXnXnXnXnXnXnXnXnXnXnXnXnXnXnXnXnXvXvXvXvXvXvXvXvXvXvXvXvXvXvXcXcXvXcXbXzXzXzX",
"L L q.L ] ] ] ] L L ] ] ] ] ] ] ] ] ] ] [ [ | | | | } } } } } } } }  . .X.X.*.5.~.}.fXBXbXbXvXvXcXcXcXvXcXcXcXcXcXcXcXcXcXcXvXvXcXcXvXvXvXvXvXvXvXvXvXvXnXnXvXvXNXNXNXNXNXNXNXNXNXNXNXNXNXNXNXNXNXNXNXNXNXNXNXNXNXNXNXNXNXNXNXNXNXNXNXNXNXvXvXvXvXvXvXcXvXvXcXcXbXbXvXvXbXbXvXvXvXvXvXvXvXvXvXvXcXcXcXcXcXcXcXcXcXcXvXvXcXcXvXvXvXvXvXvXvXvXvXvXvXvXvXvXvXvXvXvXvXcXvXvXcXvXvXvXcXcXcXcXvXvXvXvXvXvXvXvXvXvXvXvXvXvXvXvXvXvXvXcXcXcXvXvXNXNXVXVXVXVXVXVXVXVXVXVXnXnXnXcXcXcXxXzXzXkXkXuXuXkXkXkXkXzXzXxXcXcXcXcXcXnXnXnXnXnXnXcXcXcXxXzXzXuXeXeXwXwXwXwXwXwXqXqXqXtXtXtX2X2X<X<X2X<X2X2X2X2X2X2X2X2X2X2X2X2X2X2X2X2X2X<X<X1X1X1X1X,X5X5X5X]._._._._._._._._._._._.].].].].].].].].].].'.'.5X5X5X5X5X,X,X5X5X,X,X,X,X,X,X,X,X1X1X1X1X1X1X1X1X1X1X1X<X<X<X<X<X<X<X<X2X4XqXqXqXqXqXqXqXqXqXqXqXqXqXrXrXwXwXqXqXqXqXqXqXwXqXwXwXqXqXwXwXwXwXwXwXwXwXwXwXwXwXwXwXwXwXwXwXwXwXwXwXwXqXwXwXwXwXwXwXwXwXwXwXwXwXwXwXqXqXqXqXqXqXqXqXwXwXwXwXwXwXeXeXeXeXeXeXeXeXeXeXuXuXuXuXuXuXuXuXuXuXuXuXkXkXzXzXlXlXxXxXxXxXxXxXxXxXcXcXxXxXxXxXxXcXcXcXcXcXcXcXcXxXzXzXzXzXxXcXnXNXnXnXnXnXnXnXnXnXnXnXnXnXnXnXnXnXnXnXnXnXvXvXvXvXvXvXvXvXvXvXvXvXvXvXvXcXvXvXcXxXzXzX",
"L L L L ] ] ] ] L ] ] ] ] ] ] ] ] ] ] ] [ [ | | | | | } } } } }  . . . .X.+.*.6.^.1XfXBXbXbXbXbXcXcXvXvXvXvXcXvXvXvXvXvXvXvXvXvXvXvXvXvXvXvXvXvXvXvXvXvXnXvXvXvXNXNXCXCXNXNXNXNXNXNXNXNXCXNXNXNXNXNXNXNXNXNXNXNXNXNXNXNXNXNXNXNXNXNXNXNXNXvXvXvXvXvXvXcXvXcXvXcXbXbXvXvXbXbXvXvXvXvXvXvXvXvXvXvXcXcXcXvXcXcXvXcXvXvXcXvXcXcXcXcXcXcXvXvXvXvXvXvXvXvXvXvXvXvXvXvXcXcXcXcXcXcXvXvXcXcXcXcXcXcXcXcXcXcXcXcXvXvXvXvXcXcXvXvXvXvXvXcXcXcXvXvXNXNXvXnXnXnXnXnXnXnXVXVXnXnXnXnXnXvXcXcXxXzXzXkXkXzXkXzXzXzXzXxXcXcXcXcXcXcXnXnXnXnXnXnXnXnXcXcXcXxXxXzXuXeXwXwXeXuXuXrXwXwXwXwXqX2X2X2X2X<X<X<X<X<X<X<X<X2X2X2X2X2X2X<X<X<X<X<X<X<X<X1X<X<X,X,X,X,X5X5X'.'.'.'.$X5X5X5X5X5X5X5X5X5X5X5X5X5X5X5X5X5X5X,X,X,X,X,X5X5X,X,X,X,X1X1X1X1X1X1X1X1X<X1X<X<X<X<X<X<X<X<X<X2X2X4X4XqXqXqXwXwXqXqXqXqXqXqXwXwXwXqXrXrXrXrXqXqXqXqXqXqXqXqXwXwXqXqXwXwXwXwXwXwXwXwXwXwXwXwXwXwXwXwXwXwXwXwXwXwXqXqXwXwXwXwXwXwXwXwXwXwXwXwXwXwXqXqXqXqXqXqXwXwXwXwXwXwXrXrXeXeXeXeXeXeXuXuXeXeXeXuXuXuXuXuXuXuXuXuXuXuXkXkXzXlXlXlXxXxXxXxXxXxXxXxXcXcXxXxXxXxXxXxXcXcXcXcXcXcXcXcXzXzXzXzXzXcXvXnXnXVXCXCXnXnXnXnXnXnXnXnXnXnXnXnXnXNXnXnXvXvXvXvXvXvXvXvXcXcXvXcXcXvXvXvXcXvXcXcXzXzX",
"L L L L ] ] ] ] L L ] ] ] ] ] ] ] ] ] ] [ [ | | | | | | } } } }  . . . .+.+.*.6.).3XfXbXbXbXbXbXcXcXvXvXvXvXvXvXvXvXvXvXvXvXvXvXvXvXvXvXvXvXvXvXvXvXvXvXnXvXvXvXNXNXCXCXNXNXNXNXNXNXNXNXCXNXNXNXNXNXNXNXNXNXNXNXNXNXNXNXNXNXNXNXNXNXNXNXNXvXvXvXvXvXvXcXvXvXvXvXbXbXvXvXbXbXvXvXvXvXvXvXvXvXvXvXcXcXcXvXvXvXvXvXvXvXvXvXcXcXcXvXcXcXcXcXvXvXvXvXvXvXvXvXvXvXvXvXcXcXcXcXcXcXvXvXcXcXcXcXcXcXcXcXcXcXcXvXvXvXvXvXcXvXvXvXvXvXvXvXcXcXvXvXNXNXnXnXnXnXnXnXnXnXVXVXnXnXnXnXNXnXnXvXcXcXxXzXzXzXzXzXzXzXzXxXxXxXcXcXcXcXnXnXnXnXnXnXnXnXnXnXnXnXcXcXxXzXuXeXuXuXuXuXuXuXuXuXwXwXtX2X2X<X<X<X<X1X1X1X<X<X<X<X<X<X<X<X<X<X<X<X<X1X1X<X2X<X1X,X5X,X1X5X5X5X5X5X5X5X5X5X5X5X5X5X5X5X5X5X5X5X5X5X5X5X,X,X,X,X,X,X,X,X,X,X,X,X1X1X1X<X<X<X<X<X<X1X<X1X<X<X<X<X<X<X2X4XqXqXqXqXqXqXqXwXqXqXqXqXqXqXwXwXwXqXrXrXrXrXqXqXqXqXqXqXqXqXwXwXqXqXwXwXwXwXwXwXqXwXwXwXwXwXwXwXwXwXwXwXwXwXwXwXwXwXwXwXwXwXwXwXwXwXwXwXwXwXwXwXqXqXqXqXqXqXwXwXwXwXwXwXrXrXeXeXeXeXeXeXuXuXeXeXeXeXuXuXuXuXuXuXuXuXuXuXkXkXzXlXlXlXxXxXxXxXxXxXxXxXcXcXxXxXxXxXxXxXcXcXcXcXcXcXcXcXxXzXzXzXzXxXcXnXnXnXCXCXnXnXnXnXnXnXnXnXnXnXnXnXnXNXnXnXvXvXvXvXvXvXvXvXcXcXcXcXcXvXvXvXvXvXcXcXxXzX",
"q.q.m m ] ] ] ] ] ] ] ] ] ] ] ] ] ] [ [ | | | | | | } } } }  . . .}  . .+.+.*.8.`.3XfXbXbXbXbXbXcXvXvXvXvXvXvXvXvXvXvXvXcXcXcXcXcXcXvXvXvXvXvXvXvXvXvXvXnXnXVXVXNXNXNXNXNXNXNXCXCXCXNXNXNXNXNXNXNXNXNXNXNXNXNXNXNXNXNXNXNXNXNXNXNXNXNXNXNXNXNXvXvXvXvXvXvXcXcXcXcXcXbXbXbXbXvXvXvXvXvXvXvXvXvXvXvXvXcXcXvXvXvXvXvXvXvXvXcXcXcXcXvXvXvXvXvXvXvXvXvXvXvXvXvXvXvXvXvXvXcXcXvXvXvXvXcXcXcXcXvXvXcXcXcXcXcXcXcXcXvXvXvXvXvXcXvXcXcXcXxXcXcXvXNXNXNXNXvXNXnXnXnXnXVXVXVXVXCXVXVXnXnXvXcXvXxXxXxXxXxXxXxXxXcXxXxXcXcXvXvXvXvXvXvXvXvXvXnXnXnXnXnXnXnXnXnXcXzXuXuXuXuXuXzXzXuXuXuXuXeXwXqXqXtX2X<X<X<X<X<X<X<X<X<X<X<X<X<X<X<X1X1X1X<X<X<X<X<X<X1X,X,X,X5X5X5X5X,X,X,X5X,X5X5X5X5X5X,X,X,X,X,X,X,X,X1X1X1X1X1X1X1X1X1X1X1X1X<X<X<X<X<X<X<X<X<X<X<X1X<X<X<X<X4XqXqXqXqXqXqXqXqXqXqXqXqXqXwXwXwXwXwXwXwXwXrXrXrXrXwXwXwXwXwXwXwXwXwXwXwXwXwXwXwXwXwXwXwXwXqXqXqXqXwXwXwXwXwXwXwXwXwXwXwXwXwXwXwXwXwXwXwXwXwXwXqXqXqXqXqXqXqXqXqXqXwXwXrXrXwXwXeXeXeXeXeXeXeXeXuXeXeXeXuXuXuXuXuXuXkXkXkXuXzXzXzXzXlXzXzXzXxXxXxXxXxXxXxXxXxXxXxXxXcXcXcXcXcXcXcXcXcXcXcXcXcXzXzXzXzXzXxXcXvXNXNXNXCXCXCXCXVXVXVXnXnXnXnXnXnXnXnXnXvXvXvXvXcXcXcXvXcXcXcXcXcXcXcXcXcXcXcXcXxXxX",
"q.q.q.m L ] ] L ] ] ] ] ] ] ] ] ] ] [ [ | | | | | | } } } }  . . . . . .+.+.*.b.`.0XgXBXbXbXbXbXcXvXvXvXvXvXvXvXvXvXvXvXcXcXcXcXcXcXvXvXvXvXvXvXvXvXvXvXnXnXVXVXNXNXNXNXNXNXNXCXCXCXNXNXNXNXNXNXNXNXNXNXNXNXNXNXNXNXNXNXNXNXNXNXNXNXNXNXNXNXNXvXvXvXvXvXvXcXcXcXcXcXbXbXbXbXvXvXvXvXvXvXvXvXvXvXvXvXcXcXvXvXvXvXcXcXvXvXcXcXcXcXvXvXvXvXvXvXvXvXvXvXvXvXvXvXvXvXvXvXcXcXvXvXvXvXvXvXcXcXvXvXcXcXvXcXcXcXcXcXvXvXvXvXvXcXvXcXcXcXxXcXcXvXNXNXNXNXvXNXnXnXnXnXVXVXVXVXCXVXVXnXnXnXvXcXvXxXcXxXxXxXxXxXcXxXcXcXcXvXvXvXvXvXvXvXvXvXnXnXnXnXnXnXnXnXnXcXxXzXzXuXuXuXuXzXzXzXzXzXzXuXeXwXqXqXtXtX2X<X<X<X2X2X<X<X<X<X<X<X<X<X1X1X<X<X<X<X2X<X<X1X1X,X1X1X,X,X1X1X1X1X1X1X1X1X1X1X1X1X1X1X1X1X1X1X1X1X1X1X1X1X1X1X1X1X1X1X<X<X<X<X<X<X<X<X<X<X<X<X<X<X<X<X4XqXqXqXqXqXqXqXwXqXqXqXqXqXwXwXwXwXwXwXwXwXrXrXrXrXwXwXwXwXwXwXwXwXwXwXwXwXwXwXwXwXwXwXwXwXqXqXqXqXwXwXwXwXwXwXwXwXwXwXwXwXwXwXwXwXwXwXwXwXwXwXqXqXqXqXqXqXqXqXqXqXwXwXrXrXwXwXeXeXeXeXeXeXeXeXuXeXeXeXuXuXuXuXuXuXkXkXkXuXzXzXzXzXlXlXzXzXxXxXxXxXxXxXxXxXxXxXxXxXcXcXcXcXcXcXcXcXcXcXcXcXcXcXzXzXzXzXzXcXcXNXNXNXCXCXCXCXVXVXVXnXnXnXnXnXnXnXnXnXvXvXvXvXcXcXcXcXcXcXcXcXcXcXvXcXcXcXcXcXxXxX",
"q.q.q.q.L L L L ] ] L L ] ] ] ] ] ] [ [ [ [ | | | | } }  . . . . . . .X.X.X.;.C.{.0XBXMXbXbXbXbXvXvXvXvXcXcXcXvXcXcXcXvXvXvXvXvXvXvXvXvXvXvXvXvXvXvXvXvXnXnXVXVXNXNXCXCXNXNXCXCXCXCXCXNXNXNXNXNXNXNXNXNXNXNXNXNXNXNXNXNXNXNXNXNXNXNXNXNXNXNXNXvXvXvXvXvXvXcXcXcXbXcXcXbXbXbXvXvXvXvXvXvXvXvXvXvXvXcXcXcXvXvXvXvXcXcXcXcXcXcXvXvXvXvXvXvXvXvXvXvXvXvXvXvXvXvXvXvXvXvXcXcXvXvXvXvXvXvXvXvXvXvXcXvXvXvXcXcXcXcXcXcXvXvXvXvXvXcXcXcXcXcXcXvXvXvXvXvXvXvXvXvXvXvXVXCXVXVXCXVXVXnXnXnXnXvXcXvXvXvXvXvXvXvXcXcXvXvXvXvXvXvXcXcXvXvXnXnXnXnXnXnXnXnXnXnXVXnXcXcXxXzXzXuXzXzXxXxXxXxXcXxXxXzXeXwXwXwXwXqXtXtXtXtX2X2X<X<X<X<X<X<X<X<X<X<X2X2X2X2X<X2X2X1X1X1X1X1X1X1X1X1X1X1X1X1X1X1X1X1X<X<X<X<X<X<X<X<X<X<X<X<X<X<X<X<X<X1X<X<X<X<X<X<X<X2X2X2X2X2X4X4X4X2XqXqXqXqXqXqXqXqXwXwXrXrXwXwXwXwXwXwXwXwXwXwXrXrXrXrXwXwXwXwXwXwXwXwXwXwXwXwXwXwXwXwXwXwXwXwXqXqXqXqXqXqXwXwXwXwXwXwXwXwXwXwXwXwXwXwXwXwXwXwXwXwXqXqXqXqXqXqXqXqXwXwXwXwXrXrXeXeXeXeXeXeXwXeXeXeXeXeXuXeXuXuXuXuXuXuXuXuXuXuXzXkXzXzXzXlXzXzXxXxXxXxXxXxXxXxXxXxXxXxXcXcXcXcXcXcXcXcXcXcXcXcXcXcXcXxXzXzXzXzXcXvXvXCXCXCXCXCXVXVXVXnXnXnXnXnXnXnXnXnXvXvXvXvXcXcXcXcXcXcXcXcXcXcXvXcXvXcXcXcXcXcX",
"D D q.q.L L L L ] ] L L ] ] ] ] ] ] [ [ [ [ | | | | } }  . . . . . . .X.X.X.;.!.}.fXbXMXbXbXbXbXvXvXvXvXcXcXcXcXcXcXcXcXvXvXvXvXvXvXvXvXvXvXvXvXnXvXvXvXnXnXVXVXNXNXCXCXNXNXNXCXCXCXCXNXNXNXNXNXNXNXNXNXNXNXNXNXNXNXNXNXNXNXNXNXNXNXNXNXNXNXNXvXvXvXvXvXvXcXcXcXbXbXcXbXbXvXvXvXvXvXvXvXvXvXvXvXvXvXcXcXvXvXvXvXcXcXcXcXcXcXvXvXvXvXvXvXvXvXvXvXvXvXvXvXvXvXvXvXvXvXcXcXvXvXvXvXvXvXvXvXvXvXcXvXvXvXvXvXcXcXcXcXvXvXcXvXvXcXcXcXcXcXcXvXvXvXvXvXvXvXvXvXvXvXVXCXVXVXCXVXVXnXnXnXnXnXvXcXvXcXcXvXvXvXvXcXvXvXvXvXvXvXcXcXvXvXvXnXnXnXnXnXnXnXnXnXnXnXnXnXnXcXxXzXzXzXxXxXnXnXnXcXcXvXxXzXuXuXuXwXwXwXwXwXwXtXtX2X2X2X2X2X2X<X<X<X2X2X2X2X2X2X2X2X2X2X2X2X2X2X2X2X<X2X2X2X2X2X2X2X2X2X<X<X<X<X<X<X2X2X2X2X2X2X2X<X<X<X<X<X<X<X<X<X<X<X2X2X2X4X4XqXqXqXqXqXqXqXqXqXqXqXwXwXrXrXwXwXwXwXwXwXwXwXwXwXrXrXrXrXwXwXwXwXwXwXwXwXwXwXwXwXwXwXwXwXwXwXwXwXqXqXqXqXqXqXqXqXwXwXwXwXwXwXqXwXwXwXwXwXwXwXwXwXqXqXqXqXqXqXqXqXqXqXwXwXwXwXrXrXeXeXeXeXeXeXwXwXeXeXeXeXeXeXuXuXuXuXuXuXuXuXuXuXkXkXzXzXzXlXzXzXxXxXxXxXxXxXxXxXxXxXxXxXcXcXcXcXcXcXcXcXcXcXcXcXcXcXcXcXxXzXzXzXxXcXvXvXCXCXCXCXVXVXVXnXnXnXnXnXnXnXnXnXvXvXvXvXcXcXcXcXcXcXcXcXcXcXvXcXvXcXcXcXcXcX",
"D L L L L L L L ] L L L ] ] ] ] ] ] | | | | | | } } } }  . . . . .X.X.X.X.+.;.!.|.fXMXMXbXbXvXvXbXbXcXbXcXcXcXcXcXcXcXcXvXvXvXvXvXvXvXvXNXNXvXvXnXnXnXnXVXVXVXVXCXCXCXNXNXNXCXCXCXCXCXNXNXNXNXNXNXNXNXNXNXNXNXNXNXNXNXNXNXNXNXNXNXNXNXNXNXNXNXNXvXvXvXcXvXcXcXcXcXcXcXcXbXcXvXvXvXvXvXvXvXvXvXvXvXvXvXvXcXcXcXcXvXvXvXvXcXcXcXcXvXvXvXvXvXvXvXvXvXvXvXvXvXvXvXvXcXcXvXvXcXvXvXvXcXcXcXvXvXvXvXvXvXcXcXcXcXcXvXvXvXvXcXcXvXvXvXvXcXcXcXvXvXvXvXvXvXvXvXvXvXvXnXnXVXVXVXVXVXVXVXVXnXvXnXvXvXvXvXvXvXvXcXvXvXvXcXcXcXcXvXvXvXvXvXvXnXnXnXVXnXnXnXVXnXnXnXnXnXnXnXcXxXxXxXxXcXnXnXnXnXnXcXxXxXxXzXzXuXuXuXeXeXeXeXwXwXqXqXqXtX2X2X2X2X2X2X2X2X2X2X2X2X2X2X2X2X2X2X2X2X2X2X2X2X2X2X2X4X4X2X2X4X4X4X4X2X2X2X<X<X<X<X<X<X<X<X<X<X<X<X<X<X<X<X<X4X4XqXqXqXqXqXqXqXqXqXqXwXwXrXrXrXrXwXwXrXrXrXrXrXrXwXwXrXrXrXrXrXrXwXwXwXwXwXwXwXwXwXwXwXwXwXwXwXwXwXwXqXqXqXqXqXqXqXqXwXwXwXwXwXwXwXwXwXwXwXwXqXwXqXqXqXqXqXqXqXqXqXqXwXwXwXwXrXrXrXrXeXeXeXeXeXwXwXwXeXeXeXeXuXuXuXuXuXuXkXzXzXzXuXuXlXlXzXzXzXzXxXxXxXxXxXxXxXxXxXxXxXxXxXxXcXcXbXxXcXcXcXcXcXcXcXcXcXcXcXcXcXxXzXzXzXzXxXcXNXCXCXCXCXCXCXVXnXnXnXnXnXnXnXnXnXnXnXnXvXvXvXvXvXvXvXvXvXvXvXcXcXcXcXcXcXcX",
"L L D L L L L L ] L L L ] ] ] ] ] ] | | | | | | | } } }  . . . . . .X.X.X.*.5.~.|.fXMXMXbXbXbXbXbXbXvXvXcXcXcXcXcXcXcXcXvXvXvXvXvXvXvXvXNXvXvXvXnXnXnXnXVXVXVXVXCXCXCXCXNXNXCXCXCXCXCXNXNXNXNXNXNXNXNXNXNXNXNXNXNXNXNXNXNXNXNXNXNXNXNXNXNXNXNXNXvXvXvXcXvXcXcXcXcXcXcXcXcXcXvXvXvXvXvXvXvXvXvXvXvXvXvXvXcXcXcXcXvXvXvXvXcXcXcXcXvXvXvXvXvXvXvXvXvXvXvXvXvXvXvXvXcXvXvXvXcXcXvXvXcXcXcXcXvXvXvXvXvXvXcXcXcXcXvXvXvXvXvXcXvXvXvXvXvXvXcXcXvXvXvXvXvXvXNXvXvXvXnXnXVXVXVXVXVXVXVXVXVXnXnXvXvXvXvXvXvXvXcXvXcXcXcXcXcXcXvXvXvXvXvXvXnXnXnXnXnXCXCXCXVXVXnXnXnXnXnXnXnXcXxXxXcXnXnXnXnXnXnXnXnXcXxXxXxXxXzXzXuXuXuXuXuXeXeXeXwXwXwXwXwXwXwXwXwXwXwXwXwXqXqXqXqXqXqXqXqXqXqXqXqX4XqX4X4X4X4X4X4X4X4X4X2X2X<X<X<X<X<X<X<X<X<X<X<X<X<X<X<X<X<X<X4X4XqXqXqXqXqXqXqXqXqXqXwXwXrXrXrXrXwXwXrXrXrXrXrXrXwXwXrXrXrXrXrXrXwXwXwXwXwXwXwXwXwXwXwXwXwXwXwXwXwXwXqXqXqXqXqXqXqXqXwXwXwXwXwXwXwXwXqXqXqXqXqXqXqXqXqXqXqXqXqXqXqXqXwXwXwXwXrXrXrXrXeXeXeXeXeXeXwXwXeXeXeXeXuXuXuXuXuXuXkXkXkXzXuXuXlXlXzXzXzXzXxXxXxXxXxXxXxXxXxXxXxXxXxXxXcXcXbXbXcXcXcXcXcXcXcXcXcXcXcXcXcXcXxXzXzXzXzXxXcXCXCXCXCXCXCXVXnXnXnXnXnXnXnXnXnXnXnXnXvXvXvXvXvXvXvXvXvXvXvXcXcXcXcXcXcXcX",
"q.q.D m L L ] L ] L L L ] ] ] ] ] ] [ | | | } | | | } }  . . . .X.X.X.O.+.*.6.~.1XfXMXMXMXvXvXvXvXvXvXvXcXcXvXvXvXvXcXcXvXvXvXvXvXvXvXvXvXvXvXvXnXnXnXnXVXVXVXVXCXCXCXCXCXCXCXCXCXCXCXNXNXNXNXNXNXNXNXNXNXNXNXNXNXNXNXNXNXNXNXNXNXNXNXNXNXNXNXNXvXvXvXvXvXcXcXcXcXcXcXcXbXbXvXvXvXvXvXvXcXcXcXcXvXcXcXcXvXvXvXvXvXvXvXvXvXvXcXcXvXvXvXvXvXvXvXvXvXvXvXvXvXvXvXvXcXcXvXvXvXvXcXvXcXcXcXcXvXvXvXvXvXvXvXvXvXvXvXvXcXvXcXcXcXcXvXvXvXvXvXvXvXvXvXvXvXvXNXnXvXvXnXnXVXVXVXVXVXVXCXCXVXVXnXnXNXvXvXvXvXvXvXvXvXvXvXvXvXvXvXvXvXvXvXvXnXnXnXnXCXCXCXCXCXCXCXCXCXnXnXnXnXnXnXcXcXcXnXnXnXnXnXnXnXnXnXcXnXcXcXxXzXxXxXzXzXzXzXzXzXuXuXuXuXuXuXuXuXuXuXuXuXuXuXuXrXrXrXrXeXeXeXwXwXwXwXqXqX4XqXqX4X4X2X2X<X<X<X<X<X<X<X<X<X<X<X<X<X<X4X4X<X<X4X4XqXqXqXqXqXqXqXqXqXqXwXwXwXwXrXrXrXrXwXwXrXrXrXrXrXrXwXwXrXrXrXrXrXrXwXwXwXwXwXwXwXwXwXwXwXwXwXwXwXwXwXqXqXqXwXqXwXwXqXwXwXwXwXwXwXwXwXwXqXqXqXqXqXqXqXqXqXqXqXqXqXqXwXwXwXwXrXrXrXrXrXrXeXeXeXeXeXeXeXeXeXeXeXeXuXuXuXuXuXuXkXkXkXkXuXuXlXlXzXzXzXzXxXxXxXxXxXxXxXxXxXxXxXxXxXxXcXcXcXcXcXcXcXcXcXcXcXcXcXcXcXcXcXcXcXxXxXzXzXzXcXNXVXVXVXCXCXCXnXnXnXnXnXnXnXnXnXnXnXnXvXvXnXnXvXvXvXvXnXnXnXvXvXcXcXcXcXcX",
"q.q.q.m L ] ] L ] L L L ] ] ] ] ] ] [ | | | | | } } } }  . . . .X.X.X.X.+.*.6./.1XfXMXMXvXvXvXvXvXvXvXvXcXcXvXvXvXvXcXcXvXvXvXvXvXvXvXvXvXvXvXvXnXnXnXnXVXVXVXVXCXCXCXCXCXCXCXCXCXCXCXNXNXNXNXNXNXNXNXNXNXNXNXNXNXNXNXNXNXNXNXNXNXNXNXNXCXCXNXNXNXvXvXvXvXcXcXcXcXcXbXbXbXcXvXvXvXvXcXvXvXvXcXcXcXcXcXcXvXvXvXvXvXvXvXvXvXvXcXcXvXvXvXvXvXvXvXvXvXvXvXvXvXvXvXvXvXvXvXvXvXvXvXcXcXcXcXcXvXvXvXvXvXvXvXvXvXvXvXcXcXvXcXcXcXvXvXvXvXvXvXvXvXvXvXvXvXvXNXNXvXvXnXnXVXVXVXVXVXVXCXCXVXVXVXnXNXvXvXvXvXvXvXvXvXvXvXvXvXvXvXvXvXvXvXvXnXnXnXnXnXCXAXAXAXAXAXAXCXCXCXCXVXnXnXnXnXcXnXnXnXnXnXnXVXnXnXnXnXnXnXcXcXcXcXxXxXxXxXxXxXxXxXxXzXzXzXzXzXzXzXkXuXuXuXuXuXuXuXuXuXuXuXeXrXrXwXqXqXqXqXqXqXqX2X2X4X4X<X<X<X<X<X<X<X<X<X<X<X2X4X4X2X2XqXqXqXqXqXqXqXqXqXqXqXqXwXwXwXwXrXrXrXrXwXwXrXrXrXrXrXrXwXwXrXrXrXrXrXwXwXwXwXwXwXwXwXwXwXwXwXwXwXwXwXwXwXwXqXqXwXwXwXwXwXwXwXwXwXwXwXwXwXwXqXqXqXqXqXqXqXqXqXqXqXqXqXqXwXwXwXwXrXrXrXrXrXrXeXeXeXeXeXeXeXeXeXeXeXeXuXuXuXuXuXuXkXkXkXkXuXuXlXlXzXzXzXzXxXxXxXxXxXxXxXxXxXxXxXxXxXxXcXcXcXcXcXcXcXcXcXcXcXcXcXcXcXcXcXcXcXcXxXxXxXzXxXcXVXVXVXCXCXCXnXnXnXnXnXnXnXnXvXvXnXnXvXvXnXnXvXvXvXvXnXnXnXvXvXcXcXcXcXcX",
"m m q.q.L L ] ] L L ] ] ] ] [ [ ] ] | | | | } } } }  . . . .X.X.X.X.X.X.+.;.9.^.3XgXMXbXMXvXvXvXvXvXvXvXvXvXvXvXvXvXvXvXvXvXvXvXNXNXvXvXNXNXNXNXNXNXVXVXCXCXVXVXCXCXCXCXCXCXCXCXCXCXCXVXCXNXnXnXNXNXvXvXvXNXNXNXNXNXNXNXNXNXNXNXNXNXNXNXNXNXNXNXvXvXvXcXvXvXcXcXcXbXbXbXcXcXcXvXvXvXvXvXcXcXcXcXcXcXcXcXcXvXvXvXvXvXvXvXvXvXcXcXvXvXvXvXvXvXvXvXvXvXvXvXvXvXvXvXvXvXcXcXcXvXvXvXvXvXvXvXvXvXvXvXvXvXvXvXvXvXvXcXvXcXcXcXcXcXvXvXvXvXvXvXvXvXvXvXNXNXvXvXvXvXnXnXnXnXVXVXCXCXCXCXVXVXVXVXNXnXNXNXvXNXNXNXvXvXvXvXvXvXvXvXvXvXvXvXnXnXnXnXnXnXCXCXCXCXCXCXCXCXCXCXCXVXVXnXnXnXnXnXnXnXVXCXCXCXCXnXVXCXnXnXnXnXnXnXnXcXcXnXcXcXcXcXnXnXnXnXmXxXxXxXzXzXzXzXzXuXuXuXuXuXuXuXeXwXwXwXqX2XtXqXqXqX4X4X<X2X4X<X<X<X<X<X<X<X<X<X<X<X2X4X4X4XqXqXqXqXqXqXqXqXqXqXqXqXrXrXrXrXrXrXrXrXrXrXrXrXrXeXeXeXeXeXeXeXeXeXeXeXeXeXeXeXrXwXwXwXrXrXwXwXwXwXwXwXwXwXwXwXwXwXwXwXwXwXwXwXwXwXwXwXwXqXqXqXqXqXqXqXqXqXqXqXqXqXwXwXwXwXrXrXrXrXrXrXrXrXeXeXeXeXeXeXeXeXuXuXuXuXuXuXuXuXuXuXuXuXkXkXkXkXlXzXxXxXxXxXxXxXxXxXxXxXxXxXxXxXxXxXxXxXxXxXxXxXxXxXcXcXcXcXcXcXcXcXcXcXcXcXcXcXcXxXzXzXzXxXvXnXCXCXCXCXnXnXnXnXnXnXnXnXcXcXnXnXnXnXnXnXvXvXnXnXnXnXnXnXnXvXvXvXcXcX",
"m m m m L L ] ] L L ] ] ] ] ] ] ] ] | | | | } } } }  . . . .X.X.X.X.X.+.*.;.b.).3XgXMXbXvXvXvXvXvXvXvXvXvXvXvXvXvXvXvXvXvXvXvXvXNXnXvXvXNXNXNXNXNXNXVXVXCXCXCXCXCXCXCXCXCXCXCXCXCXCXCXVXCXNXnXnXNXNXvXvXvXvXNXNXNXNXNXNXNXNXNXNXNXNXNXNXNXNXNXNXNXvXvXcXvXcXcXcXcXbXbXbXcXcXvXvXvXvXvXvXcXcXcXcXcXcXcXcXcXcXvXvXvXcXvXvXvXvXcXcXvXvXvXvXvXvXvXvXvXvXvXvXvXvXvXvXvXvXcXcXvXcXvXvXvXvXvXvXvXvXvXvXvXvXvXvXvXvXvXcXvXcXcXcXcXcXvXvXvXvXvXvXvXvXvXvXNXNXvXvXvXnXnXnXnXnXVXVXCXCXCXCXVXVXVXVXNXNXNXNXvXNXNXNXvXvXvXvXvXvXvXvXvXvXvXvXnXnXnXnXnXnXVXnXCXCXCXCXCXCXCXCXCXVXCXCXnXnXnXnXnXnXVXCXVXnXCXCXCXCXnXnXnXnXnXnXnXnXnXnXnXnXnXnXnXnXnXnXnXnXnXnXcXxXxXxXxXzXzXuXuXuXuXuXeXwXwXwXqX2XtXqXqXqX2X<X<X<X<X<X<X<X<X<X<X<X<X<X<X<X<X2X2X4X4XqXqXqXqXqXqXqXwXwXrXrXrXrXrXrXrXrXrXrXrXrXrXrXeXeXeXeXeXeXeXeXeXeXeXeXeXeXeXeXrXrXwXwXrXrXwXwXwXwXwXwXwXwXwXwXwXwXwXwXwXwXwXwXwXwXwXwXwXqXqXqXqXqXqXqXqXqXqXqXqXqXwXwXwXwXrXrXrXrXrXrXrXrXeXeXeXeXeXeXeXeXuXuXuXuXuXuXuXuXuXuXuXuXkXkXkXkXzXzXxXxXxXxXxXxXxXxXxXxXxXxXxXxXxXxXxXxXxXxXxXxXxXxXcXcXcXcXcXcXcXcXcXcXcXcXcXcXcXxXzXzXzXzXzXcXNXCXCXCXnXnXnXnXnXnXnXnXnXnXnXnXnXnXnXnXvXvXnXnXnXnXnXnXnXvXvXvXcXcX",
"m q.m m D L ] ] L L ] ] ] ] ] ] ] ] | | | | } } } }  . . . .X.X.X.O.O.+.;.6.C.`.qXbXMXbXvXvXvXvXvXvXvXvXvXvXvXvXvXvXvXvXvXvXvXvXNXnXvXvXNXNXNXNXNXNXnXnXCXCXCXCXVXVXVXVXCXCXCXCXCXCXCXVXCXNXNXNXNXNXvXvXvXvXvXNXNXNXNXNXNXNXNXNXNXNXNXNXNXNXNXNXNXvXvXcXvXcXcXcXcXcXbXbXcXcXvXvXvXvXvXvXcXcXvXvXvXvXcXcXcXcXvXcXcXcXvXvXvXvXvXvXvXvXvXvXvXvXvXvXvXvXvXvXvXvXvXvXvXvXcXvXvXvXcXcXvXvXvXvXvXvXvXvXvXvXvXvXvXvXvXcXvXcXcXcXcXcXvXvXvXvXvXvXvXvXvXvXNXNXvXvXvXvXnXnXnXnXVXVXVXCXCXCXVXVXCXCXCXCXNXNXNXNXCXCXNXNXNXNXNXNXNXvXvXvXvXvXnXnXnXnXcXcXnXnXnXnXVXVXVXVXCXCXCXCXCXCXCXCXVXnXCXnXnXnXCXCXCXCXCXCXCXCXCXCXCXCXVXCXCXVXCXCXCXCXNXNXnXnXnXnXnXnXnXnXnXnXcXxXxXzXuXuXuXeXeXeXwXwXqX2XtXtXtX2X<X1X<X<X<X<X2X4XqX4X4X4X4X<X<X<X<X2X4XqXqXqXqXqXqXqXwXwXrXrXrXrXrXrXrXrXrXrXrXrXrXrXrXeXeXeXeXeXeXeXwXwXwXwXwXwXeXeXeXeXrXrXwXwXrXrXwXwXwXwXwXwXwXwXwXwXwXwXwXwXwXwXwXwXwXwXwXwXwXqXqXqXqXqXqXqXqXqXqXqXwXwXwXwXrXrXrXrXrXrXrXrXrXrXeXeXeXeXuXuXuXuXuXuXuXuXuXuXuXuXuXuXuXuXkXkXkXkXzXzXxXxXxXxXxXxXxXxXxXxXxXxXxXxXxXxXxXxXxXxXxXxXxXxXxXxXcXcXcXcXcXcXcXcXcXcXcXcXcXcXcXzXzXzXzXxXvXNXCXCXCXCXNXCXVXVXVXVXVXVXCXVXnXnXnXnXnXnXnXnXNXNXNXnXnXnXnXnXcXcX",
"m m D m L L ] ] L L ] ] ] ] ] ] ] ] | | | | } } } }  . . . .X.X.X.O.X.+.5.9.C.'.0XbXbXbXvXvXvXvXvXvXvXvXvXvXvXvXvXvXvXvXvXvXvXvXnXnXvXvXNXNXNXNXNXNXnXnXCXCXCXCXVXVXVXVXCXCXCXCXCXCXCXCXCXNXNXNXNXNXvXNXvXvXvXNXNXNXNXNXNXNXNXNXNXNXNXNXNXNXNXNXNXvXvXcXvXcXcXvXcXcXbXbXcXcXvXvXvXvXvXvXcXcXcXvXvXcXcXcXvXvXvXcXcXcXcXcXvXvXvXvXvXvXvXvXvXvXvXvXvXvXvXvXvXvXvXvXvXvXcXcXvXvXvXcXvXvXvXvXvXvXvXvXvXvXvXvXvXvXvXvXvXcXcXcXcXcXvXvXvXvXvXvXvXvXvXvXNXNXvXvXvXvXnXnXnXnXVXVXVXCXCXCXVXCXCXCXCXCXNXNXNXNXCXNXNXNXNXNXNXNXNXvXvXvXvXvXnXnXnXcXcXcXcXcXcXnXnXnXnXVXCXCXCXCXCXCXCXnXVXVXCXCXCXCXCXCXCXCXVXVXCXCXCXCXCXCXCXCXCXCXCXCXCXCXCXCXNXnXnXnXnXnXnXnXnXnXnXnXcXxXzXuXuXuXeXeXwXwXqX2X2X2X2X<X<X<X<X<XqXqXqXqXqX4X4X<X<X<X<X<X<X2X4XqXqXqXqXqXqXqXwXwXrXrXrXrXrXrXrXrXrXrXrXrXrXrXrXrXeXeXeXeXeXeXwXwXwXwXwXwXeXeXeXeXrXrXwXwXrXrXwXwXwXwXwXwXwXwXwXwXwXwXwXwXwXwXwXwXwXwXwXqXqXqXqXqXqXqXqXqXqXqXqXqXwXwXwXwXrXrXrXrXrXrXrXrXrXrXeXeXeXeXuXuXuXuXuXuXuXuXuXuXuXuXuXuXuXuXkXkXkXkXzXzXxXxXxXxXxXxXxXxXxXxXxXxXxXxXxXxXxXxXxXxXxXxXxXxXxXxXcXcXcXcXcXcXcXcXcXcXcXcXcXcXcXxXzXzXzXzXcXnXnXCXCXCXCXCXCXCXAXAXCXCXCXCXCXnXnXnXNXNXNXNXNXNXNXnXnXnXnXnXcXcX",
"m m m m L L L L ] ] ] ] ] ] ] ] [ [ | | } } } } } }  . . . .X.X.O.+.*.5.6.8.~.}.qXbXbXbXvXvXvXvXcXcXcXcXvXvXvXvXvXvXvXvXvXvXNXNXvXvXNXNXNXNXNXNXCXCXCXNXCXCXCXCXCXCXCXCXCXCXCXCXCXCXCXCXCXNXNXNXNXNXNXNXNXNXNXvXNXNXNXNXNXNXNXNXNXNXNXNXNXNXNXNXvXvXvXcXvXcXcXcXcXcXbXbXbXbXvXvXcXcXcXcXcXcXvXvXvXvXcXcXvXvXvXvXcXvXvXvXvXvXvXvXvXvXvXvXvXvXvXvXvXvXvXvXvXvXvXvXvXvXcXcXvXvXvXvXvXvXcXcXvXvXvXvXvXvXvXvXvXcXcXvXcXbXcXcXcXcXcXvXcXcXvXvXvXvXvXvXNXNXNXvXvXvXvXnXnXnXVXVXVXVXVXVXCXCXCXCXNXNXCXCXCXCXNXNXNXNXNXNXNXNXNXvXvXvXvXvXnXnXnXcXcXcXcXcXcXcXcXcXnXCXCXCXCXCXCXnXnXnXCXCXCXCXCXCXCXCXCXCXVXCXCXCXCXCXCXCXCXCXCXCXCXCXCXCXnXnXnXnXnXnXnXnXnXnXnXnXnXcXcXxXzXzXuXuXeXeXwXqXqX2X2X2X2X2X2X2XqXqXqXqXqXqXqX4X4X<X<X<X<X4X4XqX4XqXqXqXqXqXqXqXwXwXrXrXrXrXrXrXrXrXrXrXrXrXrXrXrXrXrXrXeXeXeXwXeXeXeXeXeXeXeXeXeXeXrXrXeXeXrXrXeXeXwXwXwXwXwXwXwXwXwXwXwXwXwXwXwXwXwXqXqXqXqXqXqXqXqXqXqXqXwXwXwXwXwXwXrXrXrXrXrXrXrXrXrXwXwXwXeXeXeXeXuXuXuXuXuXuXuXuXuXuXuXuXuXuXuXuXuXuXkXkXkXkXxXxXlXlXxXxXxXxXxXxXxXxXxXxXxXxXxXxXxXxXxXxXcXcXxXcXcXcXcXcXcXcXcXcXcXcXcXcXcXcXcXcXxXzXzXzXzXcXnXNXCXCXCXCXCXAXAXAXCXCXCXCXCXNXNXNXNXNXNXNXNXNXNXnXnXnXnXnXvXvX",
"m m m m L L L L ] ] ] ] ] ] ] ] [ [ | | } } } } }  . . .X. .X.X.X.+.*.5.6.b.~.}.rXbXbXbXvXvXvXvXcXcXcXcXvXvXvXvXvXvXvXvXvXvXNXvXvXvXNXNXNXNXNXNXCXCXCXNXCXCXCXCXCXCXCXCXCXCXCXCXCXCXCXCXCXNXNXNXNXNXNXNXNXNXNXvXNXNXNXNXNXNXNXNXNXNXNXvXNXNXNXNXvXvXvXcXvXcXcXcXcXcXbXbXbXbXvXvXcXcXcXcXcXcXvXvXvXvXcXcXvXvXvXvXcXvXvXvXvXvXvXvXvXvXvXvXvXvXvXvXvXvXvXvXvXvXvXvXvXvXcXcXvXvXvXvXvXvXcXcXvXvXvXvXvXvXvXcXcXvXvXcXcXxXcXcXcXcXvXvXcXcXvXvXvXvXvXvXNXNXvXvXvXvXvXvXnXnXVXVXVXVXVXVXCXCXCXCXNXNXCXCXCXCXNXNXNXNXNXNXNXNXNXvXvXvXvXvXnXnXnXcXcXcXcXcXcXcXcXcXnXnXCXCXCXCXCXnXnXnXnXnXnXnXCXCXCXCXVXnXnXnXnXnXnXnXVXVXnXnXnXnXVXVXnXnXnXnXnXnXnXnXnXnXnXnXnXnXcXxXxXzXuXuXeXeXwXwXqX2X2X2X2X2X2XtXqXqXqXqXqXqX4X2X<X<X<X<X<X<X4X4XqXqXqXqXqXqXqXqXqXqXwXwXrXrXrXrXrXrXrXrXrXrXrXrXrXrXrXrXrXrXeXeXeXeXeXeXeXeXeXeXeXeXeXeXrXrXeXeXrXrXeXeXwXwXwXwXwXwXwXwXwXwXwXwXwXwXwXwXwXqXqXqXqXqXqXqXqXqXqXqXwXwXwXwXwXwXrXrXrXrXwXwXwXwXrXwXwXwXeXeXeXeXuXuXuXuXuXuXuXuXuXuXuXuXuXuXuXuXuXuXkXkXkXkXxXxXlXlXxXxXxXxXxXxXxXxXxXxXxXxXxXxXxXxXxXxXcXcXcXcXcXcXcXcXcXcXcXcXcXcXcXcXcXcXcXcXcXxXzXzXzXzXcXnXVXCXCXCXCXAXAXAXCXCXCXCXCXCXCXCXCXCXCXCXNXNXNXnXnXnXnXnXvXvX",
"m q.m m L L L L ] ] ] ] ] ] ] ] | | | | } } } }  . . . .X. .X.O.+.*.;.6.9.b./.|.rXbXbXbXvXvXvXvXvXvXvXvXvXvXvXvXvXvXvXvXvXvXvXvXvXvXNXNXNXNXNXNXCXCXCXCXCXCXCXCXCXCXCXCXCXCXCXCXCXCXCXCXCXNXNXNXNXNXvXvXvXvXvXvXvXvXvXvXNXNXNXNXNXNXvXvXvXvXvXvXvXvXvXvXvXcXcXcXcXcXbXbXbXvXvXvXcXcXcXcXcXcXcXvXvXcXcXcXvXvXvXvXcXvXvXvXvXvXvXvXvXvXvXvXvXvXvXvXvXvXvXvXvXvXvXvXvXvXcXcXvXvXvXvXvXvXvXvXvXvXvXvXvXvXvXcXcXvXvXcXcXbXcXcXcXcXvXvXcXcXvXvXvXvXvXvXvXvXvXvXvXvXvXvXnXnXVXVXVXVXVXVXVXVXVXVXNXNXNXNXCXCXCXCXCXCXCXCXNXNXCXCXNXNXNXNXnXnXnXnXcXcXcXcXcXcXcXcXcXnXnXCXnXnXnXnXnXnXnXnXnXnXnXnXVXnXnXnXnXnXnXnXnXnXnXnXnXnXnXnXnXnXnXnXnXnXnXnXnXnXcXxXxXxXxXzXzXkXuXuXeXwXwXqXqXqXqXqXqXqXqXqXwXrXrXqXqX4X4X<X<X<X<X<X<X<X<X2XqXqXqXqXqXqXqXqXwXwXwXwXrXrXrXrXrXrXrXrXrXrXrXrXrXrXrXrXrXrXrXrXeXeXeXeXeXeXeXeXeXeXeXeXeXeXeXeXeXeXrXrXeXeXwXwXwXwXwXwXwXwXwXwXwXwXwXwXwXwXwXqXqXqXqXqXqXqXqXqXqXwXwXwXwXwXwXwXrXrXrXrXwXwXwXwXrXrXwXwXeXeXeXeXiXuXuXuXuXuXuXuXuXuXuXuXuXuXuXuXuXuXkXkXkXkXxXxXxXxXxXxXxXxXxXxXxXxXxXxXxXxXxXxXxXxXxXxXcXcXcXcXcXcXcXcXcXcXcXcXcXcXcXcXcXcXvXvXcXcXxXzXzXzXzXcXnXCXCXCXAXAXAXAXAXAXAXAXAXAXAXAXAXAXCXCXCXCXCXNXNXnXnXnXnXnX",
"q.q.m m L L L L ] ] ] ] ] ] ] ] | | | | } } } }  . . . .X.X.X.X.+.*.5.6.8.b./.|.rXbXbXbXvXvXvXvXvXvXvXvXvXvXvXvXvXvXvXvXvXvXvXvXvXvXNXNXNXNXNXNXCXCXCXCXCXCXCXCXCXCXCXCXCXCXCXCXCXCXCXCXCXNXNXNXNXNXvXvXvXvXvXvXvXvXvXvXNXNXNXNXNXNXvXvXvXvXvXvXvXvXvXvXvXcXcXcXcXcXbXbXvXvXvXvXcXcXcXcXcXcXcXvXcXcXcXcXvXvXvXvXvXvXvXvXvXvXvXvXvXvXvXvXvXvXvXvXvXvXvXvXvXvXvXvXvXvXcXcXvXvXvXvXvXvXvXvXvXvXvXvXvXvXvXcXcXvXvXcXcXbXcXcXcXcXvXvXvXvXvXvXvXvXvXvXvXvXvXvXvXvXvXvXnXnXVXVXVXVXCXCXVXVXVXVXNXNXNXNXCXCXCXCXCXCXCXCXNXNXCXCXNXNXNXNXnXnXnXnXcXcXcXcXcXcXcXcXcXcXnXnXnXVXnXnXnXnXnXnXnXnXnXnXnXnXnXnXnXnXnXnXnXnXnXnXnXnXnXnXnXnXnXnXnXnXnXnXnXnXxXxXzXzXzXlXuXuXuXuXeXwXqXqXqXqXwXwXeXeXeXeXeXeXwXqXqX4X<X<X<X1X<X<X<X<X4X4XqXqXqXqXqXqXqXqXwXwXwXwXrXrXrXrXrXrXrXrXrXrXrXrXrXrXrXrXrXrXrXrXeXeXeXeXeXeXeXeXeXeXeXeXeXeXeXeXeXeXrXrXeXeXwXwXwXwXwXwXwXwXwXwXwXwXwXwXwXwXwXqXqXqXqXqXqXqXqXwXqXwXwXwXwXwXwXwXrXrXrXrXwXwXwXwXrXrXwXwXeXeXeXeXrXuXuXuXuXuXuXuXuXuXuXuXuXuXuXuXuXuXkXkXkXkXxXxXxXlXxXxXxXxXxXxXxXxXxXxXxXxXxXxXxXxXxXxXcXcXcXcXcXcXcXcXcXcXcXcXcXcXcXcXcXcXvXvXcXcXcXxXzXzXzXxXcXnXCXCXAXAXAXAXAXAXAXAXAXAXAXAXAXAXCXCXCXCXCXNXNXnXnXnXnXnX",
"D D D D L L L ] ] ] ] ] ] ] ] ] [ | | | | } }  . . . . .O.O.O.+.;.5.6.9.8.b.(.|.fXbXvXvXvXvXMXMXvXvXvXvXvXvXvXvXvXvXvXvXvXvXNXNXvXvXNXNXNXNXNXNXCXCXCXCXCXCXCXCXCXCXCXCXCXCXCXCXCXCXCXVXVXVXnXnXvXvXvXvXvXvXvXvXvXvXNXNXNXvXvXvXvXvXvXvXNXNXvXvXvXvXvXvXvXcXcXcXcXcXcXcXcXcXcXcXvXvXcXcXcXcXvXvXvXcXcXcXvXvXvXvXvXvXcXcXcXcXvXvXvXvXvXvXvXvXvXvXvXvXvXvXvXvXcXcXvXvXvXvXvXvXvXvXvXvXvXvXvXvXvXvXvXvXvXvXvXvXvXvXbXcXcXcXbXbXvXvXcXcXvXvXvXvXvXvXnXNXNXNXNXNXNXNXNXNXNXNXNXNXNXNXCXCXCXNXNXNXNXNXNXNXNXNXCXCXCXNXNXNXCXNXNXNXvXvXnXnXnXvXvXcXvXvXcXcXcXcXcXcXcXnXNXNXNXNXnXnXnXnXnXnXnXnXnXnXnXnXNXNXNXNXnXnXnXnXnXnXNXNXnXvXcXcXvXvXcXcXcXxXxXzXzXkXuXuXuXeXeXrXeXrXrXrXeXeXeXeXeXeXuXeXeXrXwXqX4X4X2X1X1X1X<X<X<X<XqXqXqXqXwXwXqXqXwXwXwXwXrXrXwXwXrXrXrXrXrXrXrXrXwXwXrXrXeXeXeXeXeXeXeXeXeXeXeXeXeXeXeXeXeXeXwXwXeXeXeXeXeXeXwXwXwXwXeXeXeXwXwXwXwXwXwXwXwXwXwXwXwXqXqXqXqXqXqXqXwXwXwXwXwXwXwXwXwXwXeXeXeXwXwXwXwXwXeXeXeXeXuXuXuXuXuXuXuXuXuXuXuXuXuXuXuXuXuXuXkXkXkXkXkXkXzXzXxXxXxXxXxXxXxXxXxXxXxXxXxXxXxXxXxXxXxXxXxXxXxXxXxXxXvXvXxXxXxXcXcXcXcXcXcXcXcXcXcXcXcXcXcXcXxXzXzXzXxXcXNXCXAXAXAXAXAXAXAXAXAXAXAXAXAXAXAXAXCXCXCXnXnXnXnXnXnXnX",
"D D D D L L L ] ] ] ] ] ] ] ] ] [ | | | } } }  . . .O.O.O.+.+.5.5.6.9.8.b.C.).3XfXvXvXvXvXvXMXMXvXvXvXvXvXvXvXvXvXvXvXvXvXvXNXNXvXvXNXNXCXCXNXNXCXNXCXCXCXCXCXCXCXCXCXCXCXCXCXCXCXCXCXVXVXVXnXnXvXvXvXvXvXvXvXvXvXvXNXNXNXNXvXvXvXvXvXvXNXNXvXvXvXvXvXvXvXcXcXcXcXcXcXcXcXcXcXcXvXvXcXcXcXvXvXvXvXcXcXcXvXvXvXvXvXvXvXcXcXvXvXvXvXvXvXvXvXvXvXvXvXvXvXvXvXvXcXvXvXvXvXvXvXvXvXvXvXvXvXvXvXvXvXvXvXvXvXvXvXvXvXvXbXcXcXcXbXbXvXvXcXcXvXvXvXvXvXvXnXNXvXNXNXNXNXNXNXNXNXNXNXNXNXNXCXCXNXNXNXNXNXNXNXNXNXNXCXCXCXCXNXNXCXNXNXNXvXvXnXnXnXvXvXcXvXvXcXcXcXcXcXcXvXvXNXNXNXNXnXnXnXnXnXnXnXnXnXnXnXnXnXnXnXnXnXnXnXnXnXnXNXNXnXvXcXcXcXcXcXzXkXuXuXuXeXeXeXeXeXeXeXeXeXkXkXzXzXzXkXuXeXrXwXqXwXqX4X2X<X1X1X1X1X1X<X<X4XqXqXqXqXqXwXwXqXqXwXwXwXwXrXrXwXwXwXwXwXwXwXwXwXwXwXwXrXrXeXeXeXeXeXeXwXeXeXeXeXeXeXeXeXeXeXeXwXwXeXeXeXeXeXeXwXwXwXwXeXeXeXeXwXwXwXwXwXwXwXwXwXwXwXqXqXqXqXqXqXqXwXwXwXwXwXwXwXwXwXwXeXeXeXeXwXwXwXwXeXeXeXeXuXuXuXuXuXuXuXuXuXuXuXuXuXuXuXuXuXuXkXkXkXkXkXkXzXzXxXxXxXxXxXxXxXxXxXxXxXxXxXxXxXxXxXxXxXxXxXxXxXxXxXxXvXvXxXxXxXxXcXcXcXcXcXcXcXcXcXcXnXcXcXcXcXxXzXzXzXxXcXNXCXAXAXAXAXAXAXAXAXAXAXAXAXAXAXAXCXCXCXnXnXnXnXnXnXnX",
"D D D D L L L L ] ] ] ] ] ] ] ] | | | } } } }  . . .O.O.O.+.5.5.6.9.8.8.b.C.).<XfXvXvXvXNXNXNXNXvXvXvXvXvXvXvXvXvXvXvXvXvXvXNXNXvXvXNXNXCXCXNXNXCXCXCXCXCXCXCXCXCXCXCXCXCXCXCXCXCXCXCXCXVXVXnXnXNXNXvXvXvXvXvXvXvXvXvXvXvXvXvXvXvXvXvXvXvXvXvXvXvXvXvXvXvXcXcXcXcXcXcXcXcXcXcXcXvXvXcXcXcXcXvXvXvXvXcXcXvXvXvXvXvXvXcXcXcXcXvXvXvXvXvXvXcXcXvXvXvXvXvXvXcXcXvXvXvXvXvXvXvXvXvXvXvXvXvXvXvXvXvXvXvXvXvXvXvXvXvXvXbXcXcXcXbXbXvXvXcXcXvXvXvXvXvXvXvXvXvXvXNXNXNXNXNXNXNXNXNXNXNXNXNXNXNXNXNXNXNXNXNXNXNXNXCXCXCXCXNXNXNXCXNXNXNXvXnXnXnXnXnXnXnXnXvXvXvXcXcXcXvXvXNXnXNXnXnXnXnXnXnXnXnXnXnXnXvXvXvXvXvXvXnXvXnXnXnXNXNXnXnXcXcXcXcXcXcXzXkXuXuXuXuXuXuXkXzXzXkXkXzXcXcXxXzXkXuXrXwXqX4XqXqX4X2X1X,X,X1X1X1X<X4XqXqXqXqXqXqXqXqXqXqXqXwXwXrXrXrXrXwXwXwXqXqXqXqXqXqXqXwXwXrXwXeXeXeXeXeXeXuXuXeXeXeXeXeXeXeXeXeXeXwXwXwXeXwXwXwXwXwXwXwXwXeXeXeXeXeXeXwXwXwXwXwXwXwXwXwXwXwXqXqXwXwXwXwXwXeXeXeXeXwXwXwXwXeXeXeXeXwXwXwXwXeXeXeXeXiXuXuXuXuXuXuXuXuXuXuXuXuXuXuXuXuXuXkXkXkXkXlXlXzXzXxXxXxXxXxXxXxXxXxXxXxXxXxXxXxXxXxXxXxXxXxXxXxXxXxXxXvXvXvXvXcXcXcXcXcXcXnXnXnXcXnXnXnXnXcXcXcXcXxXzXzXzXzXcXnXCXAXAXAXAXAXAXAXAXAXAXAXAXAXAXAXAXCXCXCXnXnXnXnXnX",
"m D D D L L L L ] ] ] ] ] ] ] ] | | | } } } }  . .O.O.+.+.5.5.9.9.9.9.8.b.C.).<XfXvXvXvXNXNXNXNXvXvXvXvXvXvXvXvXvXvXvXvXvXvXnXNXvXvXNXNXCXCXNXNXNXCXCXCXCXCXCXCXCXCXCXCXCXCXCXCXCXCXCXVXVXVXnXnXNXNXvXvXvXvXvXvXvXvXvXvXvXvXvXvXvXvXvXvXvXvXvXvXvXvXvXvXvXcXcXcXcXcXcXcXcXcXcXcXvXvXcXcXcXcXvXvXvXvXcXcXvXvXvXcXvXvXcXcXcXcXvXvXvXvXvXvXcXcXvXvXvXvXvXvXcXcXvXvXvXvXvXvXvXvXvXvXvXvXvXvXvXvXvXvXvXvXvXvXvXvXvXvXbXcXcXcXbXcXvXvXvXvXvXvXvXvXvXvXvXvXvXvXNXNXNXNXNXNXNXNXNXNXNXNXNXNXNXNXNXNXNXNXNXNXNXNXCXCXCXCXNXNXCXCXNXNXNXvXnXnXnXnXnXnXnXnXvXvXvXcXcXcXcXvXvXvXnXnXvXvXnXnXnXnXnXvXvXcXcXcXcXcXcXcXcXcXcXvXnXnXnXnXnXvXcXcXvXcXcXxXxXxXcXcXcXcXcXcXnXnXnXnXcXcXcXzXeXrXqX4XqXqX4X4X4X<X1X1X,X1X<X2X2X2XqXqXqXqXqXqXqXqXqXqXqXqXwXwXrXrXrXrXwXwXwXqXqXqXqXqXqXqXqXwXwXwXeXeXeXeXeXeXuXuXeXeXeXeXeXeXeXeXeXeXwXwXeXeXwXwXwXwXwXwXwXwXeXeXeXeXeXeXeXwXwXwXwXwXwXwXwXwXwXwXwXwXwXeXeXeXeXeXeXeXwXwXwXwXeXeXeXeXwXwXwXwXwXeXeXeXrXrXuXuXuXuXuXuXuXuXuXuXuXuXuXuXuXuXkXkXkXkXlXlXzXzXxXxXxXxXxXxXxXxXxXxXxXxXxXxXxXxXxXxXxXxXxXxXxXxXxXxXvXvXvXvXcXcXcXcXcXcXnXnXnXnXnXnXnXnXnXcXcXcXcXxXzXzXzXxXcXnXCXAXAXAXAXAXAXAXAXAXAXAXAXAXAXAXCXCXCXnXnXnXnXnX",
"m m D D L L L L ] ] ] ] ] ] [ | | } } } } } }  .O.+.+.+.5.5.5.9.9.9.9.8.b.~.).<XfXbXvXvXnXnXvXvXvXvXNXNXNXNXvXvXvXvXvXvXvXvXNXNXNXNXNXNXCXCXCXCXCXCXCXCXCXCXCXCXCXCXCXCXCXCXCXCXCXCXCXCXCXNXNXNXNXNXvXvXvXvXvXvXvXvXvXvXvXvXvXvXvXvXvXvXnXnXvXvXvXvXcXvXvXcXcXcXcXbXcXcXvXcXvXvXvXcXcXcXcXcXcXvXvXvXvXvXcXcXcXcXvXvXcXcXcXcXvXvXvXvXvXvXcXcXcXvXvXvXvXvXvXvXvXvXvXvXvXvXvXvXvXvXvXvXvXvXvXvXvXvXvXvXvXvXvXvXvXbXcXbXbXbXbXcXbXvXvXvXcXcXvXvXvXvXvXvXvXvXNXNXvXvXNXNXNXNXNXNXNXNXvXvXvXvXvXvXvXvXNXNXNXNXNXNXNXNXNXNXNXNXNXNXNXNXnXNXNXnXnXnXnXnXvXvXvXvXcXcXcXcXcXvXvXnXvXvXvXvXvXvXnXvXcXcXcXcXcXcXcXcXcXcXcXcXcXcXcXcXcXcXnXnXvXvXNXNXNXNXNXNXnXNXnXnXvXcXcXcXzXeXwXwXwXqX4X2X4X4X2X<X,X,X1X1X1X2XqXqXqXqXqXqXqXqXqXqXqXqXwXrXrXrXrXrXrXrXwXwXqXqXqXqXqXqXqXqXqXqXqXqXwXwXwXeXeXeXwXwXeXeXeXeXeXeXeXeXeXeXeXeXeXwXeXeXwXrXrXrXrXrXrXrXeXuXuXrXrXwXwXwXwXwXwXwXwXwXwXwXwXwXeXeXeXeXeXeXeXeXeXeXwXwXwXwXwXwXwXwXeXeXwXwXeXeXeXeXuXuXuXuXuXuXuXuXuXuXuXuXuXuXuXuXuXuXkXkXkXkXzXzXkXkXxXxXxXxXxXxXxXxXxXxXxXxXxXxXxXxXxXxXxXxXxXxXxXxXxXxXcXcXcXcXcXcXcXcXcXcXcXnXvXvXnXnXnXnXnXnXnXcXnXcXcXzXzXzXxXcXnXCXAXAXAXAXAXAXAXAXAXAXAXAXAXAXCXCXCXCXCXnXnXnX",
"m m D D L L L ] ] ] ] ] ] ] [ | | } } }  . .O.O.+.+.*.;.5.6.9.9.9.9.9.8.C./.`.4XfXbXvXvXnXnXvXvXvXvXNXNXNXNXvXvXvXvXvXvXvXvXNXNXNXNXNXNXCXCXCXCXCXCXCXCXCXCXCXCXCXCXCXCXCXCXCXCXCXCXCXCXCXNXNXNXvXNXvXvXvXvXvXvXcXcXcXcXvXvXvXvXvXvXvXvXnXnXvXvXvXvXcXvXvXcXcXcXcXcXcXcXvXvXvXvXvXcXcXcXcXcXcXvXvXvXvXvXcXcXcXcXvXvXcXcXcXcXvXvXvXvXvXvXcXcXcXvXvXvXvXvXvXvXvXvXvXvXvXvXvXvXvXvXvXvXvXvXvXvXvXvXvXvXvXvXvXvXvXbXcXbXbXbXcXcXvXvXvXvXcXcXvXvXvXvXvXvXvXvXvXNXvXvXNXNXNXNXNXNXNXNXNXNXvXvXvXvXvXnXNXNXNXNXNXNXNXNXNXNXNXNXNXNXNXNXnXnXNXnXnXnXnXnXvXvXvXnXvXvXvXvXvXvXvXvXcXcXcXcXcXcXcXcXcXcXcXcXcXcXcXcXcXcXxXzXzXkXkXkXzXzXxXxXzXzXzXzXzXzXzXzXzXzXzXzXkXuXuXeXwXqXqXwXwXqX4X4X2X2X1X1X,X1X1X<X4XwXrXeXrXrXrXrXrXqXqXqXqXqXwXwXrXrXrXrXrXrXwXwXqXqXqXqXqXqXqXqXqXqXqXqXwXwXeXeXeXeXwXwXeXeXeXeXeXeXeXeXeXeXeXeXeXwXeXeXrXrXrXrXrXwXrXrXeXuXuXrXrXwXwXwXwXwXwXwXwXwXwXwXwXwXeXeXeXeXeXeXeXeXeXeXwXwXwXwXwXwXwXwXeXeXeXwXeXeXeXeXuXuXuXuXuXuXuXuXuXuXuXuXuXuXuXuXuXuXkXkXkXkXzXzXkXkXxXxXxXxXxXxXxXxXxXxXxXxXxXxXxXxXxXxXxXxXxXxXxXxXxXxXcXcXcXcXcXcXcXcXcXcXcXcXvXvXnXnXnXnXnXnXnXcXnXnXcXcXzXkXzXzXcXnXCXAXAXAXAXAXAXAXAXAXAXAXAXAXCXCXCXCXCXnXnXnX",
"m D D D L L ] ] ] ] ] ] ] [ | | } }  . .O.O.+.+.+.*.5.5.5.9.9.9.9.8.b.b.!.(.}.qXfXbXnXnXnXnXvXvXvXnXnXnXNXvXvXvXvXvXvXvXNXNXNXNXNXNXNXNXNXNXCXCXCXCXCXCXCXCXCXCXCXCXCXCXCXCXCXCXCXCXCXCXCXNXNXNXNXvXvXvXvXvXvXvXcXcXcXvXvXvXvXvXvXvXvXvXnXnXvXvXvXvXcXvXvXcXcXcXbXbXcXcXvXvXvXvXcXcXcXcXcXcXcXcXcXcXvXcXvXvXvXvXvXvXvXvXcXcXvXvXvXvXvXvXcXcXcXcXvXvXvXvXvXvXvXvXvXvXvXvXvXvXvXvXvXvXvXvXvXvXvXvXvXvXvXvXvXvXvXcXcXcXbXbXcXcXvXvXvXvXcXcXvXvXcXcXvXvXvXvXNXNXNXvXNXNXNXNXNXNXNXNXNXNXNXNXNXNXnXnXNXNXNXNXNXNXNXNXNXNXNXNXNXNXNXNXnXnXnXnXnXnXnXnXNXnXNXNXnXnXnXnXnXnXvXvXcXcXcXcXcXcXcXcXcXcXcXcXcXcXcXcXcXxXzXzXzXkXkXkXkXkXkXuXuXuXuXeXuXeXuXeXeXeXeXeXrXrXrXwXqXqXqXqXqX4X2X<X1X1X1X1X1X<X4XqXrXeXeXeXeXeXeXrXrXwXwXwXqXqXwXwXrXrXrXrXrXrXrXrXqXqXqXqXqXqXqXqXqXqXqXwXrXeXuXuXuXuXeXeXeXeXeXeXeXeXeXeXeXeXeXeXeXwXeXeXrXrXeXeXwXwXwXwXeXeXeXrXrXwXwXwXwXwXwXwXwXwXeXeXeXeXeXeXeXeXeXeXeXeXeXeXwXwXwXwXwXwXwXwXeXeXeXeXeXeXeXeXuXuXiXrXuXuXuXuXuXuXuXuXuXuXuXuXuXuXkXkXkXkXzXzXkXkXxXxXxXxXxXxXxXxXxXxXxXxXxXxXxXxXxXxXxXxXxXxXxXxXxXxXcXcXxXcXcXcXcXcXcXcXcXcXcXcXnXnXnXnXnXnXnXnXnXnXnXcXxXzXzXzXzXcXNXCXAXAXAXAXAXAXAXAXAXAXAXAXAXCXCXCXCXCXCXnX",
"m D D D L L ] ] ] ] ] ] ] [ | | }  . .X.O.+.+.+.;.;.5.5.6.9.9.9.9.8.b.b.~.(.}.qXfXbXnXnXnXnXvXvXvXvXnXnXNXNXvXvXNXvXvXNXNXNXNXNXNXNXNXNXNXNXCXCXCXCXCXCXCXCXCXCXCXCXCXCXCXCXCXCXCXCXCXCXCXNXNXNXNXvXvXvXvXvXvXvXvXcXcXcXvXvXvXvXvXvXvXvXnXnXvXvXvXvXcXvXvXcXcXcXbXbXcXcXvXvXvXvXcXcXcXcXcXcXcXcXcXcXcXcXvXvXvXvXvXvXvXvXcXcXvXvXvXvXvXvXcXcXcXcXvXvXvXvXvXvXvXvXvXvXvXvXvXvXvXvXvXvXvXvXvXvXvXvXvXvXvXvXvXvXbXcXcXcXcXcXcXcXvXvXvXvXcXcXvXvXcXcXvXvXvXvXvXvXvXvXvXvXvXvXvXvXvXvXvXvXvXvXvXvXnXnXvXvXvXvXNXNXNXNXNXNXNXNXNXNXNXNXnXnXnXnXnXnXnXnXnXnXNXNXNXNXNXnXnXnXnXvXcXcXcXcXcXcXcXxXcXcXcXcXcXcXcXcXcXxXxXxXxXxXxXzXzXzXzXkXkXuXuXuXuXuXuXuXeXeXeXeXeXrXrXwXqX4XqX4X<X1X,X,X,X1X,X1X2XqXwXrXeXuXeXuXeXeXeXeXrXwXwXwXqXqXwXwXrXrXrXrXrXrXrXrXqXqXqXqXqXqXqXqXqXqXqXrXeXeXuXuXuXeXeXeXeXeXeXeXeXeXeXeXeXeXeXeXwXwXeXeXrXrXrXeXwXwXwXrXrXrXrXwXwXwXwXwXwXwXwXrXeXwXeXeXeXeXeXeXeXeXeXeXeXeXwXwXwXwXwXwXwXwXwXwXeXeXeXeXeXeXeXeXuXuXiXrXrXrXuXuXuXuXuXuXuXuXuXuXuXuXkXkXkXkXzXzXkXkXxXxXxXxXxXxXxXxXxXxXxXxXxXxXxXxXxXxXxXxXxXxXxXxXxXxXcXcXxXxXcXcXcXcXcXcXcXcXcXcXnXnXnXnXnXnXnXnXnXnXnXnXcXxXzXzXzXzXcXnXCXAXAXAXAXAXAXAXAXAXAXAXCXCXCXCXCXCXCXnX",
"m m L L L L L ] ] ] [ [ [ | } }  .O.O.O.+.+.*.;.5.5.5.6.9.9.9.9.9.8.C././.).}.4XkXvXnXNXNXNXNXNXNXNXNXNXvXvXvXvXNXNXvXvXvXvXNXNXNXNXCXCXCXCXCXCXCXCXCXCXAXCXCXCXCXCXCXCXCXCXCXCXCXCXCXCXCXNXNXNXNXNXvXvXvXcXvXvXvXvXvXvXvXvXvXvXvXvXvXvXvXvXvXvXvXvXvXcXbXcXcXcXbXbXcXcXcXcXvXvXvXvXvXvXvXvXvXvXvXvXcXcXcXcXcXcXcXcXvXvXvXvXvXvXvXvXvXvXvXvXvXvXvXvXvXvXbXbXvXvXvXvXvXvXvXvXvXvXvXvXvXvXvXvXvXvXvXvXvXvXvXvXcXbXcXcXbXbXcXcXcXcXvXvXvXcXvXvXvXvXcXcXcXcXvXvXcXcXvXvXvXvXvXvXvXvXvXvXvXvXvXvXvXvXvXvXvXvXvXvXNXNXNXNXNXNXNXNXNXNXNXNXNXNXNXNXNXNXNXNXNXNXNXNXNXNXNXnXnXnXvXcXcXcXcXcXcXcXcXxXcXcXcXcXcXxXcXxXcXxXxXxXxXzXzXzXzXkXkXkXkXuXeXeXeXeXeXeXeXeXwXqXqX4X<X<X1X,X,X5X5X5X,X1X4XqXwXrXeXuXkXkXkXkXuXuXuXeXeXrXrXrXwXwXrXrXrXrXrXrXrXwXrXrXqXqXqXwXqXqXqXqXqXqXqXrXeXeXeXuXuXuXuXuXuXuXuXuXuXuXeXeXeXeXrXrXwXwXrXrXrXrXrXrXwXwXwXwXwXwXwXwXwXwXwXwXwXwXwXwXwXeXeXeXeXeXeXeXeXeXeXeXeXeXwXwXwXwXwXwXwXwXeXeXeXeXeXeXeXeXeXeXuXuXuXuXuXuXuXuXrXiXuXuXuXuXuXuXuXuXkXkXkXkXzXlXlXlXxXxXxXxXxXxXxXxXxXxXxXxXxXxXxXxXxXxXcXcXcXcXcXcXcXcXcXcXcXcXcXcXcXcXcXcXnXnXnXnXnXnXnXnXnXnXnXnXnXnXnXnXnXcXxXzXzXzXzXcXnXCXAXAXAXAXAXAXAXAXAXAXAXCXCXNXNXNXNXCX",
"m m L L L L L ] ] ] [ [ | }  . .O.O.+.+.+.*.;.5.5.5.9.9.9.9.9.8.8.b.!./.(.).5X4XkXvXNXNXNXNXNXNXvXNXNXNXvXvXvXvXNXNXvXvXvXvXNXNXNXNXCXCXCXCXCXCXCXCXCXCXAXCXCXCXCXCXCXCXCXCXCXCXCXCXCXCXCXNXNXNXNXNXNXvXvXcXcXvXvXvXvXvXvXvXvXvXvXvXvXvXvXvXvXvXvXvXvXcXcXbXbXcXbXbXcXcXcXcXvXvXvXvXvXvXvXvXvXvXvXvXcXcXcXcXcXcXcXvXvXvXvXvXvXvXvXvXvXvXvXvXvXvXvXvXvXvXbXbXvXvXvXvXvXvXvXvXvXvXvXvXvXvXvXvXvXvXvXvXvXvXvXvXcXcXcXcXbXbXcXcXvXcXvXvXvXvXvXvXvXvXvXvXvXvXvXvXcXcXvXvXvXvXvXvXvXvXvXvXvXvXvXvXvXvXvXvXvXvXvXvXvXvXvXvXNXNXNXNXvXvXNXNXNXNXNXNXNXNXNXNXNXNXNXNXNXNXNXnXnXnXvXcXcXcXcXcXcXcXcXxXxXxXxXxXxXxXzXxXxXzXzXzXzXkXkXkXuXuXuXuXeXeXeXrXrXrXrXwXwXwX4X4X2X<X1X1X,X,X,X1X1X1X<X4XwXrXeXuXkXzXzXzXzXzXzXkXuXuXuXeXrXrXrXrXrXrXrXrXrXrXrXwXwXrXqXqXqXqXqXqXqXqXqXqXrXrXeXeXeXuXuXuXuXuXuXuXuXuXuXuXrXeXuXrXrXrXwXwXrXrXrXrXrXrXwXwXwXwXwXwXwXwXwXwXwXwXwXwXwXwXwXwXeXeXeXeXeXeXeXeXeXeXwXwXwXwXwXwXwXwXwXwXeXeXeXeXeXeXeXeXeXeXuXuXuXuXuXuXuXuXuXrXuXuXuXuXuXuXuXuXkXkXkXkXzXzXlXlXxXxXxXxXxXxXxXxXxXxXxXxXxXxXxXxXxXxXcXcXxXbXcXcXcXcXcXcXcXcXcXcXcXcXcXcXnXnXnXnXnXnXnXnXnXnXnXnXnXnXnXnXnXnXcXxXzXuXuXxXcXCXAXAXAXAXAXAXAXAXAXCXCXCXCXCXNXCXNXNX",
"m m L L ] ] ] ] ] ] | | } }  .O.+.+.+.+.;.5.5.5.6.6.9.9.9.8.8.8.8.C./.^.).`.1XrXlXvXNXNXNXNXNXNXvXvXNXNXvXvXvXvXNXNXNXNXNXNXNXNXNXNXCXCXCXCXCXCXCXCXCXCXCXCXCXCXCXCXCXCXCXCXCXCXAXAXAXCXCXNXCXNXCXCXNXvXvXvXvXvXvXvXvXvXvXvXvXvXvXvXvXvXvXvXvXvXvXvXvXcXcXbXcXcXbXbXcXcXbXbXvXvXvXvXvXvXvXvXvXvXvXvXvXcXvXvXcXvXcXcXvXvXvXvXvXvXvXvXvXvXvXvXvXvXvXvXvXvXbXvXvXvXvXvXvXvXvXvXvXvXvXvXvXvXvXvXvXvXvXvXvXvXvXvXcXcXcXcXxXxXxXxXvXvXvXvXvXvXvXvXvXvXvXvXvXvXcXcXcXcXvXvXvXvXvXvXvXvXvXvXvXvXcXvXvXcXvXvXvXvXvXvXvXvXvXvXNXNXvXvXvXvXNXNXNXNXNXNXNXNXNXNXNXNXNXNXNXNXNXNXnXnXvXcXcXcXcXcXcXcXcXxXxXxXxXxXxXzXzXzXzXkXkXkXkXuXuXuXeXeXeXeXeXrXrXwXwXqXqX4X4X4X<X<X<X1X1X1X1X1X1X<X<X2XqXwXeXuXkXxXxXxXxXcXcXcXcXzXkXuXuXuXeXrXwXwXrXrXrXrXrXrXrXwXwXwXqXqXqXqXwXwXwXqXwXrXeXeXeXeXuXuXuXuXuXuXuXuXuXuXuXuXeXeXuXuXrXrXwXrXrXrXrXrXrXrXwXwXwXwXwXwXwXwXwXwXwXwXrXrXwXwXeXeXeXeXeXeXeXeXeXwXeXeXwXwXwXwXwXwXwXwXwXwXeXeXeXeXeXeXeXeXeXeXuXuXuXuXuXuXuXuXuXuXuXuXuXuXuXuXuXuXkXkXkXkXzXzXzXzXxXxXxXxXxXxXxXxXxXxXxXxXxXxXxXxXcXcXxXxXxXxXcXcXcXcXcXcXcXcXcXcXcXcXcXcXnXnXnXnXnXnXnXnXnXnXnXnXnXnXnXnXVXnXnXcXxXzXuXzXcXnXCXAXAXAXAXCXCXCXCXCXCXCXCXCXCXCXCXCX",
"m m L L ] ] ] ] ] ] | |  . .O.O.+.+.+.*.;.5.5.5.6.9.9.9.8.8.8.8.b.!./.).).}.3XrXlXvXNXNXNXNXNXNXvXvXNXNXNXNXvXvXNXNXNXNXNXNXNXNXNXNXCXCXCXCXCXCXCXCXCXCXCXCXCXCXCXCXCXCXCXCXCXCXAXAXAXCXCXNXCXNXCXCXNXvXvXvXvXvXvXvXvXvXvXvXvXvXvXvXvXvXvXvXvXvXvXvXvXcXbXbXcXcXbXbXcXcXbXbXvXvXvXvXvXvXvXvXvXvXvXvXcXcXvXvXvXvXcXcXvXvXvXvXvXvXvXvXvXvXvXvXvXvXvXvXvXvXbXvXvXvXvXvXvXvXvXvXvXvXvXvXvXvXvXvXvXvXvXvXvXvXvXcXcXcXcXcXxXxXxXxXxXxXvXvXvXvXvXvXvXvXvXvXvXvXcXcXcXcXvXcXvXvXvXvXvXvXcXvXvXvXcXcXcXcXcXcXvXcXvXvXvXvXvXvXNXvXvXvXvXvXNXNXNXNXNXnXnXnXNXNXNXNXNXNXNXNXnXnXnXnXvXcXcXcXcXcXcXcXcXxXzXzXzXzXzXzXkXkXkXuXuXeXeXeXeXeXeXeXrXrXwXwXqXqXqX4X2X<X<X1X1X,X1X,X1X1X<X<X2X2X4X4XwXeXuXkXzXxXxXcXcXcXcXcXcXcXzXkXuXuXeXrXrXwXrXrXrXrXrXrXrXwXwXwXqXqXqXqXwXwXwXqXwXrXeXeXeXuXuXuXuXuXuXuXuXuXuXuXuXuXeXuXuXuXrXwXrXrXrXrXrXrXrXrXwXwXwXwXwXwXwXwXwXwXwXwXrXrXwXwXeXeXeXeXeXeXeXeXeXwXwXeXwXwXwXwXwXwXwXwXwXwXwXwXeXeXeXeXuXeXeXeXuXuXuXuXuXuXuXuXuXuXuXuXuXuXuXuXuXuXkXkXkXkXzXzXzXzXxXxXxXxXxXxXxXxXxXxXxXxXxXxXxXxXcXcXxXcXxXxXcXcXcXcXcXcXcXcXcXcXcXcXcXcXnXnXnXnXnXnXnXnXnXnXnXnXnXnXnXnXnXnXnXnXcXxXzXuXzXcXnXCXAXAXCXCXCXCXCXCXCXCXCXNXNXNXNXNX",
"m m L L ] ] ] ] ] [ }  .O.O.+.+.*.;.5.5.5.5.5.5.6.9.9.8.8.8.8.b.C.~.^.).}.3X4XfXlXbXNXNXNXNXNXNXNXNXNXNXNXNXNXNXNXNXNXNXNXNXNXNXCXCXCXCXCXCXCXCXCXCXAXAXAXAXCXCXCXCXCXCXCXCXCXCXAXAXAXCXCXCXCXCXCXNXNXvXvXvXvXvXvXvXvXvXvXvXvXvXvXvXvXvXnXnXvXvXvXvXvXcXcXbXcXcXbXbXcXcXbXbXbXbXvXvXvXvXvXvXvXvXcXvXvXvXvXcXcXcXcXcXvXvXvXvXvXvXvXvXvXvXvXvXvXvXvXvXvXvXvXvXvXbXvXvXvXvXvXvXvXvXvXvXvXvXvXvXvXvXvXvXvXvXvXcXcXxXxXxXcXcXcXcXcXcXcXcXcXcXvXvXvXvXcXcXcXcXvXvXvXvXcXcXcXcXcXcXcXcXvXvXvXvXvXvXvXvXvXvXvXvXcXvXvXvXvXvXNXvXvXvXvXNXnXNXNXNXnXnXNXnXNXNXNXNXNXNXNXNXnXnXnXvXvXcXcXcXcXcXcXcXcXxXzXkXkXkXkXuXuXuXeXrXeXrXrXrXrXrXrXrXwXqXqX4X2X2X<X1X1X1X,X,X,X,X1X1X<X<X4XqXqXqXwXrXeXuXkXxXcXcXcXcXcXcXvXcXcXcXzXkXuXuXuXeXeXrXrXrXrXrXrXrXrXrXrXrXwXwXwXwXwXwXwXrXrXeXeXeXuXuXuXuXuXuXuXuXuXuXuXuXuXuXrXrXeXeXeXrXrXrXrXrXrXrXrXrXrXrXrXrXwXwXwXwXwXwXrXrXeXeXeXrXeXeXeXeXeXeXeXwXwXwXeXwXwXwXwXwXwXwXwXwXwXeXeXwXeXeXeXeXeXeXuXuXuXuXuXuXuXuXuXuXuXuXuXuXuXuXuXuXuXuXkXkXkXkXlXkXzXzXxXxXxXxXxXxXxXxXxXxXxXxXxXxXxXxXcXxXcXcXcXcXcXcXcXcXcXcXcXcXcXcXnXnXnXnXnXnXnXnXnXnXnXnXnXnXnXnXnXnXnXnXnXnXnXnXnXcXzXzXzXzXcXnXCXCXAXCXCXCXCXCXCXCXCXNXNXNXNXNX",
"m L ] ] ] ] ] ] | }  .O.+.+.+.+.5.5.5.5.5.5.5.5.6.9.9.8.8.8.8.b.!./.).`.3X4XfXfXlXbXNXNXNXNXNXNXNXNXNXNXNXNXNXNXNXNXNXNXNXNXNXNXCXCXCXCXCXCXCXCXCXCXCXAXAXAXCXCXCXAXCXCXCXCXCXCXAXAXAXCXCXCXCXCXCXNXNXvXvXvXvXvXvXvXvXvXvXvXvXvXvXvXvXvXnXnXvXvXvXvXvXcXcXcXcXcXbXbXbXcXbXbXvXbXvXvXvXvXvXvXvXvXcXvXvXvXcXcXcXcXcXcXvXvXvXvXvXvXvXvXvXvXvXvXvXvXvXvXvXvXvXvXvXbXvXvXvXvXvXvXvXvXvXvXvXvXvXvXvXvXvXvXvXvXvXbXcXxXxXxXcXcXcXcXcXcXcXcXcXcXvXvXvXvXcXcXcXcXvXvXvXvXvXvXvXvXvXvXvXvXvXvXcXcXcXcXcXcXcXvXvXvXvXvXvXvXvXvXvXvXvXvXvXvXnXnXnXnXnXnXnXnXnXnXnXnXnXnXnXNXnXnXvXcXcXcXcXcXcXxXxXxXxXzXkXuXeXeXeXeXeXrXeXrXwXwXwXwXqXqXwXwXqX4X<X<X1X1X1X,X,X,X,X1X1X<X<X2X4XqXwXrXrXeXeXeXkXzXxXcXcXcXcXcXcXcXvXcXcXcXzXkXkXkXuXuXuXeXrXrXrXrXrXrXrXrXrXrXwXwXwXwXwXwXwXwXeXeXuXeXuXuXuXuXuXuXuXuXuXuXuXuXuXuXrXrXuXuXrXrXrXrXrXrXrXrXrXrXrXrXrXrXwXwXwXwXwXwXrXrXeXeXeXrXeXeXeXeXeXeXeXwXwXwXeXwXwXwXwXwXwXwXwXwXwXwXeXwXeXeXeXeXeXeXuXuXuXuXuXuXuXuXuXuXuXuXuXuXuXuXuXuXuXuXkXkXkXkXlXkXkXzXxXxXxXxXxXxXxXxXxXxXxXxXxXxXcXxXxXxXcXcXcXcXcXcXcXcXcXcXcXcXcXcXnXnXnXnXnXnXnXnXnXnXnXnXnXnXnXnXnXnXnXnXnXnXnXnXnXcXxXzXuXuXzXcXnXCXCXCXCXCXNXNXCXNXNXNXNXNXnXnX",
"L L ] ] ] ] ] | }  .O.+.+.+.*.;.5.5.5.5.5.5.5.5.6.9.9.9.8.8.8.b./.).`.}.4XfXfXkXlXbXNXNXNXNXNXNXNXNXNXNXNXNXNXNXNXNXNXNXNXNXNXNXCXCXCXCXCXCXCXCXAXAXCXCXAXAXCXAXAXAXCXCXCXCXCXCXCXCXCXCXCXCXCXCXCXCXNXNXvXvXvXvXvXvXvXvXvXvXvXvXvXvXvXvXnXnXvXvXvXvXvXcXbXcXcXcXbXbXcXcXbXbXvXvXvXvXvXvXvXvXvXvXcXcXvXvXcXcXcXcXvXvXvXvXvXvXvXvXvXvXvXvXvXvXvXvXvXvXvXvXvXvXbXbXvXvXvXvXvXvXvXvXvXvXvXvXvXvXvXvXvXvXvXvXvXbXbXxXbXbXcXcXvXvXcXvXcXcXcXcXvXvXvXvXcXcXcXcXvXvXvXvXvXvXvXvXcXcXcXcXcXcXcXcXbXbXbXbXcXcXcXcXvXvXvXvXvXvXvXvXcXvXvXvXvXvXvXvXnXnXnXnXnXnXnXnXnXnXnXnXnXvXcXcXcXcXcXcXcXxXxXxXzXkXuXeXeXeXeXrXrXrXrXwXwXqXqXqX4X4X4X4X2X<X1X1X,X,X,X,X1X1X<X<X<X2X4XqXqXwXwXrXeXuXuXkXzXcXcXcXcXvXvXvXvXvXvXcXcXcXcXzXkXkXkXuXuXuXeXrXrXrXrXrXrXrXrXrXwXwXwXwXwXwXrXrXeXeXeXeXeXeXeXeXuXuXuXeXuXuXuXuXuXuXrXrXuXuXuXuXrXrXrXrXrXrXrXrXrXrXrXrXwXrXrXrXeXeXuXuXuXuXuXuXeXeXeXeXeXwXwXwXwXeXeXwXwXwXwXwXeXeXeXeXeXeXeXeXeXeXeXeXeXeXuXuXuXuXuXuXuXuXuXuXuXuXuXuXuXuXuXuXuXuXkXkXkXkXlXlXkXkXxXxXxXxXxXxXxXxXxXxXxXxXcXcXcXcXcXcXcXcXcXcXcXcXcXcXcXcXcXcXcXcXnXnXnXnXnXnXnXnXnXnXnXnXnXnXnXnXnXnXnXnXnXnXnXnXnXcXcXxXzXuXzXzXcXnXCXCXCXCXCXCXNXNXNXnXnXnXnXnX",
"L ] ] ] ] ] | |  .O.+.+.+.+.*.;.5.5.5.5.5.5.5.5.6.9.9.9.8.8.b.b.^.`.}.|.fXfXfXfXlXbXNXNXNXNXNXNXNXNXNXNXNXNXNXNXNXNXNXNXNXNXNXNXCXCXCXCXCXCXCXCXAXAXAXAXAXAXCXAXAXCXCXCXCXCXCXCXCXCXCXCXCXCXCXCXCXCXNXNXvXvXvXvXvXvXvXvXvXvXvXvXvXvXvXvXnXnXvXvXvXvXvXcXbXcXcXcXbXbXcXcXbXbXvXvXvXvXvXvXvXvXvXvXcXcXvXvXcXcXcXcXvXvXvXvXvXvXvXvXvXvXvXvXvXvXvXvXvXvXvXvXvXvXbXbXvXvXvXvXvXvXvXvXvXvXvXvXvXvXvXvXvXvXvXvXvXbXbXxXcXbXcXcXcXvXvXvXcXcXcXcXcXvXvXvXcXcXcXcXvXvXvXvXvXvXvXvXcXcXcXcXcXcXcXcXbXbXbXbXcXcXcXcXvXvXvXcXcXcXcXcXvXvXvXvXcXcXcXcXvXvXnXnXnXnXnXnXnXnXnXnXnXcXcXcXcXcXcXxXxXxXxXzXkXeXeXrXrXrXrXwXwXwXwXqXqX4X4X2X<X<X<X<X1X1X,X5X5X,X1X1X1X<X2X2X4X4XqXwXwXwXeXeXuXkXzXzXxXcXcXcXcXvXvXvXvXvXvXcXcXcXcXzXzXkXkXkXuXuXuXeXrXrXrXrXrXrXrXrXwXwXwXwXwXwXrXrXeXeXeXeXeXeXeXeXuXuXuXeXuXuXeXeXuXuXrXrXuXuXuXuXrXrXrXrXrXrXrXrXrXrXrXrXrXrXrXrXeXuXuXuXuXuXuXuXeXeXeXeXeXeXwXwXwXeXeXwXwXwXwXwXeXeXeXeXeXeXeXeXeXeXeXeXeXeXeXuXuXuXuXuXuXuXuXuXuXuXuXuXuXuXuXuXuXuXkXkXkXkXlXlXkXkXxXxXxXxXxXxXxXxXxXxXxXxXcXcXcXcXcXcXcXcXcXcXcXcXcXcXcXcXcXcXcXcXcXcXnXnXnXnXnXnXnXnXnXnXnXnXnXnXnXnXnXnXnXnXnXnXnXnXcXcXxXzXzXuXzXcXnXCXCXCXCXCXNXNXNXnXnXnXnXnX",
"] ] ] ] [ [ }  .O.+.+.+.+.+.*.5.5.5.5.5.5.5.5.6.9.9.9.9.9.8.b./.).}.|.0XfXfXfXfXlXvXNXNXNXNXNXNXvXvXvXvXNXNXNXNXNXNXNXNXNXNXCXCXCXCXCXCXCXCXAXAXAXAXAXAXAXAXCXAXAXAXCXCXCXCXCXCXCXCXCXCXCXCXCXCXNXNXNXNXNXvXvXvXvXvXvXvXcXcXvXvXvXvXvXvXvXvXvXvXvXvXvXvXbXbXcXcXcXcXbXcXcXcXcXvXvXvXvXcXvXvXvXvXcXcXcXcXvXvXvXvXvXvXvXvXvXvXNXNXNXNXNXNXvXvXvXvXvXvXvXvXvXvXvXvXvXvXvXvXvXvXvXvXvXvXvXvXvXvXvXvXvXvXvXvXvXcXcXbXcXcXcXcXcXcXcXcXcXcXcXcXcXcXcXcXcXcXcXcXcXcXcXcXcXcXcXcXcXcXcXcXbXbXbXbXxXxXxXxXbXbXbXbXcXcXcXbXbXxXcXcXcXcXcXcXcXcXcXcXcXcXvXvXvXvXvXvXvXvXvXcXvXcXcXcXbXbXbXlXlXkXkXkXeXeXrXrXrXrXqXqXqXqX4X4X4X4X<X1X1X1X1X1X,X,X5X,X1X1X<X<X<X2XqXqXqXqXrXrXrXeXuXkXzXzXxXcXcXcXcXcXvXvXnXnXnXnXnXvXvXcXcXxXzXzXkXkXkXuXuXeXeXeXeXeXrXrXrXrXrXrXrXrXrXrXrXeXeXeXeXeXeXeXuXeXeXeXuXeXeXeXrXeXeXeXwXwXeXeXeXeXeXeXeXeXwXwXeXeXeXeXeXeXwXwXeXeXeXeXeXeXeXeXeXeXeXeXeXeXeXeXeXeXwXwXwXwXeXwXeXeXeXeXeXeXeXeXeXeXeXeXeXeXuXeXeXeXuXuXuXuXuXuXuXuXuXuXuXuXuXuXuXuXuXuXkXkXkXkXkXkXkXkXxXxXxXzXxXxXxXxXxXxXxXxXxXxXxXxXxXxXcXcXcXcXcXcXmXmXnXnXcXcXcXcXcXcXvXvXvXvXnXnXnXnXnXnXnXnXnXnXnXnXcXcXcXcXnXnXnXnXnXvXcXxXkXuXkXcXnXnXCXCXnXnXnXnXnXnXnXnXnXnX",
"] ] ] ] [ }  .O.+.+.+.+.+.;.5.5.5.5.5.5.5.5.6.9.9.9.9.8.8.b.C.^.`.}.3XrXBXBXzXkXbXvXNXNXNXNXNXNXvXvXnXvXNXNXNXNXNXNXNXNXNXNXCXCXCXCXCXCXAXAXAXAXAXAXAXAXAXAXCXAXAXAXCXCXCXCXCXCXCXCXCXCXCXCXCXCXNXNXNXNXNXvXvXvXvXvXvXvXcXcXcXcXvXvXvXvXvXvXvXvXvXvXvXvXbXbXcXcXcXcXbXcXcXcXcXvXcXvXcXcXvXvXvXvXcXvXcXcXvXvXvXvXvXvXvXvXvXvXNXNXNXNXNXNXvXvXvXvXvXvXvXvXvXvXvXvXvXvXvXvXvXvXvXvXvXvXvXvXvXvXvXvXvXvXvXvXvXcXcXbXcXcXcXcXcXcXcXcXcXcXcXcXcXcXcXcXcXcXcXcXcXcXcXcXcXcXcXcXcXcXcXcXbXbXbXbXxXxXxXxXbXxXcXcXcXcXcXbXbXxXxXxXbXbXbXbXcXcXcXcXcXcXcXcXcXcXcXcXcXcXcXcXbXbXbXzXzXlXlXkXkXfXfXeXeXrXqXqXrXrX4X4X4X4X4X<X1X1X,X5X5X5X5X5X,X1X1X1X<X2X4X4XqXqXwXqXwXwXrXeXeXuXkXzXxXcXcXcXcXcXcXvXvXvXnXnXnXnXnXnXvXcXcXxXxXzXkXkXkXuXuXeXeXeXrXeXrXrXrXrXrXrXrXrXrXrXeXeXuXuXuXeXuXuXuXuXuXuXuXuXeXeXrXrXeXeXwXwXeXeXeXeXeXeXeXeXwXwXeXeXeXeXeXeXwXwXeXeXeXeXeXeXeXeXeXeXeXeXeXeXeXeXeXeXwXwXwXwXeXwXeXeXeXeXeXeXeXeXeXeXeXeXeXeXeXeXeXeXuXuXuXuXuXuXuXuXuXuXuXuXuXuXuXuXuXuXkXkXkXkXkXkXkXkXxXxXxXzXxXxXxXxXxXxXxXxXxXxXxXxXxXxXcXcXcXcXcXcXmXcXnXnXcXcXcXcXcXcXvXvXvXvXnXnXnXnXnXnXnXnXnXnXnXnXcXcXcXcXnXnXnXnXnXnXvXcXzXkXkXzXxXcXnXCXnXnXnXnXnXnXnXnXnXnX",
"] ] ] [ }  .O.+.+.+.+.+.;.5.5.5.5.5.5.5.5.9.9.9.8.8.8.8.b.b.~.).}. X0XfXBXBXzXzXbXvXNXNXNXNXNXNXNXNXNXNXNXNXNXNXCXCXCXCXCXCXCXCXCXCXAXAXAXAXAXAXAXAXAXAXAXAXCXCXAXAXCXCXCXCXCXCXCXCXCXCXCXCXCXCXNXNXNXNXNXNXNXvXvXvXvXvXcXcXcXcXvXvXvXvXvXvXvXvXvXvXbXbXbXcXbXcXcXcXbXcXcXcXcXvXvXvXcXcXvXvXvXvXvXvXvXvXvXvXvXvXvXvXvXvXNXNXvXvXvXvXNXvXvXvXvXvXvXvXvXvXvXvXvXvXvXvXvXvXvXvXvXvXvXvXvXvXvXvXvXvXvXvXvXvXvXcXcXbXcXcXcXcXcXcXcXcXcXcXcXcXcXcXcXcXcXcXcXcXcXcXcXcXcXcXcXcXcXbXbXbXxXxXxXxXxXxXxXxXxXxXcXcXcXcXcXcXbXxXxXxXxXzXxXxXxXxXcXcXxXxXxXxXxXxXxXxXxXxXxXzXzXlXlXlXkXkXkXeXeXeXeXrXrXqX4X4XqX4X4X<X<X<X1X,X5X5X5X5X5X5X5X,X1X<X<X2X4XqXqXqXqXqXwXwXrXeXuXkXkXkXzXcXcXvXvXvXcXcXvXvXnXnXnXnXnXnXnXnXnXcXcXcXcXzXzXzXkXkXkXuXuXeXeXeXeXeXeXeXrXrXrXrXrXeXeXeXuXuXeXeXeXeXeXeXeXeXeXeXeXeXeXeXeXeXwXwXeXeXeXeXeXeXeXeXwXwXeXeXeXeXeXeXeXeXeXeXeXeXeXeXeXeXeXeXeXeXeXeXeXeXeXeXwXwXwXwXeXeXeXeXeXeXeXeXuXuXuXuXuXuXuXuXuXuXuXuXuXuXuXuXuXuXuXuXuXuXuXuXuXuXuXuXkXkXkXkXkXkXkXkXkXkXkXkXxXxXzXzXxXxXxXxXxXxXxXxXcXxXcXcXcXcXcXcXcXcXcXcXcXvXcXcXcXcXcXcXvXvXvXvXnXnXnXnXnXnXnXnXcXcXnXnXcXcXcXcXnXvXvXvXvXnXnXcXxXkXuXkXzXxXcXnXnXnXnXnXnXnXnXnXnXnX",
"] ] [ |  .O.O.+.+.+.+.+.5.5.5.5.5.5.5.5.5.9.9.8.8.8.8.8.b.!./.`.}.3XdXgXMXBXzXkXzXvXNXNXNXNXNXNXNXNXNXNXNXNXNXNXCXCXCXCXCXCXCXCXCXCXAXAXAXAXAXAXAXAXAXAXAXAXCXCXAXAXCXCXCXCXCXCXCXCXNXCXNXNXNXNXNXNXNXNXNXNXNXvXvXvXvXvXcXcXcXcXvXvXvXvXvXvXvXvXbXbXbXbXcXcXcXcXcXcXbXcXcXcXcXvXcXvXcXcXvXvXvXvXvXvXvXvXvXvXvXvXvXvXvXvXNXNXNXvXvXvXvXvXvXvXvXvXvXvXvXvXvXvXvXvXvXvXvXvXvXvXvXvXvXvXvXvXvXvXvXvXvXvXvXvXvXcXcXbXcXcXcXcXcXcXcXcXcXcXcXcXcXcXcXcXcXcXcXcXcXcXcXcXbXcXcXcXcXbXbXbXxXxXxXxXxXxXxXxXxXxXxXxXxXxXxXxXxXxXxXzXzXzXzXzXzXzXxXxXzXzXzXzXzXzXzXzXzXzXzXzXlXkXkXkXkXeXeXeXrXrXrXqXqX4X4X4X<X2X<X1X1X,X5X5X5X5X5X5X,X1X1X1X<X<X2X4XqXwXwXwXrXrXrXrXeXuXkXzXzXzXcXcXvXnXnXnXnXnXnXnXnXnXnXnXnXnXnXnXnXvXcXcXcXzXzXzXkXkXkXuXuXeXeXeXeXeXeXeXrXrXeXeXeXeXeXeXuXuXeXeXeXeXeXuXeXeXeXeXeXeXeXeXeXeXwXwXeXeXeXeXeXeXeXeXwXwXeXeXeXeXeXeXeXeXeXeXeXeXeXeXeXeXeXeXeXeXeXeXwXeXeXeXwXwXwXwXwXeXeXeXeXeXeXeXuXuXuXuXuXuXuXuXuXuXuXuXuXuXuXuXuXuXuXuXuXuXuXuXuXuXuXuXkXkXkXkXkXkXkXkXzXzXkXkXxXxXzXzXxXxXxXxXxXxXxXxXcXcXcXcXcXcXcXcXcXcXcXcXcXvXvXvXcXcXcXcXvXvXvXvXnXnXnXnXnXnXnXnXcXnXnXnXcXcXcXcXnXnXvXvXvXvXnXvXcXkXuXuXuXzXxXcXnXnXnXnXnXnXnXnXnXnX",
"[ | }  .O.O.X.+.+.+.+.;.5.5.5.0.5.5.5.5.9.9.8.8.9.8.8.b.!.~.).{.1X0XfXbXMXbXbXzXbXbXvXNXNXNXNXNXCXCXNXNXNXNXNXNXCXCXCXCXCXCXCXCXCXCXAXAXAXAXAXAXAXAXAXAXAXAXAXAXCXCXCXCXCXCXCXCXCXCXCXCXNXNXNXNXNXNXNXNXNXNXNXvXcXvXvXcXvXvXvXvXvXvXvXvXvXvXvXvXvXvXvXvXbXbXcXcXcXcXbXbXcXcXcXvXcXvXvXvXvXvXvXvXcXcXcXvXvXvXvXvXvXvXvXvXNXNXvXvXvXvXNXNXvXvXvXvXvXvXvXvXcXcXvXvXvXvXvXvXvXvXvXvXvXvXvXvXvXvXvXvXvXvXvXvXcXcXcXcXbXbXbXbXcXcXcXcXbXbXbXbXcXcXcXcXcXcXcXcXcXcXxXxXcXcXcXcXbXbXbXxXxXxXxXxXxXxXxXxXxXxXxXxXzXzXxXzXzXzXzXzXzXkXzXzXzXzXzXzXlXlXlXlXzXzXzXlXlXkXkXkXkXfXfXeXeXrXrXrXrXwX4X4X4X4X<X1X1X1X1X1X,X5X5X5X,X,X1X1X1X<X<X<X2X4XqXqXwXrXrXeXeXuXuXuXkXkXzXzXxXxXcXcXvXnXnXnXnXnXNXNXnXnXnXnXnXnXnXNXnXvXcXcXcXxXzXzXkXkXkXkXuXuXeXeXeXeXeXeXeXeXeXeXeXeXeXeXeXeXeXeXeXeXeXeXeXeXeXeXeXeXeXeXeXeXeXeXwXwXeXeXeXeXeXwXeXeXeXeXeXeXeXeXeXeXeXeXeXeXeXeXeXeXeXeXeXeXwXwXwXwXwXwXeXeXeXeXeXeXeXeXeXeXeXeXuXuXuXuXuXuXuXuXuXuXuXuXuXuXuXuXkXkXuXuXuXuXuXuXkXkXuXuXkXkXkXkXkXkXkXkXzXzXkXlXxXxXxXzXxXxXxXxXxXxXxXxXcXcXcXcXcXcXcXcXcXcXcXcXcXcXcXcXcXcXcXcXcXcXcXcXcXcXnXnXnXnXnXnXcXcXcXnXvXvXvXvXvXvXvXvXvXvXvXnXcXxXuXuXuXuXkXxXnXnXnXnXnXnXnXnXnXnX",
"[ |  .O.O.O.+.+.+.+.*.5.5.5.5.<.0.5.5.5.9.9.8.8.8.8.b.b.~.).`.}.<XrXfXbXNXbXbXzXbXbXvXNXNXNXNXNXNXCXNXNXNXNXNXNXCXNXCXCXCXCXCXCXCXCXAXAXAXAXAXAXAXAXAXAXAXAXAXAXCXCXCXCXCXCXCXCXCXNXNXNXNXNXNXNXNXNXNXNXNXNXvXvXcXvXvXvXvXvXvXcXvXvXvXvXvXvXvXvXvXvXvXvXbXbXcXcXcXcXbXbXcXcXcXvXcXvXvXvXvXvXvXvXcXcXcXvXvXvXvXvXvXvXvXvXNXNXvXvXvXvXNXNXvXvXvXvXvXvXvXvXcXcXvXvXvXvXvXvXvXvXvXvXvXvXvXvXvXvXvXvXvXvXvXcXcXcXcXcXbXbXbXbXcXcXcXcXcXbXbXbXcXcXcXcXcXcXcXcXbXcXxXxXxXxXxXxXxXxXxXxXzXzXzXzXzXzXzXzXxXxXxXzXzXzXzXzXzXzXzXkXuXuXeXeXkXkXkXkXkXkXkXkXkXkXkXkXkXeXeXeXeXeXeXrXrXqXqXqXqX4X4X2X<X1X1X,X,X1X1X1X1X1X1X1X1X1X<X<X<X4X4X4XqXqXwXrXrXeXeXuXuXkXzXzXzXzXcXcXcXcXcXcXvXnXnXnXnXnXnXNXnXnXnXnXnXnXnXNXnXvXcXcXcXcXzXzXzXkXzXkXuXuXeXeXeXeXeXeXeXeXeXeXeXeXeXeXeXeXeXeXeXeXeXeXeXeXeXeXeXeXeXeXeXeXeXeXwXwXeXeXeXwXeXwXeXeXeXeXeXeXeXeXeXeXeXeXeXeXeXeXeXeXeXeXeXeXwXwXwXwXwXwXeXeXeXeXeXeXeXeXeXeXeXeXuXuXuXuXuXuXuXuXuXuXuXuXuXuXuXuXkXkXuXuXuXuXuXuXuXuXuXuXkXkXkXkXkXkXkXkXzXzXzXzXxXxXxXzXxXxXxXxXxXxXxXxXcXxXcXcXcXcXcXcXcXcXcXcXcXcXcXcXcXcXcXcXcXcXcXcXcXcXnXnXnXnXnXnXcXcXcXnXvXvXvXvXvXvXvXvXvXvXvXvXvXcXzXuXrXuXuXkXxXnXnXnXnXnXnXnXcXcX",
"| } O.O.+.+.+.+.+.*.;.5.5.5.5.<.*.5.5.5.9.8.8.8.8.b.b.b./.`.}.|.3XfXbXbXNXMXbXbXbXbXvXNXNXCXNXNXCXCXCXCXCXCXCXCXCXCXCXCXAXAXAXAXAXAXAXAXAXAXAXAXAXAXAXAXAXAXAXAXCXCXCXCXCXCXCXCXCXNXNXNXNXNXNXNXNXNXNXNXvXvXvXvXcXvXvXvXvXvXcXcXvXvXvXvXvXvXvXvXvXvXvXvXbXbXcXcXcXcXbXcXcXcXcXvXcXvXvXvXvXvXvXvXcXcXcXcXvXvXvXvXvXvXvXvXNXnXvXvXvXNXNXNXvXvXvXvXvXvXvXvXcXcXvXcXvXvXvXvXvXvXvXvXvXvXvXvXvXvXvXvXvXvXvXbXbXbXcXcXbXbXbXcXcXcXcXcXcXcXbXbXbXbXcXcXbXbXbXbXcXcXxXxXxXxXxXzXzXzXzXzXzXzXzXzXzXzXzXzXzXzXzXzXzXzXzXzXzXzXzXuXeXeXeXeXeXeXeXeXeXeXeXeXeXeXeXeXeXeXeXrXrXrXrXqXqX4X4X4X4X4X<X1X1X1X,X,X,X1X1X1X1X1X1X1X<X<X4X4X4X4XqXqXqXqXrXeXeXuXkXkXzXzXcXcXcXcXcXcXvXvXnXnXnXnXnXnXnXnXNXNXnXnXnXnXnXnXnXnXnXvXcXcXcXcXcXxXxXzXzXzXzXkXuXeXuXeXeXeXeXeXuXuXeXeXeXeXeXeXuXuXeXeXeXeXeXeXeXeXeXeXeXeXeXeXeXeXeXeXeXeXeXeXeXeXeXeXeXeXeXeXuXeXuXuXuXuXuXuXeXeXeXeXeXeXeXeXwXwXwXwXwXwXeXeXeXeXeXeXeXeXeXuXuXuXuXuXuXuXuXuXuXuXkXuXuXuXuXuXuXuXkXkXuXuXuXuXuXuXuXuXuXuXkXkXkXkXkXkXkXkXlXlXzXzXxXxXxXxXxXxXxXxXxXxXxXxXxXxXxXxXcXcXcXcXcXcXcXcXmXmXcXcXcXcXcXcXcXcXcXcXcXcXnXnXnXnXnXnXcXcXcXcXvXvXvXvXvXvXvXvXvXvXvXvXvXcXcXkXrXrXuXuXkXxXnXnXnXmXcXcXxXcX",
"|  .O.O.+.+.+.+.*.;.5.5.5.5.0.*.0.5.5.5.9.8.8.8.b.b.b.C.).'.}.3XrXgXbXzXNXMXbXbXbXbXvXNXNXCXNXNXCXCXCXCXCXCXCXCXCXCXCXCXAXAXAXAXAXAXAXAXAXAXAXAXAXAXAXAXAXAXAXAXCXCXCXCXCXCXCXCXCXNXNXNXNXNXNXNXNXNXNXNXvXvXvXvXcXvXvXvXvXvXcXcXvXvXbXbXbXbXbXbXvXvXvXvXbXbXcXcXcXcXbXbXcXcXcXvXcXvXvXvXvXvXvXvXcXcXcXcXvXvXvXvXvXvXvXvXnXnXvXvXvXNXNXNXvXvXvXvXvXvXvXvXcXcXvXvXvXvXvXvXvXvXvXvXvXvXvXvXvXvXvXvXvXvXvXbXbXbXbXbXcXcXcXcXcXcXcXcXxXxXxXxXxXxXxXxXxXxXxXxXbXbXxXxXxXxXxXzXzXzXzXzXzXzXzXzXkXkXkXzXzXzXzXzXkXkXkXeXuXeXeXeXeXeXeXeXeXeXeXeXeXrXrXrXrXrXrXrXrXrXrXqXqXqXqX4X4X4X4X4X<X1X1X1X1X,X,X5X,X1X1X1X1X<X4X4X4X4X4X4XqXqXrXrXwXwXeXeXuXuXzXzXxXcXcXcXcXcXnXnXnXnXnXnXnXnXnXnXnXnXNXNXNXnXnXnXnXnXnXnXnXvXcXcXcXcXcXcXxXxXzXzXzXkXkXuXeXeXeXeXeXeXeXeXeXeXeXeXeXuXuXuXeXeXeXeXeXeXeXeXeXeXeXeXeXeXeXeXeXeXeXeXeXeXeXeXeXeXeXeXeXeXuXeXeXuXuXuXeXeXeXeXeXeXeXeXeXeXwXwXwXwXwXwXeXeXeXeXeXeXeXeXeXeXuXuXuXuXuXuXuXuXkXkXkXuXuXuXuXuXuXuXkXkXuXuXuXuXuXuXuXuXuXuXkXkXkXkXkXkXkXkXlXzXzXzXxXxXxXxXxXxXxXxXxXxXxXxXxXxXxXxXcXcXcXcXcXcXcXcXmXcXcXcXcXcXcXcXcXcXcXcXcXcXcXcXcXcXcXcXcXcXcXcXcXcXcXcXvXvXvXvXvXvXvXvXvXcXcXxXuXrXrXuXuXkXxXcXmXmXmXcXxXcX",
" . .O.O.O.+.+.+.*.5.5.5.5.5.0.0.5.5.5.9.9.8.8.8.b.b.b.~.`.}.1X4XfXbXvXNXNXnXbXbXzXcXnXNXNXNXNXNXCXCXCXCXCXCXCXCXCXCXCXCXAXAXAXAXAXAXAXAXAXAXAXAXAXAXAXAXAXAXCXCXCXCXCXCXAXAXCXCXCXNXNXNXNXNXNXNXvXvXvXvXvXvXvXvXvXvXvXvXvXvXvXcXcXcXcXcXvXvXvXvXvXvXvXvXbXbXcXcXcXcXcXcXbXbXbXvXvXvXcXvXcXvXvXvXvXvXvXvXcXcXvXvXvXvXvXvXvXvXNXNXNXNXNXNXNXNXNXvXvXcXcXcXvXvXvXvXvXvXvXvXvXvXvXvXvXvXvXvXvXvXvXvXvXvXbXbXbXbXbXxXbXbXbXbXbXbXbXbXxXxXxXxXxXzXxXxXxXxXxXxXbXcXcXcXzXzXzXzXzXzXzXzXzXzXzXzXkXkXkXkXlXlXlXkXkXkXkXkXfXeXeXeXeXeXeXeXeXeXrXrXrXrXqXqXqXqXqXqXqXqX4X4X4X4X4X4X4X<X1X1X1X1X,X,X,X,X,X1X1X1X1X1X<X2X2X2X4X4XqXwXrXrXeXeXeXeXeXuXkXzXxXcXcXcXvXvXvXvXnXnXnXnXnXNXnXnXnXnXnXnXnXnXnXnXnXnXNXNXNXNXnXnXvXcXcXcXcXcXxXxXxXxXzXzXkXuXuXuXuXuXuXuXeXeXeXeXeXeXuXuXuXeXeXeXeXeXeXeXeXeXeXeXeXeXeXeXeXeXeXeXeXeXeXeXeXeXeXeXuXuXuXuXuXuXuXeXeXeXeXeXeXeXeXeXeXeXeXeXeXeXeXeXeXeXeXeXeXeXuXuXuXuXuXuXuXuXkXkXkXkXuXuXuXuXuXuXuXuXuXuXuXuXeXeXuXuXkXkXuXuXuXuXkXkXkXkXkXkXlXzXzXzXxXxXxXxXxXxXxXxXxXxXxXxXxXxXxXxXcXcXcXcXcXcXcXcXcXcXcXcXcXcXcXmXmXmXcXcXvXvXvXvXcXcXcXvXvXvXvXvXcXcXcXvXcXcXcXcXcXcXcXcXcXnXnXnXnXnXcXcXxXuXrXwXrXuXkXxXcXmXnXcXcXcX",
" .O.O.+.+.+.+.+.5.5.5.5.5.0.*.5.5.5.6.9.8.8.8.8.b.b.!./.'.}.3X0XfXbXvXNXCXnXcXzXzXcXNXNXNXNXNXNXCXCXCXCXCXCXCXCXCXCXCXCXAXAXAXAXAXAXAXAXAXAXAXAXAXAXAXAXAXAXCXCXCXCXCXCXAXAXCXCXCXNXNXNXNXvXvXvXvXvXvXvXvXvXvXvXvXvXvXvXvXvXvXvXcXcXbXbXbXbXbXbXvXvXvXvXbXbXcXcXcXcXcXcXbXbXbXvXvXvXcXcXvXvXvXvXvXvXvXvXcXcXcXcXvXvXvXvXvXNXNXNXNXNXNXNXNXNXNXvXvXcXcXcXvXvXvXvXvXvXvXvXvXvXvXvXvXvXvXvXvXvXvXvXvXvXcXbXbXbXzXzXxXxXxXxXbXbXxXxXxXxXxXzXzXzXzXzXzXzXxXxXzXzXzXzXzXzXzXzXzXzXzXzXkXkXkXkXkXkXkXkXkXkXkXkXkXfXfXeXeXeXrXrXeXrXrXrXrXrXrXrXrXqXqXqXqX4X4X4X4X4X4X4X4X<X<X<X1X1X1X1X1X,X1X1X1X1X1X1X1X<X<X<X4X4XqXqXqXqXwXrXeXeXkXkXuXuXkXzXxXxXcXcXcXcXvXvXvXvXnXnXnXnXnXNXnXnXnXnXnXnXnXNXnXnXnXnXNXNXnXNXnXnXvXvXvXvXcXcXxXxXxXxXzXzXkXkXuXuXuXuXuXuXeXeXeXeXeXeXuXuXuXuXeXeXeXeXeXeXeXeXeXeXeXeXeXeXeXeXeXeXeXeXeXeXeXeXeXeXuXuXuXuXuXuXuXeXeXeXeXeXeXeXeXeXeXeXeXeXeXeXeXeXeXeXeXeXeXeXuXuXuXuXuXuXuXuXkXkXkXkXuXuXuXuXuXuXuXuXuXuXuXuXeXeXuXuXkXkXkXuXuXuXkXkXkXkXkXkXlXzXzXzXxXzXxXxXxXxXxXxXxXxXxXxXxXxXxXxXcXcXcXcXcXcXcXcXcXcXcXcXcXcXmXmXmXmXcXcXvXvXvXvXcXcXcXcXcXcXcXcXcXcXcXcXcXcXcXcXcXcXcXcXcXcXcXcXnXnXnXnXcXzXrXwXwXrXuXkXxXmXmXcXcXcX",
" .O.O.+.+.+.*.5.5.5.5.5.5.*.5.5.5.5.9.8.8.8.8.8.b.b.~.`.}.|.3XqXzXbXNXCXNXNXvXbXbXcXnXNXNXNXNXNXCXCXCXCXCXCXCXCXCXAXAXAXAXAXAXAXAXAXAXAXAXAXAXAXAXAXAXAXAXAXAXAXCXCXCXCXAXAXAXCXCXCXCXNXNXNXNXNXNXNXvXvXvXvXvXvXvXvXvXvXvXvXvXvXbXcXbXbXvXvXcXcXbXvXvXvXbXbXcXcXcXcXbXcXbXbXbXvXvXvXcXcXcXcXvXvXvXvXvXvXcXcXcXcXvXvXvXvXvXvXNXNXNXNXNXNXNXvXNXvXvXcXcXcXvXvXvXvXvXvXvXvXvXvXvXvXvXvXvXvXvXvXvXvXvXbXcXbXbXbXbXbXzXzXxXxXbXbXbXbXxXxXxXzXzXzXzXzXzXzXxXzXzXkXkXkXfXfXfXfXfXfXkXfXfXfXeXeXeXeXeXeXeXeXeXeXeXeXeXrXrXrXqXqXrXqXqXqXqXqXqX4X4X4X4X4X4X4X4X4X4X4X4X4X<X1X1X1X1X1X1X1X1X1X1X1X<X<X<X<X<X<X<X4XqXqXwXwXwXwXeXeXeXkXlXlXzXzXzXxXcXcXcXcXvXvXvXvXnXnXnXnXnXnXNXNXnXnXnXnXnXNXNXNXNXNXnXnXnXnXnXnXnXnXnXnXnXnXnXcXcXcXcXcXxXzXzXkXkXkXkXkXkXkXzXkXuXuXeXeXuXuXeXeXeXeXeXeXeXeXeXeXwXwXwXwXeXeXeXeXeXeXeXeXeXeXuXuXuXuXuXuXuXuXuXuXuXuXuXuXuXuXuXeXeXeXeXeXeXeXeXeXeXeXeXeXeXeXeXeXuXuXuXuXuXuXuXuXkXkXkXkXuXuXuXuXuXuXuXuXuXuXuXuXuXuXuXuXkXkXuXuXuXuXkXkXkXkXkXkXzXzXzXzXzXzXzXzXxXxXxXxXxXxXxXxXxXxXxXxXxXbXcXcXcXcXcXcXcXcXcXcXcXcXcXcXcXcXcXcXvXvXcXcXcXcXcXcXcXcXcXcXcXcXcXcXcXcXcXcXcXcXcXcXcXcXcXcXcXcXmXmXcXxXuXwX4XwXrXuXxXcXmXcXcXcX",
"O.O.+.+.+.+.5.5.5.5.5.5.*.*.5.5.5.5.9.8.8.8.8.8.b.!.^.}.}.1XqXrXzXbXNXNXNXnXbXbXbXcXnXNXNXNXNXNXCXCXCXCXCXCXCXCXAXAXAXAXAXAXAXAXAXAXAXAXAXAXAXAXAXAXAXAXAXAXAXAXCXCXCXCXAXAXAXCXCXCXCXNXNXNXNXNXNXvXvXvXvXvXvXvXvXvXvXvXvXvXvXvXbXcXbXbXvXvXbXcXbXvXvXvXbXbXcXcXcXcXbXcXbXbXbXvXvXvXcXcXcXcXcXvXvXvXvXvXcXcXcXcXvXvXvXvXvXvXNXNXNXNXNXNXvXvXNXvXvXcXcXcXvXvXvXvXvXvXvXvXvXvXvXvXvXvXvXvXvXvXvXvXvXcXcXbXcXbXbXbXzXxXxXxXbXbXbXbXxXxXxXzXzXzXzXzXzXzXzXzXkXkXfXfXfXfXeXeXeXeXeXeXeXeXeXeXeXeXrXrXeXeXeXeXeXrXrXrXrXqXqXqXqXqXqXqX4X4X4X4X4X4X4X4X<X<X<X<X1X1X1X1X1X1X1X1X1X,X1X1X1X1X<X<X<X<X<X<X4X4XqXqXqXwXrXrXrXeXeXuXkXkXzXzXzXxXcXcXcXcXvXvXvXvXvXvXnXnXnXnXnXnXNXNXnXnXnXnXnXNXNXNXNXNXnXnXnXnXnXnXnXnXnXnXnXnXnXcXcXcXcXcXcXzXzXkXkXkXkXkXkXkXzXkXuXuXeXeXeXeXeXeXeXeXeXeXeXeXeXeXwXwXwXwXeXeXeXeXeXeXeXuXeXeXuXuXuXuXuXuXuXuXuXuXuXuXuXuXuXuXuXeXeXeXeXeXeXeXeXeXeXeXeXeXeXeXeXeXuXuXuXuXuXuXuXuXkXkXkXkXuXuXuXuXuXuXuXuXuXuXuXuXuXuXuXuXuXuXuXuXuXuXkXkXkXkXkXkXlXzXzXzXzXzXzXzXxXxXxXxXxXxXxXxXxXxXxXxXxXbXbXcXcXcXcXcXcXcXcXcXcXcXcXcXcXcXcXcXvXvXcXcXcXcXcXcXcXcXcXcXcXcXcXcXcXcXcXcXcXcXcXcXcXcXcXbXbXbXbXxXxXzXuXwXqX4XwXrXkXcXcXcXcXcX",
"O.O.+.+.+.*.5.5.5.5.5.+.+.<.5.5.6.9.9.8.8.8.8.8.b.~.).}.1X<XqXfXbXvXNXNXNXnXcXzXcXvXNXNXNXNXNXNXCXCXCXCXCXCXCXCXAXAXAXAXAXAXAXAXAXAXAXAXAXAXAXAXAXAXAXAXAXAXAXAXAXAXCXCXAXAXAXCXCXCXCXNXNXNXNXNXvXvXvXvXvXvXvXvXcXcXvXvXvXvXcXcXbXbXcXcXvXvXcXcXbXbXvXvXbXbXbXbXcXbXbXbXcXcXcXcXvXvXvXvXcXcXcXcXvXvXvXvXvXcXcXcXvXvXvXvXvXvXNXNXNXNXNXNXvXvXvXvXvXvXvXvXvXcXvXcXcXcXcXcXvXvXvXvXvXvXvXvXvXvXvXvXvXcXbXbXzXzXbXbXzXzXbXbXbXxXzXzXzXzXzXzXzXzXzXkXzXkXkXkXzXkXfXfXfXfXeXeXrXeXeXeXeXrXrXrXrXrXeXeXeXeXeXeXeXrXrXrXqXqXqXqXqX4X4X4X4X4X4X4X4X4X4X<X<X1X1X1X1X1X1X1X1X1X1X1X1X1X1X1X1X<X4X4X2X2XqXqXqXqXqXqXwXrXrXeXeXeXkXkXlXzXzXzXxXxXcXcXcXcXvXvXvXvXnXnXnXnXnXnXNXNXNXNXNXNXNXNXNXNXNXNXNXNXnXnXnXnXnXnXnXnXnXnXnXnXnXvXcXcXcXcXcXzXzXzXzXzXzXkXkXkXkXkXkXuXuXuXeXeXeXeXeXeXeXeXeXeXeXeXeXeXeXeXeXeXeXeXeXeXuXuXuXuXuXuXuXuXuXuXuXuXuXuXuXuXuXuXuXuXuXeXeXeXeXeXeXeXeXeXeXeXeXeXeXeXuXuXuXuXkXkXkXkXuXuXkXkXkXkXuXuXuXuXuXuXuXeXeXeXeXeXuXuXuXuXuXuXuXuXkXkXkXkXkXkXkXkXlXlXlXlXxXxXxXzXxXxXxXxXxXxXxXxXxXxXxXxXxXxXcXcXcXcXcXcXxXxXcXcXcXcXcXcXcXcXcXcXcXcXmXmXcXcXcXcXcXcXcXcXcXcXcXcXcXcXcXcXcXcXcXcXcXxXxXxXxXxXxXzXzXlXuXiXwX4X4XwXiXkXxXcXcXcX",
"X.+.+.+.+.;.5.5.5.5.*.+.+.0.5.5.9.9.8.8.8.8.8.8.!.^.).}.1X<XrXfXvXNXNXNXNXvXcXbXcXvXNXNXNXNXNXNXCXCXCXCXCXCXCXCXCXAXAXAXAXAXAXAXAXAXAXAXAXAXAXAXAXAXAXAXAXAXAXAXAXAXCXCXAXAXAXCXCXCXCXNXNXNXNXNXvXvXvXvXvXvXvXvXcXcXcXcXvXvXcXcXbXbXcXcXvXvXcXcXbXbXvXvXbXbXcXcXcXcXcXbXcXcXcXcXvXvXvXvXcXcXcXcXvXvXvXvXvXcXcXcXvXvXvXvXvXvXNXNXNXNXNXNXvXvXvXvXvXcXcXvXcXvXcXvXcXcXcXcXvXvXvXvXvXvXvXvXvXvXvXvXvXcXcXbXzXzXbXzXzXzXbXbXzXzXzXzXzXzXzXzXzXzXzXkXeXeXuXeXfXfXeXeXeXeXeXeXrXrXeXeXrXrXrXrXrXrXrXrXrXrXrXrXrXrXrXqXqX4XqX4X4X4X4X4X4X4X4X4X4X<X<X1X1X1X1X1X1X1X1X1X1X1X1X1X1X1X<X1X<X4X4X4XqXqXqXqXqXqXqXwXrXrXeXeXuXuXkXkXzXzXcXcXcXcXcXcXcXcXvXvXvXvXnXnXnXnXnXnXNXNXNXNXNXNXNXNXNXNXNXNXNXNXnXnXnXnXNXnXNXnXnXnXnXnXnXvXcXcXcXcXcXzXzXzXzXzXzXkXkXkXkXkXkXuXuXuXeXeXeXeXeXeXeXeXeXeXeXeXeXeXeXeXeXeXeXeXeXeXuXuXuXuXuXuXuXuXuXuXuXuXuXuXuXuXuXuXuXuXuXeXeXeXeXeXeXeXeXeXeXeXeXeXeXeXuXuXuXkXkXkXkXkXuXuXkXkXkXkXuXuXuXuXuXuXuXeXeXeXeXeXuXuXuXuXuXuXuXuXkXkXkXkXkXkXkXkXlXlXlXlXxXxXxXzXxXxXxXxXxXxXxXxXxXxXxXxXxXxXcXcXcXcXcXcXxXxXcXcXcXcXcXcXcXcXcXcXcXcXmXmXcXcXcXcXcXcXcXcXcXcXcXcXcXxXxXxXcXcXcXxXxXxXxXxXxXxXzXzXzXlXuXuXwX4X4X4XwXrXkXxXxXxX",
"+.+.*.*.*.5.5.5.5.5.*.*.4.5.5.9.9.8.8.8.8.8.8.8.~.).}.|.3X4XfXzXvXNXNXNXnXvXcXzXzXvXNXNXNXNXNXNXCXCXCXCXCXCXCXCXCXCXAXAXAXAXAXAXAXAXAXAXAXAXAXAXAXAXAXAXAXAXAXAXAXAXAXAXAXAXAXAXCXCXCXCXCXNXNXNXNXNXvXvXvXvXvXvXcXcXcXcXvXvXvXcXbXcXbXbXbXbXbXcXbXvXvXvXvXbXbXvXcXcXcXcXcXcXcXcXvXvXvXvXvXvXcXcXvXvXvXvXvXvXcXcXcXcXvXvXvXvXvXvXNXNXNXNXvXvXvXvXcXvXvXvXvXvXcXcXvXvXvXvXvXvXvXvXvXvXvXvXvXvXvXvXvXcXcXbXzXzXzXzXzXbXbXbXzXzXzXzXzXzXzXzXzXkXkXeXeXeXeXeXeXeXeXeXrXrXrXrXrXrXrXrXqXqXqXqXqXqXqXqXqXqXqXqXqX4XqX4X4X4X<X<X4X<X<X<X<X<X<X1X1X1X1X1X1X1X1X1X1X1X1X1X1X1X4X4X4X4X4X4X4X4XqXqXqXqXrXrXrXrXrXrXeXeXuXkXkXzXzXzXcXcXvXvXcXcXvXvXvXvXvXvXvXvXnXnXnXnXNXNXNXNXNXNXNXNXNXNXNXNXNXNXNXNXNXNXNXNXnXnXNXnXNXNXnXnXnXnXvXcXcXcXcXcXcXzXzXzXzXzXzXkXkXkXkXuXkXkXuXeXuXuXeXeXeXeXeXeXeXeXeXeXuXuXuXeXuXuXuXuXuXuXuXuXuXuXuXuXuXuXuXuXzXuXuXuXuXuXuXuXuXuXuXeXuXuXuXuXuXuXuXuXuXuXuXuXuXuXkXkXkXkXuXuXuXuXkXkXkXkXuXuXuXuXuXuXeXuXeXeXeXeXuXuXuXuXkXuXuXuXkXkXkXkXkXkXzXzXzXzXlXlXxXxXxXxXxXxXxXxXxXxXxXxXxXxXxXxXxXxXxXcXcXcXcXcXxXcXcXcXcXcXcXcXcXcXcXcXcXcXcXcXcXcXcXcXcXcXcXcXcXcXcXxXxXxXxXxXcXcXcXxXxXxXxXxXxXxXxXzXlXxXlXiXrXwX4X4X4X4XrXuXxXxX",
"+.+.*.;.5.5.5.5.0.*.*.0.5.5.5.8.9.8.8.8.8.8.8.8.^.{.}.3X<XqXfXbXNXCXNXvXbXbXzXkXzXvXNXNXNXNXNXNXNXCXCXCXCXCXCXCXCXCXAXAXAXAXAXAXAXAXAXAXAXAXAXAXAXAXAXAXAXAXAXAXAXAXCXCXAXAXAXAXCXCXCXCXCXNXNXNXNXNXvXvXvXvXvXvXcXcXcXcXvXvXvXvXcXcXbXbXbXbXbXbXbXbXvXvXvXvXbXvXcXcXcXcXcXcXcXcXvXvXvXvXvXvXvXvXvXvXvXvXvXvXcXcXcXcXvXvXvXvXvXvXNXNXNXNXvXvXvXvXvXvXvXvXvXvXcXcXvXvXvXvXvXvXvXvXvXvXvXvXvXvXvXvXvXcXcXzXzXbXzXzXzXbXbXbXzXzXzXzXzXzXzXzXzXkXkXuXeXeXeXeXeXrXrXrXrXrXqXqXqXqXqXqXqX4X4X4X4X4X4X4X4X4X4X4X4X4X4X4X<X<X<X<X<X1X1X1X1X1X1X1X1X1X1X1X1X1X<X<X1X1X<X<X<X<X4X4X4X4X4X4XqXqXrXrXwXrXrXeXrXeXeXeXkXkXkXzXzXxXcXcXcXvXvXvXvXvXnXnXnXvXvXvXvXvXnXnXnXnXNXNXNXNXNXNXNXNXNXNXNXNXNXNXNXNXNXNXNXNXNXnXnXnXNXNXnXnXnXnXvXcXcXcXcXcXcXxXxXzXzXzXzXkXkXkXkXuXkXkXuXuXuXuXeXeXeXeXeXeXeXeXeXeXeXuXeXuXuXuXuXuXuXuXuXuXuXuXuXuXuXuXuXuXzXuXuXuXuXuXuXuXuXuXuXuXuXuXuXuXuXuXuXuXuXuXuXuXuXuXkXkXkXkXuXuXuXuXkXkXkXkXuXuXuXuXuXuXuXuXeXeXeXeXuXuXuXuXkXuXuXuXkXkXkXkXkXkXzXzXzXzXzXlXxXxXxXxXxXxXxXxXxXxXxXxXxXxXxXxXxXxXxXcXcXcXcXcXxXxXcXcXcXcXcXcXcXcXcXcXcXcXcXcXcXcXcXcXcXcXcXcXcXcXcXxXxXzXzXzXcXcXcXxXxXxXxXxXxXxXzXzXlXlXlXuXuXwX4X4X4X4X4XrXuXlX",
"+.+.+.5.5.5.5.5.0.*.0.5.5.5.9.9.8.8.8.8.9.9.b.!.).{.|.3X3XrXzXvXNXNXNXvXbXzXfXfXzXcXNXCXCXCXCXCXCXCXCXCXCXCXCXCXAXCXAXCXAXAXAXAXAXAXAXAXAXAXAXAXAXAXAXAXAXAXAXAXAXAXAXAXAXAXAXAXAXCXCXCXCXNXNXNXNXNXvXvXvXvXvXvXvXvXvXvXvXvXvXvXvXvXcXcXcXcXcXcXvXcXcXvXvXvXvXvXcXcXbXbXbXbXcXcXvXvXvXvXcXvXvXvXvXvXvXvXcXcXcXcXcXcXvXvXvXvXnXvXNXNXNXNXvXvXvXvXvXvXvXvXvXvXvXvXvXvXcXcXvXvXvXvXvXvXvXvXvXvXvXvXcXcXbXbXbXbXxXxXzXzXzXzXbXbXbXzXzXzXzXlXlXlXkXkXkXfXeXeXeXrXrXqXqXqXqXqX4X4X4X4X4X4X4X4X4X4X4X4X4X4X4X4X4X<X<X<X<X1X1X1X1X1X1X1X1X1X1X1X1X1X1X1X1X1X4X<X<X4X4X4X4X4X4X4X4X4XqXqXqXrXrXrXrXeXeXfXfXkXkXkXlXlXzXbXcXbXvXvXvXvXvXvXvXvXnXnXnXnXnXnXnXnXnXnXNXNXnXnXNXNXNXNXNXNXNXNXNXNXNXNXNXNXNXNXnXnXnXnXNXNXnXnXnXnXnXnXvXvXcXcXcXcXcXcXxXxXxXzXzXzXzXkXkXuXuXuXuXuXeXeXeXeXeXeXeXeXeXeXeXeXuXuXeXeXuXuXuXuXkXkXkXkXkXkXkXkXkXkXkXkXkXkXkXkXkXkXuXuXuXuXkXuXkXkXuXuXuXuXuXuXuXuXkXkXkXkXkXkXkXkXkXkXkXkXkXkXkXkXuXuXuXuXuXeXeXeXuXuXuXuXuXuXuXuXkXkXkXkXkXkXzXzXkXkXzXkXkXzXzXzXzXlXzXzXxXxXxXxXxXxXxXxXxXxXxXxXxXxXxXxXcXcXcXcXcXcXcXcXcXcXcXcXcXcXcXcXcXcXcXcXxXxXxXxXbXcXcXbXxXxXxXxXxXxXxXxXxXxXxXxXxXzXzXkXkXuXuXuXuXlXuXuXuXwX4X2X2X2X2X2XwXuX",
"+.+.+.5.5.5.5.0.*.*.0.5.5.5.9.9.8.8.8.8.9.9.b.~.).}.|.3X0XfXzXvXvXCXNXvXbXzXkXfXzXcXNXCXCXCXCXCXCXCXCXCXCXCXCXCXCXCXCXCXAXAXAXAXAXAXAXAXAXAXAXAXAXAXAXAXAXAXAXAXAXAXAXAXAXAXAXAXAXCXCXCXCXNXNXNXNXNXvXvXvXvXvXcXvXvXvXvXcXvXvXvXvXvXcXcXcXcXcXcXvXcXcXvXvXvXvXvXcXcXbXbXbXbXcXcXvXvXvXvXvXvXvXvXvXvXvXvXcXcXcXcXcXcXvXvXvXvXvXvXNXNXNXNXvXvXvXvXvXvXvXvXvXvXvXvXcXvXcXcXvXvXcXcXvXvXvXvXvXvXvXvXcXcXbXbXbXbXxXzXzXzXzXbXbXbXbXzXzXzXzXlXlXlXkXkXfXeXeXeXrXrXrXqXqXqXqXqX4X4X4X4X4X4X4X4X4X4X4X4X<X<X<X<X<X1X1X1X1X1X1X1X1X1X1X1X1X1X1X1X<X<X4X4X4X4X4X4X4X4X4X4X4X4XqXqXqXqXqXqXrXrXeXeXeXeXfXfXkXkXkXkXlXzXcXcXvXvXvXvXvXvXvXvXvXvXnXnXnXnXnXnXnXnXnXnXNXnXnXnXNXNXNXNXNXNXNXNXNXNXNXNXNXNXNXNXnXnXnXnXNXNXnXnXnXnXnXnXvXvXcXcXvXvXcXcXcXxXxXzXzXzXzXkXkXuXuXuXuXuXeXeXeXeXeXeXeXeXeXeXeXeXuXuXeXeXuXuXuXuXkXkXkXkXkXkXkXkXkXkXkXkXkXkXkXkXkXkXuXuXuXuXkXkXkXkXuXuXuXuXuXuXuXuXkXkXkXkXkXkXkXkXkXkXkXkXkXkXkXkXuXuXuXuXuXeXeXeXuXuXuXuXuXuXuXuXkXkXkXkXkXkXzXzXkXkXzXzXkXkXlXlXzXzXzXzXxXxXxXxXxXxXxXxXxXxXxXxXxXxXxXxXcXcXcXcXcXcXcXcXcXcXcXcXcXcXcXcXcXcXcXbXcXxXxXxXbXcXbXbXxXxXxXxXxXxXxXxXzXzXzXkXkXkXuXuXuXuXuXuXuXuXuXiXiX4X2X2X2X2X2X2X2XwX",
"+.+.0.5.5.5.5.0.*.*.5.5.5.9.9.8.8.8.8.8.9.8.!.^.).}. X3XrXfXvXvXNXCXCXvXcXzXfXfXzXcXNXCXCXCXCXCXCXCXCXCXCXCXCXCXAXAXAXCXAXAXAXAXAXAXAXAXAXAXAXAXAXAXAXAXAXAXAXAXAXAXAXAXAXAXAXAXAXCXCXCXCXCXNXNXNXNXvXvXvXcXvXcXvXvXvXvXcXcXvXvXvXvXvXvXcXcXcXcXvXvXvXvXcXcXvXvXcXcXcXbXcXcXcXcXvXvXvXvXvXvXvXvXvXvXvXvXcXcXcXcXvXvXvXvXvXvXvXvXvXnXNXNXvXvXvXvXvXvXvXvXvXvXvXvXcXcXcXcXcXcXcXcXvXvXvXvXvXvXvXvXvXcXcXbXbXbXzXzXzXzXbXbXbXbXzXzXzXzXzXlXkXkXkXkXfXeXeXeXrXrXrXqXqXqXqXqX4X4X4X4X4X4X4X4X4X4X4X4X<X<X<X1X1X1X1X1X1X1X1X1X1X1X1X1X1X1X1X1X4X4X4X4X4X4XqXqXqXqXqXqXqXqXqXrXrXrXrXrXrXrXeXeXeXeXfXfXkXkXkXkXzXcXcXcXvXvXvXvXvXvXvXvXvXvXnXnXnXnXnXnXnXnXnXnXNXNXnXnXNXNXNXNXNXNXNXNXNXNXNXNXNXNXNXNXNXNXnXnXnXnXnXnXnXnXnXnXvXvXcXcXcXcXcXcXcXcXcXxXzXzXzXkXkXkXuXuXuXuXeXeXeXeXeXeXeXeXuXuXuXuXuXuXuXuXuXuXkXkXkXkXkXkXkXkXkXkXkXkXkXkXkXkXkXkXkXkXuXuXuXuXkXkXkXkXkXkXkXkXkXkXkXkXkXkXkXkXkXkXkXkXkXkXkXkXkXkXkXkXuXuXuXuXuXeXeXeXuXuXuXuXuXuXuXuXkXkXkXkXkXkXzXzXzXzXxXxXzXkXlXkXzXzXzXzXxXxXxXxXxXxXxXxXxXxXxXxXxXxXxXxXcXcXcXcXcXcXcXcXcXcXcXcXcXcXcXcXcXcXbXbXcXcXxXxXxXxXbXbXxXxXxXxXxXxXkXzXkXkXkXuXuXuXuXuXuXrXrXrXiXuXiXiXwX4X2X2X1X1X1X1X1X2X"
};
