/* nord.xpm */
static char *nord_xpm[] = {
"32 32 3 1",
"0 c #000000",
"1 c #FF0000",
"2 c #000000",

"00000000000000000000000000000000",
"00000000000000000000000000000000",
"00000000000000000000000000000000",
"00000000000000111111000000000000",
"00000000000011111111110000000000",
"00000000001111111111111000000000",
"00000000011111111111111100000000",
"00000000111111111111111110000000",
"00000001111111111111111111000000",
"00000001111111000011111111000000",
"00000011111110000001111111100000",
"00000011111100000000111111100000",
"00000111111000110000111111110000",
"00000111111000110000111111110000",
"00000111111000000000111111110000",
"00000111111100000001111111110000",
"00000011111110000011111111100000",
"00000011111111011111111111100000",
"00000001111111111111111111000000",
"00000001111111111111111111000000",
"00000000111111111111111110000000",
"00000000011111111111111100000000",
"00000000001111111111111000000000",
"00000000000011111111110000000000",
"00000000000000111111000000000000",
"00000000000000000000000000000000",
"00000000000000000000000000000000",
"00000000000000000000000000000000",
"00000000000000000000000000000000",
"00000000000000000000000000000000",
"00000000000000000000000000000000",
"00000000000000000000000000000000"
};
