/* XPM */
static char *f7d6aa08f62a4fbcc366460529aaad76QFjCxw9GjfhMCL1Y[] = {
/* columns rows colors chars-per-pixel */
"554 739 256 2 ",
"   c #040403",
".  c #0A0502",
"X  c #0B0906",
"o  c #0C0C0B",
"O  c #080706",
"+  c #110E0B",
"@  c #160B04",
"#  c #13110E",
"$  c #1B130D",
"%  c #1D1104",
"&  c #141312",
"*  c #1A1613",
"=  c #1C1916",
"-  c #1C1B1A",
";  c #171816",
":  c #0F100D",
">  c #29190B",
",  c #231B15",
"<  c #221E1B",
"1  c #2A1C14",
"2  c #311E0F",
"3  c #24211D",
"4  c #2A221C",
"5  c #2E2115",
"6  c #342314",
"7  c #34261B",
"8  c #3C2B1C",
"9  c #382819",
"0  c #32210F",
"q  c #242322",
"w  c #2B2622",
"e  c #2D2925",
"r  c #2C2B2A",
"t  c #272828",
"y  c #332B24",
"u  c #3C2D22",
"i  c #332E2B",
"p  c #372B26",
"a  c #3D3125",
"s  c #3C322C",
"d  c #35312D",
"f  c #343332",
"g  c #3B3632",
"h  c #3D3A35",
"j  c #3C3B3B",
"k  c #36353A",
"l  c #2F2F34",
"z  c #20201F",
"x  c #422D1C",
"c  c #462C1A",
"v  c #44311E",
"b  c #4A321E",
"n  c #53351D",
"m  c #412E22",
"M  c #433324",
"N  c #4A3524",
"B  c #44352A",
"V  c #45392C",
"C  c #4B3B2C",
"Z  c #4B3827",
"A  c #523D2C",
"S  c #563B26",
"D  c #443B33",
"F  c #4B3E32",
"G  c #423D3A",
"H  c #443934",
"J  c #523E32",
"K  c #653D2A",
"L  c #57412D",
"P  c #4D4134",
"I  c #4B433C",
"U  c #45423B",
"Y  c #534334",
"T  c #5A4534",
"R  c #53453A",
"E  c #56493C",
"W  c #5B4B3C",
"Q  c #5B4836",
"!  c #574836",
"~  c #624D3B",
"^  c #674B35",
"/  c #68523D",
"(  c #76553C",
")  c #6B4730",
"_  c #7F603F",
"`  c #393844",
"'  c #423D45",
"]  c #4A4745",
"[  c #5B4D42",
"{  c #544C46",
"}  c #5C544C",
"|  c #595149",
" . c #5B5652",
".. c #5A5753",
"X. c #4D4C51",
"o. c #645343",
"O. c #6C5B4B",
"+. c #675648",
"@. c #765B47",
"#. c #635B53",
"$. c #685D55",
"%. c #6C5347",
"&. c #78624D",
"*. c #6C645B",
"=. c #6B6358",
"-. c #776758",
";. c #7B6D5A",
":. c #756C63",
">. c #7B7268",
",. c #716D6C",
"<. c #5E5C64",
"1. c #3F403D",
"2. c #865A47",
"3. c #87644B",
"4. c #886A55",
"5. c #966C55",
"6. c #86725D",
"7. c #9C745B",
"8. c #987459",
"9. c #95684C",
"0. c #A47A5C",
"q. c #A6775B",
"w. c #AF6E58",
"e. c #877767",
"r. c #977A66",
"t. c #867C74",
"y. c #8F7267",
"u. c #A47C63",
"i. c #A97C64",
"p. c #B47B64",
"a. c #A55D49",
"s. c #CE745A",
"d. c #CC7964",
"f. c #84583D",
"g. c #998877",
"h. c #908273",
"j. c #AC8464",
"k. c #AA8569",
"l. c #B3846B",
"z. c #B48B6B",
"x. c #B78969",
"c. c #BA916E",
"v. c #A58C78",
"b. c #B88B72",
"n. c #A3927E",
"m. c #BC9373",
"M. c #BA9578",
"N. c #AE825E",
"B. c #C58C74",
"V. c #C39473",
"C. c #C49B7B",
"Z. c #CB9C7C",
"A. c #C89677",
"S. c #D4997B",
"D. c #C98D6B",
"F. c #D6A37D",
"G. c #CDA17C",
"H. c #EAAC6E",
"J. c #E19663",
"K. c #EDC47A",
"L. c #978C85",
"P. c #95908E",
"I. c #A89887",
"U. c #A79D94",
"Y. c #B19B8A",
"T. c #B4A28D",
"R. c #ABA397",
"E. c #BCAB9C",
"W. c #B6A797",
"Q. c #B9AA97",
"!. c #B9ADA3",
"~. c #BDB3A6",
"^. c #BBB8B7",
"/. c #ABA7A7",
"(. c #A09CA2",
"). c #D79C82",
"_. c #C99C82",
"`. c #CAA283",
"'. c #D9A685",
"]. c #C3AD9B",
"[. c #C5B29E",
"{. c #D9B294",
"}. c #E4AD8B",
"|. c #E5A988",
" X c #E7B18C",
".X c #ECB493",
"XX c #EBB794",
"oX c #F3B999",
"OX c #EAAE91",
"+X c #C2AEA1",
"@X c #C4B3A4",
"#X c #CAB5A5",
"$X c #C6BAAB",
"%X c #CCBBAB",
"&X c #C8B7A8",
"*X c #D2BDAC",
"=X c #D6BCA7",
"-X c #C7BDB4",
";X c #D3BEB1",
":X c #E9AC92",
">X c #F4C499",
",X c #CDC1AE",
"<X c #D5C1AE",
"1X c #DAC3AE",
"2X c #CCC2B4",
"3X c #CDC5BB",
"4X c #C7C3BC",
"5X c #D4C3B3",
"6X c #DBC5B3",
"7X c #DDC9B6",
"8X c #D4CABC",
"9X c #DCCCBB",
"0X c #D5C7B7",
"qX c #DCD1BE",
"wX c #E2CBB6",
"eX c #E3CDBB",
"rX c #E5CAB7",
"tX c #E6D1BD",
"yX c #E9D2BE",
"uX c #ECD2B6",
"iX c #F5CCAB",
"pX c #FCE1B7",
"aX c #CAC7C5",
"sX c #D5CDC2",
"dX c #D7CEC4",
"fX c #DDD3C4",
"gX c #DAD4CB",
"hX c #DDD9D4",
"jX c #DBD8D5",
"kX c #D0CED0",
"lX c #E4CFC1",
"zX c #E3D4C2",
"xX c #EBD5C3",
"cX c #EED9C6",
"vX c #E4DACA",
"bX c #EADCCC",
"nX c #E8D8C7",
"mX c #F1DBC6",
"MX c #F2DCCA",
"NX c #F5D8C5",
"BX c #E3DDD6",
"VX c #F3DFD2",
"CX c #F6E1CC",
"ZX c #F9E3CE",
"AX c #F9E2C6",
"SX c #EBE2D3",
"DX c #E8E4DC",
"FX c #FBE5D2",
"GX c #FDE9D5",
"HX c #F7E9D9",
"JX c #F0E4D1",
"KX c #EAE8E6",
"LX c #F4EFEB",
"PX c #E1DEE1",
"IX c #C2BDC2",
"UX c #7E7B83",
/* pixels */
"U.U.(.(.U.U./.!.-X4XsXsXsXgXgXgXgXdXgXgXgXgXgXgXgXgXgXgXzXgXgXgXgXgXgXdXdXdXgXgXgXdXgXgXgXgXgXdXfXfXgXgXgXfXfXfXfXfXfXfXfXfXfXfXfXfXfXfXfXfXfXfXfXfXfXfXvXvXvXvXvXvXfXvXvXvXvXfXvXvXvXvXvXvXvXvXvXvXvXvXvXvXvXvXbXbXbXbXSXSXvXvXvXvXvXvXSXSXSXSXSXSXSXSXSXSXSXSXSXSXSXSXSXSXSXSXSXSXSXSXSXSXSXSXSXSXSXSXSXSXSXSXSXSXSXJXJXJXJXJXHXHXHXHXHXHXJXJXSXSXJXJXSXJXJXJXSXSXSXSXSXSXSXSXSXSXSXSXSXSXJXJXSXSXbXbXJXSXSXSXSXSXSXSXSXSXbXbXbXbXbXbXbXbXbXbXbXbXbXbXbXbXbXbXbXbXbXbXbXbXbXbXvXvXfX9XtXqX9X9X&XT.I.v.Y._._.p.2.2.2.2.2.2.5.y.r.v.Y.#X9XnXnXvXnXnXfXfX~.g.-.I D D G H h g g g g f f f f f f f f f f f f f f f f f f d d i i i i d d d i i i i i i i l f i i i d f k g k f l r l l l l l l ` ` ` ` ` ` ` ` ` ` ` ` ` ` ` ` ` ` ` ` ` X.X.] ' ` j j j j j ` ` ` ` ` ` ` ` ` ` ` ` ` ` ` ` ` ` ` ` ' X.X.<.<.<.<.<.<.<.<.....<.<...................<.<.<.<.<.<.*.,.,.,.,.,.,.,.,.>.>.t.t.h.L.L.L.L.P.U.R.!.~.-X4X3X4X-X$X!.R.P.L.,.,.:.,.L.U.!.R.U.U.U.U.U.U.U.U.U.U.U.U.R.R.E.!.~.@X$X$X~.!.W.R.U.U.U.P.L.L.L.L.L.g.h.h.h.h.t.t.t.>.t.P.P.P.t.,...X.1.f d i i i d i d d l r r i r r r r r t r r r r r r r r r r r r r r r r r r r r r r r r r r r r ",
"U.U././.^.-XaXdXgXgXgXgXgXdXdXsXsXsXdXdXdXdXgXgXgXgXdXdXdXdXdXdXgXgXgXgXgXdXgXdXgXgXgXgXgXgXgXdXfXfXgXgXfXfXfXfXfXfXfXfXfXfXfXfXfXfXfXfXfXfXfXfXfXfXfXfXvXvXfXfXvXvXfXfXvXvXvXvXvXvXvXvXvXvXvXvXvXvXvXvXvXvXvXvXbXbXbXbXSXSXvXvXvXvXSXSXSXSXSXSXSXSXSXSXSXSXSXSXSXSXSXSXSXSXSXSXSXSXSXSXSXSXSXSXSXSXSXSXSXSXSXSXSXJXJXJXJXJXJXJXHXHXHXHXHXHXJXJXSXSXJXJXSXSXJXJXSXSXSXSXSXSXSXSXSXSXSXSXSXSXJXJXSXSXbXbXJXSXSXSXSXbXSXSXSXSXbXbXbXbXSXbXbXbXbXbXbXbXbXbXbXbXbXbXbXbXbXbXbXbXbXbXvXvXfX9X9X9X9X0X%XT.v.g.u.v.i.5.2.2.2.2.2.5.y.r.i.I.T.#X7XnXnXnXnXnXfXfX~.L.:.R D D G H h g g g g f f f f f f f f f f f f f f f f f f d d i i i d d d d i i i i i i i i i i i i d f k g k f f r l l l l l l ` ` ` ` ` ` ` ` ` ` ` ` ` ` ` ` ` ` ` ` ` X.X.] ' ` j j j j j ` ` ` ` ` ` ` ` ` ` ` ` ` ` ` ` ` ` ' ] X.X.<.<.<.<.<.<.<.,.<.<.<.<.,.<.<.<.<.<.,.,.,.,.,.UXUXUXUXUXUXUXUXUXL.L.L.L.L.L.L.P.P.U.U.R.R.R././.~.-X-X-X-X-X~./.R.U.L.h.>.,.$.$.*.h.U.~.~.3X3X-X-X-X-X&X&X$X$X$X$X&X-X3X8XdX8X8X8X2X-X~.!.W.R.U.U.U.P.P.P.P.L.L.L.L.h.t.h.t.t.t.L.P.t.,. .] j f i r r i i d i d d l l r r r r r r r t r r r r r r r r r r r r r r r r r r r r r r r r r r r r ",
"-X-XaXdXgXgXdXdXdXsXsXdXsXsXsXsXsXsXdXdXsXsXsXsXdXdXsXdXdXdXdXdXdXdXgXgXgXdXdXdXdXdXgXgXgXgXgXgXfXfXfXgXfXfXfXfXfXfXfXfXfXfXfXfXfXfXfXfXfXfXfXfXfXfXfXfXfXfXfXfXvXvXvXvXvXvXvXvXvXvXvXvXvXvXvXvXvXvXvXvXvXvXvXvXvXvXvXvXSXSXbXbXSXSXSXSXSXSXSXbXSXSXSXSXSXSXSXSXSXSXSXSXSXSXSXSXSXSXSXSXSXSXSXSXSXSXSXSXSXSXSXSXJXJXJXJXJXJXJXJXJXJXHXHXHXHXHXHXSXSXSXJXJXJXJXJXSXSXSXSXSXSXSXSXSXSXSXSXSXSXJXJXSXSXbXbXSXSXSXSXbXbXbXSXSXSXbXbXSXSXSXSXbXbXSXSXbXbXbXbXbXbXbXbXbXbXbXbXbXbXbXbXvXvXfX9X9X9X0X0X&XT.g.r.y.5.9.2.2.f.2.2.5.7.i.i.I.I.W.#X6XzXnXnXnXnXfXfX@XL.:.{ H D G H h h g g g f f f f f f f f f f f f d d d f f f d d i i i r r d d i i i i i i i i i i i i d f g g g f f f l l l l l l ` ` ` ` ` ` ` ` ` ` ` ` ` ` ` ` ` ` ` ` ` X.X.] ` ` j j j j j ` ` ` ` ` ` ` ` ` ` ` ` ` ` ' ' ] X.X.<.<.,.,.,.,.,.,.,.,.,.,.,.,.,.UXUXL.L.L.L.L.L.L.L.P.P.P.(.U.(.U.(.(.(.U.(.U.U.U.U.U.R.R./././.!.~.^.^.-X-X$X~.!./.U.P.L.h.>.,.*.$...$.,.t.R.$X3XsXsXsXsXsXsX8X8X8X8X8X8X8XdXvXbXSXbXvXgXsX3X-X~.!.W.W.R.R.R.R.U.U.U.P.P.L.h.h.h.L.L.L.t.>.*.] U j k i r r r i i i i d d r r r r r r r r r t t t r r r r r r r r r r r r r r r r r r r r r r r r r r ",
"dXdXdXsXsXsXsXsXsXsXsXsXsXsXsXsXdXdXgXgXdXsXsXsXsXdXdXdXdXdXdXdXdXdXgXgXgXdXdXdXdXdXdXdXgXgXgXgXfXfXfXfXfXfXfXfXfXfXfXfXfXfXfXfXfXfXfXfXfXfXfXfXfXfXfXfXfXfXfXfXvXvXvXvXvXvXvXvXvXvXvXvXvXvXvXvXvXvXvXvXvXvXvXvXvXvXvXvXSXSXbXbXSXSXSXSXSXSXSXbXSXSXSXSXSXSXSXSXSXSXSXSXSXSXSXSXSXSXSXSXSXSXSXSXSXSXSXSXSXSXSXSXJXJXJXJXJXJXJXJXJXJXJXHXHXHXHXHXSXSXSXJXJXJXJXJXSXSXSXSXSXSXSXSXSXSXSXSXSXSXJXJXSXSXbXbXJXSXSXSXbXbXbXSXSXSXbXbXSXSXSXSXbXbXSXSXbXbXbXbXbXbXbXbXbXbXbXvXbXbXbXbXnXvXfX9X9X9X0X5X%XT.g.y.4.3.2.2.2.( 2.2.5.i.p.I.Y.Y.T.#X;XzXnXnXnXvXfXfX$XI.>.[ H D G H h h g g g f f f f f f f f f f f f d d d f f f d i r r r i r r d i i i i i i i i i i i i d f g g g f f f l l l l l l ` ` ` ` ` ` ` ` ` ` ` ` ` ` ` ` ` ` ` ` ` ] ] ] ` j j j j j j ` ` ' ` ` ` ` ` ` ` ` ` ' ] ] X...<.<.,.UXL.L.UXUXUXUXUXUXUXUXUXL.P.P.P.P.P.P.P.P.(.(.(.(././.^.^.^.^./.!.!.!./.!.!./././.^.^.^.^.-X-X-X-X-X-X~./.R.U.P.L.h.>.:.*.$.#...#.*.,.L./.-X8XdXgXgXgXfXfXfXfXdXdXdXdXdXzXbXHXLXLXHXSXfXgX8X2X-X$X~.~.!.R.R.R.R.R.R.U.P.L.L.h.L.L.L.,.$.X.j j k f r r r r i i r r r r r r r r r r r r t t t t r r r r r r r r r r r r r r r r r r r r r r r r r r ",
"sXsXsXsXsXsXsXsXsXsXsXsXsXsXsXsXsXdXdXdXgXgXdXdXdXdXdXdXdXdXdXdXdXdXdXdXdXdXdXdXdXdXdXdXdXdXdXdXdXdXdXdXgXgXgXgXgXgXgXgXfXfXfXfXfXfXfXfXfXfXfXfXfXfXfXfXfXfXfXfXfXfXvXvXvXfXvXvXvXvXvXvXvXvXvXvXvXvXvXvXvXvXvXvXvXvXvXvXbXbXbXbXvXvXvXvXSXSXvXvXSXSXSXSXSXSXSXSXSXSXSXSXSXSXSXSXSXSXSXSXSXSXSXSXSXSXSXSXSXSXSXSXSXSXSXSXSXSXSXSXSXSXJXJXSXSXJXJXSXSXSXSXSXSXSXSXSXSXSXSXSXSXSXSXSXSXSXSXSXSXbXbXSXSXSXSXbXbXbXbXSXSXSXbXbXbXbXbXbXbXbXbXbXbXbXbXvXvXbXbXvXvXvXvXbXbXbXvXnXnXnXvXnXzX9X9X9X0X5X<X&XT.g.y.4.2.2.2.2.2.2.2.5.i.p.p.I.I.Y.].*XeXnXnXvXvXfXfX-XI.t.} H D G H h h g g g g g g k k f f f f f f f f f f f f f d i i i i i r f d d d d f d d i i f f f f f f g h k k f l l l l l l l ` ` l l l l ` ` ` ` ` ` ` ` ` ` ` ` ` ` ` ] ' ' ` j j j j j j ` ' ] ' ` ` ` ` ` ' ' ] X...<.<.,.UXP.P.P.P.P.P.P.P.P.L.L.L.P.P.P.P.P.(.(.(.U.R.(././././.^.-X-X-X^.^.^.^.^.^.~.~.^.^.^.^.!.!.!.!.!.!.!.~.~./.U.P.L.>.:.:.:.:.*.:.:.,.t.UXP.U./.$XdXvXVXVXVXBXVXbXnXzXgXgXzXzXvXBXBXHXLXLXHXJXSXbXBXgXgXsX3X2X-X~.!.~.^.^.!.R.U.P.L.L.L.L.>.$.X.j g f f r r r r r r r r r r r r r r r r r r t r t t t t t t t r r r r r r r r r r r r r r r r r r r r r r ",
"sXsXsXsXsXsXsXsXsXsXsXsXsXsXsXsXsXsXdXdXgXgXdXdXdXdXdXdXdXdXdXdXdXdXdXdXdXdXdXdXdXdXdXdXdXdXdXdXdXdXdXdXgXgXgXgXgXgXgXgXfXfXfXfXfXfXfXfXfXfXfXfXfXfXfXfXfXfXvXvXvXvXvXvXvXfXfXvXvXvXvXvXvXvXvXvXvXvXvXvXvXvXvXvXvXvXvXvXbXbXbXbXvXvXvXvXSXSXbXbXSXSXSXSXSXSXSXSXSXSXSXSXSXSXSXSXSXSXSXSXSXSXSXSXSXSXSXSXSXSXSXSXSXSXSXSXSXSXSXSXSXSXJXJXSXSXJXJXSXSXSXSXSXSXSXSXSXSXSXSXSXSXSXSXSXSXSXSXSXSXbXbXSXSXSXSXbXbXbXbXSXSXSXbXbXbXbXbXbXbXbXbXbXbXbXbXvXvXvXbXvXvXvXvXbXbXbXvXnXvXvXvXnXzX9X9X9X0X5X<X&XT.v.y.4.2.2.2.2.2.2.2.5.u.i.r.r.r.v.Y.%X9XzXnXnXvXfXfX2XU.t.} F D G H h h g g g g g g k k f f f f f f f f f f f f f d f d d d f f f f i i d d f i i i f f f f d f g h k k f l l l l l l l ` ` l l l l ` ` ` ` ` ` ` ` ` ` ` ` ` ` ` ' ' ' ` ` k j j k j ` ` ] ' ' ` ` ' ] ] X...<.,.,.>.L.P.(.(.(.(.P.P.P.P.P.P.P.P.P.P.P.(.(.(.(.U.(.R.R./././././.!.~.~.~.!.!.!.~.!.!.!././././.U.U.U.U.U.U.U.U.U.L.h.>.*.$.$.*.,.>.h.L.U.U.R./.!.-XaXgXDXDXHXHXHXHXHXHXBXbXvXBXvXvXnXBXVXSXDXDXSXSXSXVXBXBXBXBXvXgXsX-X-X-X4X4X-X!.R.U.U.P.L.>.*.] j g f f r r r r r r r r r r r r r r r r r r r t t t t t w w w w t t t t t t t t r r r t r r r r r r r r r r ",
"sXsXsXsXsXsXsXsXsXsXsXsXsXsXsXsXsXsXdXdXdXdXdXdXdXdXdXdXdXdXdXdXdXdXdXdXdXdXdXdXdXdXdXdXdXdXdXdXdXfXdXdXgXgXgXgXgXgXgXgXfXfXfXfXfXfXfXfXfXfXfXfXfXfXfXfXfXfXvXvXvXvXvXvXvXvXvXvXvXvXvXvXvXvXvXvXvXvXvXvXvXvXvXvXvXvXvXvXbXvXbXbXvXvXvXvXSXSXSXbXSXSXSXSXSXSXSXSXSXSXSXSXSXSXSXSXSXSXSXSXSXSXSXSXSXSXSXSXSXSXSXSXSXSXSXSXSXSXSXSXSXSXSXJXSXJXJXJXSXSXSXSXSXSXSXSXSXSXSXSXSXSXSXSXSXSXSXSXSXSXbXbXSXSXSXSXbXbXbXbXSXSXbXbXbXbXSXSXbXbXbXbXbXbXbXbXvXvXbXbXbXbXbXbXbXbXbXbXnXnXvXvXnXzX9X9X9X0X0X<X&XW.v.y.4.2.2.2.2.%.2.2.5.y.r.y.y.y.r.Y.#X6XlXnXnXvXfXfX8XR.h.#.U D G h h h g g g g g g k k f f f f f f f f f f f f f f f f f f f f f f d i i i f f i i i d f f d f g h g k f f l l l l l l k ` l l l l ` ` ` ` ` ` ` ` ` ` ` ` ` ` ' ' ' ` ` ` j j j k k ` ` ' ] X.X.X.X.X.X.X.<.<.,.,.UXL.P.P.P.P.L.L.L.L.L.L.L.L.L.L.L.L.P.P.P.P.P.P.P.L.P.L.P.P.P.U.P.P.U.U.U.U.U.U.U.I.L.L.L.h.h.t.>.>.>.>.>.>.>.,.#. .}  .*.>.L.U./.^.-XaXdXdXsXdXgXBXSXHXHXHXHXDXSXVXbXvXgXdXgXgXgXgXzXvXBXvXzXdX3X3XdXgXfXvXSXVXBXsXsXsXsXsX3X-X/.R.U.P.>.*.X.j g g f r r r r r r r r r r r r r r r r r r r r t t w w w w w w w t t t t t t t t r r r t r r r r r r r r r r ",
"8X8X8X8X8X8XsXsXsXsXsXsXsXsXsXsXsXsXdXdXdXdXdXdXdXdXdXdXdXdXdXdXdXdXdXdXdXdXdXdXdXdXdXdXdXdXdXdXfXfXdXdXfXgXgXgXgXgXgXgXfXfXfXfXfXfXfXfXfXfXfXfXfXfXfXfXfXfXvXvXvXvXvXvXvXvXvXvXvXvXvXvXvXvXvXvXvXvXvXvXvXvXvXvXvXvXvXvXvXvXbXbXvXvXvXvXSXSXSXbXSXSXbXbXSXSXSXSXSXSXSXSXSXSXSXSXSXSXSXSXSXSXSXSXSXSXSXSXSXSXSXSXSXSXSXSXSXSXSXSXSXSXSXSXSXSXSXSXSXSXSXSXSXSXSXSXSXSXSXSXSXSXSXSXbXbXbXbXSXbXbXbXbXbXSXSXbXbXbXbXSXSXSXbXbXbXSXSXbXbXbXbXbXbXbXbXbXbXbXbXbXbXbXbXbXbXbXbXnXvXvXvXvXzX9X9X9X0X0X,X&XW.I.y.4.2.2.2.2.@.2.2.2.5.y.y.y.y.v.Y.#X6XlXzXvXzXfXfX8XR.h.#.U D G h h h g g g g g g k f f f f f f f f f f f f f f f k f k f f f f f d i i i f f i i i d f f d f f k g k f f l l l l l l k k ` ` l l ` ` ` ` ` ` ` ` ` ` ` ` ` ' ' ' ' ` ` j j j j k k ` ` ' ' X.X.X.X.X...<.<.<.<.,.,.,.,.,.,.,.,.,.,.,.,.,.,.,.,.,.,.,.,.,.,.,.,.,.,.,.,.,.,.,.,.,.>.t.t.h.L.L.L.L.L.t.t.e.>.:.*.*.#.#.#... ... .X.{ { }  .>.L./.4XgXjXBXBXgXkXaXaXsXgXBXDXHXJXSXDXBXvXgXdXsXaX8X3X3XsXdXdXdXsX8X-X$X!.R.U.W.-XgXVXVXvXBXBXBXBXgXsX-XR.P.h.,.X.G g g d r r t t t t t t r r r r r r r r r r r r t t w w w w q q w w w w w w w w w w t t r r r r r r r r r r r r ",
"8X3X8X8X8X8X8X8XsXsXsXsXsXsXsXsXsXsXsXsXsXsXsXsXsXsXsXsXdXsXsXsXdXdXdXdXdXdXdXdXfXfXsXsXdXfXfXfXfXfXfXfXgXgXgXfXfXfXfXfXfXfXfXfXfXfXfXfXfXfXfXfXfXfXfXfXvXvXvXvXvXvXvXvXvXvXvXvXvXvXvXvXvXvXvXvXvXvXvXvXvXvXvXvXvXvXvXvXvXvXvXbXvXvXvXvXbXbXvXvXvXvXSXSXSXSXSXSXSXSXSXSXSXSXSXSXSXSXSXSXSXSXSXSXSXSXSXSXSXSXSXSXSXSXSXSXSXSXSXSXSXSXSXSXSXSXSXSXSXSXSXSXSXSXSXSXSXSXSXSXSXSXSXSXSXSXSXSXbXbXbXbXbXbXbXbXbXbXbXbXbXbXbXbXbXbXbXbXbXbXbXbXbXbXbXbXvXvXvXvXbXvXvXvXvXvXvXvXvXvXvXvXvXfX9X9X0X0X5X5X&XE.I.r.4.2.2.2.@.2.2.2.2.2.5.y.y.r.v.Y.].5XeXeXzXfXfXfX8XR.h.=.U D D h h g g g g g g g f f f f f f f d f f f f f f f f f f f f f f f i f f d f f f i i i d f f f f f k g k f f l l l l l l k k ` ` ` ` ` ` ` ` ` ` ` ` ` ` ` ` ' ' ] ] ' ' ` j j j j k k j ' ' ' X.X.X.X.X.........<.<.<...................<...,.,.>.>.,.,.,.,.,.,.,.,.,.,.*.*.*.*.$.#.#.$.:.:.>.>.>.e.>.:.:.*.$.$.#..... .| }  .} } X.] ] X. .>.U.4XBXLXKXBXBXgXaX-X-XsXvXSXDXDXSXbXvXgXdXaX3X-X-X-X$X$X-XaXaX3X-X$X~.R.R.U.L.L.R.sXBXDXJXSXSXSXJXBX3X-XU.h.,.| U g d d r r t t t t t r r r r r r r r r r r r t t t w w q q q q w w w w w w w w w w w t t t t r r r r r r r r t t ",
"3X3X8X8X8X8X8X8XsXsXsXsXsXsXsXsXsXsXsXsXsXsXsXsXsXsXsXsXsXsXdXdXdXdXdXdXdXdXdXdXfXdXdXsXsXfXfXfXfXfXfXfXgXgXfXfXfXfXfXfXfXfXfXfXfXfXfXfXfXfXfXfXfXfXfXvXvXvXvXvXvXvXvXvXvXvXvXvXvXvXvXvXvXvXvXvXvXvXvXvXvXvXvXvXvXvXvXvXvXvXvXbXvXvXvXvXbXbXbXvXvXvXbXbXSXSXSXSXSXSXSXSXSXSXSXSXSXSXSXSXSXSXSXSXSXSXSXSXSXSXSXSXSXSXSXSXSXSXSXSXSXSXSXSXSXSXSXSXSXSXSXSXSXSXSXSXSXSXSXSXbXbXSXSXbXSXSXSXbXbXbXbXbXbXbXbXbXbXbXbXbXbXbXbXbXbXbXbXbXbXbXbXbXbXbXbXvXvXvXvXvXvXvXvXvXvXvXvXnXvXvXnXvXfX9X9X0X0X5X5X&XW.I.r.4.2.2.@.@.@.@.2.2.2.2.5.y.r.v.I.Q.*XeX9XqXqXfXfX0XR.h.=.I D D h h h g g g g g g f f f f f f f d f d f f f f f f f f f f f f i i f f f f f f i i d d f f f f f f g k f f l l l l l l k k ` ` ` ` k k ` ` ` ` k k ` ` ` ' ' ' ] ] ] ' ` j j j j k k j ' ' ' ' X.X.X.X.X.X.........X.X.X.X.X.X.X.] ] ] ..,.>.L.P.P.P.P.P.P.L.L.t.t.>.,.,.,.,.:.:.:.:.*.*.*.$.$.$.$.$.$.+.$.$.$.$.*.*.*.#.#... .X.X.{ ] { ..,.U.4XBXLXKXBXgXdXaXaXdXBXBXBXHXSXbXfXgXsX3X-X$X~.!.!./.!.$X-X-X-X~./.U.U.U.U.I.I.!.dXVXLXLXDXJXSXBXgX4X!.L.:.| U g d i r e r t t w w w w w t t r t r r t t t t w w w q q q q q q q q q w w w w q q q q w w t t t t r r r r r r t t ",
"3X3X8X8X8X8XsXsXsXsXsXsXsXsXsXsXsXsXsXsXsXsXsXsXsXsXsXsXsXsXsXsXdXdXdXgXdXdXdXdXfXfXsXsXsXsXfXfXdXdXfXfXgXgXgXgXgXgXfXgXfXfXfXfXfXfXfXfXfXfXfXfXfXfXvXvXvXvXvXvXvXvXfXvXvXvXvXvXvXvXvXvXvXvXvXvXvXvXvXvXvXvXvXvXvXvXvXvXvXvXvXvXvXvXvXvXbXbXvXvXvXvXvXbXbXSXSXSXSXSXSXSXSXSXSXSXSXSXSXSXSXSXSXSXSXSXSXSXSXSXSXSXSXSXSXSXSXSXSXSXSXSXSXSXSXSXSXSXSXSXSXSXbXbXSXSXSXSXSXSXbXbXbXSXbXbXSXSXbXbXbXbXbXbXbXbXbXbXbXbXbXbXbXbXbXbXbXbXbXbXvXvXbXbXbXbXvXbXbXvXbXbXvXvXvXvXvXvXnXvXvXnXvXfX9X9X9X0X5X5X&XE.I.r.4.2.2.@.( ( 2.( 2.2.2.5.5.y.r.v.T.&X9X9XqXqXfXfX8XW.g.*.I D D h h g g g g g g g f f f f f f f d f d d d d d f i d i i i f f i i f d d d f d i i f f f f f f f f g k f f l l l l l l k k l l ` ` k k k k k k k k ` ` ' ' ] ] ] ' ] ' j j j j j j j ` ' ' ' ] ] ] ] X.X.X.X.X.X.X.X.X.] ] ] ] ] ] X...,.L.(./.^.~.~.~.!.$X-X$X!./.U.U.P.P.P.P.U.I.L.h.e.:.$.#.} [ [ [ o.} $.:.t.L.P.P.L.L.h.>.,.:.*.#.$.:.t.U.-XhXDXBXgXgXdXdXgXBXDXDXBXVXvXfXsX3X-X-X~.!./.U.U.U.!.$X-X$X!./.U.U.U.U.R.R.!.3XBXSXHXLXDXDXBXdX4X/.L.:.X.h h d r e e e r t t w w w w w t t t t r r t t t t w w w q q q q q q q q q w w w w q q q q w w t t t t r r r r t t t t ",
"3X3X8X8X8X8XsXsXsXsXsXsXsXsXsXsXsXsXsXsXsXsXsXsXsXsXsXsXsXsXsXsXdXdXdXgXdXdXdXdXfXfX8X8X8XsXfXfXdXdXfXfXgXgXgXgXgXgXgXgXfXfXfXfXfXfXfXfXfXfXfXfXfXfXvXvXvXvXvXvXvXfXfXvXfXfXvXvXvXvXvXvXvXvXvXvXvXvXvXvXvXvXvXvXvXvXvXvXvXvXvXvXvXvXvXvXbXbXvXvXvXvXvXvXSXSXSXSXSXSXSXSXSXSXSXSXSXSXSXSXSXSXSXSXSXSXSXSXSXSXSXSXSXSXSXSXSXSXSXSXSXSXSXSXSXSXSXSXSXSXSXSXbXSXSXSXSXSXSXSXbXbXbXSXbXbXSXbXbXbXSXSXbXbXbXbXbXbXbXbXbXbXbXbXbXbXbXbXbXbXvXvXvXvXbXbXvXbXbXbXbXbXbXbXvXvXvXvXvXvXvXnXvXfX9X9X0X0X5X<X&XE.I.r.4.2.2.@.%.%.%.%.( 2.2.2.2.2.4.r.I.#X0XeXqXqXfXfX8XE.L.-.I V g h h h g g g g g g f f f f f f d d d i i i d i i i i r i i i i i i i i i i i i i r r i f f d d f f g k f f l l l l l l l k l l ` ` k k k k k k k k ` ` ' ' ] ] ' ' ' ` j j j j j j j j 1.' ] ] ' ] ] ] X.X.X.X.X.X.X.] ] ] ] ] ] X.,.L.U./.^.-X-X-X;X;X;XsXdXdX-X@X!.!.!.R.R.!.!.~.~./.L.t.$.+.[ [ { [ [ o.+.6.I.!.dXgXgX-X~./.U.L.L.t.t.t.P.!.aXkXBXgXgXdXgXBXDXKXHXDXVXvXgXsX3X4X-X^.!./././././.!.~.~.!.U.U.U.U.U.U./.^.aXBXHXHXDXSXDXVXsX-X/.L.:.} U g d i e t e t r t t w t w w w t t t t t t t t w t w w q q q q q q q q q q q q q q q q q q w w w w t t t t t t t t w w ",
"8X3X8X8X8X8XsXsXsXsXsXsXsXsXsXsXsXsXsXsXsXsXsXsXsXsXsXsXsXsXsXsXdXdXdXdXdXdXdXdXsXsX8X8X8X9X9XdXsXsXdXdXfXfXfXfXdXdXfXfXfXfXgXgXgXfXfXfXfXfXfXfXfXfXfXfXvXvXvXvXvXvXvXvXvXvXvXvXvXvXvXvXvXvXvXvXvXvXvXvXvXvXvXvXvXvXvXvXvXvXvXvXvXvXvXvXvXvXvXvXvXvXvXvXvXvXvXvXbXbXbXSXSXSXbXbXSXSXSXSXSXSXSXSXSXSXbXbXbXbXSXSXSXSXSXSXSXSXSXSXSXSXSXSXSXSXSXSXSXSXSXSXbXbXbXbXbXSXbXbXSXSXSXSXbXbXvXvXSXSXSXSXvXvXbXbXbXbXvXvXvXvXbXbXbXbXbXbXvXvXvXvXvXvXvXbXvXvXvXvXvXvXvXvXvXvXvXvXvXnXnXvXzXfX9X9X0X0X5X,X&X].Y.r.6.2.2.@.2.2.( ( ( ( f.f.@.%.2.4.I.].0XzXqXqXqXqX0X~.L.>.E V D h g g g g f f g g f f f f f f f d d i i i d d d r i i i i r i i i i i i i r r r r r i f f f f g h h h k f f l l l l l l l l l ` ` ` ` k k ` ` ` ` k ` ' ' ] ' ' j k j j j j j j j j j ' ' ] ] ] ` ]  .#.$.*.<.*.*.*.*.*.*.*.,.,.UXP./.-XsXaX-X&X@X@X-X0XdXnXnXlX;X%X@X!.W.R.!.~.-X3X-X!.I.:.+.[ { { { [ [ %.t.!.0XHXHXHXHXBXgX-X~.!.R.R.!.-XsXgXgXBXgXgXgXvXVXKXHXDXBXBXzXdXaX-X$X!./././././.!.!.!.!./.U.U.U.U.U.U.U.U.-XdXBXHXDXBXBXgX4X/.P.t.*.} ] G f d r r r r r t t w w w w w w w w w w t t t t w w w w q q 3 q q q q q q q q q q q q q w q w w w w w w t t t t t t w w ",
"3X3X8X8X8X8XsXsXsXsXsXsXsXsXsXsXsXsXsXsXsXsXsXsXsXsXsXsXsXsXsXsXsXsXdXdXdXdXdXdXsXsX8X8X8X8X9X9XsXsXdXdXfXfXfXfXdXdXfXdXfXfXgXgXgXgXfXfXfXfXfXfXfXfXfXfXvXvXvXvXvXvXvXvXvXvXvXvXvXvXvXvXvXvXvXvXvXvXvXvXvXvXvXvXvXvXvXvXvXvXvXvXvXvXvXvXvXvXvXvXvXvXvXvXvXvXvXvXbXbXbXSXSXSXbXbXSXSXSXSXSXSXSXSXSXSXSXSXbXbXSXSXSXSXSXSXSXSXSXSXSXSXSXSXSXSXSXSXSXSXSXSXbXbXbXbXbXbXbXbXbXSXSXSXbXbXvXvXSXSXSXSXvXvXvXvXbXbXvXvXvXvXbXbXbXbXbXbXvXvXvXvXvXvXvXbXvXvXvXvXvXvXvXvXvXvXvXvXvXvXvXvXzXfX9X0X0X5X,X,X&XE.Y.v.y.3.@.@.%.2.( ( ( ( ( ( ( ( 2.4.I.].0XzX9X9X9XqX0X@XI.>.E D g s g h g g g f g g k k f f f f f f f d d d f f f d d i i i f f d d d d d d f f f d d f g g h j j U G j h f l r l l l l l l l l ` ` ` ` k k ` ` ` ` k ` ' ' ' ' ` k k j j j j j j j j j 1.' ' X...<.,.>.t.L.L.P.P.L.L.L.L.L.L.L.U./.-XBXLXBXgX-X!.W.R.!.@X;XlXnXnXdX0X;X-X!.!.R.!.$X3X3X@XU.t.$.[ { J R { [ *.L.&XnXHXLXHXLXKXBXBXdX3X-X-XsXgXBXKXDXBXBXBXBXBXDXDXDXVXvXgXdX3X-X^.!./././././.!.!.!.!.(.U.P.U.U.U.U.I.P.I.!.-XdXgXgXdXsX-X/.P.t.*.} ] G f r r r r r r r t w w w w w w w w w w w w w t w w w w w q q < 3 3 3 q q q q q q q q q q q q q q w w w w w w w w w w w w ",
"3X3X8X8X8X8XsXsXsXsXsXsXsXsXsXsXsXsXsXsXsXsXsXsXsXsXsXsXsXsXsXsXsXsXsXsXsXsXdXdXsXsX8X8X8X8X8X8XdXdXdXdXdXdXfXfXdXdXdXdXfXfXgXgXfXfXfXfXfXfXfXfXfXfXfXfXfXvXvXvXvXvXvXfXvXvXvXvXvXvXvXvXvXvXvXvXvXvXvXvXvXvXvXvXvXvXvXvXvXvXvXvXvXvXvXvXvXvXvXvXvXvXvXvXSXSXvXvXSXSXSXSXSXSXbXbXSXSXSXSXSXSXSXSXSXSXvXvXbXbXSXbXSXSXSXSXbXbXbXSXSXSXSXSXSXSXSXSXbXbXbXbXbXbXbXbXbXbXbXbXbXbXbXbXbXbXvXbXbXSXbXbXvXvXvXvXbXbXbXbXvXbXbXbXbXbXbXbXvXvXvXvXvXvXvXvXvXvXvXvXvXvXvXvXvXvXvXvXnXvXvXvXfX9X9X0X5X5X%X%X&X].T.v.y.3.@.@.@.2.( ( ( ( ( ( ( %.2.5.I.].0XtX9X9XqX9X0X@XI.>.{ D h g h h j h g g h g g k k k g g g k k f f f k k k f f f f f f f f f f f k k g g h g g j j U ] ] ] ] ] ] j f r l l l l l l l l k ` ` ` ` ` ` ` ` ` ` ` ` ' ' ' ' k k k k j j j j j j k j ' ' ] ..,.>.P.P.R././././././././.!.!.!.-XaXhXDXHXbX8X~.U.U.R.!.~.-X3XsXsXsX8X-X-X~./.R./.!.!.!.U.L.*.$.+.[ { { { [ :.U.;XVXLXLXLXLXHXKXHXBXBXBXBXBXKXHXKXHXSXDXSXSXBXVXVXbXzXfXsX-X-X$X!./.(././././.!.!./.U.I.P.P.P.U.I.I.P.P.I./.$X-XsXaXaX$XR.L.t.*.} ] j g l r r r r r r w q q w w w w w w w w w w q w q q q w q q q z < 3 3 3 q q q q q q q q q q q q q q q q q q w w q w w w q q ",
"3X3X8X8X8X8XsXsXsXsXsXsXsXsXsXsXsXsXsXsXsXsXsXsXsXsXsXsXsXsXsXsXsXsXsXsXsXsXdXdXsXsX8X8X8X8X8X8XdXdXdXdXdXdXfXfXdXdXdXdXfXfXgXgXfXfXfXfXfXfXfXfXfXfXfXfXfXvXvXvXvXvXvXfXfXvXvXvXvXvXvXvXvXvXvXvXvXvXvXvXvXvXvXvXvXvXvXvXvXvXvXvXvXvXvXvXvXvXvXvXvXvXvXvXSXbXbXbXSXSXSXSXSXSXbXbXSXSXSXSXSXSXSXSXSXSXvXvXbXbXSXSXSXSXSXSXbXbXbXSXSXSXSXSXSXSXSXSXbXbXbXbXbXbXbXbXbXbXbXbXbXbXbXbXbXbXbXbXbXbXbXbXvXvXvXvXbXbXbXbXvXvXbXbXbXbXbXbXbXvXvXvXvXvXvXvXvXvXvXvXvXvXvXvXvXvXvXvXnXzXvXfXfX9X9X0X5X5X%X%X&X].T.v.y.4.@.@.@.2.2.( ( ) ( ( ( %.2.y.I.+X0XtX9X9X9X9X0X@XI.>.{ D h g g h j h j j h h h g g g g g h g g k g g g g g k g g g g g k g g g g j j j j j j G U ] ] ] ] X.X.] ] j f i r l l l l l l l k ` ` ` ` ` ` ` ` ` ` ` ` ' ' ' ' k l k k j j j j j j j j 1.] X.<.,.L.P./.^.^.^.-X^.^.-X-X-X4XaX3X3XgXBXBXdX8X-X!.R.U.U.R.R.!.!.~.$X$X$X~.!./.R.R.R.R.U.U.U.L.t.e.:.+.[ } } } e.W.0XHXLXLXLXLXLXLXLXLXLXHXHXLXLXHXDXSXSXDXDXDXVXBXvXgXdX3X-X-X~.!./.R.(./.^.^.^.^./.U.P.P.P.P.U.P.I.I.I.I.U.!.-X3XaX3X-X/.P.t.*.| ] j g f l r r r r t w w q q w w w w q q q q q q q w q q q q q q q z < q q 3 q q q q q q q q q q q q q q q q q q w w q w w w q q ",
"8X3X3X3X8X8X8X8XsXsXsXsX8X8XsXsXsXsXsXsXsXsXsXsXsX8XsXsXsXsXsXsXsXsXsXsXsXsXsXsXdXdXdXdXdXdXdXsXdXsXsXsXdXdXdXdXdXdXfXfXdXdXfXfXgXgXfXfXfXfXfXfXfXfXfXfXvXvXfXfXfXfXfXfXfXfXfXfXvXvXvXvXvXvXvXvXvXvXvXvXvXvXvXvXvXvXvXvXvXvXvXvXvXvXvXvXvXvXvXvXvXvXbXbXSXSXSXSXvXvXvXvXvXvXSXSXSXSXSXbXbXSXbXbXbXbXbXbXbXbXbXbXbXbXvXvXSXSXbXbXbXbXbXbXbXbXbXbXbXbXbXbXbXbXbXbXbXbXbXbXbXbXbXbXvXvXvXbXbXbXvXvXbXbXbXbXvXvXbXbXbXbXbXbXvXvXvXvXvXvXvXvXvXvXvXvXvXvXvXvXvXvXvXvXnXnXnXvXvXzXzXzXfX9X9X0X0X5X%X%X&X+XT.I.r.4.&.@.%.%.@.%.%.%.%.%.2.2.5.u.Y.%X9XlX9XqXqXqX0X$XI.e.{ D h h D h h h j j j j h g g g h h h h g g g g g g g g h g h h h h h h h h G G G G U U ] ] ] ] X.X.X.X.] ] h f l l r l l l l k k k ` ` ` ` ` ` ` k k ` ` ' ' ' ' G f l l k j j j j j j G j 1.X...,.>.P.(.(./.R.R.R.R.R./.!.-X3X8X8XsXsX3X-X$X$X~.!./.R.R.U.R.R./.!.!.!.!.!.!.!././.R.R.U.U.U.I.L.L.t.e.:.:.*.*.t.!.dXHXLXLXLXLXLXLXLXLXLXBXBXBXBXDXDXBXHXHXHXBXBXnXzXfXdX0X-X-X^.!.!././.^.-X-X-X!.R.P.L.P.P.U.P.P.P.P.U.U./.-X-XaX-X^./.P.t.:.| U k f l l l r r r r w w q q q q q q q q q q q q q q q q q w w q q q q q z q q q q q q q q q q q q q q q q q q q q q q q q q q q q ",
"8X3X8X3X8X8X8X8XsXsXsXsX8XsXsXsXsXsXsXsXsXsXsXsXsX8XsXsXsXsXsXsXsXsXsXsXsXsXsXsXdXdXdXdXdXdXdXdXdXsXsXsXdXdXdXdXdXdXfXfXdXdXfXfXgXgXfXfXfXfXfXfXfXfXfXfXvXvXfXfXfXfXfXfXfXfXfXfXvXvXvXvXvXvXvXfXvXvXvXvXvXvXvXvXvXvXvXvXvXvXvXvXvXvXvXvXvXvXvXvXvXvXbXvXSXSXSXSXvXbXvXvXbXvXSXSXSXSXbXbXbXbXbXbXbXbXbXbXbXbXbXbXbXbXvXvXSXSXSXbXbXbXbXbXbXbXbXbXbXbXbXbXbXbXbXbXbXbXbXbXbXbXbXbXvXvXbXbXbXbXvXvXbXbXbXbXvXvXbXbXbXbXbXbXvXvXvXvXvXvXvXvXvXvXvXvXvXvXvXvXvXvXvXvXnXnXnXvXzXfXfXfXfX9X9X0X0X5X%X%X&X+XT.I.r.6.3.@.%.%.@.@.@.@.@.@.4.y.v.Y.+X;XeXlX9X9XqXqX0X$XI.e.{ D D h G G h h j j j j h h h h h h h h g g g g g g g g h h h h h h h h h h G G G G U U ] ] ] ] ] { ] X.] U j f f l r l l l l k k k ` ` ` ` ` ` ` ` ` ` ` ' ' ' G k l g k j j j j j j j j j ] X.=.,.>.L.L.P.L.L.L.L.L.P.U.!.-X8XgXgX8X8X-X-X~.~.!.!.R.R.R.R.R.R././.!.~.~.~.~.~.~.~.!./.R.R.U.U.U.I.P.L.L.L.L.L.I.~.dXDXLXLXLXDXBXKXKXKXBXgXaXsXdXBXBXDXHXBXBXBXBXbXnXzXgXdXaX-X-X-X-X^.-X3XaX3X^./.P.P.P.P.P.P.P.L.L.P.U./.^.aX-X-X~.U.P.t.*.| U k f l l r r r r r w q q q q q q q q w q q q q q q q q q q w w q q q q q z q q q q q q q q q q q q q q q q q q q q q q q q q q q q ",
"8X3X3X3X8X8X8X8XsXsXsXsX8X8XsXsXsXsXsXsXsXsXsXsXsXsXsXsXsXsXsXsX8XsXsXsXsX8X8X8XsXsXdXdXdXdXsXsXdXdXsXsXsXsXdXdXdXdXdXdXdXdXfXfXgXgXfXfXfXfXfXfXfXfXfXfXfXfXfXfXvXvXvXfXvXvXfXfXvXvXvXvXvXvXvXfXvXvXvXvXvXvXvXvXvXvXvXvXvXvXvXvXvXvXvXvXvXvXvXvXvXvXvXvXvXvXSXSXSXbXSXSXbXSXSXSXvXvXvXvXbXbXbXbXbXbXvXvXbXbXbXbXbXbXvXvXvXvXvXvXvXvXvXvXbXvXbXbXvXvXvXbXbXbXvXvXbXbXbXbXvXvXvXvXvXvXbXbXbXbXbXbXbXbXbXbXvXvXbXbXbXvXbXbXvXbXvXvXvXvXvXvXvXvXvXvXvXvXvXvXvXvXvXvXvXvXvXvXzXfXfXfXfX9X9X0X5X5X%X%X&X+XW.I.r.y.4.&.@.&.4.6.y.y.y.y.r.I.W.+X%X9XlXeX9X9X9X9X0X@XI.e.| U G G G h j j j j j j h h h h h h h h g g g g g g g g h h h h h h h h h h G G G G U U ] ] ] ] ] ] ] ] ] U j g k f l l l l k k k ` ` ` ` ` ` ` ` ` k k ` ' ' ' j f l j j 1.1.j j j j j j j ] ..,.,.>.>.t.>.>.>.t.h.L.L.U.!.-XsXvXvXdX8X3X3X2X-X$X~.!.!.!./.!./.!.!.~.~.$X$X$X-X-X-X$X~.~.~.!.W.R.U.R.U.R./.!.!.~.;XzXDXLXLXKXhXgXBXBXBXgX-X-X-X-XsXgXvXBXvXBXBXBXvXvXzXgXgXdXsXdXdXaX3X8XdXaX-X!.U.P.P.P.P.P.P.L.L.L.U./.-X-X-X-X!.U.L.t.*.} ] k f l r r r r r w w q q q q q q q q q q q q q q q q q q q q q q q q q q q z q q q q q q q q q q q q q q q q q q q q q q q q q q q q ",
"8X3X3X3X8X8X8X8XsXsXsXsX8X8XsXsXsXsXsXsXsXsXsXsXsXsXsXsXsXsXsXsX8X8XsXsXsXsX8X8XsXsXsXdXdXdXdXsXdXdXsXsXsXsXdXdXdXdXdXdXdXdXfXfXgXgXfXfXfXfXfXfXfXfXfXfXfXfXfXfXvXvXvXvXvXvXvXfXvXvXvXvXvXvXvXfXvXvXvXvXvXvXvXvXvXvXvXvXvXvXvXvXvXvXvXvXvXvXvXvXvXvXvXvXvXvXbXSXSXSXSXSXSXSXSXSXvXvXvXvXbXbXbXbXbXbXvXbXbXbXbXvXbXbXvXvXvXvXvXvXvXvXvXvXbXvXbXbXvXvXvXbXbXbXvXvXbXbXbXbXvXvXvXvXvXbXbXbXbXbXbXbXbXbXbXvXvXvXbXbXvXvXbXbXbXbXvXvXvXvXvXvXvXvXvXvXvXvXvXvXvXvXvXvXvXvXvXfXfXfXfXfXfX9X9X0X5X5X%X%X&X+XW.I.g.y.6.;.6.e.r.g.n.I.I.I.T.#X%X*X6X9XeX9X9X9X9X9X5X@XI.t.} U G G h h h h j h h g g h h g g g h h h g g g g g g g h h h h h h h h h h G G G G G G G U U ] G G U U U U U j k f l l l l k k k k ` ` ` ` ` ` ` ` k ` ` ' ' G k f k ' ] ] ] ' j j j j j j ] ..,.,.>.>.>.>.>.>.t.h.L.P./.^.aXvXbXbXzXfXzXgXgXsX8X-X-X$X~.!.!.!.!.~.$X-X-X-X-X-X3X3X-X-X-X-X$X~.!.!.!.!.+X$X-X-XsXnXBXKXLXLXBXdXaXsXkXkXaX^.^.^.-X4XaXdXgXgXgXgXgXgXgXgXgXdXgXdXgXgXgXsXsXsX-X!.R.U.U.U.U.P.P.L.L.L.U./.-XaXaX-X/.U.L.t.:.} U j f l r r r r r r w q - - q q q q q q q q q q q q q q q q q q q q q z z - z - z z - - q q q q q q q q q q q q q q q z q q q q q q q q ",
"8X3X8X8X8X8X8X8X8X8X8X8X8X8X8X8XsXsXsXsX8X8X8X8XsXsXsX8XsXsXsXsXsXsXsXsXsXsXsXsXsXsXdXdXdXdXsXsXfXdXdXdXdXdXfXfXfXfXgXgXgXgXgXgXgXgXgXgXfXfXfXfXfXfXfXfXfXfXfXfXfXfXfXfXfXfXfXfXfXfXvXvXvXvXvXfXvXvXvXvXvXvXvXvXvXvXvXvXvXvXvXvXvXvXvXvXvXvXvXvXvXvXvXvXvXvXvXvXvXSXSXSXSXSXSXSXvXvXSXbXbXbXbXbXbXbXvXvXbXbXvXvXbXbXvXvXbXbXbXbXbXvXbXbXbXbXbXbXbXbXbXbXbXbXbXbXbXbXbXvXbXbXbXbXbXbXbXbXbXbXbXbXvXvXvXvXvXvXvXvXvXvXvXvXvXvXvXvXvXvXvXvXvXvXvXvXvXvXvXvXzXzXzXzXzXvXzXfXvXfXfX9X9X9X8X0X0X5X%X%X&X@XE.Y.v.r.e.e.e.h.g.I.T.W.E.@X&X;X7X9X9X9X9X9X9X9X9X9X5X$XR.g.=.R H G h h j k k g g g g g g g g g g g g g g g g g g g h h h h h h h h G G G G G G G G G G G G h h G G U U U j g f l l l l l l l k k ` ` ` ` ` ` ` ` ` ` ' ' j j j ] X.X...X.] ` j j j j j ] ..,.,.>.>.>.t.h.t.h.L.P.U.!.-XdXBXVXVXbXvXvXvXvXfXfXdXsX8X-X@X!.~.@X-X3X8XsXdXdXfXfXfXfXfXfXdX8X-X$X$X@X$X$X$X-XdXBXVXLXLXLXLXBXkX4XaXaXIX-X^././.^.-X-X4XaXaXaXaXaXaXaXsXsXsXaXsXsXsXsXsXsX3X~.R.U.U.U.U.P.L.L.L.P.U./.-XaXaX-X!.U.L.t.:...] G f d r r w t t t t q q q q q q q q q q q q q q q q q q q q q q q q - - z - z - - - - - q q q q q q q q q q q q q q q q q q q q q q z z ",
"8X3X3X8X8X8X8X8X8X8X8X8X8X8X8X8XsXsXsXsXsX8X8X8XsXsXsX8XsXsXsXsXsXsXsXsXsXsXsXsXsXsXdXdXdXdXsXsXdXdXdXdXdXdXfXfXfXfXgXgXgXgXgXgXgXgXgXgXfXfXfXfXfXfXfXfXfXfXfXfXfXfXfXfXfXfXfXfXfXfXvXvXvXvXvXfXvXvXvXvXvXvXvXvXvXvXvXvXvXvXvXvXvXvXvXvXvXvXvXvXvXvXvXvXvXvXvXvXvXvXSXSXSXSXSXSXSXbXSXSXbXbXbXbXbXbXvXvXbXbXvXvXbXbXvXvXbXbXbXbXbXbXbXbXbXbXvXvXbXbXbXbXbXbXbXbXbXbXbXvXbXbXbXbXbXbXbXbXbXbXbXbXvXvXvXvXvXvXvXvXvXvXvXvXvXvXvXvXvXvXvXvXvXvXvXvXvXvXvXvXzXzXzXzXfXzXzXfXzX9X9X9X9X9X8X0X0X5X%X%X&X@XE.Y.L.h.e.e.t.g.I.I.W.E.&X%X;X0X9X9XeX9X9X9X9X9X9X9X5X$XR.g.-.{ D G g h k g g g g g g g g g g g g g g g g g g g g g h h h h h h h h G G G G G G G G G G G j h h G U ] U U G g d i l l l l l l l ` ` ` ` ` ` ` ` k k ` ' ' U ] ] X.<.<.<...X.1.` j j 1.] X.<.,.>.t.t.L.L.L.L.L.P.U.R.~.-XsXBXSXHXSXvXnXnXvXvXvXvXvXfX0X&X@X@X-X8XdXzXnXbXVXVXVXVXVXVXVXbXnXdX3X-X$X$X-X-X3XzXVXLXLXLXLXLXKXkX4XIXIX-X^./././././.^.^.^.^.^.^.^.^.^.^.-X-X-X-X-X-X-X-X-X~.R.U.P.P.U.P.L.L.L.P.U./.-XsXkX-X!.U.P.t.,...| ] j f i r t w t q q q q q q q q q q q q q q q z z - - z z z z - - - z - - - - - - - - - - - - z z z z - - - - z z z z z q q z z z - z - - ",
"8X3X8X3X8X8X8X8X8X8X8X8X8X8X8X8X8X8X8X8XsXsXsX8XsXsX8X8X8X8X8X8XsXsX8X8XsXsXsXsXsXsXsXdXdXsXsXsXdXdXdXdXdXdXdXdXdXfXgXgXgXgXgXgXgXgXgXgXfXfXfXfXfXfXfXfXfXfXfXfXfXfXfXfXfXfXfXfXfXfXfXfXfXfXfXfXvXvXvXvXvXfXvXvXvXvXvXvXvXvXvXvXvXvXvXvXvXvXvXvXvXvXvXvXvXvXvXvXvXvXvXvXSXbXbXbXSXSXSXSXbXbXbXbXbXbXvXvXbXbXbXbXbXbXvXvXbXbXbXbXbXbXbXbXvXbXvXbXbXbXvXvXvXvXbXbXbXbXvXvXbXbXbXbXbXbXvXvXbXbXbXbXvXvXvXvXvXvXvXvXbXbXvXvXvXvXvXvXvXvXvXvXvXvXvXvXvXvXvXvXzXzXzXzXzXzXzXfXzXfX9X9X9X9X9X0X0X5X%X%X%X&XE.T.I.g.h.t.h.g.I.Y.E.@X%X%X6X7X9X9X9X9X9X9X9X9X9X9X0X,XW.L.:.E D g h h h g g f g g g g g g g g g g g g g g h h g g h h h h h h h G G G G G j h h h h h h g h h G U ] ] U G g f i l l l l l k l k ` ` ` ` ` ` k k k ` ' X.X.....<.,.,.,.<.X.] j 1.] ] ]  .*.>.t.L.L.L.P.P.P.U.U.U.W.!.$X2XdXvXVXvXfX8X8X8X9X8X9XdX8X5X%X$X-X8X8XlXzXbXVXVXHXHXHXHXHXHXVXbXzXdXsXsX0X0X0XdXBXLXLXLXLXLXLXKXkXIXIXIXIXIX^././.(./././././././.^.^./././.!.!.!.!.!.!.!././.U.P.P.P.P.L.L.L.P.U.!.-XaXaX-X/.U.P.>.:.#. .X.] j f r t w q q q z z q q q q q q q q q q q q - - - - z z z z - - z z - - - - - - - - - z - - z z z z - - - - z z z z z z z z - - - - - - ",
"3X3X3X3X8X8X8X8X8X8X8X8X8X8X8X8X8X8X8X8XsXsX8X8XsXsX8X8X8X8X8X8XsXsX8X8X8X8XsXsXsXsXdXdXsXsXsXsXdXdXdXdXdXdXdXdXdXfXfXfXfXfXfXfXgXgXgXgXfXfXfXfXfXfXfXfXfXfXfXfXfXfXfXfXfXfXfXfXfXfXfXfXfXfXfXfXfXvXvXvXvXfXvXvXvXvXvXvXvXvXvXvXvXvXvXvXvXvXvXvXvXvXvXvXvXvXvXvXvXvXvXbXbXbXbXbXSXSXSXSXbXbXbXbXbXvXvXvXbXbXbXbXbXbXvXvXbXbXbXbXbXbXvXvXvXbXbXbXbXbXbXvXvXvXbXbXbXbXvXvXvXbXbXbXvXvXvXvXvXbXbXbXvXvXvXvXvXvXvXvXvXvXvXvXvXvXvXvXvXvXvXvXzXzXfXzXzXzXfXfXfXfXfXfXzXzXfXzXzXfX9X9X9X9X9X0X0X5X,X%X%X&XE.T.I.g.h.h.g.L.I.T.E.@X%X2X6X7X9X9X9X9X9X9X9X9X0X0X0X2X!.I.>.{ V s g h g g g f g g g g g g g g g g g g g g h h g g h h h h h h h G G G G h h h g g g g g g g h G U ] ] U G g f i l l l f l l l k k ` ` k k k k k k ` ] X...<.,.,.>.,.,...] 1.G ] ] ] ] ..,.>.L.P.P.P.P.U.U.U.U.U.R.W.!.@X2XdXgXfX2X$X$X%X%X%X$X$X-X5X-X%X6X8XlXzXnXnXbXbXbXbXbXVXVXVXbXVXbXbXbXbXnXzXzXvXDXLXLXLXLXLXLXPXkXaXaXkXkXaXIX/./.(././.^.^.^.^.^.^.^.^./././././././././.R.U.P.P.L.L.L.L.L.P./.^.4XkXaX-X/.U.L.>.*... . .] ] g r t q q q q z z z q q q q q q q q q q q q - - - - z z z z z - z z - - - - - - - - - z z - z z z z z - - - z z z z z z z - - - - - - - ",
"3X3X3X3X8X8X8X8X8X8X8X3X8X8X8X8X8X8X8X8XsXsX8X8X8X8X8X8X8X8X8X8X8X8XsXsXsXsXsXsXdXdXdXdXsXsXsXsXdXdXdXdXdXdXdXdXdXdXfXfXfXfXfXfXdXdXdXdXgXgXfXfXfXfXfXfXfXfXfXfXfXfXfXfXfXfXfXfXvXfXfXfXfXfXfXfXfXfXvXvXvXfXfXvXvXvXvXvXvXvXfXfXvXvXvXvXvXvXvXvXvXvXvXvXvXvXvXvXvXvXvXbXbXbXvXvXbXbXbXbXvXvXvXvXvXvXvXvXvXvXvXvXbXbXbXbXbXbXvXvXvXvXvXvXvXvXbXbXbXbXbXvXvXvXbXbXvXvXvXvXvXvXvXbXbXbXbXbXvXvXvXbXvXvXvXvXvXvXvXvXvXvXvXvXvXvXvXvXvXvXvXzXzXzXzXvXzXzXvXvXzXzXzXfXzXzXzXfXfXfXqX9XqX9X9X9X0X0X2X%X%X&X@XW.I.I.g.g.g.I.I.R.E.@X%X5X0X0X9X9X9X9X9X9X9X9X9X0X0X2X~.I.e.| V s h g h g g g g g g g g g g g g g g g g g g g g g h h h h h h h G G G G h h g g g h h h h h h G U I I I G h f l i l l l l l l l k k k k k k ` ` ' X.X...<.,.,.,.>.,.<...] 1.] ] ] ]  .*.,.>.L.P.P.U.U.P.P.P.P.U.U.R.W.!.@X2XfX0X$X!.~.+X@X&X@X@X%X0XdXbXVXHXSXSXJXSXSXSXVXbXbXbXbXbXbXJXHXHXHXHXSXVXBXBXDXHXLXLXLXLXKXjXaXaXaXaXaXaXIX^./.(./.^.IXIXIXIXIXIX^.^.^.^.^././././././.(.P.P.P.L.L.L.P.P.U.!.-X-XaX-X/.P.L.,.=. .X.} } X.U g r w q q q q z z z q q q q q q z q q q q q - - - - z z z z - - z z - - - - - - - - - - z z z z - - - - - z z z - - - - - - z z z - - - ",
"3X3X3X3X8X8X8X8X8X8X8X8X8X8X8X8X8X8X8X8XsXsX8X8X8X8X8X8X8X8X8X8X8X8XsXsXsXsX8X8XdXdXdXdXsXsXsXsXdXdXdXdXdXdXdXdXdXdXdXdXdXdXdXdXdXdXdXdXgXgXfXfXfXfXfXfXfXfXfXfXfXfXfXfXfXfXfXfXvXvXfXfXfXfXfXfXvXvXvXvXvXfXvXvXvXvXvXvXvXvXvXvXvXvXvXvXvXvXvXvXvXvXvXvXvXvXvXvXvXvXbXbXbXbXvXvXvXbXbXbXvXvXvXvXvXvXvXvXvXvXvXvXbXvXvXbXvXbXvXvXvXvXvXvXvXvXbXbXbXbXvXvXvXvXbXbXvXvXvXvXvXvXvXbXbXbXbXbXvXvXvXvXvXvXvXvXvXvXvXvXvXvXvXvXvXvXvXvXvXzXvXfXfXfXzXfXfXfXfXfXfXzXfXfXfXfXfXfXfXfXqX9XqX9X9X9X0X0X5X2X%X$X&XE.W.I.I.I.I.I.U.R.E.@X%X0X0X0X9X9X9X9X9X9X9X0X0X0X0X2X$XI.t.} V s g h h g g g g g g g g g g g g g g g g g g g g g h h h h h h G G G G G h h h h h h h h h h G U U ] ] ] U G g d i l l l l l l l k k k k k ` ` X.X...<.,.,.,.,.,.,.*...X.] ] ] ] X...$.,.,.t.P.P.(.U.U.P.P.L.I.U.U.U.W.W.!.@X-X$XE.E.!.!.+X+XE.E.$X0XnXHXLXLXLXLXLXLXLXLXLXHXDXJXJXHXHXHXHXLXLXHXHXHXHXDXDXSXDXKXKXKXhXaX^.^.^.^.IXIX^././.(./.^.IXIXIXIXIXIX^.IX^.^.^.^.^.^.^././.(.(.P.P.L.UXL.P.U././.~.!./.U.P.h.>.*. .X.X. . .X.U g r w q q q q q z z q q q q q q q q q q q q - - - - z z z z - - z z z - - - ; - - - - - z - z z - - - - - z z z - - - - - - z z - - - - ",
"3X3X3X3X0X0X0X0X8X8X3X8X8X8X8X8X8X8X8X8XsXsX8X8X8X8X8X8X8X8X8X8X8XsXsXsXsXsXsXsXsXsXdXdXsXsXsXsXdXdXdXdXdXdXdXdXfXdXdXdXdXdXdXdXfXfXdXdXgXgXfXfXfXfXfXfXfXfXfXfXfXfXfXfXfXfXfXfXfXfXfXfXfXfXvXvXvXvXvXvXvXvXvXvXvXvXvXvXvXvXvXvXvXvXvXvXvXvXvXvXvXvXvXvXvXvXvXvXbXbXvXvXbXbXbXvXvXvXbXbXvXvXvXvXvXvXvXvXbXbXvXvXvXvXvXvXvXvXvXvXvXvXvXvXvXvXvXvXvXvXvXvXvXvXvXvXvXvXvXvXvXvXvXvXvXvXvXvXvXvXvXvXvXvXvXvXvXvXvXvXvXvXvXvXvXfXzXzXfXfXfXfXfXfXfXfXfXfXfXfXfXfXfXfXfXfXfXfXfXfXqX9XqX9X9X9X9X0X5X,X%X$X$X@XE.U.I.I.I.I.U.R.W.E.%X5X0X0X9X9X9X9X9X9X0X0X0X0X5X2X$XI.h.+.P g g h h g g s g g g g g g g g g g g g g g g g g g h h h h h h G G U G G h G G G G G G G G G U U ] { { { ] G h f l l l l l l l k l k k k k ` X.X.<.,.,.,.,.,.,.<.<.$.X.] ] ] ] X. ...*.,.,.>.t.P.P.P.P.L.L.g.g.L.L.L.L.L.I.U.U.U.I.U.R.R.R.R.I.I.W.$XfXSXLXLXLXLXLXLXLXLXLXLXLXLXLXLXLXLXHXHXHXHXSXBXbXnXgXdXgXhXBXhXkXaX^././.^./././.(.(.(.(././.^.^.^.^.^.^.^.^.^.^.^.^.^./././.U.P.P.P.L.UXL.P.(.U.(.U.(.P.L.t.>.,...X.] X. . .X.] k r q q q q q q q q q q q q q q q z q q q q z z - - z z z z - z z z z - - ; & - - - - - - - - - - - - - - - z z - - - - - - - z - - - - ",
"3X3X0X3X0X0X0X0X8X8X3X8X8X8X8X8X8X8X8X8XsXsX8X8X8X8X8X8X8X8X8X8X8X8XsXsXsXsXsXsXsXsXdXdXsXsXdXdXdXdXdXdXdXdXdXdXfXdXdXdXdXdXdXdXfXdXdXdXgXgXfXfXfXfXfXfXfXfXfXfXfXfXfXfXfXfXfXfXfXfXfXfXvXvXvXvXvXvXvXvXvXvXvXvXvXvXvXvXvXvXvXvXvXvXvXvXvXvXvXvXvXvXvXvXvXvXvXvXvXvXvXvXbXvXbXvXvXvXbXbXbXbXvXvXvXvXvXvXvXvXvXvXvXvXvXvXvXvXvXvXvXvXvXvXvXvXvXvXvXvXvXvXvXvXvXvXbXvXvXvXvXvXvXvXvXvXvXvXvXvXvXvXvXvXvXvXvXvXvXvXvXvXvXvXfXfXfXfXfXfXfXfXfXfXfXfXfXfXfXfXfXfXfXfXfXfXfXfXfXfXqX9XqX9X9X9X9X0X5X2X2X$X$X@X!.W.U.I.I.U.U.R.W.E.$X-X5X0X9X9X9X9X9X9X0X0X0X0X5X2X$XU.h.#.U g g g h g s s g g g g g g g g g g g g g g h h h h h h h h h h G G G G G G G U U U U U U U U I ] { X.{ X.] U h g f l l l l l l k k l k k k ' X...<.,.,.,.,.,.<..... .] ] ] ] ] X. .....#.*.*.,.t.L.L.L.h.t.t.t.t.t.t.t.t.h.g.g.g.L.L.L.L.L.L.L.L.I.W.@X8XfXSXSXJXHXHXHXHXHXHXLXLXLXLXHXDXSXVXbXBXvXfX8X-X-X$X-X4XaXaX^./.(.(.(.(.(.P.P.P.P.P.P.P.P.(.(.(.(.(.(.(.(.(.(.(.(./.(.U.(.P.P.L.L.L.L.L.P.P.P.L.L.L.t.>.,.,.*.} ] ] X.X.X.X.U k r q q q q q q q q q q q q q q q q q q q q z - - - q q q z - z z z z - - ; & ; - - - - - - - - - - - - - - - - - - - - - - - - - - - - ",
"3X2X0X0X0X0X3X3X8X0X3X3X3X3X3X3X8X8X8X8X8X8X8X8X8X8X8X8X8X8X8X8X8X8XsXsX8X8X8X8XsXsXsXsXdXdXdXdXsXsXdXdXsXsXsXsXsXsXsXsXdXdXsXsXdXdXdXdXfXfXfXfXfXfXfXfXfXfXgXgXfXfXfXfXfXfXfXfXfXfXfXfXfXfXfXfXfXfXfXfXfXfXfXfXvXvXvXfXfXfXfXfXvXvXvXvXvXvXvXvXvXvXvXvXvXvXvXvXvXvXbXvXvXvXbXbXvXvXvXvXvXvXvXvXvXvXvXvXvXvXvXvXvXvXvXvXvXvXvXvXvXvXvXvXvXvXvXvXvXvXvXvXvXvXvXvXvXvXvXvXvXvXvXvXvXvXvXvXvXvXvXvXvXvXvXvXvXvXvXvXvXvXvXzXfXfXfXfXfXfXfXfXfXfXfXfXzXzXzXzXlXlXlXzXfXfXfXfXfXfXqXqXqXqXqX9X9X0X5X2X2X$X$X&X~.W.W.R.R.R.R.R.R.E.&X,X5X0X9X9X9X9X9X0X0X0X8X0X0X0X,XR.h.=.I g g h g g g g g g g g h h g g g g g h G G G G G G G G G G G G D D U U U U I I I I ] ] ] ] ] { { | } { | X.] G g f l l l l f f k k k k k ` X.X...<.<.<.<.<.<... .X.] ] ] ] ] ] ] X.X.| } X. .$.$.*.*.*.,.,.>.,.:.*.=.*.*.*.:.:.>.t.t.t.t.t.t.t.t.h.L.I.R.~.@X$X$X,X,X,X2X2X,X,X2X-X-X$X-X-X-X-X-X-X$XW.U.U.R.!.~.^././.(.(.P.P.P.P.P.P.P.P.L.L.L.L.L.L.P.P.P.P.P.P.P.P.P.P.P.P.P.P.L.UXL.L.L.L.P.P.L.L.t.>.,.,.,.,.*...X.] ] X.X.] U h d r w w q q z z q q q q q q q q q q q q q q z z z z - - - - - - - - - - ; ; ; ; - - - - - - - - - - - - - - - - - - z - z z z z - z - - ",
"2X2X0X0X0X0X3X3X8X8X3X3X8X3X3X3X8X8X8X8X8X8X8X8X8X8X8X8X8X8X8X8X8X8XsXsXsX8X8X8XsXsXsXsXdXdXdXdXsXsXdXdXsXsXsXsXsXsXsXsXdXsXsXsXdXdXdXdXfXfXfXfXfXfXfXfXfXfXgXgXfXfXfXfXfXfXfXfXfXfXfXfXfXfXfXfXfXfXfXfXfXfXfXfXvXvXfXfXfXfXfXfXvXvXvXvXvXvXvXvXvXvXvXvXvXvXvXvXvXvXbXbXvXvXbXbXvXvXvXvXvXvXvXvXvXvXvXvXvXvXvXvXvXvXvXvXvXvXvXvXvXvXvXvXvXvXvXvXvXvXvXvXvXvXvXvXvXvXvXvXvXvXvXvXvXvXvXvXvXvXvXvXvXvXvXvXvXvXvXvXzXvXzXzXfXfXfXfXfXfXfXfX9X9XfXfXfXfXfXfX9X9X9X9XfXfXfXfXfXfXqXqXqXqXqX9X9X0X5X5X2X%X$X&X@XE.W.W.W.W.W.W.W.E.%X5X0X0X9X9X0X0X0X0X0X0X8X0X0X0X,XW.g.*.I s g g g g g g g g g g h h h h h h G G U U I I U U U U U U U U U U I I ] ] ] ] { { { { X.{ X.| } } } } } | { ] j f l l l l f f k k k k ` ] X...........X.X.X.] ] ] U U U U U G U U U U U U ] X.} #.*.,.,.,.:.*. .{ {  .#. . .#.$.$.*.>.>.>.>.>.>.>.>.e.t.h.g.g.L.L.P.I.I.I.I.I.I.I.U.U.U.U.U.U.R.U.U.L.h.g.P.R././.(.U.(.(.P.(.(.P.P.P.P.P.P.P.L.L.L.L.L.L.UXL.UXUXUXUXUXUXUXt.t.>.>.>.t.L.L.P.P.P.P.L.>.,.,.$.#... .] U U ] X.] j f r t t r w q q z z z q q q q q q q q q q q q q z z z z - - - - - - - - - - - ; ; ; ; - - - - - - - - - - - - - - - - - - z z z z z - - - - ",
"2X2X3X0X0X0X3X3X0X3X3X3X3X3X3X3X8X8X8X8X8X8X8X8X8X8X8X8X8X8X8X8XsX8XsXsXsXsX8X8XdXdXsXsXdXdXsXsXsXsXdXdXdXdXsXsXsXsXdXdXdXdXsXsXdXdXdXdXfXfXfXfXfXfXfXfXfXfXfXfXfXfXfXfXfXfXfXfXfXfXfXfXfXfXfXfXfXfXfXfXfXfXfXfXvXvXfXfXfXfXfXfXvXvXvXvXvXvXvXvXvXvXvXvXvXvXvXvXvXvXvXvXvXvXbXbXvXvXvXvXvXvXvXvXvXvXvXvXvXvXvXvXvXvXvXvXvXvXvXvXvXvXvXvXvXvXvXvXvXvXvXvXvXvXvXvXvXvXvXvXvXvXvXvXvXvXvXvXvXvXvXvXvXvXvXvXfXfXzXzXfXzXfXfXfXfXfXfXfXfXqX9X9X9X9X9XfX9XfX9X9X9X9X9XfXfXfXfXfXfXqXqXqXqXqX9X9X0X5X5X5X2X$X$X@X@XE.W.W.W.W.W.E.@X%X5X0X0X9X9X0X0X0X0X0X0X0X0X0X0X2XW.g.-.E V g g h g g g g g h h h h G G G G U I ] { { { { ] ] U U U I I I ] ] { { { { { { { { { | | | } } } } } } | { ] j f l l l l f f k k ` X.X.<.<.,.,.,.<.........X.] ] ] ] ] ] ] ] ] ] { ] ] ] ] X.} ,.>.L.P.L.>.*.} X. .=.*.=...#. . .#.,.t.t.,.*.$.$.=.*.:.:.,.>.>.>.>.>.t.t.t.t.h.h.h.g.L.L.L.L.L.L.L.t.t.h.P.U./././.(.U.(.(.(.(.(.(.(.P.P.P.P.P.P.L.L.L.L.L.L.L.UXUXUXUXUXUXt.t.t.t.UXL.P.P.P.P.(.U.L.>.$. .] ] { ] U G U ] ] j d t q q t r w q z z q q q q q q q q q q q q q q q z - z z - - z z - z - - - - - ; ; - - - - - - - - - - - - - - - - - - - z - z z z z - - - z ",
"5X2X2X2X0X0X3X3X0X0X3X3X3X3X3X3X8X8X8X8X8X8X8X8X8X8X8X8X8X8X8X8XsXsXsXsXsXsX8X8XdXdXdXdXsXsXsXsXsXsXdXdXdXdXsXsXsXdXdXdXdXdXsXsXdXdXdXdXfXfXfXfXfXfXfXfXfXfXfXfXfXfXfXfXfXfXfXfXfXfXfXfXfXfXfXfXfXfXvXvXfXfXfXfXfXfXfXfXfXfXfXfXvXvXvXvXvXvXvXvXvXvXvXvXvXvXvXvXvXvXvXvXvXvXbXbXvXvXvXvXvXvXvXvXvXvXvXvXvXvXvXvXvXvXvXvXvXvXvXvXvXvXvXvXvXvXvXvXvXvXvXvXvXvXvXvXvXvXvXvXvXvXvXvXvXvXvXvXvXvXvXvXvXvXzXzXfXzXzXzXfXfXfXfXfXfXfXfXfXfXqXqX9X9X9X9X9X9XfXfX9X9X9X9XfXfXfXfXfXfXqXqXqXqXqX9X9X0X5X5X5X2X2X$X&X@X~.E.E.E.E.W.E.&X%X0X0X0X9X9X0X0X0X0X0X0X0X0X0X0X2XE.I.>.| P g g g g g g g g h h h G G G U U ] ] { { { { ] ] ] ] ] I I I ] { { { | | { { | | } } } } | | } } } } } | { U h f l l l l f f k k ] <.,.UXL.L.L.UX,.,.,.<.=...............................#.#.$.>.U.!.^././.L.*...,.>.>.,.>.,.*.#.*.t.L.L.L.>.,.,.:.:.,.,.,.,.>.>.>.,.>.>.>.>.t.t.t.t.h.h.h.g.g.g.L.h.h.L.P.R././././././.U.(.(.(.(.(.(.P.P.P.P.P.P.P.P.P.P.P.P.P.P.L.L.L.L.L.L.L.P.P.P.P.(.U.(.(.U.L.,. .] G G G U U U ] ] j d w q q q t r w q z z q q q q q q q q q q q q q q q z z z z - - - z z z - - - - - ; ; - - - - - - - - - - - - - - - - - - - z z z z z z - - z z ",
"3X2X2X2X3X3X3X3X3X3X8X8X8X8X8X8X8X8X8X8X8X8X8X8X8X8X8X8X8X8X8X8X8X8X8X8XsXsXsXsXsXsXdXdXdXsXsXsXsXsXsXsXsXsXdXdXdXdXsXsXdXdXsXsXsXsXsXsXdXdXdXdXfXfXfXfXfXfXfXfXfXfXfXfXfXfXfXfXfXfXfXfXfXfXfXfXfXfXfXfXfXfXfXfXfXfXfXfXfXfXfXfXvXfXfXfXvXvXvXvXvXvXvXvXvXvXvXvXvXvXvXvXvXvXbXbXbXvXvXvXvXvXvXvXvXvXvXvXvXvXvXvXvXvXvXvXvXvXvXvXvXvXvXvXvXvXvXvXvXvXvXvXvXvXvXvXvXvXvXvXvXvXvXvXvXvXvXvXvXzXzXzXzXzXzXzXzXzXzXzXfXfXfXfXqXfXqXqXfXfXfXfX9X9X9X9XfXfXfXfX9X9X9X9XqXqXqXqXqXqXqXqXqX9X9X9X9X0X0X5X5X5X,X,X%X&X@XE.E.E.E.E.~.&X,X5X0X0X0X0X0X0X0X0X0X0X0X0X3X2X2X!.I.e.#.U g g h h h g h h G G G G D U U I ] { { { { { ] ] { { { { { { { { | | | | | | } } } } } } | | | | | | } } ] U h f l l f f k k ' ..<.UXP.(././.(.P.P.L.>.,.,.,.,.,.,.,.,.>.>.>.>.>.>.>.>.L.L.>.,.h.L.^.4X^.P.>.,.*.>.t.L.P.L.>.,.*.,.t.L.L.L.t.>.>.>.>.t.>.t.t.h.h.h.h.L.L.L.h.L.L.L.L.P.L.L.U.U.U.U.U.R.!.^.-X3X4X4X-X^.^./././.(.(.(.(.(.(.(.P.P.P.P.P.P.(.P.P.P.P.P.P.P.P.P.P.P.U.U.U./././././.P.t.*.] j h h G U U ] U j d w 3 < q w r t t z z z q q q q q q q q q q q q q q q - - - - z z z - - - - - - - ; & & ; ; - - - - - - - - - - - - - - - - - - - - - z z z z - - ",
"2X2X3X3X3X3X3X3X3X3X8X8X8X8X8X8X8X8X8X8X8X8X8X8X8X8X8X8X8X8X8X8X8X8X8X8XsXsXsXsXsXsXdXdXdXdXsXsXdXdXsXsXsXsXdXdXdXdXsXsXsXdXsXsXsXsXsXsXdXdXdXdXfXfXfXfXfXfXfXfXfXfXfXfXfXfXfXfXfXfXfXfXfXfXfXfXfXfXfXfXfXfXfXfXfXfXfXfXfXfXfXfXvXfXvXfXvXvXvXvXvXvXvXvXvXvXvXvXvXvXvXvXvXvXbXbXbXbXvXvXvXvXvXvXvXvXvXvXvXvXvXvXvXvXvXvXvXvXvXvXvXvXvXvXvXvXvXvXvXvXvXvXvXvXvXvXvXvXvXvXvXvXvXvXvXvXvXvXzXzXzXzXzXzXzXzXzXzXzXzXfXfXfXfXqXqXqXqXfXfXfXfX9X9X9X9XfXfXfXfX9X9X9X9XqXqXqXqXqXqXqXqXqX9X9X9X9X0X0X5X5X2X,X,X$X&X@X~.~.~.~.~.@X&X,X5X0X0X0X0X0X5X5X5X0X0X0X3X2X$X$XW.g.>.+.U D D h D D D D D G G G G U U I ] ] { { { { { ] ] { { [ [ | | | | } } } } | | | } } } } } | | | | | | } } X.] j f f f f k 1.X.<.,.P.(.^.aXaX^./.(.(.P.P.L.UXt.t.t.h.L.L.L.P.P.P.U.P.U././.U.L.P.h.h.P.P.h.>.,.,.,.>.t.L.L.t.,.,.,.,.>.>.>.>.,.,.t.L.L.L.L.L.P.P.U.U.U.R.R.R.R./.!.!.!.~.~.~.~.~.~.$X$X-X8XgXBXBXhXgXkXaXaX^.^.^./././././././././.(.(.(.(.(./././././././././././././.!.^.^.^./.U.L.,...] G j G U U U U h d w < < q q w r t q z z z q q q q q q q q q q q q q q q - - - - z z z - - - - - - - ; & & & - - - - - - - - - - - - - - - - - - - - - - z z z z - - ",
"3X2X3X3X3X3X3X3X3X3X3X3X3X3X3X3X8X8X8X8X8X8X8X8X8X8X8X8X8X8X8X8X8X8X8XsXsXsXsXsXsXdXdXdXsXsXsXsXdXdXdXdXsXsXdXdXsXsXsXsXdXdXdXdXdXdXsXsXdXdXdXdXsXsXsXsXfXfXfXfXgXgXfXfXfXfXfXfXfXfXfXfXfXfXfXfXfXfXfXfXfXfXfXfXfXfXfXfXfXfXfXfXfXfXfXfXvXvXvXvXvXvXvXvXvXvXvXvXvXvXvXvXvXvXbXbXvXvXvXvXvXvXvXvXvXvXvXvXvXvXvXvXvXvXvXvXvXvXvXvXvXvXvXvXvXvXvXvXvXvXvXvXvXvXvXvXvXvXvXvXvXzXzXzXzXzXvXvXzXzXzXzXfXfXfXfXfXfXfXfXqXfXfXfXqXqXqXqXfXfX9X9X9X9X9X9X9X9X9X9X9X9X9X9XqXqXqXqXqXqXqXqXqX9X9X9X9X0X0X5X5X2X2X2X,X%X&X@X@X~.@X@X@X$X5X0X0X0X0X0X0X5X5X5X5X5X3X2X,X$XE.I.h.=.E U U U U U G D U U U U U U I ] { { { { { { { { { | | | | | } } } } } } } } | | | | } } | | | | | | | | } } X.] j k k j ] ] ..,.L.(./.IXkXjXkXaX^././.U.(.P.P.P.P.P.U.U.R./././.^.^.^.^.aX4X^.^.L.,.,.>.>.,.,.,.>.>.>.>.>.>.,.*.*.:.,.:.,.,.,.,.t.L.U.R.R./.!./.~.^.^.-X-X-X-X4X3XsXsXsXgXgXgXgXgXgXvXgXfXbXDXKXLXKXDXhXkXaXaX^.^.^.^.^./././.^././././././././.^.^.^.^.^.^.^.^.^.^.^.^.-X-X^.^.U.P.>.*.| ] G G U U U U h i w < < < q q w t t q z z z q q q q q q q q q q q q q q q z z - - z z z z - - - - - - ; & & ; & - - - - - - - - - - - - - - - - - - - - - z z z z - - ",
"3X2X3X3X3X3X3X3X3X3X3X3X3X3X3X3X8X8X8X8X8X8X8X8X8X8X8X8X8X8X8X8X8X8XsXsXsXsXsXsXsXsXdXdXsXsXsXsXdXdXdXdXsXsXdXdXsXsXsXsXdXsXdXdXdXdXsXsXdXdXdXdXdXdXsXsXfXfXfXfXfXfXfXfXfXfXfXfXfXfXfXfXfXfXfXfXfXfXfXfXfXfXfXfXfXfXfXfXfXfXfXfXfXfXfXfXvXvXvXvXvXvXvXvXvXvXvXvXvXvXvXvXvXvXvXvXvXvXvXvXvXvXvXvXvXvXvXvXvXvXvXvXvXvXvXvXvXvXvXvXvXvXvXvXvXvXvXvXvXvXvXvXvXvXvXvXzXzXzXzXzXzXzXzXzXzXzXzXfXfXzXzXfXfXfXfXfXfXfXfXqXqXfXfXqXqXqXqXfXfX9X9X9X9X9X9X9X9X9X9X9X9X9X9X9XqXqXqXqXqXqXqXqX9X9X9X9X0X0X5X5X2X2X2X2X$X$X@X@X@X@X@X&X$X5X0X0X0X0X0X0X5X0X5X5X5X2X$X~.Q.R.g.e.| P D U U U U U U I I ] ] ] ] ] ] { { { { { { { { } } } } } } } } } } } } } } | | | | } } | | | | | | { { } } } { ] k k ] ..,.>.P./.^.aXkXkXkXkXaXIX^./././.(.U.(.(.(././.^.^.^.^.^.^.^.^.jXaX4XP.>.,.,.,.,.,.>.>.>.,.,.,.,.,.,.*.#.$.*.,.>.t.h.L.P.R./.~.^.4X4X3XsXsXsXgXgXhXgXhXBXBXDXDXKXKXHXKXKXKXHXDXJXHXKXLXLXLXKXBXgXkXaXaXIX-X-X-X^.-X-XIX-X-X-X-X-X-X-X-X4X4X4X4X3X3X4X4XaX4X-X-XaXaX^.R.L.>.*. .] ] U U U U j f r q 3 < < 3 q q q w t q z z z q q q q q q q q q q q q q q q z - - - z z z z - - - - - - ; & & & & - - - - - - - - - - - - - - - - - - - - - - - z - - - ",
"2X2X2X2X2X2X2X3X2X2X2X2X3X3X3X3X3X3X3X3X8X8X8X8X8X8X8X8X8X8X8X8X8X8X8X8XsXsX8X8XsX8X8X8XsXdXdXdXsXsXsXdXdXdXdXsXsXsXdXdXsXsXsXdXdXdXdXdXdXdXdXdXdXsXsXsXfXfXfXdXfXfXfXfXfXfXfXfXfXfXfXfXfXfXfXfXfXfXfXfXfXfXfXfXfXfXfXfXfXfXfXfXfXfXfXfXvXvXvXvXvXvXvXvXvXvXvXvXvXvXvXvXvXvXvXvXvXvXvXvXvXvXvXvXvXvXvXvXvXvXvXvXvXvXvXvXvXvXvXvXvXvXvXvXvXzXvXvXvXvXvXvXvXvXvXvXzXzXzXzXzXzXzXzXzXzXzXzXzXzXzXzXfXfXfXfXqXqXqXfXqXqXqXqXqXqX9X9X9X9X9X9X9X9X9X9X9X9X9X9X9X9X9X9X9X9XqXqXqXqXqX9XqXqX9X9X9X0X5X5X5X5X5X2X,X,X,X%X&X&X&X&X&X$X5X5X0X0X0X0X5X5X5X5X,X$X&XE.R.I.h.:.[ U D U U U I E { { { { { { { { { { { { { { { { { | } } #.#.} } } }  .} } } } } } } } } } } } } | | } | { { }  . .{ X.X...,.>.L.(./.aXkXjXjXjXkXkXaX^.^./././././././.^.^.-X-X4X4X^.^./.R.R.R.P.L.>.>.>.>.t.h.h.L.h.h.t.>.>.>.>.,.,.,.,.,.>.h.L.P.U.!.^.4XaXsXgXgXhXBXDXDXDXDXKXKXLXLXLXLXLXLXLXLXLXLXLXLXLXLXLXLXLXLXLXKXDXBXgXkXaXaXaXaXaXaXaXaXaXaXaXaXaXkXsXsXsXkXkXdXgXgXgXgXgXdXdXsXaXaX^./.L.t.*.#.| { ] ] ] U G h i w 3 - - < < q z q q q q z z q q q q z z z z z z z z z z q q z z - - - - - - - - - - - - & & ; ; ; - - - - - - - - - - - - - - - - - - - - - - - - - - - ",
"2X2X2X2X2X2X2X2X2X2X2X2X3X3X3X3X3X3X3X3X8X8X8X8X8X8X8X8X8X8X8X8X8X8X8X8XsXsX8X8XsX8X8X8XdXdXdXdXsXsXsXdXdXdXdXsXdXdXdXdXsXsXsXsXdXdXdXdXdXdXdXdXdXdXsXsXfXfXfXdXfXfXfXfXfXfXfXfXfXfXfXfXfXfXfXfXfXfXfXfXfXfXfXfXfXfXfXfXfXfXfXfXfXfXfXfXvXvXvXvXzXfXfXzXvXvXvXvXvXvXvXvXvXvXvXvXvXvXvXvXvXvXvXvXvXvXvXvXvXvXvXvXvXvXvXvXvXvXvXvXvXvXvXvXvXzXvXvXvXvXvXvXvXvXvXvXzXzXzXzXzXzXzXzXfXfXfXfXfXfXfXfXfXfXzXzXfXfXqXqXqXqXqXqXqXqX9X9X9X9X9X9X9X9X9X9X9X9X9X9X9X9X9X9X9X9X9X9X9X9X9X9X9XqX9X9X9X0X0X5X5X5X5X2X2X5X5X,X$X$X$X$X$X$X,X5X5X5X5X5X5X,X,X$X&X@XE.U.g.>.=.[ U D U U I E { | { { { | } | { { { { { { { { { | | } } } #.#.#.#.#.#.#.#.} } } } } } } } } } } } } } } } } }  . . ...#.$.,.t.P./.-XkXhXhXjXjXkXkXaX^.^././././.^.^.^.^.-X4XaXaXaX4X^./.U.P.L.L.L.L.L.L.P.P.P.U.U.P.P.P.P.P.L.L.L.L.L.L.h.L.L.P.R./.~.-XaXkXgXhXBXDXDXLXLXLXLXLXLXLXLXLXLXLXLXLXLXLXLXLXLXLXLXLXLXLXLXLXLXLXKXDXBXjXkXkXkXkXkXkXgXgXgXgXgXgXgXhXhXgXgXhXhXhXhXhXBXBXBXgXgXgXsX-X/.P.t.:.#.} { ] ] ] ] U h d e 3 < - - < < < < q q q z z z q q q q z z z z z z z z z z z q z z - - - - - - - - - - - ; & ; ; ; - - - - - - - - - - - - - - - - - - - - - - - - - - - - ",
"2X2X2X2X2X2X2X2X2X2X2X2X3X3X3X3X3X3X3X3X8X8X8X8X8X8X8X8X8X8X8X8X8X8X8X8XsXsXsX8XsXsX8X8XsXsXdXdXsXsXsXdXdXdXsXsXdXdXdXdXdXsXsXsXsXsXsXsXdXdXdXdXdXdXdXdXfXfXfXfXfXfXfXfXfXfXfXfXfXfXfXfXfXfXfXfXfXfXfXfXfXfXfXfXfXfXfXfXfXfXfXfXfXfXfXfXvXvXvXvXzXfXzXzXvXvXvXvXvXvXvXvXvXvXvXvXvXvXvXvXvXvXvXvXvXvXvXvXvXvXvXvXvXvXzXzXzXzXvXvXvXvXvXvXvXzXvXvXvXvXvXvXvXzXvXvXzXzXzXzXzXzXzXzXzXzXfXfXfXfXfXfXfXzXzXzXfXfXfXqXqXqXqXqXqXqX9X9X9X9X9X9X9X9X9X9X9X9X9X9X9X9X9X9X9X9X9X9X9X9X9X9XqX9XqXqX9X0X0X5X5X5X5X5X5X5X5X5X2X,X,X$X$X$X<X5X<X,X,X,X$X@X~.E.R.U.n.h.-.+.E U P U I E { | } }  . .} } } | { { { { { { { | } } } } } } #.#.#.#.#.#.#.$.#.#.#.#.#.#.#.#. . . . . . . . . ...=.*.*.,.>.h.P.(.^.kXgXhXhXhXgXkXkXaX4X^.^.^.^.^.^.^.-X4XaXaXaXaXaX4X^.~./.R.U.U.U.U.U.U./././././.R.R.R.R.R.R.U.U.U.U.U.P.P.U.R./.^.-X4XaXgXgXBXDXDXKXLXLXLXLXLXLXLXLXLXLXLXLXLXLXLXLXLXLXLXLXLXLXLXLXLXLXLXLXLXKXKXBXjXhXgXgXgXjXjXhXhXBXBXBXBXDXDXDXDXDXDXDXBXbXbXbXBXgXgXdX4X~.U.h.>.*.#.} X.] { ] G h d r t 3 3 - - < < < < q q z z q q q q q q q q q q - - z z z z z z - - - - - - - - - - - - - & & ; ; ; - - - - - - - - - - - - - - - - - - - - - - - - - - - - ",
"2X2X2X2X2X2X2X2X3X2X2X2X3X3X3X3X3X3X3X3X3X3X8X8X8X8X8X8X8X8X8X8X8X8X8X8XsXsXsXsXsXsX8X8XsXdXdXdX8X8X8X8XdXdXsXsX8X8X8X8XdXsXdXsXsXsXsXsXdXdXfXdXdXdXdXdXfXfXfXfXfXfXfXfXfXfXfXfXfXfXfXfXgXfXfXfXfXfXfXfXfXfXfXfXfXfXfXfXfXfXfXfXfXfXfXfXfXfXfXfXfXfXfXfXfXfXvXvXvXvXvXvXvXvXvXvXvXvXvXvXvXvXvXvXvXvXvXvXvXvXvXvXvXvXzXzXzXzXvXvXvXvXvXvXvXvXvXvXvXvXzXzXzXzXzXzXzXzXfXfXfXfXfXfXfXfXfXfXfXfXfXfXqXqXqXqXqXqXqXqXqXqXqXqX9X9X9X9X9X9X9X9X9X9X9X9X9X9X9X9X9X9X9X9X9X9X9X9X9X9X9X9X9X9XqX9X9X0X0X5X5X5X5X5X5X5X5X5X5X2X,X$X$X$X,X<X,X,X,X$X@X~.W.U.L.h.>.=.| E U U U U E { | } #.=.=.$.$.#.} | { { { { { | | | } } } } } } } #.#.#.#.#.$.$.#.#.#.#.#.#.#.#.#.#.#.#.#.#.#.#.#.=.*.,.>.L.P.(.^.-XkXhXhXhXgXgXkXaXaXaX4X4X4X-X-X4X4XaXaXaXkXkXaXaX4X-X^./.R.R.R.R.R.R././.^.^.-X-X^.^././././././.!.!././.R.R./.^.-X3XaXsXgXhXBXDXKXKXLXLXLXLXLXLXLXLXLXLXLXLXLXLXLXLXLXLXLXLXLXLXLXLXLXLXLXLXLXLXLXKXKXBXBXBXBXBXBXBXBXBXDXDXDXDXDXDXDXDXDXDXDXDXSXSXvXvXgXsX2X~.R.L.>.:.$.#.} X.] ] G g d r e e q 3 - - - - - - < z z z q q q q q q q q q q - - z z z z z z - - - - - - - - - - - - - & ; ; ; - - - - - - - - - - - - - - - - - - - - - - - - - - - - - ",
"2X2X2X2X2X2X2X2X2X2X2X2X2X2X2X2X3X3X3X3X8X8X3X3X3X3X3X3X8X8X8X8X8X8X8X8X8X8X8X8XsXsX8X8XsXsXsXsXsXsXsXsXsXsXsXsXsXsXsXsXsXsX8X8X8X8XsXsXdXdXdXdXsXsXsXsXdXdXdXdXfXfXfXfXfXfXfXfXfXfXfXfXfXfXfXfXfXfXfXfXfXfXfXfXfXfXfXfXfXfXfXfXfXfXfXfXfXfXfXfXfXfXfXfXfXfXzXzXvXvXvXvXvXvXvXvXvXvXvXvXvXvXvXvXvXvXzXzXvXvXzXzXzXfXfXzXzXzXzXzXvXvXvXvXzXvXzXzXzXzXvXvXzXzXzXzXfXfXzXzXzXzXzXfXfXfXfXfXqXqXfXfXfXfXfXfXqXqXqXqXqXqXqXqX9X9X9X9X9X9X9X9X9X9X9X9X9X9X9X9X9X9X9X9X9X9X9X9X9X9X9X9X9X9X9X9X9X0X0X0X5X5X5X5X5X5X5X0X5X5X<X,X$X$X,X,X$X&X@XE.Q.Y.n.h.>.=.} I P D D P U I | } $.=.*.*.*.=.#.#.} | | | { | | | | | } } } } } } } } #.#.#.#.#.#.#.#.#.#.#.#.#.#.#.#.#.#.#.#.$.=.*.,.,.h.P.R.^.-XaXkXhXhXhXgXkXkXaXaXaXaXaX4X4X4XaXaXaXkXkXkXkXdXaX4X^.^./././.R.!././././.^.^.4XaXaX4X-X^.~.~.~.^.^.^.^.~.~.~.^.-X3XsXgXhXBXBXDXDXKXKXKXLXLXLXLXLXLXLXLXLXLXLXLXLXLXLXLXLXLXLXLXLXLXLXLXLXLXLXLXLXLXLXLXKXKXKXKXKXKXKXKXKXKXKXKXDXDXDXDXDXDXDXDXJXDXSXbXvXfXdX2X~.R.L.t.,.*.$...} X.] G g d e t e e w 3 - - - - - - z z - - - - q q q q z z z z - - - - - - - - - - - - - - - - - - - ; ; & & & & & - - - - - - - - - - - - - - - - - - - - - - - - - - - - ",
"2X2X2X2X2X2X2X2X2X2X2X2X2X2X2X2X3X3X3X3X3X3X3X3X3X3X3X3X8X8X8X8X8X8X8X8X8X8X8X8XsXsX8X8XsXsXsXsX8X8X8X8XsXsXsXsX8X8X8X8XsXsXsXsX8X8XsXsXdXdXdXdXsXsXsXsXdXdXdXdXfXfXfXfXfXfXfXfXfXfXfXgXgXfXfXfXfXfXfXfXfXfXfXfXfXfXfXfXfXfXfXfXfXfXdXdXfXfXfXfXfXfXfXfXfXfXfXfXzXzXvXvXvXvXvXvXvXvXvXvXvXvXvXvXzXzXzXzXvXvXzXzXzXzXzXzXzXzXzXzXvXvXvXvXvXvXzXzXzXzXzXzXfXfXzXfXfXfXfXfXqXqXqXqXfXfXfXqXqXqXqXqXqXqXqXqXqXqXqXqXqXqX9X9X9X9X9X9X9X9X9X9X9X9X9X9X9X9X9X9X9X9X9X9X9X9X9X9X9X9X9X9X9X9X9X9X9X0X0X0X0X0X0X0X0X0X0X0X0X5X<X,X,X,X$X$X&X@XQ.Y.n.h.;.=.+.E P V V D U U E { } *.:.,.*.=.#.#.#.} } | | | | | | | | | | | | | | | } } } } } } } } #.#.#.#.} } } } #.#.#.#. . .=.*.,.>.L.U.!.-XkXkXjXhXhXhXhXgXkXkXaXaXaXaXaXaXaXaXaXkXdXkXgXkXgXaX3X-X^.~././././././././././.^.4XaXaX4X-X^.^.^.^.^.^.^.^.^.^.^.4XaXgXhXDXDXDXKXKXKXKXLXLXLXLXLXLXHXLXLXLXLXLXLXLXLXLXLXLXLXLXLXLXLXLXLXLXLXLXLXLXLXLXLXLXLXLXLXLXKXKXKXKXKXKXKXKXDXDXDXDXDXDXDXDXDXSXbXvXvXgX-X!.U.L.t.>.:.:.$. .} { G f r t q q w q 3 - - - - - - - - - z - 3 3 q q q q z z z z - - - - - - - - - - - - - - - - - - - - ; & & & & & - - - - - - - - - - - - - - - - - - - - - - - - - - - - ",
"2X2X2X2X2X2X2X2X2X2X2X2X3X3X3X3X3X3X3X3X3X3X3X3X8X8X3X3X8X8X8X8X8X8X8X8X8X8X8X8XsX8X8X8XsXsXsXsX8X8XsXsXsXsXsXsX8X8X8X8XsX8XsXsX8XsXsXsXsXsXdXsXsXsXdXdXdXfXfXdXfXfXfXfXfXfXfXfXfXfXfXfXgXfXfXfXfXfXfXfXfXfXfXfXfXfXfXfXfXfXfXfXfXfXdXdXfXfXfXfXfXfXqXqXqXqXfXfXzXzXvXvXvXvXvXvXvXvXvXvXvXvXvXvXvXvXvXvXvXvXzXfXzXzXzXzXzXzXzXzXzXzXzXzXvXvXzXzXzXzXzXzXfXfXfXqXfXfXfXfXfXfXqXqXfXfXfXfXqXqXqXqXqXqXqXqXqXqXqXqXqX9X9X9X9X9X9X9X9X9X9X9X9X9X9X9X9X9X9X9X9X9X9X9X9X9X9X9X9X9X9X9X9X9X9X9X9X9X0X0X8X8X9X9X9X9X9X9X0X0X5X,X$X&X@X~.Q.U.g.e.;.=.| E P P V V U U I E | } =.*.,.:.=.#.} } } } } } | | | | | | | | | | | | | | | | | | | | } } } } } } } } } } } } #.#.#.=.:.>.L.P./.-XsXkXhXhXhXhXhXhXhXgXkXkXaXaXsXsXaXaXaXaXaXdXkXgXgXgXgXaX4X^.^./././././././././././.^.-X3X4X-X^.^.^.^.~.~.^.^.~.~.~.4XsXgXBXDXDXDXKXKXKXKXKXLXLXLXLXLXLXLXLXLXLXLXLXLXLXLXLXLXLXLXLXLXLXLXLXLXLXLXLXLXLXLXLXLXLXLXLXLXKXKXKXKXKXKXDXLXLXDXDXDXDXJXDXDXDXSXSXvXvXgX4X/.U.h.t.>.,.:.*.$...X.U g r q q 3 q q 3 < - - - - - - - - - z z z z z z z z z z z z - - - - - - - - - - - - - - - - - - - - ; & & & & & - - - - - - - - - - - - - - - - - - - - - - - - - - - - ",
"2X2X2X2X2X2X2X2X2X2X2X2X3X3X3X3X3X3X3X3X3X3X3X3X8X8X3X3X8X8X8X8X8X8X8X8X8X8X8X8XsX8X8X8XsXsXsXsX8X8X8XsXsX8X8X8X8X8X8X8XsXsXsXsX8X8XsXsXsXsXsXsXdXdXdXdXdXfXdXdXfXfXfXfXfXfXfXfXfXfXfXfXfXfXfXfXfXfXfXfXfXfXfXfXfXfXfXfXfXfXfXfXfXfXdXdXfXfXfXfXfXfXqXqXfXqXfXfXfXfXvXvXvXvXvXvXvXvXvXvXvXvXvXvXvXvXvXvXvXvXzXzXzXzXzXzXzXzXzXzXzXzXzXzXfXfXfXfXzXzXtXzXqXqXqXqXfXfXfXfXfXfXqXqXfXfXfXfXqXqXqXqXqXqXqXqXqX9X9X9X9X9X9X9X9X9X9X9X9X9X9X9X8X8X0X0X9X9X0X0X0X0X9X9X9X9X9X9X9X9X9X9X9X9X9X9X9X9X9X9X9X9X9X9X9XqXfXqX9X5X,X$X&X~.W.U.L.h.;.O.[ R P D U U U U U I { | } =.*.:.*.$.#. .} } } } } } | | | | | | | | | | | | | | { { { { | | | | | | | | | | | | | | } #.=.,.t.L.U.!.4XkXhXhXhXhXhXhXhXhXgXkXkXkXkXkXdXdXkXsXsXaXdXkXgXgXgXkXsX4X^.^././././././././././././.~.-X-X-X-X^.~.^.^.^.^.^.^.^.-X3XsXgXBXBXDXDXDXDXDXDXDXDXKXKXLXLXLXLXDXDXHXHXHXHXLXLXLXLXLXLXLXLXLXLXLXLXLXLXLXLXLXLXLXLXLXLXLXKXKXKXKXDXDXDXJXJXDXJXDXDXDXDXSXSXDXSXbXBXhXgX8X~.U.L.t.>.>.>.,.,.*. .] h i w 3 3 3 3 q 3 < - - - - - - - - - z z z z z z z z z z z z - - - - - - - - - - - - - - - - - - - - ; & & & & & - - - - - - - - - ; ; ; ; ; - - - - - - - - - - - - - - ",
"2X$X2X2X2X2X2X2X2X2X2X2X2X2X2X2X2X2X2X2X3X3X3X3X8X3X3X3X8X8X8X8X8X8X8X8X8X8X8X8X8X8X8X8X8X8X8X8XsXsXsXsXsXsXsXsXsX8X8X8XsXsXsXsX8X8X8X8XsXsXsXsXsXsXsXsXfXdXsXsXfXfXfXfXfXfXfXfXfXfXfXfXfXfXfXfXfXfXfXfXfXfXfXfXfXfXfXfXfXfXfXfX9X9X9X9XfXfX9X9XqXqXqXqXfXfXfXfXfXfXvXzXvXvXvXvXzXzXvXvXvXvXvXzXvXvXzXzXzXvXzXzXzXzXzXzXzXzXzXzXzXzXzXzXfXfXfXfXzXzXtXzXfXfXfXfXfXfXfXfXqXqXqXqXqXqXqXqXqXqXqXqXqXqXqXqX9X9X9X9X9X9X9X9X9X9X9X9X9X9X9X9X9X9X9X9X8X0X0X0X9X9X9X9X0X0X0X0X0X9X9X9X9X9X9X9X9X9X9X9X9X9X9X9X9XqXfXqX0X2X$X!.W.U.I.g.>.=.[ R U P P D h h D U I { } ..*.*.*.*.$.#.#.#.} } } } } } } } | | | | } | | | | | | | [ { { { { { | | { { { { | | | | | } $.:.t.L.P.!.-XaXgXhXBXBXBXhXjXhXgXgXgXgXgXgXgXgXgXgXgXgXgXgXgXgXjXhXgXgXaX-X^.^.^.~.~.^.^.^.~.~.~.~.~.~.~.-X-X-X-X-X-X-X-X-X-X4X4X4X3XsXgXgXhXBXBXBXBXBXBXBXSXSXDXDXDXDXDXDXDXDXDXDXSXDXDXDXDXDXDXDXDXDXDXHXDXDXKXKXDXDXDXDXKXDXDXDXDXDXDXBXBXBXbXbXbXbXbXvXBXhXgXgXhXhXfXhXhXfXgXsX-X!.P.h.>.>.>.>.,.*.#.| G d w 3 3 3 3 3 3 3 - = - - - - - - - - z z z z 3 3 z z - - - - - - - - - - - - z z - - - - - - - - - - ; & & & ; ; - - ; ; - - - - ; ; ; & ; ; ; ; ; ; - - - - - - - - - - ",
"2X$X2X2X2X2X2X2X2X2X2X2X2X2X2X2X2X2X2X2X3X3X3X3X3X3X3X3X8X8X8X8X8X8X8X8X8X8X8X8X8X8X8X8X8X8X8X8X8XsXsXsX8X8X8X8XsXsXsX8XsXsXsXsXsX8X8X8XsXsXdXsXsXsXsXsXfXsXsXsXfXfXfXfX8X8X8X8XfXdXfXfX9X9X9XfXfXfXfXfXfXfXfXfXfXfXfXfXfXfXfXdX9X9X9X9XfXfX9X9XqXqXqXqXfXfXfXfXfXfXvXzXzXvXvXvXfXfXfXfXvXvXvXzXvXvXzXzXvXvXzXzXzXzXzXzXzXzXzXzXzXzXzXzXfXfXfXfXzXfXqXqXfXqXqXqXfXfXfXfXqXqXqXqXqXqXqXqXqXqXqXqX9X9X9X9X9X9X9X9X9X9X9X9X9X9X9X9X0X0X0X0X0X0X0X0X0X0X0X0X0X0X0X0X0X0X0X0X0X0X9X9X9X9X9X9X9X9X9X9X9X9X9X9XqXqX9X9X0X$X~.R.I.h.:.$.[ R P D D D U D G G U I { } ..#.*.*.*.=.$.$.#.#.#.#.} } #.} } } | | } } } | | | | | | | [ [ [ [ | | | | { { | | | | | | |  .:.t.L.R.~.aXgXgXBXBXBXBXBXBXhXjXgXhXhXhXhXhXhXhXBXBXBXhXhXhXhXhXBXhXgXgXsX3X3X3X3X4X4X4X4X4X-X-X-X-X-X-X-X4X3X3X4X4X3X3X3X3X3XaXaXaXaXsXdXgXgXgXgXgXgXgXhXgXhXhXvXvXBXBXBXBXBXhXhXhXhXvXvXvXhXhXhXhXvXvXBXvXgXgXgXgXgXgXgXgXgXgXgXgXgXgXgXgXgXsXsXdXfXfXgXfXsXsXsXsXsXsXsXsXsXsX3X4X~.R.L.t.>.>.>.>.,.*.} U d e 3 < - 3 < 3 3 < = = = = = = = = - - - z z z z z z z - - - - - - - - - - - - - - - - - - - - - - - - ; & & & ; ; ; ; ; ; - ; - - ; & & & & & ; & & & ; ; ; ; ; ; ; ; ; ; ",
"2X$X2X2X2X2X2X2X2X2X2X2X2X2X2X2X2X2X2X2X3X3X3X3X3X3X3X3X3X3X3X3X8X8X8X8X8X8X8X8X8X8X8X8X8X8X8X8X8X8X8X8X8X8X8X8X8X8X8X8XsXsXsXsXsXsX8X8XdXdXdXdXsXsXsXsXfXfXsXsX9X9XfXdXdXdX8X8XdXdXsX8X9X9XfXfXfXfXfXfXfXfXfX8XsXsXsX8X9X9XfXfXdXdXdXdXfXfXqXqXqXqXqXqXfXfXfXfXfXfXfXfXfXfXzXzXzXfXfXfXvXvXvXvXvXzXfXzXvXvXzXzXzXzXzXzXzXzXzXzXzXzXzXzXfXfXfXfXfXfXqXqXfXfXqXqXqXqXqXqXqXqXqXqXqXqXqXqX9X9X9X9X9X9X9X9X9X9X9X9X9X9X0X0X9X9X9X9X0X0X0X0X0X0X0X0X0X0X0X0X0X0X0X0X0X0X0X0X0X0X8X8X9X9X9X9X9X9XqXqX9X9X9X9XqX0X5X,X$XW.I.g.e.=.| I P P D G G G U U U I ] { }  .#.=.=.=.=.#.$.#.#.#.#.#.+.#.#.#.} } } } } } } | | | | | | | [ [ [ [ | | | | | | | | | | | | } =.t.P./.4XgXhXjXhXhXhXjXBXBXhXjXgXgXgXhXhXhXhXhXhXBXBXBXhXhXhXjXhXhXhXgXgXsXaXaXsXsXsXaXaXaXaXaXaXaXaXaXaXaXaXsXsXsXsX3X3XaXaXsXsXsXsXsXsXsXsXsXsXsXsXsXsXsXsXsXsXsXdXsXsXdXdXdXsXsXsXsXsXdXsXsXsXsXsXsXsXsXsXsXsXsXsXsXsXsXsXsXsXsXsXsX8X8X8X3X3X3X3X3X3X8X8X3X3X3X3X3X3X3X3X3X3X4X-X~.R.L.t.>.>.>.>.:...] f w < - = - 3 < < < - ; & = ; ; ; = = - - - - z - z z - z - - - - - - - - - - - - - - - - - - - - - ; - - ; & & & ; ; ; ; ; ; ; ; - - ; & & & & & & & & & ; & ; ; ; ; & & ; ; ",
"2X$X2X2X2X2X2X2X2X2X2X2X2X2X2X2X2X2X2X2X3X3X3X3X3X3X3X3X3X3X3X3X8X8X8X8X8X8X8X8X8X8X8X8X8X8X8X8X8X8X8X8X8X8X8X8X8X8X8X8XsX8XsXsXsXsX8X8XdXdXdXdXsXsXsXsXfXfXsXsX8X9XfXdXdXsX8X8XsXsXsX8X8X8XfXfXfXfXfXfXfXfXfX8XsXsXsXsX9X9XfXfXfXdXdXdXfXfXqXqXqXqXqXqXfXfXfXfXfXfXfXfXfXfXzXvXzXfXfXfXvXvXvXvXvXzXzXzXvXvXzXzXzXzXzXzXzXzXzXzXfXfXzXzXzXfXfXfXzXfXqXqXfXfXfXfXqXqXqXqXqXqXqXqXqXqXqXqXqX9X9X9X9X9X9X9X9X9X9X9X9X9X0X0X0X9X9X9X0X0X0X0X0X0X0X0X0X0X0X0X0X0X0X0X0X0X0X0X0X8X8X8X9X9X9X9X9X9X9X9X9X9X9X9X9X5X$X@XW.L.h.;.#.| R U D D U U U U U U I { { |  . .#.=.#.#.#.$.$.#.#.#.#.#.+.+.#.#.} } } } } | } | | | | | | | [ [ [ [ | | | | | | | | | | | | } *.L.R.-XgXhXgXgXgXgXgXgXkXgXgXkXkXkXgXgXgXgXdXgXgXgXgXgXgXgXgXdXkXkXsXgXsXsXsXaXaXsXsXsXsXsXsXaXaXaXaXsXsXsXsXdXdXsXsXaXaXsXsXsXsXsXsXsXsXsXaXaX3X3X3XaXaX3X3X3X3X3X8X3X3XaX3XaXaX3X3X3X3XaXaXaXaXaXaXsXsXsXsXsXsXsXsXsXsXsXsXsXsXsXsX8X8X8X3X3X3X3X3X3X3X3X3X3X3X3X3X3X3X3X3X3X3X2X-X~.R.L.t.>.>.>.,.*.{ G i < < = = - - < - - = & & & ; ; ; = = - - - - z - z z z z - - - - - - - - - - - - - - - - - - - - ; ; - - ; & & & ; ; ; ; ; ; ; ; - - ; & & & & & & & & & & & ; ; ; & & & - - ",
"-X$X-X2X2X2X2X2X2X2X2X2X2X2X2X2X2X2X2X2X3X2X2X2X3X3X3X3X8X8X8X8X8X8X8X8X8X8X8X8X8X8X8X8X0X0X8X8X8X8X8X8X8X8X8X8X8X8X8X8X8X8X8X8XsXsXsXsXsX8X8XsXsXsX8X8XdXdXdXdXfXfXfX9X8X8XsXdXdXdXdXdXsXsXsXsX9X9X9X9XfXfXfXfXfXdXdXdXqXqXqXqX9X9X9X9X9X9X9X9X9XfX9X9XqXqXfXfXfXfXfXfXfXfXvXzXzXzXvXzXzXzXzXfXzXzXfXfXzXzXzXzXzXzXzXfXzXzXzXzXfXfXfXfXfXfXfXqXfXfXzXzXqXqXqXqXqXqXqXqX9X9XqXqXqX9X9X9X9X9X9X9X9X9X9X9X9X9X9X9X9X9X9X9X0X0X0X0X0X0X0X0X0X0X0X0X0X0X0X0X0X0X0X0X0X0X0X0X9X0X9X9X9X9XqX9X9X9XqXqXqXqX9X0X,X@XQ.I.t.;.#.} E R U U U U U U U U U ] { }  .#.#.$.$.$.$.$.$.$.$.#.#.} } } #.#.#.} } } } } | | | | | | | | | | { { { { { { | | | | | | | | | | #.,.L./.-XsXsXsXsXdXgXsXsXsXsXsXsXsXdXsXsXsXsXsXsXsXsXsXsXsXsXaXsXaXaXsXsXsXsXaXaXaXsXaXaX3XaXaXsXsXsXsXsXsXsXsXsX8XsXsXsXsXsXsX3XsX3X3X3X8X3X8X3X3X3X3X3X3X3X3X3X3X3X3X3X3X8X8X8X3X8X8X3X3X3X3X8X8X8X8XsXsXsXaXaXsXsXsXsXsXsXsXsXsX8X8X8X8X3X8X3X3X3X3X3X3X3X3X3X3X8X8X3X3X3X3X3X4X4X-X~.R.L.t.>.>.,.*. .G i 4 = = = = - - - - - ; ; & & ; & & ; ; - - - - - - - - - - - - - - - - - - - - - - - - - - - - - ; ; & ; ; & & & & & & ; ; ; ; ; ; ; ; - ; & & & & & & & & & & & & ; ; ; ; - ; ",
"-X$X2X2X2X2X2X2X2X2X2X-X2X2X2X2X2X2X2X2X3X3X2X2X3X3X3X3X8X8X8X8X8X8X8X8X8X8X8X8X8X8X8X8X0X0X8X8X8X8X8X8X8X8X8X8X8X8X8X8X8X8X8X8XsXsX8XsXsXsXsXsXsXsX8XsXdXdXdXdXfXfXfXqX8X8X8X8XdXdX9X9XsXsXsXsX9X9X9X9XfXfXfXfXfX9XdXdX9XqXqXqX9X9X9X9X9X9X9X9XfXfX9X9XqXqXfXfXfXfXfXfXfXfXvXzXvXzXvXzXzXzXzXfXzXfXfXfXzXzXzXzXzXzXzXfXfXzXzXzXfXfXfXfXfXfXfXqXfXfXzXfXqXqXqXqXqXqXqXqX9X9X9X9XqXqX9X9X9X9X9X9X9X9X9X9X9X9X9X9X9X9X9X9X0X0X0X0X0X0X0X0X0X0X0X0X0X0X0X0X0X0X0X0X0X0X0X0X9X0X9X9X9X9XqXqX9X9X9X9XqX9X5X,X~.I.h.>.$.} R I I U U U U U U U I ] { }  .#.=.=.*.*.$.$.$.$.$.$.$.$.#.} #.#.#.#.#.#.} } } } | | | | | | | | | | | { { { { { | | | | | | | | } } #.:.L.R.-XaXaXaXaXaXsXsXaXaXaXaXsXsXsXsXsXsXsXsXsXsXsXsXsXsXsXsXaX3X3X3XaXsXaXaXaXaXaXaX3X3X3X3X3X3X3X3X3X3XaXaX3X3X3X3X3X3X3X3X3X3X3X3X3X3X3X3X3X3X3X3X3X3X3X3X3X3X8X8X8X8X8X8XsXsXsXsX8X8X8X8XsX8XsXsXsXsXsXsXaXsXsXsXsXsXsXsX3X3X8X8X8X8X3X8X8X8X8X8X8X8X8X8X3X3X8X8X3X3X3X3X3X4X2X-X~.R.L.t.>.,.*. .G i 4 < = = - - - - - - ; ; ; ; & ; ; & ; ; - - - - - - - - - - - - - - - - - - - - - - - - - - - - - ; ; & ; ; & & & & & & ; ; ; ; ; ; ; ; ; & & & & & & & & & & & & & ; ; ; ; ; ; ",
"$X$X-X-X2X2X2X2X2X2X-X-X2X2X2X2X2X2X2X2X2X2X2X2X3X3X3X3X8X8X8X8X8X8X8X8X8X8X8X8X8X8X8X8X0X0X8X8X8X8X8X8X8X8X8X8X8X8X8X8X8X8X8X8X8X8X8X8XsXsXsXsXsXsXsXsXsXsXdXsXdXdXdXdX8X8X8X8X8X8X9X9XsXsX8X8XfXfX9X9XdXdXfX9X9X8X9X9X9X9XqXqX9X9X9X9X9X9X9X9XfX9XqXqXqXfXfXfXfXfXfXfXfXfXfXzXfXfXzXfXzXzXzXzXzXzXfXfXzXzXzXzXzXzXfXfXfXfXzXzXzXfXfXfXfXfXfXfXfXfXfXfXfXfXqXqXqXqXqXqX9X9X9X9X9X9X9X9X9X9X9X9X8X8X8X8X0X0X0X0X0X0X0X0X0X0X0X0X0X0X0X0X0X0X0X0X0X0X0X0X0X0X0X0X0X0X0X0X0X0X9X9X9X9XqX9X8X0X0X0X,X&X~.U.g.e.=.} E P U U U U U U U U I I { }  .#.$.=.*.*.*.*.$.=.$.$.$.$.*.$.$.#.#.#.#.#.#.#.#.} } } } } | | | | | | | | | { { { { { | | | | | | } } } }  .*.g.R.^.3X3X3X3XaXaXaXaXaXaXaXsXsXsXsXsXsXsXsXsXsXsXsXsXsXsXsXaXaX3X3XaXaXaXaXaXaXaXaX3X3X3X3X3X3X3X3X3X3XaXaX3X3X3X3X3X3X3X3X3X3X3X3X3X3X3X3X3X3X3X3X3X3X8X8X3X3X8X8X8X3X8X8XsXsXsXsX8X8X8X8XsXsXsXsXsXsXsXsXsXsXsXsXsXsXsXsX3X3X8X8X8X8X3X8X8X8X8X8X8X8X8X8X3X8X8X8X3X8X3X3X3X4X2X-X!.U.g.t.,.*. .G i 4 < = = = * * * * ; ; ; ; ; ; & & & & ; ; - - - - - - - - - - - - - - - - - - - - - - - - - - - - - - & & ; ; & & & & & & ; ; ; ; ; ; ; ; ; & & & & & & & & & ; ; & & & & & & ; ; ",
"$X$X-X-X-X-X2X2X2X2X2X2X2X2X2X2X2X2X2X2X2X2X2X2X3X3X3X3X8X8X8X8X8X8X8X8X8X8X8X8X8X8X8X8X0X0X8X8X8X8X8X8X8X8X8X8X8X8X8X8X8X8X8X8X8X8X8X8XsXsXsXsXsXsXsXsXsXsXsXsXdXdXdXdX8X8X8X8X8X8X8X8X8X8X8X9X9X9XdXdXdXdX9X9X9X8XdXdX9X9X9X9X9X9X9X9X9X9X9XfX9X9XqXqXqXfXfXfXfXfXfXfXfXfXfXzXfXfXfXfXzXzXzXzXzXzXfXfXfXfXzXzXzXzXfXfXfXfXzXzXzXfXfXfXfXfXfXfXfXfXfXfXfXfXqXqXqXqXqX9X9X9X9X9X9X9X9X9X9X9X9X9X8X8X0X0X0X0X0X0X0X0X0X0X0X0X0X0X0X0X5X5X0X0X0X0X0X0X0X0X0X0X0X0X0X0X0X0X0X0X9X9X9X9X9X8X0X0X0X2X~.W.I.h.$.+.[ R U U U U U U U I E E ] { }  .#.=.=.*.*.*.*.*.=.=.=.=.$.$.*.*.=.$.$.#.#.#.#.#.#.} } } } } | | | | | | | | | { { { [ { | | | | } } } } } } } *.h.U.^.4X3X3X3X3XaXaXaXaXaXaXsXsXsXsXaXaXsXsXsXsXsXsXsXsXsXaXaXaX3X3XaXaXaXaX3X3X3X3X3X3X3X3X3X3X3X3X3X3X3X3X3X3X3X3X3X3X3X3X3X3X3X3X3X3X3X3X3X3X3X3X3X8X8X8X8X3X8X8X3X8X8X8XsXsXsXsX8X8X8X8XsXsXsXsXsXsXsXsXsXsXsXsXsXsXsXsX3X3X8X8X8X3X3X3X3X8X3X8X8X8X8X8X3X8X8X8X3X8X3X3X3X4X-X$X!.I.h.>.*.} G i w < = = * = * * & & & & ; & ; ; & & & & & & ; ; - - - - - - - - - - - - - - - - - - - - ; ; ; ; - - ; - & & & & & & & & & & & & ; ; ; ; ; ; ; & & & & & & & & & & & & & & & & & ; ; ",
"$X$X-X-X-X-X-X2X-X-X-X2X2X2X2X2X2X2X2X2X2X2X2X2X3X3X3X3X0X0X8X0X8X8X8X8X0X0X8X8X8X8X0X0X8X8X8X8X8X8X8X8X8X8X8X8X8X8X8X8X8X8X8X8X8X8X8X8X8X8XsXsXsX8X8X8X8X8X8X8X8X8X8X8X8X8X8X8X8X8X8X8X8X8X9X9X9X8XdXdX9X9XdX9X9X9X9X9X9X9X9X9X9X9X9X9X9X9X9X9X9X9X9X9XfXfXfXfXfXfXfXfXfXfXfXfXfXfXzXfXfXfXfXzXzXfXfXfXfXfXfXfXfXfXfXfXfXfXzXzXqXqXfXfXqXqXqXqXfXfXfXfXfXqXqX9XqXqX9X9X9X9X9X9X9X9X9X9X9X9X0X0X0X0X0X0X0X0X0X0X0X0X0X0X0X0X0X5X0X0X0X0X5X5X5X5X0X0X0X5X5X5X5X5X0X0X0X0X5X0X9X0X0X8X0X2X,X$X~.R.L.t.-.#.{ R U U U U U U U U ] { { | }  .=.*.*.*.*.*.*.*.*.*.*.*.=.=.=.=.=.*.=.=.$.$.$.#.#.#.#.#.} } } } | | | | | { { { | | | { | | | | | | } } } } } } } *.h.U.^.4XaX3X3X3XaXaXaXaXaXaXsXsX8X3XaXsXaXaXsXsXsXsXsXsXsXsX3X3X3X8X3X3X3X3X3X3X3X3X3X3X3X3X3X3X3X3X3X3X3X3X3X3X3X3X3X3X3X3X3X3X8X3X8X8X3X3X8X8X8X8X8X8X8X8X3X8X8X8X8X8X8X8XsXsXsXsX8X8X8X8XsXsXsXsXsXsXsXsX8XsXsXsXsXsXsXsXsX8X8X3X8X8X3X3X3X3X8X3X8X3X3X3X3X3X3X3X3X3X3X3X3X4X-X~.!.P.h.:.#.] i 3 < = = = * * * * & & & & & & & & & & & & & & ; ; - - - - - - - - - - - - ; ; - - - - - - ; ; ; ; ; ; ; ; & & & & & & & & & & & & & & & & & & & & & & & & & & & & & & & & & & & & & & ",
"$X$X$X-X-X-X2X2X-X-X-X2X2X2X2X2X2X2X2X2X2X2X2X2X3X2X3X3X0X0X8X0X8X8X8X8X0X0X8X8X8X8X0X0X0X8X8X8X8X8X8X8X8X8X8X8X8X8X8X8X8X8X8X8X8X8X8X8X8X8XsXsX8X8X8XsX8X8XsX8X8X8X8X8X8X8X8X8X8X8X8X8X8X8X9X9X8X8XdXdX9X9X9X9X9X9X9X9X9X9X9X9X9X9X9X9X9X9X9X9X9X9X9X9XfXfXfXfXfXfXfXfXfXfXfXfXfXfXzXzXfXfXfXfXfXfXfXfXfXfXfXfXfXfXfXfXfXfXzXzXqXqXfXfXqXqXqXqXfXfXfXfXfXqXqX9XqX9X9X9X9X9X9X9X9X9X0X0X9X9X9X9X0X0X0X0X0X0X0X0X0X0X0X0X0X0X0X5X5X5X5X5X5X5X5X5X0X0X0X0X5X5X5X0X0X0X0X0X5X0X0X0X8X8X5X$X~.R.g.t.;.#.{ E I U U U I U U I ] { { }  .#.=.*.:.,.,.:.:.*.*.*.*.*.*.*.*.*.*.*.=.*.=.=.=.$.$.#.#.#.#.#.} } } } | | | | | { { { { { { { | | | | | | } } } } } } | =.h.U.~.4X3X3XaXaXaXaXaXaXaXaXsXsX8X8XaXaX3X3XsXsXsXsXsXaXaX3XaXaX3X3X3X3X3X3X4X4X4X4X3X3X3X3X3X3X3X3X4X4X3X3X3X3X3X3X3X3X3X3X3X3X3X3X3X8X8X3X8X8X3X8X8X8X8X8X3X8X8X8X8X8X8X3X8X8X8X8X3X3X8X8X8X8X8X8X8X8X8X8X8X3X3X3X8X8X8X8X8X8X3X8XsXsXsXsXsXsXsX8X8X8X3X3X3X3X3X3X3X3X3X3XsX3X4X-XW.P.t.*.] g w = * = = = * * * * & & ; & & & & & & & & & & & & & ; ; - - - - - - - - ; ; ; ; ; ; ; ; ; ; ; ; ; ; ; ; ; ; & & & & & & & & & & & & & & & & & & & & & & & & & & & & & & & & & & & & & & ",
"$X$X-X-X2X2X2X2X2X2X2X2X2X2X2X2X2X2X2X2X2X2X2X2X2X2X2X2X5X2X0X0X8X8X8X8X0X0X8X8X8X8X0X0X0X0X8X8X8X8X8X8X8X8X8X8X8X8X8X8X8X8X8X8X8X8X8X8X8XsXsXsX8X8XsXsXsXsXsXsX8X8X8X8X8X8X8X8X8X8X8X8X8X8X8X9X8X8XdXdXdX9XdXdXdX9X8X8X9X9X9X9X9X9X9X9X9X9X9X9X9X9X9X9X9X9X9X9XfXfXfXfXfXfXfXfXfXfXfXzXfXfXfXfXfXfXfXfXfXfXzXzXfXfXfXfXfXfXfXfXqXqXqXfXqXqXqXqXfXfXfXfXqXqXqX9X9X9X9X9X9X9X8X8X8X8X0X0X9X0X0X0X0X0X0X0X0X0X0X0X0X0X0X0X0X0X5X5X5X5X5X5X0X0X5X5X0X0X0X5X5X5X0X0X0X0X0X0X0X5X2X,X2X,X!.U.n.t.*.#.| { I I U U U U I I ] ] }  .#.$.*.:.,.,.>.>.>.>.:.*.:.:.:.:.:.:.:.:.:.:.*.*.=.=.=.=.$.$.#.#.#.#.#.#.} } } | } | | { { { { { | { | | | | | | } } } } } } { #.t.P.!.-X4X3X3X3XaXaX8X8X8X8XsXsX8X8X8X8X3X3X8X8X8X8X8X3X3X3XaXaX3X3X3X3X3X3X3X3X3X3X3X3X3X3X3X3X3X3X3X3X3X3X3X3X3X3X3X3X3X3X3X8X3X8X3X3X3X3X3X3X3X3X8X8X3X3X3X3X3X3X3X3X3X3X3X3X3X3X3X3X3X3X3X3X3X3X3X3X3X3X3X3X3X3X3X3X3X3X3X3X3X3X3X3X3X3X3X3X3X3X3X3X3X3X3X3X3X3X3X3X3X3X4X4X-X~.R.h.:.| s e < = * * * * * * * * & & & & & & & & & & & & & & & & & & ; ; ; - ; ; - ; ; ; ; ; ; ; ; ; ; - ; ; ; ; & & & & & & & & & & & & & & & & & & & & & & & & & & & & & & & & & & & & & & & & & & ",
",X$X-X-X2X2X2X2X2X2X2X-X2X2X2X2X2X2X2X2X2X2X2X2X2X2X2X2X2X2X0X0X3X3X8X8X0X0X8X8X8X8X0X0X0X0X8X8X8X8X8X8X8X8X8X8X8X8X8X8X8X8X8X8X8X8X8X8X8X8X8X8X8X8X8X8XsX8X8X8X8X8X8X8X8X8X8X8X8X8X8X8X8X8X8X9X8X8X9X9XdXdXdXdXdX9X8X8X9X9X9X9X9X9X9X9X9X9X9X9X9X9X9X9X9X9X9X9XqXqXqXqXfXfXfXfXfXfXfXfXfXfXfXfXfXfXfXfXfXzXzXzXfXfXfXfXfXfXfXfXqXqXqXqXqXqXqXqXqXqXqXqXqXqX9X9X9X8X8X8X0X0X0X0X0X0X0X0X0X0X0X0X0X0X0X0X5X5X5X5X5X5X5X0X5X5X5X5X5X5X5X5X0X5X5X5X0X0X0X5X5X5X0X0X0X0X5X0X0X5X$X$X~.W.I.h.=.#.} { E E I U U U I I ] { { | #.$.*.:.>.>.>.>.>.>.>.,.:.:.:.:.:.:.:.:.:.:.:.:.*.*.=.=.$.$.$.#.#.#.} } } } } } } } } | | | | | | | | | | | | | | | } } } } } } ]  .t.P.!.-X4X4X3X3XaXaX8X8X8X8XsXsX8X8X8X8X3X3X8X8X8X8X8X3X3X3XaXaX3X3X3X3X3X3X3X3X3X3X3X3X3X3X3X3X3X3X3X3X3X3X3X3X3X3X3X3X3X3X3X8X8X8X3X3X3X3X3X3X3X3XaXaXaX3X3X3X3X3X3X3X4X2X4X4X4X4X2X2X2X2X4X4X4X4X3X3X3X3X3X3X3X3X3X3X3X3X3X3X4X2X4X-X-X-X-X-X-X-X-X-X,X,X-X-X-X-X-X-X-X-X~.!.!.R.P.>. .h w < - = * * * * * * * * & & & & & & & & & & & & & & & & & & & & ; ; ; ; - ; ; ; ; ; ; ; ; ; ; ; ; ; ; ; & & & & & & & & & & & & & & & & & & & & & & & & & & & & & & & & & & & & & & & & & & ",
"$X$X$X$X-X-X-X2X2X-X-X-X-X-X-X2X-X-X2X2X2X2X2X2X2X2X2X2X2X2X3X3X2X2X3X5X8X8X8X8X8X8X8X0X8X8X8X8X3X3X3X3X0X0X0X3X3X3X3X3X8X8X8X3X8X8X8X8X8X8X8X8X8X8X8X8XsX8X8X8X8X8X8X8X9X8X8X8X8X0X0X0X0X0X8X8X8X8X9X9X9X9XdX9X9X8X8X8X8X8X8X8X9X9X9X9XdXdX9X9X9X9X9X9X9X9X9X9XfXfXfXfXfXfXfXfXfXfXfXfXfXfXfXfXqXqXfXfXfXfXfXfXfXfXfXqXqXqXfXfXfXqXqXqXqXqXqXqXqXqXqXqXqX9X9X8X8X8X8X0X0X0X0X0X0X0X0X0X0X0X0X0X0X0X0X0X5X5X5X0X0X0X0X0X5X5X5X5X5X5X5X5X5X5X5X5X5X0X0X0X0X0X0X0X5X5X<X<X,X&XQ.U.L.t.-.#.| { U U U U U U I ] ] { | } } #.=.:.:.>.>.t.t.t.t.>.>.,.:.:.:.:.:.:.:.:.:.:.:.-.*.*.*.=.#.#.#.#.#.#.} } } } } } | | | | | | } } } } } } } } } } | | | } } } } } { } >.P./.^.-X4X4X4X-X-X-X4X2X2X2X2X3X3X3X3X3X2X3X4X4X4X2X2X3X3X3X4X2X4X4X,X,X,X4X,X4X-X-X-X-X-X-X-X-X-X-X-X-X-X-X^.-X-X-X-X-X-X-X-X-X-X-X-X-X-X-X-X-X-X-X-X-X-X-X-X-X-X~.~.~.~.~.~.~.~.~.~.~.~.!.!.!.!.!.!.!.!.!.!.!.!.!.!.!.!.!.!.!.!.!.!.R.R.R.R.R.R.R.R.R.R.R.U.U.U.U.U.U.R.R.U.L.h.t.#.G w < - = * * * * * * & & & & & & & & & & & & & & & & & ; ; ; ; ; ; ; ; ; ; - - - - ; ; ; ; ; ; ; ; ; ; ; ; & & & & & & & & & & & & & & & & & & & & & & & & & & & & & & & & & & & & & & & & & & ",
"$X$X-X-X,X,X2X2X2X-X$X-X-X-X-X2X-X-X2X2X2X2X2X2X2X2X2X2X2X3X3X3X2X2X3X3X0X0X8X8X8X8X0X0X8X8X8X8X3X3X3X3X0X0X3X3X3X3X3X3X8X8X8X8X8X8X8X8X8X8X8X8X8X8X8X8X8X8X8X8X8X8X8X8X9X8X8X8X8X0X0X0X0X0X8X8X8X8X9X9X9X9XdX8X9X8X8X8X8X8X8X8X9X9X9X9XdXdX9X9X9X9X9X9X9X9X9X9X9X9X9X9XfXfX9X9XfXfXfXfXqXqXqXqXqXqXfXfXfXfXfXfXfXfXqXqXqXqXfXfXfXqXqXqXqXqXqXqXqXqXqXqX9X9X9X8X8X0X0X0X0X0X0X0X0X0X0X0X0X0X0X0X5X0X5X0X5X5X5X5X5X5X5X5X5X5X5X5X5X5X5X5X5X5X5X5X5X5X0X0X5X5X5X0X5X5X$X&X~.R.n.t.;.#.[ E E U U U U U U U ] { { }  .#.$.=.:.:.>.t.t.t.t.t.>.>.:.,.:.:.:.:.:.:.:.:.:.:.-.*.*.*.=.#.#.#.#.#.$.#.#.#.#.} } } } } } } } } } } } } } } } } } } } } | | } } } } { } :.L.R.^.-X4X-X-X-X~.~.~.~.~.~.~.~.~.~.~.~.~.~.~.~.~.~.~.~.~.^.~.~.~.~.!.!.!.W.W.W.R.R.R.R./.!.!.!.!.!././././././.R./.R.R.R.R.R.R.R.R.R.R.R.R.U.U.U.U.U.U.U.P.P.P.P.P.P.P.P.L.L.L.L.L.L.L.L.L.L.L.L.L.L.L.g.h.h.h.h.h.h.L.L.L.L.L.L.L.L.h.h.t.>.>.>.>.>.:.:.:.-.-.-.:.:.:.:.:.*.$.} I s 4 < - = * * & * * & & & & & & & & & & & & & & & & & & & ; ; ; ; ; ; ; ; ; ; - - - - ; ; ; ; & & & & ; ; ; ; & & & & & & & & & & & & & & & & & & & & & & & & & & & & & & & & & & & & & & & & & & ",
"-X$X-X-X,X,X$X$X$X$X$X$X-X-X2X2X2X2X2X2X2X2X2X2X2X2X2X2X3X3X3X3X3X3X3X3X0X0X0X0X0X0X0X0X8X8X8X8X0X0X3X3X0X0X0X0X0X0X3X3X8X8X8X8X8X8X8X8X8X8X8X8X8X8X8X8X8X8X8X8X8X8X8X8X8X8X8X8X8X0X0X0X0X0X8X8X0X8X9X9X8X8XdX8X9X8X8X8X8X8X8X8X9X9X9X9X9X9X9X9X9X9XqX9XqXqXqXqX9X9X9X9XfX9X9X9XfXfXfXfXqXqXqXqXqXqXqXqXqXqXfXfXfXfXfXfXqXqXqXfXfXfXqXqXqXqXqXqXqXqXqXqXqXqX9X0X8X0X0X0X0X0X0X0X0X0X0X0X5X5X0X0X5X5X0X0X5X5X5X5X5X5X5X5X5X5X5X5X5X5X5X5X5X5X0X0X0X0X0X0X5X,X,X,X$X$XQ.U.L.h.;.#.[ E I I U I I I I E E E { }  .#.=.*.*.:.:.>.>.t.>.>.>.>.>.:.:.:.:.:.:.:.:.:.:.:.;.-.*.*.*.=.=.#.=.#.#.#.$.#.#.#.#.#.#.#.#.#.#.#.#.#.#.#.#.#.#.#.#.#.#.#.#.} } } } } } } | | #.t.P.R./.!././.R.R.R.R.R.R.R.U.U.U.U.U.U.U.U.I.U.U.U.U.R.R.R.R.R.R.U.I.P.L.L.L.L.L.L.L.L.g.h.h.h.h.h.h.t.t.t.t.t.t.>.>.>.>.>.>.>.>.,.,.,.,.,.,.,.,.,.,.,.*.*.*.$.$.$.$.#.#.#.#.#... . . . .} } } } } | | { { { { { } ..*.,.,.:.:.:.:.:.*.=.} { ] I G G G G G h G G h h h h g s d w 4 < - - = & & & & & * & & & & & & & & & & & & & & & & & & & ; ; ; ; ; ; ; ; ; ; - - - - ; ; ; ; ; ; ; ; & & & & & & & & & & & & & & & & & & & & & & & & & & & & & & & & & & & & & & & & & & & & & & ",
"-X$X-X-X,X,X$X$X$X$X$X$X2X2X2X2X2X2X2X2X2X2X2X2X2X2X2X2X3X3X3X3X3X3X3X3X0X0X0X0X0X0X0X0X8X8X8X8X0X3X3X3X0X0X0X0X0X0X0X0X8X8X8X3X8X8X8X8X8X8X8X8X8X8X8X8X8X8X8X8X8X8X8X8X8X8X8X8X8X0X0X0X0X0X8X8X0X8X9X9X8X8X8X8X8X8X8X8X8X8X8X8X8X8X8X8X9X9X9X9X9X9X8X8X9X9X9X9X9X9X9X9XfXfX9X9XfXfXfXfXqXqXqXqXqXqXqXqXqXqXqXqXfXfXfXfXqXqXfXfXqXqXqXqXqXqXqXqXqXqXqXqXqX9X0X0X0X0X0X0X5X5X5X5X5X0X5X5X5X5X5X5X5X5X5X5X5X5X5X5X5X5X5X5X2X5X5X5X5X5X5X5X0X0X0X0X0X0X0X0X2X,X$X$X~.R.I.h.;.=.} E I I I U U U I E { E { { } #.$.=.*.:.:.,.>.>.>.>.>.>.,.:.:.:.:.:.:.:.:.:.:.-.-.-.-.*.*.*.=.=.=.=.=.#.#.#.=.=.$.$.$.$.#.#.#.#.#.#.#.#.$.$.$.$.$.$.$.$.#.#.#.#. .} } } } } | } #.:.>.h.L.L.L.h.h.t.,.,.,.,.:.*.*.*.*.*.=.=.=.=.=.*.:.:.>.>.>.>.>.>.,.:.=... . . . . . . . . . . . . .} } X.X.X.X.X.X.X.X.X.X.X.X.] ] ] ] ] ] ] ] ] ] ] ] ] G G G G G G h h h h h g g s s s d d d s d d d d d p p d g G {  .#.#.#.#.#... .X.G g i e e r r w w w w w q q 3 3 3 < , = - - = * & & & & & & & & & & & & & & & & & & : : & & & & & & & & & & ; ; ; ; ; ; & ; ; ; & & & & & & & & & & & & & & & & & & & & & : & & & & & & & & & & & & & & & & & & & & & & & & & & & & & & & & ",
"-X$X$X$X2X2X-X$X$X2X-X-X2X-X2X2X-X-X-X-X2X2X2X2X2X2X2X2X2X2X3X3X3X3X3X3X0X0X0X0X0X0X3X0X8X8X0X0X0X0X0X0X3X3X3X3X3X3X3X3X0X0X3X3X3X3X3X3X8X8X8X8X8X8X8X8X8X8X8X8X8X8X8X8X8X8X8X8X8X8X8X8X8X8X8X8X8X8X8X8X8X8X9X8X8X8X8X8X8X8X8X8X8X8X8X8X9X9X9X9X9X9X8X8X9X9X9X9X9X9X9X9X9X9X9X9X9X9XqXqXqXqXqXqXfXfXqXqXqXqXqXqXqXqXqXqXqXqXqXqXqXqXqXqXqXqXqXqXqXqXqXqX0X0X0X0X0X0X0X0X0X0X0X0X5X5X5X5X5X5X5X5X5X5X5X5X5X5X5X5X5X5X5X5X5X5X2X2X5X5X5X5X5X5X0X0X0X5X2X2X2X$X!.R.I.h.;.#.| E I U U U U U U U E E { | |  .#.$.*.*.:.:.,.>.>.>.>.>.>.:.:.:.-.:.:.:.:.:.:.:.:.-.-.-.*.*.*.*.*.*.*.*.=.=.=.=.=.=.=.=.=.=.=.=.=.=.=.=.=.=.=.=.=.=.=.=.=.=.$.$.$.#.#.} } } } | | | } $.*.=.=.*.*.*.$. .] U G h h h h h f f h h h j U U X...*.*.*.*.*.*.=. .] U h h h j 1.U U U U U U U U j j j j j j j j ` j j ` j j j j ` j j j j j j j j j k g f i r r i r r r e e e e e r e e e e e e e e e e e e e r f U X.} } } } } X.] j f t < z 3 3 3 3 z z < < < - - - - - = * * * * & & & & & & & & & & & & & & & & & & & & & & & & & & & & & & & ; ; ; ; ; ; & & & & & & & & & & & & & & & & & & & & & & & & & : & & & & & & & & : : & & & & : : : & & & & : & & & & & & & & & & ",
"$X$X$X$X2X2X2X2X2X2X2X2X-X-X2X2X-X-X-X-X2X2X2X2X2X2X2X2X2X2X3X3X3X3X3X3X0X0X0X0X0X0X0X3X0X8X0X0X0X0X3X0X3X3X3X3X3X3X3X3X0X0X3X3X3X3X3X3X8X8X8X8X8X8X8X8X8X8X8X8X8X8X8X8X8X8X8X8X8X8X8X8X8X8X8X8X8X8X8X8X8X8X8X8X8X0X8X8X8X8X8X8X8X8X8X8X8X8X9X9X9X9X8X8X9X9X8X8X9X9X9X9X9X9X9X9X9X9XqXqXqXqXqXqXqXfXfXqXqXqXqXqXqXqXqXqXqXqXqXqXqXqXqXqXqXqXqXqX9X9X9X9X0X0X0X0X0X0X0X5X5X5X5X5X5X5X5X5X5X5X5X5X5X5X5X5X2X2X5X5X2X2X5X2X,X<X2X2X2X2X5X5X5X5X2X2X$X$X@X~.~.W.L.h.>.=.{ E I U U U U U U U I E { | | } #.=.*.:.:.:.>.>.>.>.>.>.>.:.:.:.:.:.-.-.:.:.:.:.:.:.:.:.-.-.-.-.-.-.-.-.*.*.*.*.*.*.*.*.*.*.*.*.*.*.*.*.*.*.*.*.*.*.*.*.*.*.*.=.=.=.$.#.#.} } } } } } } } } #.#.#.#.$.#. .| ] h h d r r r r i i i i d d i f j ] | ..<.......X.] j k f d f f f f f f f f f f f f f f f f f f f f f f f f f f f f k k f f f f f f f f l r t w w w w w w q w w q q q q q q q q q q q q q q q q w r f g j j j j k d r w q < < < < z z - z - - - - - - - - = = * ; * * * & & & & & & & & & & & & & & & & & & & & & & & & & & & & & & ; ; ; ; ; ; & & & & & & & & & & & & & & & & & & & & & & & & : o o : : o & & & & : & & & & & : : : & & & : & & & & & & & & & & & ",
"$X$X$X$X-X-X-X-X2X2X2X2X-X2X2X2X-X-X-X-X2X2X2X2X2X2X2X2X2X2X2X3X3X2X3X3X0X0X0X0X0X0X0X0X0X0X0X0X0X0X0X0X3X3X3X3X3X3X3X3X3X3X3X3X0X0X3X3X8X8X8X8X8X8X8X8X8X8X8X8X8X8X8X8X8X8X8X8X8X8X8X8X8X8X8X8X8X8X8X8X8X8X8X8X8X0X8X8X8X8X8X8X8X8X8X8X8X8X0X0X9X8X8X8X8X8X8X8X9X9X9X9X9X9X9X9X9X9X9X9X9X9X9X9XqXqXqXqXqXqXqXqXqXqXqXqXqXqXqXqX9X9X9X9X0X0X0X0X9X0X9X9X0X0X0X0X0X0X0X0X5X5X5X5X5X5X5X5X5X5X5X5X5X5X5X5X2X2X2X2X,X,X,X2X,X,X5X5X2X2X5X5X5X5X$X$X$X@X!.R.L.h.:.#.| { I U U U U U I I I I { | } } #.=.*.:.,.>.>.>.>.>.>.>.>.>.:.-.:.:.:.:.-.-.-.-.:.:.:.:.-.-.-.:.-.-.-.-.:.:.-.-.-.-.-.-.:.:.:.:.:.:.:.:.:.:.:.:.:.:.:.:.:.*.*.*.*.*.=.=.=.#.#.#.} } } } } } #.#. .#.#.#.#.#. .| ] j f e t t t t t t r r r r r l k j j 1.1.1.1.1.j f f i i i i i i i i i l l r r l l l l l l l l l l l l l l l l l l l l l f f f f f l l l r q q q q q q q q q q q q q q q q q q q q q q q q q q q w t r r r r r w q q - - - - - - - - - - - - - - - ; ; ; - - ; ; & * * * * & & & & & & & & & & & & & & & & & & & & & & : : & & & & ; ; ; ; ; ; & & & & & & & & & & & & & & & & & & & & & & & & o o o o o : & & & & & & & & & & & & & & & & & : & & & & & & & & & & ",
"$X$X$X$X-X-X-X-X2X2X2X2X-X-X2X2X-X-X-X-X2X2X2X2X2X2X2X2X2X2X2X3X3X2X3X3X0X0X0X0X3X0X0X3X0X8X0X0X0X0X0X0X3X3X3X3X3X3X3X3X3X3X3X3X0X0X3X3X8X8X8X8X8X8X8X8X8X8X8X8X8X8X8X8X8X8X8X8X8X8X8X8X8X8X8X8X8X8X8X8X8X8X8X8X8X0X8X8X8X8X8X8X8X8X8X8X8X0X0X0X8X8X8X8X8X8X8X8X9X9X9X9X9X9X9X9X9X9X9X9X9X9X9X9XqXqXqXqXqXqXqXqXqXqXqXqXqXqXqXqX9X9X9X9X0X0X0X0X0X0X9X9X0X0X0X0X0X0X0X0X5X5X5X5X5X5X5X5X5X5X5X5X5X5X5X5X2X2X2X2X,X,X,X2X5X5X5X5X5X2X2X0X5X,X$X~.R.U.L.g.*.#.| E I I I U U U U U I I { { } } #.=.=.:.,.,.>.>.>.>.>.>.>.>.>.:.:.*.:.:.:.:.-.-.-.-.-.-.:.:.-.-.:.:.-.-.-.-.:.:.:.:.:.:.:.:.:.:.:.:.:.:.:.:.:.:.:.:.:.:.:.:.:.*.*.*.*.*.=.=.=.$.#.#.#.} #.#.#.#.#.#.#.#.#.#.$.#.#. .{ U f t q t t t t r r i r r r l l l t r f f i i r t t t t r r r r r r t r r r r r l l l l l l l l l l l l l l l l l l l l l f f f f f l l r t q w w w q q z q q q q q q z q q q z z q z z z z z z z z - - z z z z z z q - - - - - - - - - - - - - - ; ; ; ; ; & & & * * & & & & & & & & & & & & & & & & & & & & & & & & : : & & & & ; ; ; ; ; ; & & & & & & & & & & & & & & & & & & & & : & & : o o o o o : & & & & & & & & & & & & & & & & & & & & & & & & & & & & ",
"$X$X$X$X-X-X-X-X$X$X$X$X-X-X-X$X-X-X-X-X2X2X2X2X2X2X2X2X2X2X2X2X2X2X2X2X0X0X0X0X2X2X2X2X0X0X0X0X0X0X0X0X0X0X0X0X0X0X3X3X0X0X0X0X0X0X0X0X3X3X3X3X8X8X8X8X8X8X8X8X0X0X0X0X0X0X0X0X0X0X0X0X8X0X0X0X0X0X8X8X8X8X8X8X8X8X8X8X8X8X0X8X0X0X0X0X0X0X0X0X0X0X0X0X8X8X8X8X9X9X9X9X9X9X9X9XqXqXqXqXqXqXqX9XqXqXqXqXqXqXqXqXqXqXqXqXqXqX9X9X9XqX9X9X9X9X9X9X8X8X8X8X0X0X0X0X0X0X0X5X5X5X5X5X5X5X5X5X5X5X5X5X5X5X5X5X5X2X5X,X<X,X,X,X,X2X5X5X5X5X,X,X$X~.W.I.g.e.;.#.} { E I I I I I U U I ] { | | } #.=.*.:.:.>.>.>.t.t.>.>.>.>.>.>.:.:.-.-.-.-.:.:.:.:.:.:.:.:.:.:.:.:.:.:.-.-.;.:.:.:.:.:.:.:.:.:.:.>.>.>.>.>.>.>.>.:.:.:.:.:.:.:.:.:.*.*.*.*.*.*.=.=.$.#.#.$.$.$.$.$.$.$.$.$.$.$.=.=.$.#.| ] f e q w t r r r r r l l r r r t r r r r r r t t t w t w t t t t t t t t t t t t t t r l l l l l l l l l l l l l l l l l f f k k f l r t q q q q q q q q q q z z q q q z z z z z z z z z z z z z - z - - - - - - - - z - - - - - - - - - - - ; ; ; ; ; ; ; ; & & & & & & & & & & & & & & & & & & & & & & & & & & & & : : & & & & & & & & & & & & & & & & & & & & & & & & & & & & & & : o : : o o o o o o : : : & : : : : : : & & & : : : : & & & & & & & & & : & ",
"$X$X$X$X-X-X-X-X$X$X$X$X-X-X-X$X-X-X-X-X2X2X2X2X-X2X2X2X2X2X2X2X2X2X2X2X0X0X0X0X2X2X2X2X0X0X0X0X0X0X0X3X0X0X0X0X0X0X0X3X0X0X0X0X0X0X0X0X3X3X3X3X8X8X8X8X8X8X8X8X0X0X0X0X0X0X0X0X0X0X0X0X8X8X0X0X0X0X8X8X8X8X8X8X8X8X8X8X8X8X0X0X0X0X0X0X0X0X0X0X0X0X0X0X8X8X8X8X9X9X9X9X9X9X9X9XqXqXqXqXqXqXqXqXqXqXqXqXqXqXqXqXqXqXqXqXqXqX9X9XqXqX9X9X9X9X9X9X8X8X8X8X0X0X0X0X0X5X0X5X5X5X5X5X5X5X5X5X5X5X5X5X5X5X5X5X5X2X5X,X5X,X<X,X,X,X2X5X2X,X$X$X~.R.g.t.;.#.[ { E I I I I I I I I E { | }  .#.=.*.:.>.,.>.>.t.t.t.t.t.>.>.>.>.:.:.:.:.-.-.-.-.-.:.:.:.:.:.:.:.:.:.:.:.:.-.-.:.:.-.:.:.:.:.:.:.:.:.:.>.>.>.>.>.>.:.:.:.-.:.-.:.-.:.*.*.*.*.*.*.*.*.=.=.$.$.=.=.=.=.=.=.=.=.=.=.=.*.*.*.=. .{ h r w t t r r r r r r r r t t t t t t t t t t t w w w w w w e w w w t t t t t t t t t t r l l l l l l l l l l l l l l l l l f f l r t q w q q q q q z q q q z z z q z z z z z z z z z z z z z z z z - - - - - - - - z - - - - - - - - - ; ; ; ; ; & ; & & & & & & & & & & & & & & & & & & & & & & & & & & & & & & & : : : & & & & & & & & & & & & & & & & & & & & & & & & & & & & & : o o o o o o o o o : : & & : : : : : : & & & & : : : : & & & & & & & & & & ",
"$X$X$X$X$X$X$X$X$X$X$X$X-X-X$X$X-X-X-X-X2X2X2X2X-X-X2X2X2X2X2X2X2X2X2X2X0X5X0X0X2X0X2X2X0X0X0X0X0X0X3X3X0X0X0X0X0X0X3X3X0X0X0X0X3X3X0X3X3X3X0X0X8X8X8X8X8X8X8X8X8X8X0X0X0X0X0X0X0X0X0X0X8X8X8X8X0X8X8X8X8X8X8X8X8X8X8X8X8X8X8X0X0X0X0X0X8X8X8X8X0X0X0X0X0X0X8X8X8X8X9X9X9X9X8X8X9X9X9X9X9X9XqXqX9X9XqXqXqXqXqXqXqXqXqXqX9X9X9X9X9X9X8X8X8X8X8X8X8X8X8X8X0X0X0X0X0X5X5X5X5X5X5X5X5X5X5X5X5X5X5X5X5X5X5X5X5X5X5X,X,X,X,X,X$X$X,X,X$X~.W.U.L.h.;.#.[ E I I I I I I I I I E { | } #.=.*.:.:.>.>.>.>.t.t.t.t.t.t.t.>.>.>.:.:.:.:.-.-.-.-.:.:.-.:.:.:.:.:.:.:.:.-.-.-.-.-.;.-.*.*.*.*.*.*.-.-.:.:.:.:.:.:.:.:.:.-.*.*.*.*.-.*.*.*.*.*.*.*.*.*.*.*.=.=.=.=.=.=.=.=.=.=.=.=.=.=.*.*.*.*...X.j d w w t r r r r r r r t w w w w q t t t t q q q q q w e e e w w w w w w w w w w q t t t t t r r r r r r r l l l l l l l l f l r w w q q q q q q q q q q q q q q q q z z z z z z z z z z z z - - - - - - - - - - - - - - - - - - - - - - - ; ; & & & & & & & & & & & & & & & & & & : : & & & & & & & & & & & & & : o o o & & & & & & & & & & & & & & & & & & & & & & & & & & & & : o o o o o o o o o o & & & & & & & & : : & & & & : : : : & & & & & & & & : : ",
"$X$X$X$X$X$X$X$X$X$X-X-X-X-X$X$X-X-X-X-X2X2X-X-X-X-X2X-X2X2X2X2X2X2X2X2X2X2X0X0X0X0X2X2X0X0X0X0X0X0X3X3X0X0X0X0X0X0X3X3X0X0X0X0X3X3X3X3X3X0X0X0X8X8X8X8X8X8X8X8X0X0X0X0X0X0X0X0X0X0X0X0X8X8X8X8X8X8X8X8X8X8X8X8X8X8X8X8X8X8X8X8X0X0X0X0X8X8X8X8X0X0X0X0X0X0X8X8X8X8X8X8X9X9X8X8X8X8X8X9X9X9X9X9X9X9X9X9X9X9X9X9X9X9X9X9X9X9X9X9X8X8X8X8X0X0X0X8X0X0X0X0X0X0X0X0X5X5X5X5X5X5X5X5X5X5X5X5X5X5X5X5X5X5X5X5X5X5X5X5X5X,X$X$X$X$X$X$X!.R.I.t.;.=.} E I I I I I I I I E E E { | } #.=.*.,.>.>.>.>.t.t.h.t.t.t.t.t.>.>.>.:.:.:.:.:.-.:.:.:.:.:.-.-.-.-.:.-.-.-.-.-.-.-.:.-.-.*.*.*.*.*.*.=.*.*.*.*.-.-.-.-.-.-.*.*.*.*.*.*.*.*.*.*.*.*.*.*.*.*.*.*.*.=.=.=.=.=.=.=.=.=.=.=.=.*.*.*.*.*.#.} U f t w t r r r r r r t w q q q q q q q t z q q q q w w w w w e w w w q q q q q q q q q q t t t t r r r r r r r l l l l r l l r t q q q q q q q q q - - z z - - z z z z z z - - - - - - - - - - - - - - - - - - - - - - - - - - ; ; ; ; - - ; & & & & & & & & & & & & & & & & & & & : : & & & & & & & & & & & & o o o o o o & & & & & & & & & & & & & & & & & & & & : : : : & & : o o o o o o o o o o : & & & & & & & & & : & : : : : : : : & & & & & & & & : : ",
"$X$X$X$X$X$X$X$X$X$X$X$X-X-X$X$X-X-X-X-X-X-X-X-X-X-X-X-X-X-X-X-X2X2X2X2X2X2X2X2X2X2X2X2X0X0X0X2X5X2X2X2X0X5X2X2X5X5X2X2X0X0X0X2X3X3X3X3X3X3X0X3X0X0X0X0X3X3X3X3X8X8X8X8X0X0X0X0X8X8X8X8X8X8X8X8X8X0X0X8X8X8X8X8X8X8X8X8X8X8X8X8X0X0X0X0X0X0X0X0X0X0X0X0X0X0X0X0X0X0X8X8X8X8X8X8X8X8X9X9X9X9X8X8X9X9X9X9X9X9X9X9X9X9X9X9X9X9X8X8X8X8X8X9X0X0X0X0X0X0X0X0X0X0X0X0X0X0X5X5X5X5X5X5X5X5X5X5X5X,X<X<X5X5X5X5X5X5X,X,X5X2X$X$X$X$XQ.R.I.t.-.#.| { E I U U U U U I ] { { { | } #.=.*.:.:.>.>.t.t.t.t.h.h.h.t.t.t.>.>.>.:.:.:.;.:.:.:.:.:.:.:.:.-.-.-.-.-.:.:.:.:.-.*.*.:.:.:.*.*.*.=.=.=.$.=.=.=.=.=.*.*.*.*.*.*.*.*.*.*.*.*.*.*.*.*.*.*.*.*.*.*.*.*.*.*.*.*.*.*.*.*.*.*.*.*.*.*.*.*.*.$. .] h r w w t r r r r t t w w w w q q q q q z z q q q 4 w w w w w w w w w q q q q q q q q q q q q w t t r r r t r r r l l l l l r w q q q z z q q q q z z z z - - - - - - - - - - - - - - - - - - - - - - - - - - - - - - - ; ; & & & ; ; ; ; ; ; ; & & & & & & & & & & & & & : : : : & & & & & & & & & & & & & & o o o o o : : : & & & & & & & & & & & & & & & & & & : : o o : : : o o o o o o o o o o o & & & & & & & : : : : : : : : : : : : : : : & & : : o o ",
"$X$X$X$X$X$X$X$X$X$X$X$X-X-X$X$X-X-X-X-X-X-X-X-X-X-X-X-X-X-X-X-X2X2X2X2X2X2X2X2X2X2X2X2X0X0X5X2X5X2X2X2X0X0X2X2X5X5X2X2X0X0X5X2X3X3X3X3X3X3X0X0X3X0X0X0X3X3X3X3X8X8X8X8X8X0X0X0X8X8X8X8X8X8X8X8X8X8X8X8X8X8X3X3X3X3X8X8X8X8X8X8X0X0X0X0X0X0X0X0X0X0X0X0X0X0X0X0X0X0X0X0X0X0X0X0X8X8X8X8X9X9X8X8X9X9X9X9X8X8X8X8X8X8X8X8X8X8X8X8X8X8X0X0X0X0X0X0X0X0X0X0X0X0X0X0X0X0X5X5X5X5X5X5X5X5X5X5X,X,X<X<X,X,X5X5X5X<X,X,X$X$X$X$X~.W.I.t.-.#.} | { I I U U U I I ] { { | } } $.*.:.,.>.>.>.t.t.h.t.t.t.t.h.t.t.>.>.>.>.>.:.:.:.;.:.:.:.:.:.:.:.:.-.-.*.*.:.:.:.*.-.*.*.*.*.*.*.*.*.*.*.*.=.=.$.$.=.=.=.=.=.=.=.=.*.*.*.*.*.*.*.*.*.*.*.*.*.*.*.*.*.=.=.=.*.*.*.*.*.*.*.*.*.*.*.*.*.*.*.*.*.#.| U f r w w w w t t r r r r r r r r t q ; z q z q 3 3 w w w w w w w w w q q q q q q z z q z z q q q w t t t t t r r l l l r r t w q q z z z z z z z - - z z - - - - - - - - - - - - - - - - - - - - - - - - - - ; ; - - - & & & & & & & & & & & & & & & & & & : & & : : : : : : : : & & & & & & & & & & & & & o o o o o o o o o & & & & & & & & & & & & & & : & & & o o o o o o o o o o o o o o o o o o & & & & & & & & : o : o o o : : : : : : : : & & : : o o ",
"$X$X$X$X$X$X$X$X-X$X$X$X-X-X-X-X%X%X-X-X2X2X2X2X2X2X2X2X2X2X2X2X2X2X2X2X2X2X2X2X2X2X2X2X0X0X0X0X0X3X2X2X0X0X0X0X3X3X2X2X0X0X0X0X3X3X3X3X3X0X0X0X3X3X0X0X0X0X3X3X8X8X8X8X8X8X0X0X8X8X8X8X8X8X8X8X8X8X8X8X3X3X3X3X3X3X0X0X0X0X0X0X0X0X0X0X0X0X0X0X0X0X0X0X0X0X0X0X0X0X0X0X0X0X0X0X8X8X8X9X9X8X8X8X9X9X9X9X9X9X8X8X8X8X9X9X8X8X8X8X8X0X0X0X0X0X0X0X0X0X0X0X0X0X0X0X0X0X0X5X5X5X5X5X5X5X5X2X5X,X<X<X,X,X<X<X,X,X,X$X$X!.R.R.I.t.-.=.} E E E ] ] I I I I E E { | } } #.=.*.:.,.>.>.t.t.h.h.h.t.t.t.t.t.>.>.>.>.>.>.:.:.:.:.:.:.:.:.:.:.:.:.:.-.-.*.:.:.:.:.:.-.*.*.*.*.*.*.*.*.*.*.*.=.=.=.=.=.=.=.=.=.=.=.=.=.=.=.=.*.*.*.*.*.*.*.*.*.*.*.=.=.=.=.=.=.=.=.=.=.=.=.=.=.=.=.=.*.*.*.*.*.*. .{ j i q q q q q q w w r r t t t r f i - z z z z 3 3 4 4 w w w w w w w q q q q q q z z q q q q q q z q q w w q t r l l l r r t q q q z z z - - z z - - - - - - - - - - - - - - - - - - - - - - - - - - - - - - - - - - - ; ; & & & & & & & & & & & ; & & & & & & & & & & & & & & & & & & & & & & & & & & & : o o o o o o o o o & & & & & & & & & & & & & & : : & & : : o : : : : o o o o o o o o o o : & & & & & & : : : o : o o o : : : : : : : : & & : : : : ",
"$X$X$X$X$X$X$X$X$X$X$X$X-X-X-X-X%X%X-X-X2X2X2X2X2X2X2X2X2X2X2X2X2X2X2X2X2X2X2X2X2X2X2X2X0X0X0X0X0X2X2X2X0X0X0X0X0X2X2X2X0X0X0X0X3X3X3X3X3X3X3X3X3X3X3X0X3X3X3X3X3X3X3X3X0X0X0X0X8X8X8X8X0X0X0X0X0X0X3X3X3X3X3X3X3X3X0X0X0X0X0X0X0X0X0X0X0X0X0X0X0X0X0X0X0X0X0X0X0X0X0X0X0X0X0X0X8X8X8X8X9X8X8X8X8X8X8X8X8X8X8X8X0X0X0X0X0X0X0X0X8X0X0X0X0X0X0X0X0X0X0X0X0X0X0X0X0X0X0X5X5X5X5X5X5X5X5X2X5X<X<X<X<X<X,X,X,X,X,X$X~.R.L.h.-.=.} { ] E U U I I I I I I E { | } $.=.*.:.:.>.>.>.t.t.h.t.h.h.t.t.t.t.>.>.>.>.>.>.>.>.:.:.;.;.:.:.:.:.;.;.:.:.-.-.:.:.:.:.:.:.:.:.*.*.*.:.:.*.*.*.*.*.*.*.*.=.=.=.=.=.=.=.=.=.=.*.=.*.*.*.*.*.*.*.*.*.*.*.*.=.=.=.$.$.=.=.=.#.#.#.#.#.#.#.#.$.*.*.*.*.*.*...X.U k r q z < q < - - - - - - - z - 3 t q z q z 3 3 4 4 w w w 4 4 w w w q q q q z z z z z q q q z z z z q q q t r l l r r t w q q z z z z - - - - - - - - - - - - - - - - - - - - - - - - - - - - - - - - ; ; ; - - - - ; ; & & & & & & & & & & & ; & & & & & & & & & & & & & & & & & & & & & & & & & & : o o o o o o o o o o : : : : & & & & & & & & & & : : & & : : : : : : : o o o o o o o o o o : : : o o : o o o o o : o o o : : : : : : : : & & : : : : ",
"$X@X$X$X$X$X$X$X$X$X$X$X$X$X$X$X$X$X-X-X-X-X-X-X-X-X-X-X2X2X2X2X2X2X2X2X2X2X2X2X2X2X2X2X2X2X2X2X2X2X2X2X2X2X2X2X2X2X2X2X2X2X2X2X3X3X3X3X3X3X3X3X3X3X3X3X3X3X3X3X3X3X3X3X3X3X3X3X3X3X3X3X0X0X0X0X0X3X3X3X3X0X0X0X0X2X0X0X3X3X0X0X0X0X0X0X0X0X0X0X0X0X0X0X0X0X0X0X8X8X0X8X8X8X0X0X0X0X8X8X0X0X0X0X8X8X8X8X8X8X8X8X0X0X0X0X0X8X8X0X0X0X0X0X0X0X0X0X0X0X0X0X5X5X5X5X0X0X0X5X5X5X5X5X5X5X5X5X5X5X2X2X,X,X$X$X&X&X@XW.I.h.;.#.| E I I U I U U U U I ] ] { { } #.=.:.:.>.>.>.>.t.t.t.t.t.t.t.t.t.t.e.>.>.>.>.>.>.>.>.:.:.:.:.:.;.;.-.;.-.-.-.*.*.*.-.-.-.*.*.=.=.*.*.=.=.*.*.=.$.#.$.$.$.$.$.$.#.#.#.#.#.#.#.#.$.$.#.$.=.$.$.$.=.=.=.=.$.$.$.#.#.#.#.#.#.#.#.#.#.#.#.#.#.#.#.#.$.$.=.=.=.=...X.] h i q < - q < - - - - - - - - - - t t z q q < < 4 w w y w 4 4 4 w q q < < 3 3 < < < z q z z - - - < < q q t r r r r t t w q z z z z z - - - - - - - - - - - - - - - - - - - - - - - - - - - - - - ; ; ; ; ; ; ; ; ; ; ; ; ; ; ; ; ; ; ; ; ; & & & & & & & & & & & & & & & & & & & & & & & & & & & : o o o o o o o o o o o : : : : & & & & & & : : : : & & & & o : : : o o o : o o o o o o o o o o : : o o o o o o o o o o o o : : : : : : & & : : : : : : ",
"$X@X$X$X$X$X$X$X$X$X$X$X$X$X$X$X$X$X-X-X-X-X-X-X-X-X-X-X2X2X2X2X2X2X2X2X2X2X2X2X2X2X2X2X2X2X2X2X2X2X2X2X2X2X2X2X2X2X2X2X2X2X2X2X3X3X3X3X2X2X3X3X3X3X2X2X3X3X3X3X3X3X3X3X3X3X3X3X3X3X3X3X0X0X0X0X3X3X3X3X3X3X2X2X3X3X0X0X3X3X0X0X0X0X0X0X0X0X0X0X0X0X0X0X0X0X0X0X8X8X0X8X0X0X0X0X0X8X8X8X0X0X0X0X0X8X0X0X0X0X0X0X0X0X0X0X0X0X0X0X0X0X0X0X0X0X0X0X0X0X0X0X5X5X5X0X0X0X0X5X5X5X5X5X5X5X5X5X,X,X,X,X,X$X&X@X~.W.I.h.;.#.[ E I U U U U U I U I I { { { | #.$.*.:.>.>.>.>.>.t.t.t.t.t.t.t.t.t.t.>.>.>.>.>.>.>.>.>.>.:.:.;.:.:.;.;.;.-.-.*.*.-.:.:.=.=.=.$.#.#.#.#.#.#.} | | } } | | | [ { { { { { { { { { ] { { { } } } | | | | | | | | | | | | | | | } } } } } }  . . . .....#.#.#.#.......X.] j d w q q r q q q 3 3 3 3 3 - - - q q z - < < < w y y y w 4 < < q 3 3 < < < < < < < < z z z - - - < q q w r r r t q q w w q q z z z z - - - - - - - - - - - - - - - - - - - - - - - - ; ; ; ; - - ; ; ; & ; ; ; ; ; ; ; ; ; ; ; ; ; ; ; ; ; & & & & & & & & & & & & & & & & & & & & & & & & & & : o o o o o o o o o o o o o o o o & & & & & & & : : : & & & & o : : : o o o o o o o O o o o o o o o o o o o o o o o o o o o o : : : : : & & & : : : : & & ",
"$X@X$X$X$X$X$X$X$X$X$X$X$X$X$X$X$X$X$X$X,X,X,X,X,X,X,X,X,X,X,X,X2X2X2X2X2X2X2X2X2X2X2X2X2X2X2X2X2X2X2X2X2X2X2X2X2X2X2X2X2X2X2X2X3X3X3X3X2X2X3X3X3X3X2X2X2X2X2X2X3X3X2X2X3X3X3X3X3X3X3X3X0X0X0X0X3X3X3X3X3X3X2X2X3X3X5X5X5X5X0X0X0X0X0X0X0X0X0X0X0X0X0X0X0X0X0X0X0X0X0X0X0X0X0X0X0X0X0X0X0X0X0X0X0X0X0X0X8X0X8X8X0X0X0X0X0X0X0X0X0X0X0X0X0X0X0X0X0X0X0X0X0X5X5X0X0X0X0X5X5X5X5X5X0X0X2X2X,X,X$X$X$X~.W.R.I.h.>.#.[ E I I I U U U U U I I { { } } } #.=.*.-.:.e.>.>.t.t.t.t.t.t.t.t.t.t.e.>.>.>.>.>.>.:.>.>.>.>.:.:.;.;.;.*.*.#.#.#.=.-.;.*.#.| { { { E I I I I I U D D U U D G D D D g g h h h s s s D { { U s G U D D D G G D D G G G G G G G G G G U U U I ] ] ] ] { { { { X.{ ] X.X.] G h d e t r f r t t t t t t t q q q q q q q q q w e p p p w 4 < < q 3 3 q q < < < < < - < < z - < < q q t r r l l r t t t w w q z z z z - - - - - - - - - - - - - - - - - - - - - - - - ; ; ; - - ; ; ; & & & ; ; ; ; ; ; ; ; ; ; ; ; ; ; ; ; ; ; ; ; & & & & & & & & & & & & & & & & & & & & & & : o o o o o o o o o o o o o o o o o o & & & & & & : : & & & & & : : : : : : : : o o o o o o o o o o o o o o o o o o o o o & & : : o o : : & & : : : : & & ",
"$X@X$X$X$X$X$X$X$X$X$X$X$X$X$X$X$X$X$X$X,X,X,X,X,X,X,X,X,X,X,X,X2X2X2X2X2X2X2X2X2X2X2X2X2X2X2X2X2X2X2X2X2X2X2X2X2X2X2X2X2X2X2X2X3X3X2X2X2X2X3X3X3X3X2X2X2X2X2X2X3X3X3X2X3X3X3X3X3X3X3X3X2X2X0X0X3X3X3X3X3X3X2X2X3X3X5X5X5X5X0X0X0X0X0X0X0X0X0X0X0X0X0X0X0X0X0X0X0X0X0X0X0X0X0X0X0X0X0X0X0X0X0X0X0X0X0X0X0X0X0X0X0X0X0X0X0X0X0X0X0X0X0X0X5X5X0X0X0X5X5X5X5X5X5X5X0X0X0X5X5X5X5X5X0X2X2X2X$X$X$X$XQ.U.L.h.>.=.} E I I I U U U U U U U U E { } #.#.#.*.*.*.:.>.e.e.t.t.t.t.t.t.t.e.e.e.e.>.>.>.>.>.>.>.:.>.>.:.>.>.:.-.*.>.>.>.-.=.} E I U V D D D D G g s s g s s h h g d y y y y y y y y y y d g G g s g p } y y y y y y y y y y y y y p d d i i y i i i d i d d d d g g g g g g g h j h f f i i r r k i r r r r r r r r r r r r r r r r r i i d i w w w q q q q q q q q < - - - < < q q q q w t r r l f f f l l r w w q z z - - - - - - - - - - - - - - - - - - - - - - - - - - ; ; ; - - - ; ; ; ; & ; ; ; ; ; ; ; ; ; ; ; ; ; ; ; ; ; ; - & & & & & & & & & & & & & & & & & & & & & & : o o o o o o o o o o o o o : : o o : o & & & & : & : : & & & & & : : : : : : & : o o o O o o o o o o o o o o o o o o o o o & & o o o o : : & & : : : : & & ",
"$X@X@X@X$X$X$X$X$X$X$X$X$X$X$X$X$X$X$X$X$X$X$X$X$X$X$X$X,X,X,X,X2X2X2X2X2X2X2X2X2X2X2X2X2X2X2X2X2X2X2X2X2X2X2X2X2X2X2X2X2X2X2X2X2X2X2X2X2X2X2X2X3X3X2X2X2X2X2X2X2X2X2X2X2X2X3X2X2X2X2X3X2X2X2X2X3X2X3X3X3X3X2X2X2X2X3X3X3X3X0X0X3X3X0X0X0X0X0X0X0X0X0X0X0X0X0X0X0X0X0X0X0X0X0X0X0X0X0X0X0X0X5X5X0X0X0X0X0X0X0X0X0X5X0X0X0X0X5X5X0X0X0X0X0X0X0X0X0X0X0X0X5X5X5X5X5X5X5X5X5X5X5X5X5X,X$X$X$X~.R.U.g.t.;.=.| E I I I U U U U U I I ] { { } #.$.=.*.:.:.:.:.:.e.t.e.t.t.t.t.t.e.e.e.>.>.>.>.>.>.>.>.>.>.>.>.>.:.:.-.*.#.} I U D s s s s p y p d d d d d p i y i p g g g p e w w w w w w w w y i d g h p d y i e G e 4 w w w w w w 4 w w 4 w y y e e w w w w t w w w w w e e e e r r r i i r i r r e r r d i r r r r r r r r i i i i i d d f f d d d i i i r r r r r r r t w w w w w w w r r r r r i l d f f g g f f l r r w q q q q z - - ; - - - - - ; - - - - - - - - - - - - - - - - - - ; ; - - ; ; ; ; ; ; ; ; ; ; ; ; ; & & & ; ; ; ; ; ; ; & & & & & & & & & & & & & & & & & & & & : o o o o o o o o o o o o o o : : & & & & & & & & & & : & & & & & & & & & & & & & : o o o O O o o o o o o o o o o o o & : & & : : : & : : & & & & & & & & & & ",
"$X@X@X@X$X$X$X$X$X$X$X$X$X$X$X$X$X$X$X$X$X$X$X$X$X$X$X$X,X,X,X,X2X2X2X-X2X2X2X2X2X2X2X2X2X2X2X2X2X2X2X2X2X2X2X2X2X2X2X2X2X2X2X2X2X2X2X2X2X2X2X2X3X3X2X2X2X2X2X2X2X2X2X2X2X2X2X3X2X2X2X2X2X2X2X2X2X2X3X2X3X3X2X2X2X2X3X3X3X3X0X0X3X3X0X0X0X0X0X0X0X0X0X0X0X0X0X0X0X0X0X0X0X0X0X5X0X0X5X5X5X5X5X5X5X5X0X5X5X5X5X5X5X5X5X5X5X5X5X5X5X5X5X5X5X5X5X5X5X5X5X5X5X5X5X5X5X5X5X5X5X5X5X0X5X-X$X@X~.W.L.h.:.=.| { I U U U I U U U U E | } #.=.*.*.:.:.>.>.t.>.:.>.>.>.t.t.t.t.t.t.e.e.e.>.e.>.>.>.>.>.>.>.t.e.>.>.>.>.*.#.{ U h s s s p p d p p y y y y y y y y p p e g d p i w w e e y y y y y p h h d y e w h y w w d s y w w w w w w w w w w w w e i d e e e w e e w w w w w w w w w w e e t t t t e t t r r r r r r t t t r r r r r r r r i i d l f d d f g f f f f f f f f f f f f f f f f f f f f f g g g g g f f f k f f r r r r r q z - - - - ; ; ; ; - - - - - - - - - - - - - - - - - - ; ; - - ; ; ; ; ; ; ; ; ; ; ; ; ; & & & ; ; ; ; ; ; ; & & & & & & & & & & & & & & & & & & & : o o o o o o o o o o o o o o o : : & & & & & & & & & & : : & & & & & & & & & & & & : o o o O O o o o o o o o o o o o o & & : : : : & & : : & & & & & & & & & & ",
"$X@X$X@X$X$X$X$X$X$X$X$X$X$X$X$X$X$X$X$X$X$X$X$X$X$X$X$X,X,X$X$X-X-X$X$X-X-X2X2X2X2X,X,X,X,X2X2X2X2X2X2X2X2X2X2X2X2X2X2X2X2X2X2X2X2X2X2X2X2X2X2X2X2X2X2X2X2X2X2X2X2X2X2X2X2X2X2X3X3X3X3X2X2X2X2X2X2X2X2X3X3X2X2X2X2X2X2X2X2X0X5X0X0X0X0X0X0X0X0X0X0X0X0X0X0X0X0X0X0X0X0X0X0X5X5X5X5X5X5X5X5X5X5X0X0X0X5X5X5X5X0X5X5X5X5X2X2X2X2X5X5X5X5X5X5X5X5X5X5X5X5X5X5X5X5X5X5X5X5X<X*X2X2X$X@X!.R.I.g.>.=.} { I E U U U U I I { { | | { { } ..$.=.=.*.*.*.:.t.h.h.t.>.e.t.t.t.>.>.e.e.>.>.>.>.>.>.>.>.>.>.e.>.>.;.*.#.| U s a p p p p p p p p p p i y y y y y y w y U d y e y w w w e e w 4 y s s y w w 4 w g w w w e 4 p d y 4 4 4 w w w w w w 4 4 w e y e e w w e r t t e w w w w w w w w w w w w w t w r r w w t t q t q q t t t t t t t w w w r r i i i i i i i i i i i i f f f f f f f f f f f d d d d d f f d d l l f f f f f f f f l r r t w q - - ; ; ; ; - - - ; - - - - - - - - ; - ; ; ; ; - - ; ; ; ; ; ; ; ; ; ; ; ; ; ; & & ; ; ; ; ; ; - - & & & & & & & & & & & & & & & & & & o o o o o o o o o o o o o o o o o : & & & & & & & & & & & & & & & & : : : : & & : : o o o O O O o o o o o o o o o o o o & & : o : & & & : : & & & & & & & & & & ",
"$X@X$X$X$X$X$X$X$X$X$X$X$X$X$X$X$X$X$X$X$X$X$X$X$X$X$X$X,X,X$X$X-X-X$X$X-X2X2X2X2X2X,X,X,X,X2X2X2X2X2X2X2X2X2X2X2X2X2X2X2X2X2X2X2X2X2X2X2X2X2X2X2X2X2X2X2X2X2X2X2X2X2X2X2X2X2X2X3X3X3X3X2X2X2X2X2X2X2X2X3X3X2X2X2X2X2X2X2X2X0X0X5X0X0X0X0X0X0X3X0X0X0X0X0X0X0X0X0X0X0X0X0X0X5X5X5X5X5X5X5X5X5X5X0X0X0X5X5X5X0X0X5X5X5X5X2X2X2X2X5X5X5X5X5X5X5X5X5X5X5X5X5X5X5X5X5X5X5X<X,X%X$X%X~.W.U.L.;.*.#.{ E E I I I U I I I E { | | | | } ..#.*.*.:.:.:.>.>.>.>.t.h.t.>.:.>.>.>.>.>.>.>.>.>.>.>.>.>.>.>.>.>.;.*.=.} U s p y y y y i y p p p p p p p i y y y y i d s y y y y w w 4 w e y y p d y y e e y i y y 4 w w e 4 y y y 3 3 4 w w w w w 4 w w w 4 4 w e e w t i i e e e w w w w w w w w w w w w t w r r w q q q q q q q q q q q q q q q q q w w w w w w w w t t t t r r r r r r r r r r r r r r r r i i i i i i r r l l f f f k k k k k k k k f r q - - & & & - ; ; - - - - - - - - ; ; ; ; ; ; - - ; ; ; ; ; ; ; ; ; ; ; ; ; ; & & ; ; ; ; ; ; ; - ; ; & & & & & & & & & & & & & & & & o o o o o o o o o o o o o O o o o : & & & & & & & & & & & & & & & & : : : : & : : : o o o O O O o o o o o o o o o o o o & & : : : & & & : : & & & & & & & & & & ",
"@X@X@X@X$X$X@X@X$X$X$X$X$X$X$X$X$X$X$X$X$X$X$X$X$X$X$X$X-X-X$X$X-X$X$X$X2X2X,X,X,X,X,X,X2X2X2X2X2X2X2X,X,X,X2X2X2X2X2X2X2X2X2X,X2X2X2X2X2X2X,X,X2X2X2X2X2X2X2X2X2X2X2X2X2X2X2X2X2X2X2X2X2X2X2X2X2X2X2X2X2X2X2X2X3X3X2X2X0X5X0X0X5X2X2X2X0X0X0X3X0X0X0X0X3X0X0X0X0X0X0X0X0X0X5X5X5X5X5X5X5X5X5X5X0X0X0X0X0X5X5X5X5X5X5X5X5X2X2X2X2X2X5X5X5X5X5X5X5X5X5X5X5X5X5X5X5X5X,X,X$X$X@XW.U.g.e.=.#.| E E I U U U U I ] ] ] { { | } } #.$.$.=.*.:.:.:.>.>.>.>.>.>.t.h.t.:.:.>.>.>.>.>.e.>.>.>.>.>.>.>.:.:.:.=.} R D s p y y y y y i i i y i i i i i i y y y p d d d e e e y e w w w e y y y y e w w w y p y w w w w w 4 w w h 4 3 4 w w w w w w w e e 4 3 w t e w w i s y e e t w w w w w q q q q q w t t r r w q q q q q q q q q q q q q q q q q q q w q q q q q q q t t t t t t t t t t t r r t w w r r r r r r r r r r r r r r l f k k k k k j G j k i t q - - * * - ; ; ; - - - - - - ; ; - - - - - - ; ; ; ; ; ; ; ; - - - - - ; ; ; - - ; ; & & & & & & & & & & & & & & & & & & & & : o o o o o o o o o o o O O O O o o o o : & & & & & & & : : : : & & & & : : : : & & & & o o o O O O o o o o o o o o o o o o : : : : : : : : : : o : & & & & & & & & ",
"@X@X@X@X$X$X@X@X$X$X$X$X$X$X$X$X$X$X$X$X$X$X$X$X$X$X$X$X-X-X$X$X-X-X$X$X2X2X,X,X,X,X,X,X2X2X2X2X2X2X,X,X,X,X2X2X2X2X2X2X2X2X2X2X2X2X2X2X2X2X,X,X2X2X2X2X2X2X2X2X2X2X2X2X2X2X2X2X2X2X2X2X2X2X2X2X2X2X2X2X2X2X2X2X3X3X2X2X5X0X0X0X2X2X2X2X5X0X0X0X0X0X0X0X3X3X5X0X0X0X0X0X0X0X5X5X5X5X5X5X5X5X5X5X5X5X5X5X5X5X5X5X5X5X5X2X5X2X2X2X2X2X5X5X5X5X5X5X5X5X5X5X5X5X2X5X5X5X,X$X$X~.U.g.e.-.+.{ ] E U U U U U U U U { | | | | } #.$.=.=.=.*.:.:.:.:.:.:.>.>.>.>.>.>.e.e.>.>.>.>.>.>.e.e.e.e.e.e.e.>.:.-.#.{ V p y y y y y y y y i i i i i i i y y y p d s p i y e e e e y y y p p y w w w w w e w w y p y w w w w w 4 4 w 4 s 4 3 w w w w 4 e w w e w w w w w e y d d w w e e t e w w w q q q q w w w e r q < w w q q q q q q q q q q q q q q q q q q q q q q q q q q q t t t t w w w w t t t t w w w w w w w w t t t t t t t t r r l f f f f g j j j k k i r q - * * * ; ; - - - - - - ; ; - ; - - - - ; ; ; ; ; ; ; ; - - - - - - ; ; - - ; ; & & & & & & & & & & & & & & & & & & & & o o o o o o o o o o o o O O O O o o o o : & & & & & & & : : : : & & & & : : : : & & & & o o o O O O o o o o o o o o o o o o : : : : : : : : : : : : : : & & & & & & ",
"@X~.@X@X$X$X$X$X$X$X$X$X$X$X$X$X$X$X$X$X$X$X$X$X$X$X$X$X-X-X-X-X$X$X$X$X-X-X,X,X$X$X$X$X,X,X,X,X2X2X2X2X,X,X,X,X,X,X$X$X2X2X2X2X2X2X2X2X2X2X,X,X2X2X2X2X,X,X,X,X2X2X2X2X2X2X2X2X2X2X2X2X2X2X2X2X2X2X2X2X2X2X2X2X2X2X2X2X2X2X2X2X0X5X2X2X5X0X5X5X0X0X0X3X0X0X5X5X0X0X0X0X2X2X2X2X5X5X5X5X5X5X5X5X5X5X5X5X5X5X5X5X5X5X5X2X2X,X,X,X2X2X2X2X2X2X5X5X5X5X5X5X0X3X3X3X,X$X~.Q.R.L.t.-.#.| E I U U U U U U I I ] ] { { }  .#.#.$.$.=.=.*.:.:.:.:.:.>.>.>.>.>.>.>.:.>.e.>.>.>.>.>.>.e.e.>.>.>.>.>.:.*.#.R V y 7 y y y y y y y y i i i i i i y y y y p d p y e e e e e e y y y y w w y i y w e e w w y p y w 4 4 w w w 4 4 3 s w w w w 4 < g 3 w w w w w w w 4 w y e e w w e e e e w w w q q q q w w w e r < - q w q q q q q q q q q q q q q q q q q q q q q q q z q z z q q q q q q q q q q w w q q q q w w w w q q q q w w q w w t r r r l l f f k j j j g k r w < - - ; - - - - - - - ; ; ; ; ; ; - - ; ; ; ; ; ; ; ; ; ; ; ; - - - - - - - ; ; ; ; ; & & & & & & & & & & & & & & & : o o o o o o o o o O O o O O O O o o o o : : & & & & & & : : & & & & & : o o o o & & : : o o O O O O o o o o o o o o o o o o : : : : : : : : : : : : : : : : & & & & ",
"@X~.@X@X$X$X$X$X$X$X$X$X$X$X$X$X$X$X$X$X$X$X$X$X$X-X$X-X-X-X-X-X$X$X$X$X-X-X$X$X$X$X$X$X$X$X$X$X2X2X2X2X,X,X,X,X,X,X$X$X2X2X2X,X2X2X2X2X2X-X$X$X,X2X2X2X,X,X,X,X2X2X2X2X2X2X2X2X2X2X2X2X2X2X2X2X2X2X2X2X2X2X2X2X2X2X2X2X2X2X2X2X0X2X2X2X5X5X5X5X0X0X0X3X0X0X5X5X0X0X0X5X2X2X2X2X5X5X5X5X5X5X5X5X5X5X5X5X5X5X5X5X5X5X5X2X2X,X,X,X2X2X2X2X2X2X2X2X2X2X2X3X3X3X3X2X$X!.R.I.t.-.#.| { E I U U U U U U U I I ] { |  .#.=.=.=.=.*.*.*.*.:.:.,.:.:.>.>.>.>.>.>.>.>.>.:.>.>.>.>.e.>.>.:.:.:.:.:.*.=.} { U H a y y y y y y y y y i i i i d d p p p i y y y e e e e e e e y w w w w e e w w w w w w w y y e 4 4 w w w w 4 4 y 4 y w w 3 w = f w e w w w w w w 4 4 4 w y y e w w w e w t w q q q w w w t t w q q 3 q q q q q q q q q q q q q q q q q q q q q q q q z z z z z z z z q q q q q q q q q q q q q q q q q q q q q q q q q w w w t t r r r r f g k k j k f r w < - - - - - - - - & & & & & & & & ; ; ; ; ; ; ; ; ; ; ; ; - - - ; - - ; ; ; ; ; ; & & & & & & & & & & & & & & : o o o o o o o o o O O O O O O O O O o o o : : & & & & & & : & & & & & & : : o o o & : : : o o O O O O o o o o o o o o o o o o : : : : : : : : : : o o o o o o o o & & ",
"~.~.@X@X@X@X@X@X@X@X@X@X$X$X$X$X$X$X$X$X$X$X$X$X$X$X$X$X$X$X$X$X$X$X$X$X-X-X$X$X$X$X,X,X$X$X$X$X$X,X,X,X,X,X,X,X$X$X,X,X,X,X$X$X2X2X2X2X,X,X,X,X,X,X2X2X2X2X2X2X2X2X2X2X2X2X2X2X2X2X2X2X2X2X2X2X2X2X2X2X2X2X2X2X2X2X2X2X2X2X2X2X2X2X2X2X2X2X2X2X0X5X5X5X2X2X2X2X2X2X2X2X2X2X2X2X2X2X5X<X5X5X2X2X2X2X2X2X5X5X5X2X2X2X2X,X,X,X,X,X,X,X,X,X2X2X2X5X3X3X2X2X2X,X$X~.W.I.h.;.#.} { E I I I U U U I I ] ] { { | }  .#.*.*.*.*.*.*.:.:.:.:.:.,.>.:.>.>.>.>.>.>.>.>.>.>.>.>.>.e.>.>.:.:.:.:.:.*.$.{ R D I I U F I D s y s p 4 4 i d d s d d d d p y e e e e e e e e e e e w w w e e e e e e e w w w e e e 4 3 4 w 4 w 4 4 4 3 e e t 3 w = d w e q q w e w w 4 3 q w r i e w w w e t t t w w w w t w t t q q q q q q q q q q 3 3 q q q q q q q q q q q q q q q q 3 3 3 3 3 3 3 3 3 3 q z q q q q q q q q q q q q q q q q q q q q q q q q q w r r r r r l f k g g k f l r q - - ; ; ; - - - - ; ; & & & & ; ; ; ; ; & & & ; ; - - - - ; ; ; ; ; ; & & & & & & & & & & & & & & & & & : o o o o o o o o O O O O O O O O O O O o o o : : : : o : & & : : o : : : & & o o o o o o o o o o O O   O O o o o o o o o o o o o : : : : : : : : : : & & & & o o o o & & ",
"~.~.@X@X@X@X@X@X@X@X@X@X$X$X$X$X$X$X$X$X$X$X$X$X$X$X$X$X$X$X$X$X$X$X$X$X$X$X$X$X$X$X$X$X$X$X$X$X$X$X,X,X,X,X,X,X$X$X,X$X,X,X$X$X,X,X,X,X$X$X$X$X$X$X,X,X,X,X,X,X2X2X2X2X2X2X2X2X2X2X2X2X2X2X2X2X2X2X2X2X2X2X2X2X2X2X2X2X2X2X2X2X2X2X2X2X2X2X2X2X0X5X5X5X2X2X3X3X2X2X2X2X2X2X2X2X2X2X5X5X5X5X2X2X2X2X2X2X5X5X5X2X2X2X2X,X,X,X,X,X,X,X,X,X2X2X2X5X0X3X,X$X$X~.R.L.h.>.} | E I U U U U U U U U ] ] { { } } #.#.=.*.*.*.:.:.:.,.,.,.:.:.:.:.>.:.>.>.>.>.>.>.>.>.>.:.:.t.t.:.*.-.>.e.>.:.:.*.} D R y 4 y p a w y h U g g g h i i i i y y y e y y e e e e e e e e e w w i w y y e e e e w w w w w w e e w 3 3 3 3 3 3 3 3 w e i q q 3 w d 3 w q q q 3 q q 4 4 e 3 q d r w w w w e t t t w w w q q w w q q q q q q q q q q 3 3 q q q q q q 3 3 3 q q q 3 3 3 3 3 3 3 3 3 3 3 3 3 3 q 3 q q q q q q q q q q q q q q q q q q q q q q q q q q w w t r r r r r l f k k g f r q - ; ; & ; ; & ; ; ; & & & & ; ; ; ; ; & & & ; ; - - ; ; ; ; ; ; ; - & & & & & & & & & & & & & & & : & o o o o O O O O O O O O O O O O       O o o o : : : : : : : : : : : : : : & & o o o o o o o o o o O O   O O o o o o o o o o o o o : : : : : : : : : : o o o o o o o o : : ",
"~.~.@X@X@X@X@X@X$X$X@X@X$X$X$X$X$X$X$X$X$X$X$X$X$X$X$X$X$X$X$X$X$X$X$X$X$X$X$X$X$X$X$X$X$X$X$X$X$X$X$X$X,X,X,X,X$X,X,X,X,X$X$X$X,X,X,X,X$X$X$X,X$X$X$X$X,X,X,X,X2X2X-X2X2X2X2X2X2X2X2X2X2X2X2X2X-X-X2X2X2X2X2X2X2X2X2X2X2X2X2X2X2X2X2X2X2X2X2X2X0X3X5X5X5X5X3X3X2X2X2X2X2X2X2X2X2X2X,X5X5X5X2X2X5X5X2X2X5X5X5X5X2X2X2X,X,X,X,X,X,X,X,X,X5X5X2X2X,X$X~.W.R.L.>.*.#.| E U U U U U I I I I I ] { { }  .#.=.=.=.*.*.*.:.:.:.:.:.:.:.:.:.:.:.>.>.>.>.>.>.>.e.e.>.>.>.>.-.-.>.>.:.:.:.:.:.$.} [ } #.#.} | { I { ] D h U g y 4 w e w w w w w w e e e e e e e e e e w w w e g e w w w w w w w w w e p g g s d d d i i i e w 4 e i q r e e h e e w q 3 3 q w 4 4 e 3 < G w w w q w w t w w w w w q q q q q q q q q q q q q q 3 3 q q q q q q 3 3 3 3 q q 3 3 3 3 3 3 3 3 3 3 3 3 3 3 3 3 3 3 q q q q q q q q q q q q q q q q q q q q q q q q q q w w t r t t t r i f f k f r q - & & & ; & & ; ; & & & & ; ; ; ; ; ; & & ; - - - ; ; ; ; ; ; - - & & & & & & & & & & & & & & & & o o o o o O o o O O O O O O O O O       O O o o : : : : : : : : : : : : : o & & o o o o o o o o o o O O   O O o o o o o o o o o o o : : : : : : : : : & o o o o o o o o : : ",
"~.~.~.~.@X@X~.~.@X@X@X@X@X@X$X$X$X$X$X$X$X$X$X$X$X$X$X$X$X$X$X$X$X$X$X$X$X$X$X$X$X$X$X$X,X$X$X$X$X$X$X$X$X$X$X$X$X$X$X$X$X$X$X$X$X$X$X$X$X$X$X$X$X$X$X$X$X$X,X,X-X-X$X$X$X$X$X$X2X2X2X2X2X2X2X2X-X2X2X2X2X2X2X2X2X2X2X2X2X2X2X2X2X2X2X2X2X2X2X2X2X2X2X2X2X2X2X2X2X2X2X2X2X2X2X2X2X2X,X5X5X5X2X2X5X5X5X2X5X5X5X5X2X2X2X,X,X,X,X,X,X,X<X<X5X5X2X,X$XE.R.I.>.;. .{ ] E I U U U U U I I ] ] ] { | }  .#.=.=.*.*.*.*.*.:.:.:.:.:.:.:.:.:.:.:.>.>.>.>.>.>.>.e.e.>.>.;.:.:.:.:.:.:.:.:.:.$.#.{ I B { I 4 y y y s h I { U U h h w w w w w w e w w y e w e y e w w w w 4 y s p w 4 w w w w y w s G h s y i i 3 w w w w w w w w w t i e g e h i g f r t 3 3 q 3 3 w w < h w 3 w q 3 q q q w w q 3 3 3 3 3 q q q q q q q q q q 3 3 3 q q q 3 3 3 3 3 3 q q 3 3 3 3 3 3 3 3 3 3 3 3 3 3 3 3 3 3 3 3 q q q z q q q q q q q q q q q q q q q q q q q q q q w w q w w w r r i f f f r q - & & & & & & & & & & & ; ; ; ; ; ; & & ; ; - - ; ; ; ; & & - - ; & & & & & & & & & & & & & & o o o o o o o o O O O O O O O O O O       O O o o o o : : o o : : : : : : o o & & o o o o o o o o o o O O   O O o o o o o o o o o o o : : : : : o o o o o o o o o o o o o o o ",
"~.~.~.~.@X@X@X@X@X@X@X@X$X$X$X$X$X$X@X@X$X$X$X$X$X$X$X$X$X$X$X$X$X$X$X$X$X$X$X$X$X$X$X$X$X$X$X$X$X$X$X$X$X$X$X$X$X$X$X$X$X$X$X$X$X$X$X$X$X$X$X$X$X$X$X$X$X$X$X$X$X$X$X$X-X-X-X$X2X2X2X2X2X2X,X,X$X$X,X,X2X2X,X,X2X2X,X,X2X2X2X2X2X2X2X2X2X2X2X2X2X2X2X2X2X2X2X2X5X5X5X5X5X5X2X2X2X2X2X2X2X2X2X2X2X2X2X2X2X2X2X2X,X,X,X,X,X,X,X,X,X<X<X<X,X$X@XQ.R.L.t.=.} | { U U U U U U U I I ] ] { { | }  .#.$.=.*.*.*.*.:.:.:.:.:.:.:.:.>.>.:.:.:.:.:.:.:.:.>.>.>.>.>.>.;.;.:.>.>.:.:.:.:.:.$.[ R F G U U ] D s w s d y e e g h h g w w w w e e y w w y y w y y e 4 w w e y y p e w w w 4 4 y g ] g p s p y e d h e w 4 3 4 w 4 w 3 3 i 3 w w s w i i w e 3 3 3 3 3 3 w < i r 3 w 3 3 q 3 w w w q 3 3 3 3 3 q q q q 3 3 q q 3 3 3 q q q q q < < < < < < < < < < z z z z z z 3 3 3 3 q q q q q q q q q q z z q q q q z z z z z z q q q q q q q q q q q q q q q q w w w t r r f f f t - - ; & ; & & & & & ; ; & & ; ; ; - ; ; ; ; ; ; ; ; ; ; & & & & & & & & & & & & & & & & : : o o o o o o o O O O O O O O O O O           O O o o o o o o : : & & o o o o o o o o o o o o o o o o o o O O   O o o o o o o o o o o o o : : o o o o o o o o o o o o o o o o o o ",
"~.~.~.~.@X@X@X~.~.~.@X@X@X@X@X@X$X$X@X@X$X$X$X$X$X$X$X$X$X$X$X$X$X$X$X$X$X$X$X$X$X$X$X$X$X$X$X$X$X$X$X$X$X$X$X$X$X$X$X$X$X$X$X$X$X$X$X$X$X$X$X$X$X$X$X$X$X$X$X$X$X$X$X$X-X-X$X$X$X$X$X$X,X,X$X$X$X$X,X,X2X2X,X,X2X2X,X,X2X2X2X2X,X,X,X,X2X2X2X2X2X2X2X2X,X,X2X2X2X2X5X5X5X5X2X2X2X2X2X2X2X2X2X2X2X2X2X2X2X2X2X2X,X,X,X,X,X,X5X5X5X<X,X%X&X~.R.L.h.;.#.| { I U U U U U U U I ] { { | } #.#.$.=.=.*.*.:.:.:.:.:.:.:.:.:.:.:.:.:.:.:.:.:.:.:.:.:.:.:.:.:.:.-.-.-.-.-.:.:.:.:.:.:.=.D I a s g g s s I U { s d w y U g d i i y e w w e e y e w 4 w p i 4 3 e i g d w w w w w p 4 w ] X.p < < y 4 4 w 4 d = e y 3 3 4 4 4 3 3 3 e 3 3 4 d < 4 e w w 3 3 3 3 3 3 q 3 i d 3 < < 3 3 3 w w w 3 3 3 3 3 3 q q 3 3 3 3 q q 3 3 3 3 < < < < < < < < < < < < < < z z z z z z z 3 3 q q q q q z z z z z z < < < < < z z z z z < < z z z z z z z z z z < < < < 3 q q q w w t t r f f f r q - ; ; ; & & & & ; ; & & ; ; - - ; ; ; ; ; ; ; ; ; ; & & & & & & & & & & & & : : o o o o o o o o o o o O O O O O O O O O             O O O o o o o o o o & & o o o o o o o o o o o o o o o o o o O O   O o o o o o o o o o o o o : : o o o o o o o o o o o o o o o o o o ",
"~.~.~.~.~.~.~.~.~.~.~.~.@X@X@X@X$X$X$X$X$X$X$X$X$X$X$X$X$X$X$X$X$X$X$X$X$X$X$X$X$X$X$X$X$X$X$X$X$X$X$X$X$X$X$X$X$X$X$X$X$X$X$X$X$X$X$X$X$X$X$X$X$X$X$X$X$X$X$X$X$X$X$X$X-X-X-X-X-X-X$X-X,X,X,X,X$X$X$X$X,X,X,X,X2X2X,X,X2X2X2X2X2X2X,X,X2X2X2X2X2X2X2X2X,X,X2X2X2X2X5X5X5X5X2X2X2X2X2X2X2X2X2X2X2X2X2X2X2X2X2X2X,X,X,X,X,X,X,X,X,X$X~.Q.U.L.h.>.#.| I E I U U U U U U U ] ] { | }  .$.$.=.*.:.:.:.:.>.>.>.>.>.>.>.>.>.>.>.:.:.:.:.:.:.:.:.:.:.:.:.:.-.-.*.*.-.-.-.-.-.-.*.*.$.{ F D y a s d y w U | G D G s d d e e y e e e w e e e e e e w y s s d d G U h h G D D s d G } h U G g y y y 4 3 3 4 i g e e 4 3 4 4 3 3 3 3 w 3 w w g 3 3 e e 3 3 3 3 3 3 3 3 w w i e < 3 3 3 3 w w w 3 3 3 3 3 3 q q < 3 3 3 q q 3 < < < < < < < < < 3 3 3 < < < < < z z z z z z 3 3 q q z q q q z z z z z < < < < < z z z z z z < < < < < < z z z z z z < < < < < < 3 3 q q w w t r f f l r q - ; ; ; & & & ; - & & - - - - - - ; ; ; ; ; ; ; ; & & & & & & & & & & & & o o o o o o o o o o O O O O O O O O O O O O               O O o o o o o o o & & o o o o o o o o o o o o o o o o o o O O   O o o o o o o o o o o o o o o o o o o o o o o o o o o o o o o o o ",
"~.~.~.~.~.~.~.~.~.~.~.~.@X@X@X@X$X$X$X$X$X$X$X$X$X$X$X$X$X$X$X$X$X$X$X$X$X$X$X$X$X$X&X&X$X$X$X$X$X$X$X$X$X$X$X$X$X$X$X$X$X$X$X$X$X$X$X$X$X$X$X$X$X$X$X$X$X$X$X$X-X$X$X$X-X-X-X-X-X-X-X-X,X,X,X,X$X$X$X$X$X$X$X$X,X,X,X,X2X2X2X2X2X2X,X,X,X,X2X2X2X2X2X2X,X,X2X2X2X2X5X5X5X5X2X2X2X2X2X2X2X2X2X2X2X2X2X2X2X2X2X,X,X,X,X,X,X,X,X,X@XQ.R.U.e.;.#.} { E U U U U U U U I I E { X.}  .#.=.*.*.:.:.:.>.>.>.>.t.t.t.>.>.>.>.>.:.:.:.:.:.:.:.:.*.*.*.*.*.-.-.*.*.*.-.;.;.-.*.*.*.*.$.| { I s s s p y s d G y y y e U U d w w e w e e w e e e y w w i g g s 4 w G G g h g d s D D s 3 3 4 w y G G s d y w 4 4 s i e 4 3 4 4 4 w w w 3 4 3 i h 3 3 e r 3 3 3 3 3 3 3 3 3 < 3 g q 3 3 3 3 q w w 3 3 3 3 3 3 q q < < 3 3 q q 3 3 < < < < < < < < 3 3 3 3 < < < < z z z z z z z z z z < < < < < < < < < < < < < < z z z z z z < < < < < < < z z z z z < < < < < < < < 3 q q q w t r d f f r q - ; & & & & - - & & - - - - - - ; ; ; ; ; ; ; ; & & & & & & & & & & : o o o o o o o O O O O O O O O O O O O O O O O               O O O o o o o o o o o o o o o o o o o o o o o o o o o o o O O   O o o o o o o o o o o o o o o o o o o o o o o o o o o o o o o o o ",
"~.~.~.~.~.~.~.~.~.~.@X@X~.~.~.~.@X@X@X@X$X$X$X$X@X@X@X@X$X$X$X$X$X$X$X$X$X$X$X$X$X$X$X$X$X$X$X$X$X$X$X$X$X$X$X$X$X$X$X$X%X$X%X%X$X$X$X$X$X$X$X$X$X$X$X$X$X$X$X$X$X$X$X$X$X$X$X$X$X$X$X$X$X$X$X$X$X$X$X$X$X$X$X$X$X$X$X$X-X-X-X-X,X,X,X,X,X,X,X,X2X2X2X2X,X,X,X,X,X,X2X2X2X2X2X2X,X,X,X,X2X2X2X2X,X<X,X,X<X<X,X,X,X,X,X2X2X$X$X~.E.I.h.>.=.} E I U I I U U U U I ] { { | }  .#.=.*.*.:.:.:.:.>.>.>.>.>.t.t.t.>.>.>.>.>.:.:.:.:.-.:.:.:.*.*.=.*.*.*.*.*.*.*.*.-.-.-.*.*.*.$.#.I I h p s d y y s d G y d y D d y s y y y y y y y y y e e e y d i w i U U G g d w s h s s g y y 4 4 w y y w y h D w 3 w w d d 3 3 4 3 3 w w w 3 w 3 d g 3 3 e e 3 < < 3 3 3 3 3 q 3 = g w 3 3 3 3 3 q q 3 3 3 3 3 3 < < < < q q q q < < < < - - - - < < < < < < < < < < < - < < < < < < < < < < < < < < < < < < < < z z z z z z z z z z z z z z z z < < < < < < < < < < - - z z 3 q q q t r f f f r q - & & & & ; ; ; ; - - - - - - ; ; ; ; & & & & & & & & & & & & : o : o o o o o o o O O O O O O O O O O O O O O O O O               O O O o o o o o o o o o o o o o o o o o o o o o o o o o O       O o o o o o o o o o : : o o o o o o o o o o o o o o o o o o o o ",
"~.~.~.~.~.~.~.~.~.@X@X@X~.~.~.~.@X@X@X@X$X$X$X$X@X@X@X@X$X$X$X$X@X@X@X@X$X$X$X$X$X$X$X&X$X$X$X$X$X$X$X$X$X$X$X$X$X$X$X$X%X%X%X%X$X$X$X$X$X$X$X$X$X$X$X$X$X$X$X$X$X$X$X$X$X$X$X$X$X$X$X$X$X$X$X$X$X$X$X$X$X$X$X$X$X$X$X$X$X-X-X-X$X$X,X,X,X,X,X,X,X2X2X2X,X,X,X,X,X,X2X2X2X2X2X2X,X,X,X,X2X2X2X2X<X,X,X,X<X<X,X,X,X,X,X,X$X~.R.I.h.>.=.} E I U U U U I U U U I I { | }  .#.$.*.*.:.:.:.:.:.:.>.>.>.>.>.>.>.>.>.>.:.:.:.:.:.-.*.*.:.:.:.*.*.=.*.*.*.*.*.*.*.*.*.*.*.*.*.*.$.} H a p p d y p s y s y G d y h d y y y y y y y y y y y w w y y y d G G h G y w p h g p w 4 3 4 y d y w d d w 4 , 3 y G i 3 h s 3 3 3 3 3 3 3 4 y 3 w d g < 3 w w w < < 3 3 3 3 3 3 < < i e q 3 3 3 3 3 3 q 3 < < < < < < < < q q q q < < < < - - < < < < < < < < < < - < < < < < < < < < < < - - - - - - < < - - - - - - z z z z z z z z z z - - z z - - < < - - - - - - - - z - z z 3 q q w r r f f r q - & & ; ; ; ; ; - - - - - - ; ; ; ; & & & & & & & & & & & & o o o o o o o o o o O O O O O O O O O O O O O O O O O               O O O o o o o o o o o o o o o o o o o o o o o o o o o o O       O o o o o o o o o o : : o o o o o o o o o o o o o o o o o o o o ",
"~.!.~.~.~.~.~.~.~.~.~.~.~.~.~.~.~.~.~.~.@X@X@X@X@X@X@X@X$X$X$X$X@X@X@X@X@X@X$X$X$X$X$X$X&X&X&X&X$X$X$X$X$X$X$X$X$X$X$X$X%X%X$X$X$X$X$X$X$X$X$X$X$X$X$X$X$X$X$X$X$X$X$X$X$X$X$X$X$X$X$X$X$X$X$X$X$X$X$X$X$X$X$X$X$X$X$X$X$X$X$X$X$X$X$X$X$X$X,X,X,X,X2X2X,X,X,X,X,X,X2X2X2X2X2X2X,X,X,X,X2X2X2X2X<X,X,X,X,X,X<X,X,X$X~.~.R.I.h.:.=.} { I U U U U U U I U I I { | } #.#.=.*.:.:.,.,.,.:.:.:.:.,.>.,.:.>.>.>.>.:.:.:.:.-.-.*.*.*.*.*.*.*.*.*.*.*.*.*.*.*.*.*.*.*.*.*.*.*.*.#.{ D a y p d y d s y s d d w G d d y 4 y y y y y y y y e w y s h G h i 4 e w U ] p 4 w y w 4 4 4 3 y h w s , 4 3 4 4 4 w U h 4 ] = = 4 4 3 3 3 3 < e 4 y d = 3 3 3 w 3 < 3 3 3 3 3 3 3 3 3 d w 3 3 3 3 3 3 q 3 < < < < < < < < < < < < < < 3 3 < < < < - - - - < < - - - - - - < < < < < < < < < - - - - - - - - - - - - - - - - - - - z z - - - - - - - - - - - - - - - - - - - - - - z z q q w t r l r r q - & ; ; ; ; ; ; ; - ; ; ; & & & & & & & & & & & & & : : : o o o o o o o o o o O O O O O O O O O O O O O O O O O                   O O o o o o o o o o o o o o o o o o o o o o o o o o O       O o o o o o o o o o : : : : o o o o o o o o o o o o o o o o o o ",
"~.!.~.~.~.~.~.~.~.~.~.~.@X~.~.~.~.~.~.~.@X@X@X@X@X@X@X@X$X$X@X$X@X@X@X@X@X@X$X$X$X$X$X$X&X&X&X&X$X$X$X$X$X$X$X$X$X$X$X$X%X$X$X$X$X$X$X$X$X$X$X$X$X$X$X$X$X$X$X$X$X$X$X$X$X$X$X$X$X$X$X$X$X$X$X$X$X$X$X$X$X$X$X$X$X$X$X$X$X$X-X-X$X$X$X$X$X$X,X,X,X,X2X2X,X,X,X,X,X,X2X2X2X2X2X2X,X,X,X,X2X2X2X2X,X,X,X,X,X,X,X,X&X~.W.R.h.>.=.} { E I U U U U U U U I I I { { } #.=.*.*.:.:.>.>.>.>.>.>.,.>.>.>.:.:.:.:.>.:.:.*.:.:.-.-.-.*.*.*.*.*.*.*.*.*.*.*.*.*.*.*.*.*.=.=.*.*.*.=.+.R [ D d p y y d y s y y w U d w y y 4 y y p p d y y 4 e y s g d y w 4 e G ] G p y y i y w 4 4 4 w y s ] p y y y w y d g G h U } U G d y e w 3 3 3 < 4 d h 3 3 < 3 w q 3 3 3 3 3 3 3 3 3 = g q 3 3 3 3 3 3 w 3 < < < < < < < < 3 3 < < < < 3 3 < < < < - - - - - - - - - - - - < < < - - - < < < - - - - - - - - - - - - - - - - - - - - - - - - - - - - - - - - - - - - - - - - - - - - - 3 3 q w w r r r r z - - ; ; ; ; ; ; - ; ; ; & & & & & & & & & & & & & & : o o o o o o o o o o o O O O O O O O O O O O O O O O O O                   O O O O o o o o o o o o o o o o o o o o o o o o o o O       O O o o o o o o o o : : o : o o o o o o o o o o o o o o o o o o ",
"!.!.!.!.~.~.~.~.~.~.~.~.~.~.~.@X@X@X@X@X@X@X@X@X@X@X@X@X$X$X@X@X@X@X@X@X$X$X@X@X@X$X$X$X$X$X$X$X$X$X$X$X$X$X$X$X%X%X$X$X%X%X$X$X%X%X$X$X$X%X%X%X$X$X%X%X%X%X$X$X$X$X$X$X$X$X$X$X$X$X$X$X$X$X$X$X$X$X$X$X$X$X$X$X$X$X$X$X$X$X%X%X$X$X,X,X,X,X,X$X,X,X,X,X,X,X,X,X,X,X,X,X,X,X,X,X,X,X,X,X2X%X%X$X,X,X,X$X$X%X@XE.R.I.h.:.=.} E I I I U U U U U U U I ] { | } ..#.*.*.*.*.:.:.>.>.>.>.>.>.>.>.>.>.:.:.:.:.:.:.-.-.:.-.:.-.*.*.:.-.-.-.-.-.*.*.*.*.*.*.*.*.*.*.*.*.*.*.*.#.[ U B s D s y y s y g y y y I y y y y w y y y p s s s y y p p y w p g G s y 4 y p y y 4 4 4 y y y y s s U s y y y 4 y s , 3 G < G U 4 < < 4 y y 4 4 < 4 p G y 4 , 4 w 4 3 3 3 < < < < < q = g 3 3 3 3 3 3 3 w < < < < < < < < < < < 3 3 3 3 3 < < < < - - - - - - - - - - - - - - - - - < < < - - - < < - - - - - - - - - - - - - - - - - - - - - - - - - - - - - - - - - - - - - - - - < < < < q q q < < w r q < - ; ; ; ; - ; ; ; ; ; & & & & & & & & & & & & : : & o o o o o o o O o O O O O O O O O O O O O O O O O                         O O O O o o o o o o o o o o o o o o o o o o o o o O O     O O O o o o o o o o o o o o o : o o o o o o o o o o o o o o o o o ",
"!.!.!.!.~.~.~.~.~.~.~.~.~.~.@X@X@X@X@X@X@X@X@X@X@X@X@X@X$X$X@X@X@X@X@X@X$X$X$X$X@X@X$X$X$X$X$X$X$X$X$X$X$X$X$X$X%X%X$X$X%X%X%X%X%X%X%X$X$X%X%X%X%X$X%X%X$X$X$X$X$X$X$X$X$X$X$X$X$X$X$X$X$X$X$X$X$X$X$X$X$X$X$X$X$X$X$X$X$X$X%X%X$X$X,X,X,X,X,X$X,X,X,X,X,X,X,X,X,X,X,X,X,X,X,X,X,X,X,X,X2X2X2X2X,X,X%X$X&X~.R.I.h.>.#.[ E E U U U U U U U U U U ] ] { } ..#.*.*.*.*.*.*.:.:.:.>.>.>.>.>.>.>.>.:.:.:.:.:.-.-.-.-.:.:.:.-.*.*.-.*.-.-.-.-.*.*.*.*.*.*.*.*.*.*.*.=.*.*.=.} { D s s D a y y d y s y p ] s y y y y y y y y 4 y s D D p y y y D g p 4 p p y w w y p g U U G s y s s y y s s 4 4 y 4 y w < e { < w g s y w 3 4 w w w w y d y e 4 4 4 4 4 3 3 < < < < 4 3 < i w 3 3 3 3 3 3 w < - < < < < 3 < < < < 3 3 3 3 < < < < - - - - - - - - - - - - - - - - - - < < < - - - < - - - - - - - - - - - - - - - - - - - - - - - - - - - - - - - - - - - - - - - - - < < < < 3 q 3 - & - q w w < - ; ; ; - ; ; ; ; ; & & & & & & & & & & & & : : & o o o o o o o O o O O O O O O O O O O O O O O O O                         O O O O o O o o o o o o o o o o o o o o o o o o o O       O O O o o o o o o o : o o : o : : o o o o o o o o o o o o o o o o ",
"E.E.E.E.!.!.~.~.~.~.~.~.~.~.~.~.~.~.~.~.@X@X@X@X@X~.~.~.@X@X@X@X@X@X@X@X@X@X@X@X@X@X$X$X$X$X$X$X$X$X$X$X&X&X&X&X$X$X$X$X%X$X$X%X%X%X$X$X$X$X%X%X$X$X%X%X$X$X$X$X$X$X$X$X$X$X$X$X$X$X$X$X$X$X$X$X$X$X$X$X$X$X$X$X$X$X$X$X$X$X$X$X$X$X$X$X$X$X,X,X2X,X,X,X,X,X,X,X,X,X,X,X,X,X,X,X,X,X,X,X2X2X2X2X$X$X@X!.R.L.h.>.$.} R I U U U U U U I I I I ] ] { | }  .=.*.*.*.*.*.*.:.:.:.:.:.:.:.:.:.:.:.:.:.:.:.-.:.:.:.-.-.:.:.:.:.*.*.*.*.*.*.-.-.*.*.*.*.*.*.*.*.*.*.*.*.*.*.#.{ U H s s s s p p d s y g D p y s s y y y y y y y y U D 4 y y p p y y p y y y s s D U I U G s s s s s p s s p y w y 4 y 4 y 3 < } 4 w p e p e 4 < 3 4 w w G 4 w g < 3 4 4 4 3 3 < < < < < 3 < r w 3 3 3 3 3 3 e < < < < < 3 3 < < - - - < < < < - < < - - - - - - - - - - - - - - < < - - < < < < - - - - - - - - - - - - - - - - - - - - - - - - - - - - - - - - - - - - - - - - - - - - < < < < q q - - - = - w r q < - ; ; ; ; & & & & & & & & & & & & & & : : o o o o o o o o o o O O O O O O O O O O O O O O                                   O O O O O O o o o o o o o o o o o o o o o o o O O   O O O O O O o o o o o o o o o : : o : o o o o o o o o o o o o o o o o ",
"E.E.E.E.E.E.!.!.~.~.~.~.~.~.~.~.~.~.~.~.~.~.~.@X~.~.~.~.~.~.~.@X@X@X~.~.~.~.~.~.~.~.~.~.$X$X$X$X$X$X$X$X&X&X&X&X$X$X$X$X%X%X$X$X%X%X$X$X$X$X%X%X$X$X%X%X%X%X$X$X$X$X$X$X$X$X$X$X$X$X$X$X$X$X$X&X$X$X$X$X$X$X$X$X$X$X$X$X$X$X$X$X$X$X$X$X$X,X,X,X2X2X,X,X,X,X,X,X,X,X,X,X,X,X,X,X,X,X,X2X2X2X2X-X@X!.W.U.g.>.=.} { R I U U U U U U U U I ] ] { { }  ...=.*.*.*.*.*.*.*.*.:.:.:.:.:.:.:.:.:.:.:.:.-.:.:.:.:.-.-.-.:.:.:.-.*.*.*.*.*.*.*.-.*.*.*.*.*.*.*.*.*.-.=.*.*.=.} R B H D s y s s s y g y s s y y s s y p s s s s s s s s s s p p p y y w w y y s D U D h s p s s s p y 4 4 4 s s s p y 4 4 4 4 w i p < , d 4 w y y w 4 3 4 { < < s 3 < 4 4 4 3 3 < < < < < 3 q w w 3 3 < < < < e < - < < < < < < < - - < < - - - - < - < - - - - - - - - - - - - - < - - - < < < - - - - - - - - - - - - - - - - - - - - - - - - - - - - - - - - - - - - - - - - - - - - - - - 3 < q q q 3 < = * < w w q < - ; & & & & & & & & & & & & & & & & : : o o o o o o o o o o O O O O O O O O O O O O O O                                   O O O O O O o o o o o o o o o o o o o o o o O O     O O O O   O O o o o o o o o o : : o o o o o o o o o o o o o o o o o o ",
"!.!.!.!.!.!.!.!.!.!.~.~.~.~.~.~.~.~.~.~.~.~.@X@X@X@X@X@X~.~.~.~.~.@X@X~.@X@X@X@X~.~.@X@X@X@X@X@X@X@X@X$X&X&X&X&X$X$X$X$X%X%X%X%X$X$X$X$X$X$X%X$X$X$X$X$X$X$X&X&X$X$X@X@X$X$X$X$X$X$X$X$X$X$X$X$X$X$X$X$X$X$X$X$X$X$X$X$X$X$X%X%X$X$X$X$X$X$X$X,X$X$X$X$X,X,X,X,X,X,X,X,X,X,X2X,X$X$X,X,X$X$X~.~.E.U.g.>.=.} { { { I I U U U U U U U ] { { | } }  .#.=.*.*.*.*.*.:.*.:.:.:.*.:.:.:.:.:.:.-.-.:.:.:.:.-.-.:.:.:.:.-.-.-.-.-.*.*.*.*.*.*.*.*.*.*.*.*.*.*.*.*.:.$.*.:.=.} I B D s U y p g g y g s y y y y s s y s B D H a H B y s y s D H s y y y y p | F U F D s y y p s p y y y 1 4 y s s s s y w w 4 H 4 U , < p w 4 y s y 4 w , { s 1 y w < 3 4 4 4 < < < < < 4 3 w w w 3 < < < < - e 3 - < < < < < < < < - - - - - - < < < - - - - - - - - - - - - - - - - - - - - - - < < - - - - - - - = = * - - - - ; ; ; ; ; ; - - - - ; ; - - - - - - - - - - - - - - - - - - < < 3 3 3 q < - * - q w q < - ; & & & & & & & & & & & & : : o o o o o o o o o o o o o o O O o o O O O O O O O O O O                                   O O O O O O O o o o o o o o o O O O O O O O O O O O O O   O O O O O O o o o o o o o o o o o o o o o o o o o o o o o o o o ",
"E.!.!.E.!.!.E.E.E.E.!.~.~.~.~.~.~.~.~.~.~.~.~.~.~.~.~.~.~.~.~.~.~.~.~.~.~.~.~.~.~.~.~.~.@X@X@X@X@X@X@X$X&X&X$X&X$X$X$X$X%X%X%X%X$X$X$X$X$X$X%X%X$X$X$X$X&X&X&X&X$X$X@X@X$X$X$X$X$X$X$X$X$X$X%X%X$X$X$X$X$X$X$X$X$X$X$X$X$X%X%X%X$X$X$X$X$X$X$X$X$X$X$X$X,X,X,X,X,X,X,X,X,X,X2X2X2X,X$X$X@X!.R.U.L.e.=.#.{ { I U ] U U U U U U U U ] { }  . ...#.=.=.*.*.*.*.*.*.:.*.:.:.:.:.:.:.:.:.:.-.-.-.-.-.:.-.:.:.:.:.:.:.:.-.-.*.*.*.*.*.*.*.*.*.*.*.*.*.*.*.*.*.*.:.=.-.*.=.[ F a a y U y s g g U U g y y y y p a s p s a B a U I I } [ D I I H D D D D U D a p p p p p p p y y y y p p y 4 H s p g D s y 4 , y p s y 4 y y y y s s 4 w p U w 1 y 4 < 4 4 4 < < < < < < < w e w 3 < < < < = i 3 - < < < < < < < < - < - - = - - - < = = - - - - - - - - - - - - - - - - - - - - < < - - - - - - - = = = ; - - - ; ; ; ; ; ; - - - ; ; ; - - ; ; - ; ; ; ; ; ; - - - - - - - < < 3 3 3 3 3 < - - - q q q - & & & & & & & & & & & & : o o o o o o o o o o o o o o o o O O o o O O O O O O O O O O                                   O O O O O O o o o o o o o o o O O O O O O O O O O O O O   O O O O O O O O o o o o o o o o o o o o o O o o o o o o o o o o ",
"E.E.E.E.!.!.E.E.E.E.!.!.~.~.~.~.~.~.~.~.~.~.~.~.~.~.~.~.~.~.~.~.~.~.~.~.~.~.@X@X~.~.~.~.@X@X@X@X@X@X$X$X$X$X$X$X$X$X$X$X$X$X%X%X$X$X$X$X$X$X$X$X$X$X$X$X$X&X$X$X$X$X@X@X$X$X&X&X$X$X$X$X%X$X%X%X$X$X$X$X$X$X$X$X$X$X$X$X$X$X%X%X$X$X$X$X$X$X$X$X$X,X$X$X,X,X,X,X,X,X,X,X,X,X2X2X$X$X~.~.W.U.h.>.*.#.{ E I I U U ] ] U U U U U ] ] { }  .#.#.=.=.=.*.*.*.*.*.:.:.:.:.:.:.:.:.:.:.:.:.:.-.-.-.-.-.:.:.:.-.:.-.:.:.-.-.-.*.*.*.*.*.*.*.*.*.*.*.*.*.*.*.*.*.-.-.*.-.=.#.{ D s s y U s s s d D g g U { { U D B B U I { } I G s y B a s D D s p D { | V V B B y y y y y p y y y y p y p p s p y w y G H 4 4 4 w G y < y p y w s p 4 g y y y w w w < 4 4 4 < < < < < < < 4 e e 4 < < < , = i 3 < 3 3 3 < < < < < - - - - - - - < < = = - - - - - - - - - - - - - - - - - - - < < < - - - - - - - = = = * * = = - ; ; ; ; ; ; ; - ; - - ; ; ; ; - - - ; ; ; - - - - - - - - < < 3 3 3 3 3 3 - = - 3 q q - & & & & & & & & & & & & & o o : o o o o o o o o o o o o o o o o o o o O O O O O O O O                                   O O O O O O o o o o o o o o o O O O O O O O O O O O O O   O O O O O O O o o o o o o o o o o o o o o O o o o o o o o o o o ",
"W.W.E.E.E.E.E.E.E.E.E.E.E.!.!.!.~.~.~.~.~.~.~.~.~.~.~.~.~.~.~.~.~.~.~.~.~.~.@X@X~.~.~.@X@X@X@X@X@X@X$X$X$X$X$X$X$X$X$X$X$X$X%X%X$X$X$X$X$X$X$X$X$X$X$X$X$X$X$X$X$X$X@X@X$X$X&X&X$X$X$X$X$X$X%X%X%X%X%X%X%X%X%X%X%X$X$X$X$X$X%X%X$X$X$X$X$X$X$X$X,X,X$X$X,X,X,X,X,X,X,X,X,X,X2X,X$X!.W.U.P.h.*.} { { { I U U U U U U U U U ] ] ] { }  .#.=.=.=.*.*.*.*.*.*.*.:.:.:.:.:.:.:.:.:.:.:.:.:.-.-.*.-.-.:.:.-.-.*.*.*.*.-.-.-.*.*.*.*.*.*.*.*.*.*.=.*.*.*.*.*.-.*.*.:.*.$.#.E D p s y D g s s y U p 7 y s s D D I I R I I { { { R I I s D U U D D H V V I #.B y | { F D s a s p p p s p s G y y 4 y y 4 H { y y p G < y y y w w y * p ] < s 4 w w y < 3 4 < < < < < < < < 3 y e 3 < < < < = i 3 = 3 3 3 < < < < < - - - - - - - = = = = - - - - - - - - - - - - - - - - - - - < < < - - - - - - - = = = * * = = - ; ; ; - - ; ; ; ; - - ; ; ; ; - - - ; ; ; - - - - - - - - < < 3 3 3 3 3 q - - - < q q - & & & & & & & & & & & & & o o : o o o o o o o o o o o o o o o o o O O O O O O O O O O                                   O O O O O O O O O O O O O o o O O O O O O O O O                   O O O o o o o o o o o o o o o o o o o o o o o o o o o o ",
"W.W.W.W.!.!.!.!.!.!.E.E.!.E.E.E.~.!.!.!.~.~.~.~.~.~.~.~.~.~.~.~.~.~.~.~.~.~.~.~.~.~.~.~.@X~.@X@X@X@X$X$X$X$X$X$X$X$X$X$X$X$X$X$X&X&X$X$X$X$X$X$X$X$X$X$X$X$X$X$X$X$X$X$X$X$X$X$X$X$X$X$X$X$X$X$X%X%X%X%X%X%X%X%X%X%X%X%X%X%X%X%X$X$X$X$X$X$X$X$X$X$X$X$X,X,X$X$X$X,X,X,X$X$X$XE.R.U.g.e.*.#.{ E I U U U U U U U U U U I ] { { { } #.#.$.=.=.=.=.=.=.*.*.*.*.:.:.:.:.:.:.:.:.:.:.-.-.:.-.-.-.:.:.:.:.-.:.-.-.-.-.-.-.-.*.*.*.*.*.*.=.=.*.=.#.*.*.-.-.-.-.*.-.>.=.*.| G H y y s s p D D s y s D D I R H D I I I F D I I R R a E F I D D I F V u F B P } :.R V V a a s a p a B B F I R p a y y y 5 4 p G G s y s 1 p 4 w p 1 4 y s , g < , w y 4 4 < < < < < 3 3 < < w d w < < < < < < w < , < < , < < < < < < < < < < < - < = - - - - - - - q - - - - - - - - - - - - - < < < - - - - - - - * * * * * * * * * * * * * ; ; ; ; ; ; - ; ; ; ; ; ; ; ; ; = = = = - - - - < < 3 3 3 3 < < < = - - 3 q q - & & & & & & & & & : & & & : & & o o o o o o o o o o o o o o o o o o O O O O O O O O O O                                     O O O O O O O O O O o o O O O O O O O O O               O O O O o o o o o o o o o o o o o o o o o o o o o o o o o o ",
"W.W.W.W.E.E.E.E.W.E.W.W.E.E.E.E.E.E.E.E.!.~.~.~.!.!.!.!.~.~.~.~.~.~.~.~.~.~.~.~.~.~.~.~.@X~.~.@X@X@X$X$X$X$X$X$X$X$X$X$X$X$X$X$X&X&X&X&X$X$X$X$X$X$X$X$X$X$X$X$X$X$X$X$X$X$X$X$X$X$X$X$X$X$X&X&X%X%X%X%X$X$X$X$X$X$X$X$X%X%X$X$X$X$X$X$X$X$X$X$X$X$X$X$X,X,X,X2X,X,X$X$X$X~.W.I.g.t.*.#.{ E U U U U U U U U U U U U ] { { |  . .#.$.*.*.*.*.=.=.*.*.*.*.*.*.:.:.:.:.:.:.:.:.-.:.-.:.:.-.-.-.:.:.:.-.-.:.:.:.:.:.:.-.-.*.*.*.*.*.*.=.=.*.=.#.*.-.:.;.;.-.-.>.>.*.$.R D D p s B D w s D s s s s D B a s D D D F D H H B I P p H F s a D { E V F V V D [ V #.E u a B V V a a B H I F F a F I R P a y 5 y U F y s y y w y y y y 4 y p s 4 w 4 4 w 1 , < < 4 4 3 3 < w g s 4 < < , , < < 4 = = < < , < < < < < < - - < < < < < = = = - = = * = i * - - - - - - - - - - - - < < < - - - - - - - * * * * * * * * = * * * * ; ; - - ; ; - ; ; & & ; ; ; ; ; = = = = - - - - < < 3 3 3 3 < < < - - - < q q q ; & & & & & : : : : & & & : & & o : o o o o o o o o o o o o o o o o O O O O O O O O O O                                     O O O O O O O O O O O O O O O O O O O O O                 O O O O O o o o o o o o o o o o o o o o o o o o o o o o o ",
"E.E.W.E.E.E.!.!.E.E.W.W.E.E.!.!.E.E.E.E.!.!.~.~.!.!.!.!.!.~.~.~.~.~.~.~.~.~.~.~.~.~.~.~.@X@X@X@X$X$X$X$X$X$X$X$X$X$X$X$X$X$X$X$X&X&X&X&X&X&X$X$X$X$X$X$X$X$X$X$X$X$X$X$X$X$X$X$X$X$X$X$X$X$X$X&X$X$X%X$X$X$X$X$X$X$X$X$X$X$X$X$X$X$X$X$X$X$X$X$X$X$X$X$X,X,X,X,X$X$X~.~.R.I.g.e.-.#.[ { I U U U U U U U U U U I ] { | | }  .$.$.*.*.*.*.*.*.*.*.*.*.*.*.*.*.*.:.:.:.:.:.:.:.-.-.:.:.:.:.:.:.:.:.:.-.:.-.:.:.:.:.:.:.:.-.*.*.*.-.*.=.=.-.*.*.*.:.>.:.:.:.:.:.:.=.#.F a B p I p I p V D V V B s a p y a B B B F a a D D s V I E V F F R } { I [ V P P a P V P } B a a a V P U V B D E E } E u 7 V I E U a P a p 7 5 y y y s y 4 y y s s , 4 4 y 4 4 4 4 y d w w p h ] D s y 4 4 3 , 4 = * = < < < , , , , - - - < < < < < < < < - - - = = - w = - - - - - - - - - - - - - < < < - - - - - - = = = * * * * = = = = * * ; ; - - ; ; ; ; ; ; & & ; ; ; ; = = ; ; = = - - 3 3 3 3 3 3 < < < < < = - 3 q q - & & & & & : : : : & & & & & & & & : & o o o o o o o o o o o o o o o o o O O O O O O O                                     O O O O O O O O O O O O O O O O O O O O O                 O O O o o o o o o o o o o o o o o o o o o o o O o o o o o ",
"!.E.!.E.E.W.W.W.W.W.R.R.E.E.E.E.E.!.E.E.E.E.!.!.!.!.!.E.E.!.~.~.~.~.~.~.~.~.~.~.@X~.~.~.~.@X@X@X$X$X$X$X$X$X$X$X$X$X$X$X$X$X$X$X&X&X&X&X@X@X$X$X$X$X$X$X$X$X$X$X$X$X$X$X$X$X$X$X$X$X$X$X$X$X&X&X$X$X$X$X$X$X$X$X$X$X$X$X$X$X$X$X$X$X$X$X$X$X$X$X$X$X,X,X$X,X,X$X$X!.R.U.L.t.-.#.| { E I U U U U G G U U U U I ] { | }  .#.$.*.*.*.*.*.*.*.*.*.*.*.*.*.*.*.*.*.:.-.-.:.:.:.:.:.:.:.:.:.:.:.:.:.:.:.-.-.:.:.:.:.:.:.:.:.-.*.=.=.-.*.=.*.-.-.*.=.>.e.>.>.e.>.*.-.=.| V a V V a R F F R E I D V a p s D B D s p H a a D B V P [ [ R #.| | #.{ #.W R R R E R +.#.+.-.#.P F P E E R P P W R P P W } [ F V V F F B V 4 1 y y 4 D y y p R s D s 4 y y s y y y y 4 , 4 s 4 y 3 g g s y y s G w 4 3 4 3 < < , = = < 3 - < = = - - < < < < < - - q q * - - - - - - - - - - - - - - - - - - - - - - - = = = * * * * = = = * * * ; ; ; ; ; ; ; ; & & & & ; ; & & ; ; ; ; = = = - 3 3 3 3 3 < < < < < - - - < q q z = & & & & o o o o & & & & & & & & : : : : o o o o o o o o o o o o o o o O O O O O O O                                     O O O O O O O O O O O O O O O O O O O O O                 O O O o o o o o o o o o o o o o o o o o o o o O o o o o o ",
"/.!.!.!.E.W.W.W.W.W.W.W.E.E.E.E.E.E.E.E.!.!.!.!.!.!.!.!.!.!.!.!.~.~.~.~.~.~.~.~.~.~.~.~.@X@X~.~.~.~.@X@X$X$X@X@X@X@X$X$X$X$X$X$X$X$X$X$X@X@X$X$X$X$X~.$X$X$X$X$X$X$X@X@X$X$X$X$X$X$X$X$X$X$X$X$X$X$X$X$X$X$X$X$X$X$X$X$X$X$X$X$X$X$X$X$X$X$X$X$X$X$X,X$X$X~.~.!.E.U.L.>.*.#.{ E E U U U U U U D D D U I E ] { | }  .#.$.=.*.*.*.*.*.*.*.*.*.*.*.*.*.*.*.*.*.*.*.-.;.;.;.:.:.:.:.:.:.:.:.:.:.:.:.:.:.:.:.:.:.:.:.:.:.:.-.-.*.=.*.*.=.-.;.:.:.$.:.>.>.>.>.>.-.=.=.P V V B B R F R } { P F B V V B B R B H B p H V V P H P E } [ E [ R H B R R W W =.#.[ Y V P [ o.[ ~ W E W W W W W W R Y Y V C R O.W C V P F F P u a y H a a a a y 1 s D a y p s s s a s y { D y 4 s y p s s p g D s y w i y y i 4 < , , < 4 w < = = = = = = = = = - - t 3 * - - - - - - - - - - - - - - - - - - - - - - - - * = * * * * * * * * * * & & & & & & & & & & & & ; ; ; ; ; ; * * = - = - < < 3 3 3 3 < < < < - - - - - z z - & : & & o : & & & : o o : : & & o o o o : : : o o o o o o o o o o o o O O O O O O O                                         O O O O O O O O O O O O O O O O O                     O O O o o o o o o o o o O O O O O o O O O O O O O O O O O ",
"R./.!.!.W.W.R.R.W.W.W.W.E.E.E.E.E.E.E.E.E.E.E.E.!.!.E.E.E.E.!.!.!.!.~.~.~.~.~.~.~.~.~.~.@X@X~.~.~.~.@X~.@X$X@X@X@X@X$X$X$X$X$X$X$X$X@X@X@X@X@X@X@X@X~.~.$X~.~.~.@X@X@X@X$X$X$X$X$X$X$X$X$X$X$X$X$X$X$X$X$X$X$X$X$X$X$X$X$X$X$X$X$X$X$X$X$X$X$X$X$X$X$X~.~.!.R.U.L.t.*.} | E U U U U U U U U U G G U I { { | } } #.=.*.*.*.:.:.:.:.:.:.:.:.:.-.-.-.-.*.*.*.*.:.:.;.;.;.;.:.:.:.:.:.:.:.:.:.:.:.-.-.:.:.:.:.>.:.:.:.:.:.:.;.;.=.*.=.*.;.>.>.e.-.:.;.>.e.e.>.:.=.*.[ { F V B P F P P U P F V V B B F D H B B V R R R } R [ } [ R R E R P F Y R } +.=.#.[ W } W E W ~ +.Y ! Y Y Y ! ~ +.=.=.+.o.! L M W +.o.W +.o.E o.W D a 7 y y y y a B D F a s y 7 y V | U s s y y p 4 , , , , 4 4 < , = , 3 4 y e , = 4 f < & = = = = = = = = * * - r - = - - - - - - - - - - - - - - - - - - - - - - - - = = = * * * * * * * * * * & & & & & & & & & & & & & & & & & & & & = = = = < < < < 3 < < - - - - = - = - 3 3 - ; & o o o o o o & o o o : o & o o o o o : : : o o o o o o o o o o o o O O O O O O O                                         O O O O O O O O O O O O O O O O O                     O O O o o o o o o o o o O O O O O o o O O O o O O O O O O ",
"R.R.R.R.W.W.R.W.R.W.W.W.E.W.W.W.R.R.E.E.E.E.E.E.E.E.E.E.E.E.E.E.!.!.!.!.~.~.~.~.~.~.~.~.~.~.~.~.~.~.~.~.@X@X$X@X@X@X@X@X$X$X$X@X@X@X@X@X@X@X@X@X@X@X$X$X$X$X~.~.@X@X@X@X@X@X$X@X$X$X$X$X$X$X$X$X$X$X$X$X$X%X%X$X&X&X&X&X$X$X$X$X&X&X&X&X&X&X$X$X$X~.E.R.R.I.g.t.*.} { E U U U U U U U U U U U U I ] { | }  .#.=.*.*.*.*.:.:.:.:.:.:.:.:.:.:.:.:.:.:.:.:.:.:.:.,.:.:.:.:.:.:.:.:.:.:.:.:.:.:.>.:.:.*.*.:.>.>.>.>.>.:.:.:.:.:.*.*.=.-.>.>.:.e.-.-.-.=.$.=.=.$.#.o.D D P R E [ } } } [ [ [ [ E Y F B y G H H R R { [ #.[ } } [ R R E R R R } [ E R } } [ [ O.+.[ W W W O.+.~ W W W W ! ! ! ~ &.-.O.[ [ W R W C C E C W V P P P P F s a y 7 y p a y s G D 4 s < 3 < , 4 p y w w w y p y w y d i 4 , < y w , < < < = = = = = = = = * - r - = = - - - - - - - - - - - - - - - - - - - - - - - - - * * * * * * * & & & * * * * & & & & & & & & & & & & & & & & * * = * = = - - - - < - - - - = - - - * - 3 q 3 - & o o o o o o o o o o o o & o o o o o o o o o o o o o o o o o o o o O O O O O O O                                         O O O O O O O O O O O O O O O O O                     O O O o o o o o o o o o O O O O o o o O O o o o o O O O O ",
"U.R.R.R.R.W.R.R.R.W.W.W.E.W.W.W.W.R.E.E.E.E.E.E.E.E.E.E.E.E.E.E.!.!.!.!.~.~.~.~.~.~.~.~.~.~.~.~.~.~.~.~.@X@X$X@X@X@X@X@X$X$X@X@X@X@X@X@X@X@X@X@X@X$X~.$X$X$X~.~.@X@X@X@X@X@X@X@X$X$X$X$X$X$X$X$X$X$X$X$X$X%X%X$X&X&X&X&X$X$X$X$X&X&X$X$X$X&X$X$X~.~.R.U.g.t.*.#.{ { I U U U U U U U U U U U U I { | }  .#.=.*.*.*.*.*.:.:.:.:.:.>.:.:.:.:.:.:.:.:.:.:.:.:.:.:.:.:.:.:.:.:.:.:.:.:.:.>.>.>.>.>.:.:.:.:.:.>.>.>.>.>.:.:.:.>.>.*.=.=.:.>.>.;.-.=.:.>.e.e.e.;.=.=.o.E R R E E R [ [ #.} E P P P E P { { { I F R H I { +.E { [ +.+.[ [ { R E W W E W R P P R W W [ W ! ! ! ~ o.o.~ ! W W ! Q Q R R W O.o.W ~ Y R R L +.C o.V a a a V P I F s s a D p y p s 4 w p 3 , 3 w D p 4 < , 4 4 , , , < 4 e y w e w 4 < < < = = = = = = # = = i - * = - - - - - < - - - - - - - - - - - - - - - - - - = = * * * * * * & & & & * * & = ; & & & & & & & & & & & & & & & * * * * = = - - - - < - - - - = - - = & ; - 3 z - & & o o o o o o o o o o o o o o o o o o o o o o o o o o o o o o o o O O O O O O O                                         O O O O O O O O O O O O O O O O O                     O O O o o o o o o o o o O O O o o o o O O o o o O O O O O ",
"P.R.W.R.W.W.R.R.R.R.R.R.W.W.E.E.W.W.W.W.!.!.!.!.!.!.E.E.!.!.!.!.!.!.~.~.~.~.~.~.~.~.~.~.~.~.~.~.~.~.~.~.@X@X@X@X@X@X@X@X@X@X@X@X~.~.~.~.@X@X@X@X@X@X@X@X@X@X@X@X@X@X@X@X$X$X@X@X$X$X$X$X$X$X$X$X$X$X$X$X$X$X$X&X&X@X&X$X&X&X&X&X$X$X$X%X$X@X~.E.R.U.g.t.*...{ E I U U U U U U U G G U U I I ] { } #.=.=.*.*.*.:.:.:.:.:.:.:.>.>.>.>.:.:.:.:.:.:.:.-.;.:.:.:.:.:.:.>.>.>.>.:.:.:.:.:.>.>.>.>.>.>.>.>.>.:.:.:.>.>.>.-.-.-.:.:.:.=.*.>.>.:.:.-.=.>.e.e.e.e.e.-.$.} W P P R E R [ } #.} [ [ R E P R R E } I H I [ #.E +.} E [ o.[ [ E R R E { { E E Y V V Y R R ! ! ! W ! ! L ! W W W Q Y C C V J W W +.W Y R V M C W ~ E R P 6 8 8 9 y a s a u y a 7 5 7 y y y p B y 7 4 a 4 4 4 4 1 1 1 1 < * , 1 4 4 4 y w < , = * , = = * # 3 h = * * = = = = = - < = - = = = = - - - - - - - - - - - - = = - - = = * * * & & & * * * - = & & & & & & & & & & & & & & & & * * * * - - - - - < < < = = = - = * & & - - < - = & : o o o o o o o o o o o o o o o o o o o o o o o o o o o o O O o O O O O O                                                 O O O O O O O O O                                 O O O O o o o o o o O o o o o O O O o O O O O O O O O O O ",
"h.U.W.R.W.W.R.R.R.R.W.R.W.W.E.E.W.W.W.W.!.!.!.!.!.!.E.E.!.!.!.!.!.!.~.~.~.~.!.!.~.~.~.~.~.~.~.~.~.~.~.~.@X@X@X@X@X@X@X@X@X@X@X@X~.~.~.~.@X@X@X@X@X@X@X@X@X@X@X@X@X@X@X@X$X$X@X$X$X$X$X$X$X$X$X$X$X$X$X$X$X$X$X&X$X$X&X$X&X&X&X&X&X&X&X@X!.W.R.I.g.t.*.#.{ E U U U U U U U U U U G U U ] I ] |  .=.*.*.*.:.:.,.,.:.:.>.>.>.>.>.>.>.>.:.:.:.:.:.:.-.-.;.;.:.:.>.:.>.>.>.>.>.>.:.:.>.>.>.>.>.>.>.>.>.>.:.-.-.*.*.-.:.>.:.=.$.:.e.=.*.>.:.-.-.-.-.>.e.e.e.e.>.>.=.o.E P F P E [ o.+.#.+.+.#.#.#.$.o.{ [ #.R I R [ } R W E R } } [ R D D Y E E R Y R R R Y P P P P L P ! W W W W W ~ &.O.O.+.+.W R W o.o.R O.o.o.E V C R Y Y C V V 9 5 6 7 u V s y y y y y p a s s B y , 5 , p y , , < < 1 1 w , w < , < < y w < < , * * = # # w e # = = = = = = = = = = 3 - = = = = - - - - - - - - - - - - - = - - = = * * * & & & * * q * & & & & & & & & & & & & & & & & & * * * = - - - - - < < < = = = - = * & & * - < - - & # o o o o o o o X o o o o o o O O o o o o o o O O o O O O O O O O O                                                       O O O O O O O O O                                 O O O O o o o o o o O o o o O O O O o O O O O O O O O O O ",
">.U.!.R.W.R.W.W.R.R.R.R.W.W.W.W.W.W.W.W.W.W.W.W.E.W.W.W.E.E.!.!.E.E.!.!.!.!.!.!.~.~.~.~.~.~.~.~.~.~.~.~.~.~.@X@X@X@X@X~.@X@X~.~.~.~.~.~.~.@X~.~.@X@X@X@X@X@X@X@X@X@X@X@X$X$X$X$X$X$X$X$X$X$X$X$X$X$X$X$X$X$X$X&X$X@X@X$X&X&X$X$X$X~.E.Q.W.U.g.t.-.#.{ E U U U U U U U U U U U U U U ] { { } ..=.*.*.:.:.:.,.>.>.>.>.>.>.>.e.t.e.>.:.:.:.:.:.:.:.-.-.;.:.:.:.>.>.>.>.>.>.>.>.:.:.>.>.>.>.:.:.:.>.>.;.*.*.*.*.*.*.=.#.$.*.*.*.>.*.=.*.*.-.-.-.=.:.>.>.>.:.;.;.O.} R E [ [ [ W W [ o.[ } o.[ +.$.o.[ } #.E [ [ [ [ } o.+.+.o.[ E R E [ W R R R Y F F D C F F F C C P P P ! ! ! ! ! O.O.=.=.;.&.+.W +.+.W O.O.+.o.R C o.M Y C C C E P a 7 5 5 p V D D B B s y F F y a , , 1 a y 4 , < < < < w w y < * , , w 4 , < 3 < , = 4 i w $ * = = = = = = = = = * 3 < < = = = - - - - - - - - - - - - - = - - = = = * * & & & * q * * & & & & & & & & & & & & & & & & & * * * * - - - - - - - - - = = - - * # # & = - - - ; # o X O O o o O O o o o o O O O O O O O O O O O O O O O O O O O O O                                                       O O O O O O O O O                                 O O O o O O O O O o O o O O O O O o o O O O O O O O O O O ",
":.L.W.R.R.R.R.R.R.R.R.R.R.W.R.R.R.W.W.W.W.W.W.W.W.W.W.W.W.W.!.!.E.E.!.E.!.!.E.E.!.!.!.!.~.~.~.~.~.~.~.~.~.~.~.~.~.~.~.~.~.~.~.~.~.~.~.~.~.~.@X~.@X@X@X@X@X@X@X@X@X@X@X@X@X@X$X$X$X$X$X$X@X@X$X$X&X&X$X&X$X$X$X&X$X@X@X@X&X&X$X$X@X~.W.U.g.t.-.#.| { ] I U U U U U U U U U U U U U ] { { }  .=.*.*.*.:.:.:.,.>.>.>.>.>.>.>.>.e.>.:.:.:.-.:.:.:.:.:.:.:.:.:.:.>.>.>.>.>.>.>.>.>.>.>.>.>.>.:.:.>.>.>.-.=.=.-.-.*.*.*.*.*.-.*.$.=.=.-.=.=.=.=.*.=.;.:.;.;.;.-.+.[ o.[ [ o.[ W W [ } [ R E [ o.o.+.o.o.} $.[ } } [ [ R [ } [ } [ R R R R E F F R R [ o.Y M V V B V V V C P P W [ [ [ W W o.O.O.-.;.O.O.&.W Y o.W W O.O.~ W M C W a 6 7 a P P F I [ } [ F H D B 7 y B 7 V a y y y y y < < < < < G < 4 $ = * y , = < < = < e y # * * # * * = = = = = * * = - 3 < = = = = - - - - - - - - - - - - - - - = = = * * & & - - * * * * & & & & & & & & & & & & & & & & * * * * - - - - - - - - - - = - = * # # & * - - - - # X O O O O O O O O O O O O O O O O O O O O O O O O O O O O O O O O                                                       O O O O O O O O O                                 O O O O O O O O O O O O O O O O O O O O O O O O O O O O O ",
"$.h.U.R.R.R.R.R.R.R.R.R.R.R.W.W.R.R.W.W.W.W.W.W.W.W.W.W.W.W.W.E.E.E.E.E.!.!.!.!.!.!.!.~.~.~.~.!.~.~.~.~.~.~.~.~.~.~.~.~.~.~.~.~.~.~.~.~.@X@X~.~.~.@X@X@X$X@X~.~.@X@X@X@X@X@X@X@X@X@X$X$X$X$X@X@X&X&X&X&X&X&X&X@X$X@X@X@X@X@X~.~.E.U.L.t.-.#.| { I U G G G U U G G G G G U U I ] { X.}  .#.=.=.*.*.:.:.:.:.>.>.>.>.e.>.>.>.>.:.:.:.:.-.-.-.;.:.:.:.:.>.:.>.>.>.>.>.>.>.>.>.>.>.>.>.:.>.:.:.:.:.:.-.=.$.$.=.*.*.=.=.*.*.-.-.=.$.$.=.O.$.$.$.$.=.;.-.-.-.-.O.o.o.o.} } o.[ W o.O.O.o.W [ o.+.+.o.o.[ o.o.o.o.[ R Y E E E R R P F F F Y R V V D D R [ $.#.F B V B B B V V V C C C C Y R R W o.Q -.+.Q W ~ o.o.o.o.~ +.O.O.o.W W W Y V V B V a B V V B P V { H R P p P B F 1 1 7 y y y y s s G G 4 4 , , , s , * 3 d y I w 3 * # $ * * = = = = = = * * = = - < - = * = - - - - - - - - * * = - - = = = = * * * & = r * & & & & & & & & & & & & & & & & & & & & & * ; = - - - = = - - - - = = < = * # # & & = - - - & o O O O         O O O O O O O O O O O O O O O O O O O O O O O O O O O                                                           O O O O O O O O O O O O                     O O O O O O O O O O O O O O O O O O O O O O O O O O O O ",
"} >.P.R.R.R.R.R.R.R.R.R.R.R.R.R.R.R.W.W.W.W.W.R.W.W.R.R.W.W.E.E.E.E.E.E.E.!.!.!.E.E.E.E.~.~.!.!.~.~.~.~.~.~.~.~.~.~.~.~.~.~.~.~.~.~.~.~.@X@X~.~.~.@X@X@X@X@X~.~.@X@X@X@X@X@X@X@X@X@X@X@X@X@X@X@X&X&X&X&X&X@X@X$X$X$X@X~.E.R.R.U.L.t.-.#.| { I U G G G G G G G G G G U U U ] { X.}  ...#.=.*.:.:.:.:.:.:.:.>.>.>.>.e.>.>.>.:.-.*.*.-.-.-.-.-.:.:.:.:.>.:.:.>.:.:.:.:.:.:.;.:.;.;.;.;.;.;.:.:.:.-.=.$.=.$.=.;.-.$.#.*.-.=.*.:.:.=.O.O.:.>.>.-.-.;.=.=.&.O.&.;.;.O.+.+.o.[ [ o.+.O.O.$.O.[ o.=.=.[ o.o.+.o.E E E E R R Y Y F F V V D R B B V V V V V V D { o.Y a u 7 u B D V C F P R E W [ +.o.[ =.e.-.-.o.o.+.+.W +.O.O.O.E W o.o.Y M a D P M p B V F F B u 7 H #.B F I D u u p y y y y p y y H H G g w y 4 < y g s * = * * * * * * * = = = = = = * * * = = = = = = - - - - - - - - * = = - - = = = = * & & - t - & & & & & & & & & & & & & & & & & & & & & & * ; = - - - = = = - - - = = < - * # + # & * = - - & : X                                                                                                                             O O O O O O O O O O O O                     O O O O O O O O O O O O O O O O O O O O O O O O O O O O ",
"] *.L.U.R.R.R.R.R.R.R.R.R.R.R.R.R.R.R.W.W.W.W.R.W.W.R.R.W.W.E.E.E.E.E.E.E.E.!.!.E.E.E.E.~.~.~.!.!.!.~.~.~.~.~.~.~.~.~.~.~.~.~.~.~.~.~.~.@X~.~.~.~.~.@X@X@X@X~.~.~.@X~.~.@X~.@X@X@X@X$X$X$X@X$X$X$X$X&X$X$X$X@X@X@X~.!.E.W.U.L.h.:.#.{ { E U U U G G G G G G G U U U U ] { { | }  .#.=.*.:.:.:.:.:.:.>.>.>.>.>.>.>.>.>.:.:.:.-.*.*.-.-.-.-.-.-.-.;.-.;.;.;.;.-.-.-.-.-.-.-.-.-.-.-.-.-.-.-.-.-.=.=.=.=.=.=.;.;.=.$.O.=.>.>.*.=.*.-.$.-.*.-.$.O.O.O.+.+.o.[ o.O.=.;.-.=.-.&.o.W O.O.$.O.o.o.+.+.+.+.o.} } [ E F B F F F V V V V V V V u M u p p u a u a V H R E I V a a p p u u a F F Y R Q $.[ o.+.-.o.O.o.o.[ R W W [ o.o.[ o.[ V E [ F u F R F 8 R u F B F F P V R [ E { B a a y 7 4 4 , , 4 , , 4 4 s G G w * * 4 * # * * * * = = = = = = = = * * * * = = = - - - - - - - - - - * = = - - = = = = * & - t - & & & & & & & & & & & & & & & & & & & & & * & * * = - - - = = - - - - - = < - * # o o # & & = - - & o                                                                                                                             O O O O O O O O O O O O                     O O O O O O O O O O O O O O O O O O O O O O O O O O O O ",
"G ..t.U.R.R.R.R.R.R.R.R.R.R.R.R.R.R.R.R.W.W.W.W.W.W.R.W.W.W.E.E.E.W.W.E.E.E.E.E.E.E.E.E.!.!.!.!.!.!.!.!.!.!.~.~.~.~.~.~.~.~.~.~.~.~.~.~.@X@X~.~.~.~.@X@X@X@X~.~.~.~.~.~.~.~.@X@X@X@X@X@X$X$X$X$X@X@X&X$X$X@X$X~.Q.R.R.U.L.h.;.#.| { E I U U U U G G G G G G ] U ] I ] { { }  ...=.=.*.:.:.:.,.,.:.>.>.>.t.t.t.>.>.:.:.:.-.-.*.*.*.*.-.*.-.*.-.-.-.-.-.-.-.-.-.-.-.*.*.=.*.=.=.*.*.-.-.*.*.*.*.=.=.=.=.=.=.*.*.$.O.=.*.=.=.$.=.=.=.O.=.=.+.[ Q W W W W [ +.+.o.o.+.O.$.&.-.;.-.O.[ W o.+.+.+.o.} } } } } P P F F D D V V V V V D D p a a u p p p p y 7 y p B D F P H F I P V u 7 7 u M B F J Y W Q Q o.W o.W R C V C P Y R P W +.+.[ [ [ E Y F R Y D B P V B u 7 u 7 F 7 { R F F y 7 4 , , 4 , 4 4 y 4 y w 4 3 * * w < # * * * = = = = = = = = = * * * * * = = = - - - - - - - - * * = = = = = = * = * - i = * * & & & & & & & & & & & & & & & & & & & & * & * * = - - - - - - - - - - - < - * # X X + # & & ; - & : O                                                                                                                           O O O O O O O O O O O O                     O O O O O O O O O O O O O O O O O O O O O O O O O O O O ",
"j X.,.L.R.R.R.R.R.R.R.R.R.R.R.R.R.R.R.R.W.W.W.W.R.R.R.R.W.W.W.W.E.E.E.E.E.E.E.E.E.E.E.E.!.!.!.!.E.E.~.~.~.~.~.~.~.~.~.~.~.~.~.~.~.~.~.~.~.~.~.~.~.~.@X~.@X@X@X@X@X@X@X@X~.~.@X@X@X@X~.@X~.@X@X~.@X@X@X$X@X~.~.E.R.U.I.g.>.=.| E U U U U U U G G G G G G G U ] ] ] { X.| }  .#.=.*.*.*.:.:.:.:.,.>.>.t.t.t.t.e.>.>.:.*.*.*.*.*.*.*.-.-.*.*.*.*.*.*.*.-.-.-.-.-.*.*.*.*.=.=.=.=.=.=.*.*.=.$.=.*.=.=.=.=.=.=.=.=.O.#.#.=.+.+.+.O.=.$.O.$.$.+.[ W W W W W [ o.O.o.o.W +.+.O.=.-.-.O.o.W [ o.o.} [ [ [ [ { R I U V s U U V a a P I U V p a p a p y y y 9 9 7 7 y a V H V B a p p a H a u 7 7 u M B V B C R W [ [ [ o.O.R V Y W W R R R o.[ Y R R W W Y M M F m u m M F u p F B B F [ F B I y 7 1 1 5 < $ 4 , , < , 3 = 3 4 # * * * * * * * * = = = = * * * * * = = = - - - - - - - - = * * * = * * * * & - < - & & & & & & * & & & & & & & & & & & & & & & & & & & * * = - - = = - - - - - - < - * # X X + # # & & = & # O                                                                                                                           O O O O O O O O O O O                       O O O O O O O O O O O O O O O O O O o o O O O O o o O O ",
"j ] *.h.R.R.R.R.R.R.R.R.R.R.R.R.R.R.R.R.W.W.R.W.R.R.R.R.W.W.R.W.E.E.E.E.E.E.E.E.E.E.E.E.E.E.E.!.E.E.!.!.!.!.~.~.!.!.~.~.~.~.~.~.~.~.~.~.~.~.~.~.~.~.@X@X@X@X@X@X@X@X@X@X~.~.~.~.~.~.~.~.~.@X@X~.~.~.~.~.E.W.R.U.I.h.:.=.| ] U U U U U U G G j j G G G G U U ] { X.| }  .#.=.*.*.*.*.:.:.:.:.>.>.t.t.t.t.t.>.:.-.-.*.*.*.*.*.*.*.*.*.-.*.*.*.*.*.*.*.*.*.*.*.*.*.*.*.=.=.=.=.=.=.=.-.=.=.$.=.-.=.=.=.=.=.$.+.+.=.=.} +.o.+.O.#.O.O.O.+.[ o.O.O.O.+.o.o.[ W [ +.-.;.O.o.+.+.[ [ O.O.+.[ E R E [ E R R P P F D D D P V V V V I P a p a a p p y y y y y 9 7 7 7 y a a a B V V a p p V B a u 8 u M B V V V V M B F W M V C C C F W W o.O.=.+.$.O.o.[ W W Y M 9 V F M u u u u u y p H B B F p , , 4 1 , , , $ , y , 3 3 $ , , = = * * * * * * = = = = * * * * = = = = - - - - - - - * * * * * * * = & * - r - & & & & & & & * & & & & & & & & & & & & & & & & & & & * * = - - = = - - - - - - < - * # o X + # # # # & & & o                                                                                                                           O O O O O O O O O O O                     O O O O O O O O O O O O O O O O O O O o o O O O o o o O O ",
"j g X.>.P.R.R.R.R.R.R.R.R.R.R.R.R.R.R.R.R.R.W.W.R.R.R.R.R.R.R.R.W.E.W.W.E.W.W.E.E.E.E.E.E.!.E.E.E.E.E.!.E.E.!.E.E.E.!.!.!.!.~.~.~.~.~.~.~.~.~.~.~.~.~.@X~.~.~.~.@X@X~.~.~.~.~.~.@X~.~.~.~.~.~.$X~.~.E.Q.R.R.L.h.>.=.{ E U U U U U U U U h h j j G G G U U ] { { }  .#.=.*.*.*.:.:.:.:.:.:.>.>.t.t.t.>.>.:.-.*.*.*.*.*.*.*.*.*.*.-.*.-.*.*.*.*.=.=.=.=.=.=.=.=.=.$.$.=.=.*.*.-.*.-.=.-.-.=.-.=.$.=.-.-.*.*.=.$.=.$.[ #.O.o.o.+.+.[ [ W Y R +.+.o.+.+.o.o.+.o.o.o.~ W +.O.=.-.O.o.[ +.o.W R P P P F D V V V D D U P a g I { s 7 u s s a y y y 7 9 y y y p s s y 7 7 y a s p F H 5 u 7 7 7 7 7 u a B B B B V a u a Y 8 9 V Y F C B ! E W +.o.O.O.&.+.W W o.F 8 6 M u u u u B 7 7 y y { u H V 1 % , 4 , 4 , , < y 4 3 $ $ 4 < * * * * * * * = = = = * * * * = = = = = = = - - - = * * * * * = * = = - r = & & & & & & & & & & & & & & & & & & & & & & & & & & & & * * = = = = = - - - - - - < - * # o X + # # # # & & & o                                                                                                                           O O O O O O O O O O O                     O O O O O O O o O o o O O O O o O O O o o O O O O o o o o ",
"k f ] ,.L.U.R.R.R.R.R.R.R.R.R.R.R.R.R.R.R.R.W.W.R.R.R.R.R.R.R.R.W.W.W.W.E.E.W.W.E.E.E.E.!.E.E.E.E.E.E.E.E.E.E.E.E.E.E.!.!.!.~.~.~.~.~.~.~.~.~.~.~.~.~.@X~.~.~.~.@X~.~.~.~.~.~.~.@X~.~.~.@X@X~.@X~.~.R.R.I.g.>.=.} { E I U U U U G G U G h h j j G G U U ] { | }  .#.=.=.*.*.*.:.:.:.,.:.>.>.>.>.>.>.:.:.*.*.*.*.*.*.*.*.*.*.*.*.-.-.-.*.*.*.*.=.$.#.$.#.#.#.#.#.#.#.#.=.*.*.*.=.=.=.-.-.*.*.=.$.=.=.=.*.*.=.+.W [ +.=.o.W E W [ W R W [ [ o.+.[ W W [ [ o.o.O.O.+.+.+.o.+.O.O.o.[ [ [ [ E I F V B B B B g D D U P u s { P a 9 u s a p y y y y 7 7 7 y a a s B V a p y 7 a 7 p F B a u 7 7 7 u p 7 u V F a M B V M a M M M M V C P C R +.+.o.[ W +.=.&.W O.+.W V F u u F R M 9 7 p B F V B B u 7 7 4 4 , $ , 4 4 3 , $ 4 < * * * * * - - = = = = * * * * = = = = = = - * = * * * * * * * = * = = q = # & & & & & & & & & & & & & & & & & & & & & & & & & & & & * * = = = = = - - - - - - < - * # o X o # # # : # & ; : O                                                                                                                         O O O O O O O O O O O                     O O O O O O O O O o o O O O o o o O O o o O O O O o o o o ",
"k l 1...t.P.R.R.R.R.R.R.R.R.R.R.R.R.R.R.R.R.R.R.R.R.R.R.R.R.R.R.W.W.W.W.W.W.W.R.E.E.E.E.E.E.E.E.E.!.E.E.E.E.E.E.E.E.E.!.E.!.!.!.~.~.~.~.~.~.~.~.~.~.~.~.~.~.~.~.@X~.~.~.~.~.~.~.@X@X~.~.~.~.!.E.R.U.I.h.>.*.} { I U U j h U U U h h h h h j U U U U ] { { }  .#.#.#.#.=.=.*.*.:.:.>.>.,.>.>.>.>.:.:.-.*.*.*.*.*.*.*.*.*.*.*.*.*.-.-.*.*.*.*.=.=.$.#.#.#.#.#.#.#.#.#.$.=.*.*.-.=.=.=.-.-.-.-.=.=.=.=.=.*.=.#.[ P I } +.[ E E E E R Y R W W E [ W Q Q Q Q Q W +.-.-.O.O.o.o.+.$.+.[ W E E R F F V V V V V V V D D a D P E y y y a s a y u p y y y p a s s s B D D I V p 7 7 p B B u u B B M u u B 7 u B V R Y C V M a a M M B V B C Y R W +.o.o.+.R W +.W o.o.+.+.&.R +.[ W +.V M u 1 a P E 6 a I a y 4 , , $ , 3 , 3 $ 4 4 * , * * = = - - - = = = = = = * * * * * * = = = * * * * * * * - * - f - & & & & & & & & & & & & & & & & & & & & & & & & & & & & & & * * = = = = = = = - = < < < - * # X X o + # + o o & ; & o                                                                                                                         O O O O O O O O O O O                     O O O O O O O O O O O o o o o O O o o o O O O O O O o o o ",
"k k ` X.,.L.U.R.R.R.R.R.R.R.R.R.R.R.R.R.R.W.R.R.R.R.R.R.R.R.W.R.W.W.W.W.W.W.W.R.E.E.E.E.E.E.E.E.E.E.E.E.E.E.E.E.E.E.E.!.E.E.!.!.!.!.~.~.~.~.~.~.~.~.~.~.~.~.~.~.@X@X~.~.~.~.~.~.@X$X~.~.!.W.W.R.I.h.>.:.#.{ I U U U j h j j j j h h h h j U U ] ] ] | } }  .#.#.#.#.#.#.=.*.*.:.,.,.:.:.:.:.:.:.-.-.*.*.*.*.*.*.*.*.*.*.*.*.*.*.*.*.*.*.*.*.=.$.#.#.#.#.#.#.#.#.#.#.=.=.*.=.=.=.=.=.=.=.$.$.=.=.=.*.-.=.$.#.} [ E E E E E E E R R o.Y C J Y Q Q R Y Y Q W R Y E +.=.$.$.O.+.[ o.[ W E Y D V F F H V H D D D D F 9 V F B s s s s s a y 7 y p a B D D V s a a y y a D F I { V p a R R u p u V V u 7 u D R [ R V M M M B B M M V W V C F Y o.Y Y o.+.o.O.~ o.o.o.o.+.-.L Z 8 L R W E M 1 B R M B a a s y 4 , $ = , , , $ , 3 $ = = - - - = - - = = = = = = * * * * * * = * * & & & * * & & - & h * & & & & & & & & & & & & & # # # & & & & & & & & & & & & & & & * * = = = = = = = - = < < < - * # X X X + + + o o # & & o O                   O O O                                                                                               O O O O O O O O O O O                     O O O O O O o O O O O o o o o O o o o O O O O O O O O o o ",
"k k j ] *.L.U./.R.R.R.R.R.R.R.R.R.R.R.R.W.W.W.W.R.R.R.R.R.R.W.W.W.W.W.W.R.R.W.R.W.W.E.E.E.E.E.E.E.E.E.E.E.E.E.E.E.E.E.E.!.!.E.E.E.E.~.~.~.~.~.~.~.~.~.~.@X@X@X@X@X@X@X@X@X@X~.~.~.~.E.E.E.R.I.g.e.*.} | { U G G j j j h j j j j j j j j U U ] ] { | }  . . . .#...#.#.#.=.*.*.:.:.:.:.:.:.*.*.*.*.*.*.*.*.*.*.*.*.*.*.-.*.-.*.*.*.*.=.=.=.=.$.#.#.#.#.#.#.#.#.#.#.$.=.=.=.=.=.=.=.=.=.O.O.#.$.$.$.*.=.} E E E E R F V C Y R R E R C W W W E [ o.o.o.o.o.o.W [ o.W [ W +.+.o.Y E R R R Y F V B V F D D D D F F F E { R s D D D V s D U R [ { P V s s V D B a p y y a a 7 a F F B p u R R F M M F E R Y F E Y C V V V V V F W W F F C C V Y o.o.Y Q Y o.~ W W W W ~ e.O.o.~ Q Y u C R M 8 Y V C 9 4 s y y 4 4 3 , , , , $ y @ $ < < - = = - - - = = = = = * * * * * = * * * & & & * & * & * f 3 & & & & & & & & & & & & & & # # # # # # # & & & & & & & & & & & * * = = = = = - - = = < < < - = & X O X o + + o o : & & : X               O O o o o O                                                                                             O       O O O O                           O O O O O O o o o O O O O O O O O o o O O O O O O O O o o ",
"k k j j ..>.P./.R.R.R.R.R.R.R.R.R.R.R.R.W.W.W.W.R.R.R.R.R.R.R.R.W.W.W.W.R.R.W.W.W.R.E.E.E.E.E.E.E.E.E.E.E.E.E.E.E.E.E.E.E.E.E.E.E.E.~.~.~.~.~.~.~.~.~.~.~.@X@X@X@X@X@X@X@X@X~.!.Q.W.R.R.I.h.>.*.} { I U U U U G j j j h h h j j j j U U U ] { { | }  . .} } } }  . . .#.=.=.*.*.*.*.*.*.*.*.*.=.*.=.*.*.*.*.*.*.*.*.*.-.-.-.*.*.=.=.=.=.$.$.$.#.#.$.#.#.#.#.#.#.#.$.=.$.$.$.=.=.=.=.$.O.$.$.O.#.$.#.[ E R E [ } [ P P R Y P P Y R W W W W W [ o.+.O.O.O.O.O.O.-.-.+.O.o.W R [ R F Y R Y F V V B V F U U P I I I a I I F I { I P I E U V s s s s s s s s V D D V a p s a p u p B B B u u V F F V B B V V V C Y R F F F F Y R W +.W W W R T W W T o.T o.o.T W T R o.~ ;.~ ~ W +.Y M u R R C a V V a D $ 7 y p y , $ $ 4 , y @ $ 4 3 - = * - - - - - - - * * * * * = = * & & & & & * & = - q r * & & & & & & & & & & & & & & # # # # # # # & & & & & & & & & & & * * = = = = = - - - = < < < - = & X O X X o o o o o & & & o O             O o o & & o o O                                                                               O O       O       O O O O                           O O O O O O o o o o O O O O O O O o o O O O O O O O O o o ",
"k k j j ] ,.L.R.R.R.R.R.R.R.R.R.R.R.R.R.R.R.R.R.R.R.R.R.W.W.R.R.W.W.W.W.R.R.R.R.E.E.E.E.E.E.E.E.E.E.E.E.E.E.E.E.E.E.E.E.E.E.!.!.!.!.!.!.~.~.~.!.~.~.~.~.@X@X@X~.~.~.~.~.@X~.~.Q.W.U.I.h.e.*.#.{ I U G D G G G G j j j h h h j j G U U ] X.} | } } } } } } } }  .}  . .#.$.$.=.=.=.=.=.=.=.$.=.=.=.=.*.*.*.*.-.-.-.-.-.-.-.*.=.=.=.=.$.#.$.#.$.#.#.$.$.#.#.#.#.#.$.$.$.$.=.#.=.$.=.$.#.+.+.+.#.+.[ [ [ { { { E E F D V V C F F F Y E R R W W W [ +.O.$.&.=.=.;.:.&.:.:.=.R R R Y P P Y P P C V B F I R R R R I I E P P I R | R R E I V 9 9 y a a a a a a B F F F F D U R P u B 7 8 u V F a R u M a 8 M C R Y Y R R P R E Y P P L E W ~ ~ W ! O.W o.W +.W Y Y Y L C ~ 6./ W / @.O.o.Y C Y E E P V V B , , 1 y y 4 , , 7 % s , < p 4 < , = = - = = - 3 - * & * * * = = * * * & & * * * = 3 4 , * * & & & & & & & & & & & & # # # # # # # # # # # # & & & & & & & * * = = = = = = - - - - < < < = # X O X X X X X X + & & & : o O           O o & - - ; & o                                                                           O O X O O O                                           O O O O O O O O O o o o O O o o o o O O O O o o O O o o o o ",
"k k j j U #.t.U.R.R.R.R.R.R.R.R.R.R.R.R.R.R.R.R.R.R.R.R.W.W.R.R.W.W.W.W.R.R.R.R.E.E.E.E.E.E.E.W.E.E.E.E.E.E.E.E.E.E.E.E.E.!.!.!.~.~.!.!.~.~.~.~.~.~.~.~.@X~.~.~.~.~.!.!.E.W.R.I.I.g.e.;.=.| U U D G G G G G G G j j j j h j U U U ] ] X.} } } } } } | } } } }  .}  . .#.#.#.$.$.$.$.$.$.$.$.$.=.=.=.=.*.*.*.*.*.-.-.-.-.-.*.*.=.=.=.$.$.$.$.$.$.$.#.#.#.$.$.$.$.$.$.$.=.*.#.[ :.$.$.$.=.=.$.$.$.I I I I P F P P R R P P P P Y Y Y P P P Y R R R R [ +.+.} [ [ W W W W E R R R Y P P P F F P Y Y R E R R P U D P P V P E E P D [ { P D V V V y 7 7 a a s V V s a B V s B E P R I R R B 7 u B F V V Y V V M M V P Y C V B L P P P Y ! ~ +.O.=.+.o.! Y O.W L A L L L L Q -.+.+./ %.Q R ! W W F Y [ o.F B 4 , , 1 p B a a 4 4 y y 3 , < , , = = = = - < - = * * * * = = * $ $ & & & # * & d , * * # & & & & & & & & & & & & # # # # # # # # # # # # & & & & & & & * * = = = = = = - - - - < < < = # X O X X X X X X + & & & # o X   O O O O O : ; - z - & o                                                             O O     O O X o o o : o X O                                         O O O O O O o o O O o o O O o o o o O O O O o o O o o o o o ",
"k k j j j { ,.L.R.R.R.R.R.R.R.R.R.R.R.R.R.R.R.R.R.R.R.R.W.W.W.W.W.R.R.W.R.R.R.R.R.R.W.E.E.E.W.W.E.E.E.E.E.E.E.E.E.E.E.E.E.E.!.!.!.!.~.~.~.~.~.~.~.~.~.~.~.~.~.!.!.E.E.E.E.W.I.g.e.-.} | E U G G G U U G G G G G j j j j G U I ] ] X.X.}  .} } | { X.{ { } }  . .}  . . .#.#.#.#.#.#.$.$.$.$.=.=.=.=.*.*.*.*.*.*.*.*.-.-.-.*.=.=.=.=.=.=.=.=.$.=.*.*.*.*.*.=.=.=.=.=.=.=.#.*.#.$.$.$.*.;.*.=.#.#.I I R R R R R R R R P P R R R R R W o.+.[ W W W [ [ +.O.+.[ W E +.o.o.+.R R R Y P P P P P P Y R R R P F D V D U I E R V s D R P P D V V D U U D s a y a a a B V B B s y u V a a P B B F D } M V F F 7 a B C F Y C C Y W V C R E W W ~ o.Y L M +.R C o.! Y Y C N N Y L O.Z A Q ~ +.o.W C o.+.W V R F { P 7 1 5 y , 1 4 a s 1 , , , , < < < 3 3 3 < = = < = * * * = = * $ $ $ & # # = e = & * # # & & & & & & & & & & & & # # # # # # # # & & & & & & & & & & & * * = = = = = = - < - - < < < - & X O O O o X X o # & & & & : o O O O O O o & - - q - & o O         O O O O O O O O                               O O O O O X o o o o # # : : : o O                                       O O O O O O O O o O o O O O O O o O O O O O o o o o O O o o ",
"l k j j j U $.t.U.R.R.U.R.R.R.R.R.R.R.R.R.R.R.R.R.R.R.R.R.R.R.R.R.R.R.R.R.R.R.R.R.R.R.R.W.W.W.W.E.E.E.E.E.E.E.E.E.E.E.E.E.E.!.!.!.!.~.~.~.~.~.~.~.~.~.~.~.~.!.!.E.E.E.W.I.L.t.-.#.| U G G U U U G G G G G G h h h j j j G U ] X.X.X. . .} { { X.X.{ { { | }  . .}  . . .#.#.#.#.#.#.#.#.$.$.=.=.=.=.*.*.*.*.*.*.*.*.*.*.*.*.=.=.=.=.=.=.=.=.$.=.=.*.*.=.=.=.=.=.=.=.=.=.*.} $.=.#.$.;.>.=.#.} { [ [ [ [ H D D H F F C C E E E E W W [ [ o.o.o.[ [ W [ o.+.o.[ W W P P W R R R Y P P P Y Y R R R I P F V D P E R U V B B s a V a a B s a a B B B s a a y u u u u P D V B F [ F F 8 M B u B R Y F u M a :.P M M 8 V B M B M C ! ~ o.+.W ~ ~ W L R W M L Z C C L L C Z L / L L Q Q W %.o.Q o.W W [ R W V F V D u 1 1 5 $ p a , $ = , , , , * * * * = * = < - * * * * = * & # # # # * < = * & & # $ & & & & & & & & & & & & # # # # # # # # # # # # # # & & & & & * * = = = = = = - < - - < < < - & X O     O X X o # & & & & # o X O O O O o & - q w - & o O         O O O O O O O O                               O O o o o o o o o : # # : : : : o                                       O O O O O O O O O O O O O O O O O O O O O o o o o O O O o o ",
"l k j j j H | >.P.R.R.U.R.R.R.R.R.R.R.R.R.R.R.R.R.R.R.R.R.R.R.R.R.R.R.R.R.R.R.R.R.R.W.R.W.W.W.E.W.W.E.E.E.E.E.E.E.E.E.E.E.E.E.E.E.E.E.!.~.~.~.~.~.~.~.~.~.~.!.E.W.R.I.L.t.:.#.| I U G h h h h h h j j j U j h h j U U ] ] ] |  . . .} X.X.X.{ { { { | | } }  . .} } #.#.#.#.#.#.#.#.$.$.$.$.=.=.*.=.*.*.*.*.-.-.*.*.-.-.*.*.*.*.=.=.=.=.=.$.$.=.*.*.*.=.=.=.$.=.=.=.$.$.+.#.$.*.=.:.:.*.#.o.{ R I P P F H H D D F F F F [ [ W [ W W W [ [ [ [ [ o.o.[ [ o.+.o.} o.o.W R V F P P R [ E R R Y F F F F V D P E [ E R P F F D V B a a a a a a a a a a a a y u 7 a a P V B V P W R D F Y R R D W R R W V V E F M 8 u B u u B Y R P P L C Y ! R W o.! ~ V C C Z C C Y R W Y L Q L Y N N C W +.o.~ ~ W o.+.Y R C 7 F 7 > 1 7 y y , , 4 , , , = * * & & * * * = - = * # * = = & # & & & * = & & & & & * & & & & & & & & & & & & # # # # # # # # # # # # # # # & & & & * * * = = = = = = - - - < < < - * o O     O X X o # & * & & # o X O O O O o - q t r q ; o O       O O O o O O O O O O                 O O O O O O O O o o o o # # # : # # # # # : o O                                     O O O O O O O O O O O O o o o O O O O O O O o o o o O O O o ",
"l k k k j g ] :.L.U.U.U.U.R.R.R.U.U.R.R.R.R.R.R.R.R.R.R.R.R.R.R.R.R.R.R.W.W.R.R.W.W.R.R.W.W.W.W.R.R.R.R.W.W.W.W.R.W.E.E.E.E.E.E.E.E.E.!.~.~.~.~.E.E.!.~.~.!.R.R.U.L.t.:.$.| I U G h h h h h h h h h j j j j j j U ] ] X.}  ..... .} X.X.X.X.X.X.X.X.| } } }  . .} } #.#.#.#.$.$.$.$.=.=.$.$.=.=.*.*.*.*.*.*.-.-.*.*.-.*.*.*.*.*.=.=.=.=.=.$.$.*.*.*.*.=.$.#.=.*.=.=.$.#.+.#.$.*.*.*.$.o.R R R R P F H H H H D D F F P P P P Y Y R R E E W W W W [ o.o.o.o.o.o.[ P R E W [ W W W [ R [ W W R F C F F F R [ E I R E [ [ } [ R F V V B V P V B B B B B B B B a 7 V F a B V B P [ [ [ E R F R o.[ [ } Y F R P V B B V Y Y V Y ! E Y L ! W W W W W W o.o.W o.+.W A C W Y Y W Q A T A v C L Y ~ ~ o.~ R L ~ W O.V 7 V V 7 1 7 y p 4 $ $ , , , , , = * * * * = - = * * * * - # # * - < = * * * * & & * & & & & & & & & & & & & # # # # # # # # + + + + + + # # & & & * * * = = = = = = - - - < < < < = + O       O X o # & * & & & + X O O O O o - w r r w ; o O       O O o o o O O O O O O O O       O O O O O O O O o o o o o o # # # : # # # # # : o O                                     O O O O O O O O O O O O o o O O O O O O O O o o o o O O o o ",
"l k k k k g G ..>.P.U.U.U.R.R.R.U.U.R.R.R.R.R.R.R.R.R.R.R.R.R.R.R.R.R.R.R.R.R.R.W.W.R.R.W.W.W.W.R.R.R.R.W.W.W.W.R.R.E.E.E.E.E.E.E.E.E.E.!.!.E.E.E.E.E.E.W.U.I.L.t.:.#.{ I U G j j h h h h h h h h h j j j U U ] { X. . .....#... .} X.X.{ | | | } } } } } }  . .#.#.#.#.#.$.$.$.$.$.=.=.=.=.=.=.*.*.*.*.*.:.-.-.*.*.*.*.*.*.*.*.*.*.*.=.=.=.=.*.*.*.*.$.#.#.=.*.=.$.#.#.#.#.$.*.*.$.o.{ { { { E R F V V H H D D F F P F F F F C F P R E [ +.O.O.+.o.W W [ [ } [ W R P C =.+.E C E =.Y o.o.W R Y R E R F F [ E F V D U I R R F V P R P B a B B B V V V V B B R B a u 7 7 6 7 V V V C Y R o.=.$.O.o.W E [ E P P P C R R C Y u 8 Z L R R L L C Z C ! o.W W W O.O.T Y W W Y Q A Y Z Z T L N A T ~ ~ / ~ O.+.o.O.C V M M 7 % 5 u p 7 7 7 y y 4 < - = * = * * - = * * * # 3 * * = * * # * * * * & & & & & & & & & & & & & & & # # # # # # + + + + + + + + # # & & & * * * = = = = = = - - - < < < 3 = +         O X + # & * * * * # X O O O O o - w r r w ; o O       O O o o o o o o O O O O O O X O O O X X o o o o o o o o o o # # # : # # # # # # : o O                                   O O O O O O O O O o o o o o o O O O o O O O O O o O O o o & ",
"l k k k k g G X.,.L.U.U.U.U.U.U.U.U.R.R.R.R.R.R.R.R.R.R.R.R.R.R.R.R.R.R.R.W.W.W.R.R.W.R.W.W.R.R.W.W.W.W.R.R.R.R.R.R.R.R.E.E.!.E.E.E.E.E.~.!.Q.E.W.R.R.R.U.L.h.,.=.| I U G G j j j h h h h h h h h h j h j U ] X.X.......#.#.#... .} { { } }  . . . . . . . . . .#.#.#.#.#.#.$.$.$.$.=.=.=.=.=.=.*.*.*.*.*.:.*.*.*.*.*.*.*.*.*.*.*.*.*.=.=.$.=.*.*.*.*.$.#.=.=.$.$.#.#.$.+.#.$.*.*.$.} [ { R D B D D F V V V D D F F P P P P Y Y Y R R R R W [ o.o.o.o.[ [ W W W E R E W W E R R P ;.+.W o.[ W E [ [ R R I P D V V B a a a B V V F F V V V B a a a B V D F U V B D R D u u u u a V V B M F W W R o.+.$.=.W E E R Y V V Y ! ! C 9 2 6 8 u M Z L L ! Q W Y L Y Q W o.W ! W Q C Y Z A ~ Q x v N A T Q o.T Q Q O.O.T W Y C F V 8 7 7 7 7 4 y y 4 < = = = * * - = * * & + 3 # + # # # * * * * * * * & & & & & & & & & & & & & # # # # # # + + + + + + + + + # & & & * * * = = = = = = - - - < < < < = +         O X + # & * * - = & o O O O O o - w r r w ; o O       O O o o o o o o O O O O X X X X X X o o o o o o o o o o o o : : # # # # # # # # # o O                                   O O O O O O o o o o o o o o o O O O o o O O O O O O O o + & ",
"f k k f k g h U =.h.P.R.U.U.U.U.U.U.U.R.R.R.R.R.R.R.R.R.R.R.R.R.R.R.R.R.R.R.R.R.R.R.R.R.W.W.W.W.R.R.R.R.W.W.R.R.R.R.R.R.Q.Q.E.E.Q.Q.E.!.~.!.Q.W.R.R.I.L.t.,.=.} { I U G G G j j j j j h h h h h h j U U ] ] |  ...#.*.*.#....... . . . . . . . . . . . . . .#.#. . .#.#.#.#.=.=.=.=.*.*.=.=.*.*.*.*.*.*.-.-.*.*.*.*.*.*.*.*.*.*.*.*.*.=.=.=.=.=.*.*.=.#.$.=.=.$.$.$.#.+.=.=.=.$.#.} E P V V H F F F F F [ [ F V F V P P P P P P R R R E R R E W W W W W W R R [ W P P W O.R W R [ O.;.R W W [ o.[ W R Y P D V V V B a u u u a V F F s V V B a a a a V V V V V V F I E I F F V M 6 B Y 2 M W C 8 M F W +.#.+.+.+.[ +.[ Y E W W W E V 2 9 9 M V C R Y W W o.Y M R ! Y Y L R C Y R o.L T Y A A C C A T Q ~ T ~ O.O.o.~ W R Y F M u 8 8 7 y y w 4 < < = = = - - = & # # < # + # # $ & $ $ & * * * * & & & & & & & & & & & & # # # # + + + + + + + + + + + # # & & * * * * * = = = = = - - < < < < = + O       O o o : # & & = - * # O     O o - t r r w ; o O       O O o o o O X X X X X X X X X X o o o o o o o o o o : : + + + + # # # # # # # & # + X                                   O O O O O O O O O O O O O O O O O O O O O O o o O O O X + & ",
"k k k k k k j h ..>.P.R.U.U.U.U.U.U.U.U.U.R.R.R.R.R.R.R.R.R.R.R.R.R.R.R.R.R.R.R.R.R.R.R.R.R.R.R.R.R.R.R.R.R.R.R.R.W.R.R.W.W.Q.E.Q.Q.E.E.Q.Q.W.R.U.L.h.>.=.} ] U U G h h h h j j j j j h h h h h U U ] ] X. .#.*.*.*.*.*.#......... ... . . . . . . . . . . .#.#. . .#.#.#.#.=.=.=.=.*.*.=.=.*.*.*.*.*.*.*.-.*.*.*.*.*.*.*.-.-.*.=.*.*.=.=.=.=.=.*.*.=.#.$.=.=.=.=.=.$.#.$.$.#.} { P V V a B V F I R R R P V E P P F F P P R R R R E R E E R Y Y E R Y C V Y W [ +.W E [ E V R E +.o.O.o.R [ W R R R R F F F F D V B a a a u a B V P u a a a s s a u a a u a B D P P I E [ [ E R R R W Y V Y V R 8 M R [ F R W o.=.O.o.Y R ! ~ W W W +.V u 8 M P Y C C W E +.V Y L W W Y Y o.A Z W C Y A M N N C A A A T Y ~ Q &.o.Q W o.E L Z 8 6 7 B y 4 4 4 4 3 < = = < - = & # * = & # # # # & $ # & * * * * & & & & & & & & & & & & # # # # + + + + o o o o + + + + # & & & & & * * * * = = = - - < < < < * # O       O o o o : o # * - = & o O   O o - t r r w ; o         O O o o o O X X X X X o X X X X o o o o o o o o o o : : + + + + # # # # # # # & & + o                                   O O O O O O O O O O O O O O O O O O O O O o o o O O O X + * ",
"k j j k k k j h X.,.L.R.U.U.U.U.U.U.U.U.U.U.R.R.R.R.R.R.R.R.R.R.R.R.R.R.R.R.R.R.R.R.R.R.R.R.R.R.R.R.R.R.R.R.R.R.R.R.R.R.R.W.W.E.W.W.W.W.R.R.I.L.h.:.#.| ] U h h h h h h j j j j j j j j j j 1.U ] ] X. ...$.*.*.*.=.#.$.#.#.....#.#.#...#. . . . . .#.#.#.#.#.#.#.#.#.#.=.=.=.=.=.=.*.*.*.*.*.*.*.*.*.*.*.*.*.*.*.*.*.*.*.:.-.*.=.*.*.*.=.=.=.=.=.*.=.#.$.=.=.$.-.*.=.$.#.#.[ P H V B a a B H H B s B B a P V E { V R a E E E E E E E E W W [ [ W W [ } o.o.[ W +.[ W [ W V E W R >.[ +.o.R Y W W R P F V V V V V B a a a B P E P F [ V u a B V V V V D Y R F F P P P P R R E W [ W W o.Y O.! V R C V M u M C R Y ! o.+.+.o.+.o.Q L W W W C M F Y V C ! W +.+.E Y M 8 V ~ C Y C W Z A C Y C x 6 x N C A +.Y Q T o.Q W +.W R C Z C C P 8 2 , , , < < = = , , * # # * * & # # # # $ $ & & * * * * & & & & & & & & & & & & # # # # + + + + o o o o + + + o + & & & & # # # & * = = = - < < < < < = # X       O X o o o o : & = - & o O   O & q r l r w ; o         O O o o o o o X X X X X X X X X X X o o o o o o o o : : + + # + # # # # # # # & & # o O                                 O O O O O O O O O O O O O O O O O O O O O O o o O O O X & - ",
"1.` j k k k g k ] =.h.U.U.U.R.U.U.U.U.U.U.U.R.R.R.R.R.R.R.R.R.R.R.R.R.R.R.R.R.R.R.R.R.R.R.R.R.R.R.R.R.R.R.R.R.R.R.R.R.R.W.R.E.E.R.R.R.R.R.I.h.>.=.} ] U h h h h h h h h j j j j h h j j U U U ] X.X. .....$.#.#.#.#.#.#.#.#.#.#.#.#.#...#. . . . . .#. .#.#.#.#.#.#.#.#.=.=.=.=.=.=.*.*.*.*.*.*.*.*.*.*.*.*.*.*.-.*.*.*.*.-.-.*.=.*.*.*.=.=.=.=.*.*.=.#.#.=.=.$.:.:.*.=.+.{ F a B B B a a B H H H V V V V B F V R } 9 V W W E E E E E W W R R E E R E W R Y Y [ [ R R W $.R [ W O.[ o.+.W [ W R R R F F F R R R P D B a a V D 7 a F R V a a a B B B a u M B F R R Y P F B V F Y Y o.Y R V R V C W R Y C M M M M Z M Z ! o.o.W E W W ! W W W W R C C Y R W o.W o.~ W L Z M W R R T M C N Y A N x 8 x x N A Q T Y ~ Q T o.W Q L Z N Z M Z M u 7 4 1 4 , , 4 , * $ # * * # # # # # # & & & & & & & & & & & & & & & & & & & # # # # + + + + o o o o + + + + + + # & # # + + # * = = - < < < < < < = & X         X o o o o o # * - * : o   O & q r l r q & o         O O o o o o o X X X X X X X X X X X o o o o o o o o o o + + + + + + + + # # # # & # o O                                 O O O O O O O O O O O O O O O O O O O O O O O O O O O X & < ",
"] ] j k f k k k ] ..>.P.U.R.R.R.R.R.R.U.U.U.U.U.R.R.R.R.R.R.R.R.R.R.R.R.R.R.R.R.R.R.R.R.R.R.R.R.R.R.R.R.R.R.R.R.R.R.R.R.R.W.W.R.R.R.U.I.g.>.=.} ] U h h j h h h h h h j j j j h h h 1.U ] ] { X. . .....#.........#.#.*.#.#.#...#.#.#... . . . .#.#.#.#.#.#.$.$.$.$.=.=.$.=.=.*.=.=.*.*.*.*.*.*.*.*.*.*.*.*.*.*.*.*.*.*.=.*.*.=.=.*.*.*.*.*.=.=.=.=.=.#.#.$.=.=.-.=.#.o.F F F F u a B H F V H V B V F F F V V V R R O.#.[ W W W W E E W W W E R R R E W T Y o.W Y ~ o.W O.O.W o.+.+.o.~ W W R R R R F C F Y E E R P V V V V F C M F V V B B B B V B a M u u B C 8 B R o.C F C F R W W Y W [ [ R C 8 R o.R R R R C Z M a C Y W W W W R W W [ o.W E R R R ! W E W P W P C Z V Y &.N C 8 m C C M 8 8 M 6 9 Z M N Y ~ W T T ~ W O.L Z Z L Z Z M M u u a y y y 4 , , $ * * * * $ $ $ $ # # $ & $ & $ & & $ $ & & & & & & & & # # # # # + + + o o o o + + + + + # & & # # + o + # * = = < < < < < < - & X       O X X X o o o # & = & o O   O & q r f r q & o         O O o o X o X X X X X X X X X X X X o o o o o o o o o o + + + + + + + + # # # # & # o O                                 O O O O O O O O O O O O O O O O O O O O O O O O O O O + = 3 ",
"] 1.k f f k k k j X.,.L.U.R.U.R.R.R.R.R.U.U.U.U.U.U.R.R.R.R.R.R.R.R.R.R.R.R.R.R.R.R.R.R.R.R.R.R.R.R.R.R.R.R.R.R.R.R.R.R.R.R.R.U.I.L.h.>.*.} I U 1.j h h h h h h h h h h j j j j j U U ] X.X. . ........... . . . .....#.#.#............. . . . .#.#.#.#.#.#.$.$.$.$.=.=.$.=.=.=.=.=.*.*.*.*.*.*.*.*.*.*.*.*.*.*.*.*.*.*.=.=.=.=.=.=.=.=.=.*.*.=.=.=.=.$.$.=.*.-.=.$.o.[ H V V H F U I R H H H F F F V B V V V V F W P } W E E E E W W W W +.Y R W W W R Q W J Y J Y ~ &.+.o.o.R o.o.o.W Y E o.o.[ W R Y F V V C V V P F C B P V V P V P P C V V V B a 8 M M B M 8 8 u M F Y F V R C C R W Y E o.Y Y R V Y Y Y Y $.o.R C M Z C Y E R R R W [ W W E E R W o.+.[ W V a R W R Y o.E +.W M 9 C C M 8 M 9 M 8 8 Z C N W W Q Q ~ Q / / Q S v Z v 9 M R E D { P B F a y 4 4 , , , , * * * + + * * # # # & & $ $ & & & & & & & & # # # + # + + + o o o o + + + + + # & & # # + o + + # * = = < < < < - - & X         X X X X o o # & = & o O   O & q r f r q & O         O O o o o o X X X O . . X X X X X X o o o o o o o o o o X X o o o o + + + + + # + + o O                                 O O O O O O O O O O O O O O O O O O O O O O O O O O X & < 3 ",
"j j k f f k k k k ] ..>.P.U.U.R.U.U.U.U.U.U.U.U.U.U.R.R.R.R.R.R.R.R.R.R.R.R.R.R.R.R.R.R.R.R.R.R.R.R.R.R.R.R.R.R.R.R.R.R.R.R.P.g.h.>.=.| ] U 1.j h h j j j j j j h h h h j j j j U ] X.X.}  . . . . . . . . . . . . . ................... . . . .#.#.#.#.#.#.$.$.$.$.=.=.=.$.=.=.=.=.*.=.*.=.=.=.=.=.=.=.=.=.=.=.=.=.=.=.$.$.$.$.#.#.=.=.=.=.=.=.=.$.$.$.$.$.*.-.#.o.{ R B V H F { E R R H H H F F F V B V V V V F V W R [ [ [ R W o.+.o.[ o.-.O.O.o.W W W Y V W J Y ~ &.-.&.;.+.o.o.W o.o.o.W T Y Y Y Y F V V V V F o.R V M C V V Y V P R R P F C B M 7 6 7 8 8 B B M M C u V +.W F C E C E [ R W Y M C V V V V P P ! Y L C M Z Y Q R R R R R R R W W W R R W W =.Y C 8 a a R C V W o.M C C M 8 L M M 9 9 M Z M C Q W W Q Q ^ O.O.^ n L L M 8 9 u D 8 u u 1 1 $ $ , , $ $ , , = * + + # # # # # & & & & & & & & & & & & # # # # # + + + o o o o o o o o o + & & & # + o X + + # & * = = < < - - * o         O O O X o : & * * & o O   O & w r r r q & O         O O o o o O X O O O . . O O X X X X X X o o o X o o o o X X X o X X o o o o + + # + o O                                 O O O O O O O O O O O O O O O O O O O O O O O O O O o - 3 3 ",
"f k k f k k k k k j X.,.L.U.U.R.U.U.U.U.U.U.U.U.U.U.R.R.R.R.R.R.R.R.R.R.R.R.R.R.R.R.R.R.R.R.R.R.R.R.R.R.R.R.R.R.R.R.R.R.I.L.h.>.=. .{ U 1.1.j h h h j j j j j j h h h j j 1.1.U ] X.X.}  . . . . . . . . . . . . . . . . . . . . . . ... . . . .#.#.#.#.$.$.$.$.$.$.=.=.$.$.=.=.=.=.=.=.=.=.=.=.=.=.=.=.=.=.=.=.=.#.#.#.#.#.#.#.#.#.#.#.#.#.=.=.$.#.#.#.#.$.=.=.} [ R F B V F P { R P H H H H H V V F F F F D D D Y R R R [ o.o.+.+.o.o.o.o.W O.&.O.O.+.o.o.O.W Y ~ o.W o.O.O.;.O.o.Q W W W o.o.R R W W R Y P F V M E C V M C V V Y V P Y R W [ [ } o.E C M 8 u 7 8 u u 8 V F M V W o.E W Y F P V W F V V V V V R L C C C L L V V Y R R F C Y R W W W o.W W R R W O.W R Y Y Z C m C T Y C V M 8 6 M Z Q 8 9 8 Z v Y ~ o.L %.^ / @.@./ Z x b N M M m V P F D a a 7 , $ $ $ $ , = < p y = # # # # & & & # & & & & & & & & # # # # # + + + o o o o o o o o o + & & # # + o X X X + + + # * - < - - * o         O O O X o : & * * & o O   o & w r r r - & O         O O o o O O X O O O . . O O X X X X X X o o X X o o o o X X X X X X o o o o + + + + o O O                               O O O O O O O O O O O O O O O O O O O O O O O O O o & - 3 q ",
"l f k f k k k k k j ] #.>.U.U.R.U.U.U.U.U.U.U.U.U.U.U.U.R.R.R.R.R.R.R.R.R.R.R.R.R.R.R.R.R.R.R.R.R.R.R.R.R.R.R.R.R.I.L.L.h.>.*. .{ U G h h h h h h h k j j j j h h j j U U U ] ] ] X. . .} } } } } } } }  . . . .} } }  . . . . .}  . . . .} } } #.#.#.#.#.$.$.$.$.$.$.$.$.$.$.$.=.=.=.=.#.#.#.=.$.$.$.$.$.$.$.$.$.#.#.#.#.#.#.$.=.#.#.#.$.$.$.$.#.#.#.#.$.=.$.+.R R Y P E R R [ F R F M D F F F D V V F F F F F P W E R Y W o.W W W R E W L L Q L T W o.o.+.O.O.o.T A Q o.O.-.O.O.T ~ ~ L Y T Y E W W W W E E R Y V F V C V R C V W W W R R R Y Y Y Y R W W o.o.o.F M u V M m V V B C R [ O.W F V C W o.J m B 6 6 8 Z Z C F [ E Y F J R R F J R Q W W W o.W R Y W O.O.W W +.C C R Y W R J C M M 8 6 8 Y P M 6 M M A o.o.Q ^ Q Z T &.4.@.^ b N A > 6 8 6 6 7 7 > 5 p a 7 y y 4 4 3 4 y , 4 d d < # + * $ & & & & # # # & & & & # # + + + + o o o o o o o o # & & * & + + X X X X X + + & - < < - * +         O O O X X + & * = * : o O o - w r r r - & O             X X X O O O O O   O O O X X X X X X X X X X o o o o o o o o o o o o o o o o : o o X O                               O O O O O O O O O O O O O O O O O O O O O O O   O o & - q q ",
"f k k f k k k k k k U  .,.P.U.R.U.U.U.U.U.U.U.U.U.U.U.U.R.R.R.R.R.R.R.R.R.R.R.R.R.R.R.R.R.R.R.R.R.R.R.R.R.R.R.R.I.g.t.>.=.} E U U h h h h h h h h h j j j j j h j j U ] ] { { { X.X.X.X.} }  .} } } } }  . . . .} } }  . . . . . . . . .} }  . .#.#.#.#.#.#.$.$.$.$.$.$.$.$.$.$.$.$.=.=.#.#.#.#.$.$.$.$.$.$.$.$.$.#.#.#.$.$.#.$.=.#.#.#.$.$.$.$.#.#.#.=.-.=.} R D P R E R [ } R F F F D F F D D V V V V V D Y R R W W E R Y C F W o.+.+.O.+.+.O.O.o.Q L T ~ o.%.&.W Q o.O.;.6.-.e.~ / O.W ~ ~ W W W W E R R R R Y Y C F Y C R Y Y o.Y C F F J F W W o.o.[ W ! R F o.O.O.Y V M M 8 B P E W Q O.W Y M V W +.C V C u 8 u Z u u 6 C R V Y Y R R F F F J Y Y R o.o.Q Y V C +.+.V W C C C C C E W M 6 M 8 8 8 E M M 8 8 R T o.L L Q +.T ~ / Q / L v N A N L 9 u 8 u F 8 > @ , $ $ $ $ * * 4 # < X X < d e * , $ & & & # # # & & & & # # + + + + o o o o o o o o + & & * & + X X X X X X X + + * - - - * + .       O O O X X + & * * * & o o : - r r r t - & O             O O O O O O O     O O O X X X X X X X X X X X X X X X X X X o o o o o o o o o o o o X                               O O O O O O O O O O O O O O O O O O O O O O O O O o & - q w ",
"f k k f k k k k k k h ] *.h.R.R.U.U.U.U.U.U.U.U.R.R.R.R.R.R.R.R.R.R.R.R.R.R.R.R.R.R.R.R.R.R.R.R.R.R.R.R.U.I.P.L.t.>.=.| I U h h h h h h h h h h h h h h h j j j j U ] ] X.X.X.X.X.X. . .} } } }  .} } }  . . . . . .} }  . . . . . . . . . . . .#.#.#.#.#.#.#.#.#.#.#.#.#.#.$.$.$.$.=.#.#.#.#.#.#.#.#.#.#.#.#.#.$.$.$.=.=.=.=.$.#.#.#.#.#.#.$.#.#.#.#.$.$.+.[ [ W R P D W o.[ F F D Y W F F F F D a V E [ o.O.$.O.O.o.R C R o.+.O.O.O.O.O.&.&.O.O.O.O.O.O.+.o.o.+.O.O.O.&.;.e.;.e.+.o.O.Q Q T Y Y Y C C C C C Y C C Y R R Y W R C W C V C C C C C Y R W W ! R Y F F M 6 V o.O.C M V C P R o.R O.-.W C V Q O.W Y C M u u V R M 7 9 R M J R W R F V V C C Y W o.W W W R ! ~ W V C C C Y C M C Y C a 6 9 M Y W M 8 m M ~ W O.~ T T Q S L ^ T @.Q 6 x N Y C V M V R E M 1 $ , , , $ # # , + $ * * $ * = e = $ $ & & # # & & & & # # # & # + + o o o X X X X X + & & & & + X X X X X O O + + + & * * & + O           O X X # & * * = & : o & - t r r t - & O             O O O O O O         O O O O O O X X X X X X X X X X X X X X o o o o X X o o o o o o o O                             O O O O O O O O O O O O O O O O O O O O O O O O O o & - w e ",
"l f f f f f k k k k j U #.>.U.R.U.U.U.U.U.U.U.U.R.R.R.R.R.R.R.R.R.R.R.R.R.R.R.R.R.R.R.R.R.R.R.R.R.R.R.U.P.L.h.t.} | { U h h h h h h h h h h h h h h h h j j j j U ] ] X.{ X.{ { X.X. . .} } } } } } } }  . . . . .} } }  . . . . . . . . . . . . . . . . . . . . . .#.#.#.#.#.#.$.$.#.#.#.#.#.#.#.#.#.#.#.#.#.#.#.$.=.=.=.=.=.#.#.#.#.#.#.$.O.#.#.+.+.#.#.} R F Y Y R R +.W F Y F V Y +.F F F B P [ +.E E R R R E } o.=.;.O.O.O.+.O.&.-.W +.+.Q W ~ o.o.&.O.~ T O.o.o.&.&.&.-.-.6.O.O.T +.o.~ Q W W W W Y R R Y Y Y Y Y Y C Y C M R C F C C P P Y J Y Y R ! W W E C V F M 9 8 V W C M V o.R W W W +.W M V ~ T W C V M 8 8 7 V P > R B u V R R R R R Y R R Y R R W W ! C V o.R W V V B C C M M V W M 9 9 6 V [ F 9 V Y W O.O.~ S &.^ b Z ~ T T Y Y O.Y W V F V u R 8 7 a H H p 4 * * 4 # + # # + + * * , = * * & # # & & & & # # # & # + + o o o X X X X X + # & & & + X X X O O O . O X + + & * & + O           O X X # & * * = & & & & - w r r q - : O                                   O O O   O O O O O O O O O O O O O X X X o o o X X o o o o o o o O                             O O O O O O O O O O O O O O O O O O O O O O O O O o & < w w ",
"l f f f f f f k k k j j  .:.L.R.U.U.U.U.U.U.U.U.U.U.U.U.R.R.R.R.R.R.R.R.R.R.R.R.R.R.R.R.R.R.U.U.U.U.P.L.t.,.#.| I U h h h h h h h h h h h h h h h h j U U U ] ] ] ] X.{ X.X.X.X.} } } } } } } } } } } } } }  . . . . .}  . . . . . . . . . . . .} } }  .#.#.#.#.#.} #.#.#.#.#.#.#.#.#.#.#.#.#.#.#.#.#.#.#.#.#.#.#.$.$.$.=.$.#.#.+.#.#.$.$.$.$.O.#.+.o.+.[ R P Y E P R o.E F R W E R P F E V V E E Y R E R Y F Y R W [ R ~ O.&.;.+.~ o.O.6.6.6.6.-.O./ o.O.O.O.@.@.-.&.-.&.O.&.@.6.@.O.~ ~ ~ ~ ~ ~ ~ o.~ Q T T Y T Y Y Y L A Y L W T A Z M x M C N Z C C R Z C Y L A A Y Y C M 9 8 Y E B B $.&.R W J O.+.J N T R Y M M V u 5 u F F R V u V u D E W R Y R R V V C Y W +.V 9 M Y W o.F B B V M M P a P R M 8 9 Y V W V C o.Q -.@.^ T T N Z b T &.y.&.T C 6 7 > 8 6 2 7 7 5 , , D H 1 $ 4 $ $ $ $ $ $ $ * * * & * & # # # # & & & & & & # # + o o o o o o o o + & & & & + + X O O O O .   O X + + + & + O           O X X # & & & & & & & & - - q z - & o O                                         O O O O O O O O O O O O O O O O X X o o o o o o o o o o o O                           O O O O O O O O O O O O O O O O O O O O O O O O O O + * 3 w w ",
"l l f l l l f k k k j j X.$.t.U.R.U.U.U.U.U.U.U.U.U.U.U.R.R.R.R.R.R.R.R.R.R.R.R.R.U.U.R.R.R.U.U.P.L.t.:.$.} ] G j h h h h h h h h h h h h h h h h j U ] ] ] ] ] X.X.X.X.X.X.} } } } } } } } } } } } } } } }  . . . . . . . . . . . . . . . .} #.} } } } #.#.#.#.#.} #.#.#.#.#.#.#.#.#.#.#.#.#.#.#.#.#.#.#.#.#.#.#.$.$.#.$.#.#.#.#.#.#.#.#.#.$.$.#.o.o.o.[ V V [ } E R R E R R W E R F F W 8 P } W V W R Y Y R [ o.W [ o.o.+.O.-.e.;.-.-.&.O./ Q T T Q / %.%.O.%.&.&.y.e.&.-.%.&.;.O.%./ ~ ~ ~ ~ ~ ~ ~ ~ ~ T R Q T Y L A A A A A Y R W Q ~ W C 8 M M V C L L C Y L L A L Y C M M M 8 u F R V [ >.O.J W J W A T Q W R C 8 V 8 9 M V R D F F [ B F F C J Y C V M M M F W Y M 6 C M M M V Y R R P V V M M V 2 6 9 C 6 E o.A T O.@.O.~ ^ ^ v ^ ^ Q ~ O.Y 9 Y 8 8 % M 7 > F u 5 1 4 D 1 4 $ $ + + + + + + # # $ $ # # # # # # & & & & & & # + + o o o o o o o o + & & & & + + X O O . .       O X + + & + O           O X X # & * & & & & : o : : : o o O O                                                           O O O O O O O O X X o o o o o o o o o o o O                           O O O O O O O O O O O O O O O O O O O O O O O O O O + = 3 w w ",
"l f f l l l f f k k j j ]  .>.L.R.U.U.U.U.U.U.U.U.U.U.U.R.R.R.R.R.R.R.R.R.R.R.R.R.U.U.R.U.I.L.g.t.:.#.| ] U G j h h h k k k j j k k k h h h h j j U ] ] ] X.X.X.X.{ X.} X.X... . . . . . . . . .} } } }  . . . . . . . . . . . . . . . . . .}  .} } } } #.#.#.#.#.} #.#.#.#.#.#.#.#.#.#.#.#.#.#.#.#.#.#.#.#.#.#.#.#.#.#.#.+.#.#.#.#.#.#.#.#.=.#.+.} [ W E P P W [ [ E P [ [ E F E R F F [ W W F R =.R V R W o.o.o.O.O.o.W ~ W W A T W W +./ T Y T ~ o.o.@.@.O.O.%.-.O.4.6.@.-.O.&.O./ %.~ ~ ~ Q Q Q Q T T ~ ~ Y A A Y Y R R R R o.~ Q W T ~ ~ T C V M V Z W Z L L L L L Y Y C C M M M 8 M V F F -.-.R W Y +.O.o.O.O.W C [ R P V B C R B M Y p M C Y R R F C N M M V C R R C 9 9 u 8 8 V V a B W W W R M 8 6 > M M 9 M W A L ^ Q &.W / / T A N x N O.W M M u 8 6 a 6 2 V u , 1 y R 7 4 y $ $ $ $ $ $ $ $ * & * * * # # # # # # # # # # + # + + + o o o o o + & & * * # + X X O O O       . X + # & + O           O X o + & * * * & # o O O O O O O                                                           O O O O O O X X X X X X o o o X o o o o o o o o O                         O O O O O O O O O O O O O O O O O O O O O O O O O X : - 3 w w ",
"l f f l l l f f k k j k G X.*.t.U.R.U.U.U.U.U.U.U.U.U.U.R.R.R.R.R.R.R.R.R.R.R.R.R.U.U.U.I.L.t.>.=.} { ] U G j h h h k k k k j j k k h h h h h U U ] ] X.X.X.X.{ { X.X.X.X.X... . .}  . . . . . . .} } }  . . . . . . . . . . . . . . . . . .} } } } } } #.#.#.#.} } #.#.#.#.#.#.#.#.#. .#.} #.#.#.#.#.#.#.#.$.#.#.#.#.#.+.#.#.#.#.#.#.#.$.=.#.} [ o.} R Y E R F F [ } E V E [ [ E R F F R o.F } o.+.[ [ [ [ o.o.o.+.o.W W T Y L Y Q W C O.O.O.O.%.+.O.O.O.O.O.O.4.&.4.&.;.6.&.&.O.&.~ %.~ ~ Q Q Q Q Q Q T Y T T Y Y ! Q R R R T T W +.O.~ T Q +.o.W L C N o.Z C L L L L J Y Y R E M a C M u B [ Y W ;.E C Y M W W R Y R Y R Y F B u J V V D B u M F V M V C C M M V M V C C M M M 9 7 a M V P Y P M C [ W 8 6 2 u 8 v M ~ L ~ T &.4.O.O.c v v M L C Q Y R 9 6 9 6 V > > 6 u $ , a I 4 , , , , , , = = * * * * * * # # # # # # # # # # # # + + + o o o o o + & & * * & + X X O O O       . X X # # o O           O X o + & & & * & : O                                                                       O O O O O O X X X X X X o o o X o o o o o o o o O O                       O O O O O O O O O O O O O O O O O O O O O O O O O X : - 3 w w ",
"l l f l f f f f f k k k j U #.>.I.R.R.I.I.U.U.U.U.U.U.U.U.U.U.U.R.R.R.R.R.R.U.U.U.I.L.g.t.,.*. .{ U G h h h h h h h k k j j j k f h j 1.1.1.U U { { { { X.{ X.X.{ { X.X.} } } }  . . . .} } }  . . . . . . . .} } }  . . ....... . . . . . . . . . .} }  . . . .}  . .#.#.#.#.#.#.#.#.#.#.} #.#.#.#.#.#.#.} #.} } #.#.#.+.+.O.#.#.#.#.O.O.$.+.[ [ o.[ Y Y W W P F [ } E R [ [ R R R E W R +.F W o.+.} o.[ [ [ o.+.+.o.W T T T Y Y Y Q %.o.o.%.%.+.O.@.&.&.@.@.&.&.4.4.4.4.4.;.&.&.&.O.+./ ~ Q Q Q Q Q Q Q Y L T T T ! ! T T W W ~ ~ ~ Q ~ o.~ T W W W Y L R Y V L L L A C C C C Y R M C 8 M M C V R W o.V R C Y Y [ Y Y V V V V M 8 8 V V Y J M 8 V V M M V C M M M M M B V C B 8 u 8 u M M V C W M V V F C V 6 8 6 9 9 ~ ~ ~ o.O.e.&.T %.L v v A L C L Z o.C 6 7 a 7 > > 7 5 @ $ D p p , $ , $ $ $ $ * $ * * * $ $ # # # # # # # # # # # + + + + o o o o o + # * * & + X X X X           X o : : o O           O X o # & & & * & # X                                                                           O O O O O O O O O O X X X X o o o o o o o o o                           O O O O O O O O O O O O O O O O O O O O O O O O X : - q q q ",
"l l f l f f f f f f k k j G | :.g.U.R.U.U.U.U.U.U.U.U.U.U.U.U.U.R.R.R.R.R.R.U.I.I.L.t.,.=.} ] U G h h h h h j h h h k k j j h k h j 1.U U U ] ] X.X.X.{ X.X.X.X.{ { X.X.} } } }  . . . .} } } }  . . . . . . .} } }  . . . ..... . . . .} } } }  . .} }  . . . .}  . . .#.#.#.#.#.#.#.#.#.#.#.#.#.#.#.#.#.#.#.} #.#.#.#.+.+.O.O.#.#.#.#.+.+.#.+.+.[ Y R E R W +.#.#.+.[ +.$.O.o.[ W R P F [ V J R [ E E W [ +.O.+.o.W ~ o.o.o./ Q Q ~ o.%.%.%.%.%.O.O.@.4.4.3.3.3.4.4.4.3.&.3.4.&.&.O.@./ @./ Q T T T Q / ~ Q Q T T T T Y T T T o.%.Y Q T Q ~ ~ ~ Q W ~ Y W R C L L L A C C C C V M o.V 8 8 M C W M u R &.V C Y R M R W R M M V u 9 F V V B [ Y M 8 C M M M V C B 8 8 8 M M B F F M u 8 M M 6 8 C +.V P C R V V A A 8 A W &.+.e.4.~ / +.A @.Z T v Y C ~ Y Y R 8 u M a 6 % , 7 7 @ 4 I , , g y , $ $ @ @ + $ * * $ # # # # # # # # # # # # + + + + o o o o o o # * * * # + + o X .         O X o o o             O X o # & & & & & # o                                                                               O O O O O O O O X X X X o o o o o o o o o O                         O O O O O O O O O O O O O O O O O O O O O O O O X : - q q q ",
"l l f l f f f f k k k k j h { :.h.I.R.R.U.U.U.U.U.U.U.U.R.R.R.R.R.R.R.R.U.I.L.h.t.,.=.} ] G h h h h h g h h h j h h k k h h h h j 1.] ] ] ] X.X.X.X.{ { X.{ X.X.{ { X.X.} } } }  . . . .} } } } } }  . . . . . . . . . . . . . . . . . .} } } }  . .} }  . . . . . . . .#.#.#.#.#.#.#.#.#.#.#.#.#.#.#.#.#.#.} +.+.+.+.#.+.#.O.#.O.O.+.+.+.$.E +.+.W [ #.+.W R W [ R P Y E } [ R [ } +.#.+.O.+.+.+.=.O.$.O.+.[ W W T Y T T Y T Q ~ o.%.o.@.@.@.@.@.@.3.4.6.6.6.6.8.8.8.4.4.3.3.3.&.&.( / @./ ^ / ^ T T Q ^ / / ~ ~ Q Q Q Q Q T T Q J @.%.~ Q T ~ ~ ~ ~ ~ T ~ Q L L L L A C C C C C Z V W Z x 8 M C P V 8 +.W W R R M C R E V V Y C V 9 C Y M Y B M M C C B M M C V M 9 9 8 8 u F R V 8 7 u M 6 6 M R [ Y M W R C 8 6 A T T o.A o.O.~ O.~ N Z T Z v C L W W V Y R 2 6 B V 8 7 5 1 y 1 y F $ $ , y D p 4 4 w < * # # # # # # # # # # # # # # # # + + o o o o X o + & = = * * & + o X           O o o X             O X + # # # # & & & o O                                                                             O O O O O O O O X X X X o o o o o o o o o O           O O O O       O O O O O O O O O O O O O O O O O O O O O O O O o & - q q q ",
"l l f f f f f f k f k g h h ] *.h.I.U.U.U.U.U.U.U.U.U.U.U.U.R.R.R.R.R.U.P.L.t.:.#.} ] U j j h h g g g g h h h j k h j j j j j j 1.U ] ] ] ] X.{ X.X.{ { X.{ X.X.X.{ X.X.} } } } } }  . .} } } } } } } }  . . . . . . . . . . . . . . . .} } } }  . .} } } } } }  . . . .#.#.#.#.#.#.#.#.#.#.#.#.#.#.#.#.#.$.} +.#.#.+.+.+.#.#.#.O.+.+.O.$.[ +.W R R R C R E E R Y V F [ [ o.[ E R R P P F F Y F F R R W [ [ W R Y Y Y A L T Q ~ ~ %.@.@.@.@.@.@.4.4.5.8.u.k.k.k.k.k.7.8.5.9.3.3.&.@.( ( @.@.@.^ ^ ^ T T T ^ / ~ ~ ~ ~ ^ ^ ^ ^ ^ ^ ^ ^ / / ^ ^ ^ ^ / / / ^ / ~ Y L L L A C C C C L T C N ~ M 6 9 Z R R M 9 O.=.E R Y 8 M R R R C C F W C C W W C V R V Y Y V M M M V C M M u 8 M V P B 9 7 7 8 7 6 6 C R W M C F R J V R C Y W T / o.Q O.~ Z Q L Y v W Z W L M +.a 5 2 1 7 u y 7 1 7 y , V $ $ , $ $ , $ # $ $ $ # # # # # # # # # # # # # # + o o o o o o X o + # * = < - * # o X .         O o o O             O X + # # # # & & & o O                                                                             O O O O O O O O X X X X o o o o o o o o o O         O O O O O       O O O O O O O O O O O O O O O O O O O O O O O O + & - q 3 3 ",
"f f f f f f f f k f f G ] X.#.>.L.I.U.U.U.U.U.U.U.U.U.U.U.U.R.U.P.P.P.L.h.,.=. .{ U j j j j j j g h h h j j j h k j j 1.1.U ] ] ] ] ] ] { X.X.X.X.X.X.X.X.X.X.X.X.X.X.X.X.X.X.X.} } } | } } } } } }  . . . . . . . . . . . . . . . . . . . . . . . .}  . . . . .} } } } #.#.#.} #.#.#.#.#.#.#.#.#.#.#.#.#.#.+.#.#.+.#.#.+.#.$.$.O.+.+.+.O.+.+.R C P Y R Y E W R } [ [ O.E E E E o.[ W E V F J F V J J R Q Q R Y Y R T T Q Q ^ / %.@.@.@.3.3.3.3.9.5.8.8.8.7.j.k.j.j.j.j.8.8.5.4.3.3.&.@.@.@.@.@./ ^ ^ T T ^ ^ ^ ^ ^ / / / / / / / / ( @.@.@.( ( ^ ^ ^ ~ %./ ~ ^ T L A A L L A C M C A C W ;.8 v M V F V M M O.R [ E Z 9 M V L L C C J F Y W R F C R Y Y Y C M M u M R C M M 7 a B F V u 7 7 8 7 M 6 a M B [ C P B C C Y W V ~ W / Q Q ~ O.Z L Q T Z Y ~ ~ +.Y C W 6 6 6 > > 7 F u 1 B 7 > a @ , $ $ , , $ + $ $ $ $ # # # # # # # # # # * # # + o o o o o X o o + * < 3 = * # o o X           O O               O X + # # # # * & & o O                                                                                 O O O O O O O O O O X X o o o o o o o O         O o o o O       O O O O O O O O O O O O O O               O O X + & - 3 q q ",
"f f f f f f k j j G ] X.$.,.h.L.I.I.U.U.U.U.U.U.U.U.U.I.U.U.U.U.P.L.t.>.*.} ] G j j j j j j j j h h h h h j j h j j 1.] ] ] ] ] ] ] { X.X.{ X.X.X.X.X.X.X.X.X.X.X.X.X.} X.X.} } } } } } } } } } } }  . . . .} }  . . . . . . . . . . . . . . . . . . . .} } } } } } } } #.#.#.#.#.#.#.#.#.#.#.#.#.#.#.#.#.#.#.#.#.+.#.+.+.#.O.#.+.+.+.+.O.=.R F C P Y R E E E E R [ o.[ R R R R [ W E Y J F F Y Y Q W W Q T Y Y R W o./ ~ / / %.@.3.3.3.4.4.5.5.7.0.j.j.j.j.j.k.k.j.j.N.N.7.8.5.5.4.4.4.@.%.%.%.%.%./ ^ ^ / ^ ^ ^ / / ( ( ( ( ( ( @.@.@.4.@.@.^ ^ ^ ^ ^ ^ ^ ^ ^ Q T T L Y T R Y N A A A A ~ Q C M 8 M P C 6 R Y V W W M u u 8 M M M V F R Y C V V 8 W C F C V M u u C V B B 7 M V D V u 7 u u 7 a 6 8 7 M u o.R W V M V W C Y W o.Q L Q %.Q Q N Y C v %.L W O.C Y F 8 6 7 1 1 1 7 7 7 7 7 > 7 $ $ $ $ * * $ $ # $ $ # # # # # # # # # # e r = = + + + + + o + + * 3 < * * * # + o X                             O X + # # # # * & & o O                                                                                 O O O O O O X O O O X X o o o o o o o o O     O o + o o o O     O O O O O O O O O O O O O O               O O X # & - 3 q < ",
"f f f f k k ` ] ] ..,.,.t.L.U.I.U.U.U.U.U.U.U.U.U.I.I.I.U.P.L.L.t.,.#.} ] G j j j j j j j j j j j j j j j j j j j 1.] ] ] ] ] ] ] ] { { X.X.X.X.{ { X.X.| } } } X.X.} } } } } }  .}  . .} } } } } }  . . . . .} } }  . . . . . . . . . . . . . . . . . .} } } } } } } } #.#.#.#.#.#.#.#.#.#.#.#.#.#.#.#.#.#.#.#.#.#.#.#.+.+.+.+.o.+.+.+.+.O.F B V P Y R E E E E P [ } [ +.+.+.+.W E Y P Y F Y W W W W W Q Q Q W o.o.+.%.%.O.@.&.4.5.5.5.r.r.7.7.j.j.k.z.z.l.l.x.k.k.k.j.j.N.7.8.8.5.5.4.4.&.@.@.@.@.%.%.%.%.%.( ( ( @.@.@.@.@.@.@.@.@.@.^ @.( 3.( / ^ ^ ^ ^ / ^ ^ ^ Q T T T Q Q T Y T A Z L / T V M 8 V C C a Y V W W C M a u u 8 m B B B V R W R V V M M B C C M 8 9 M V V u M V V D V u u u 7 7 6 a 9 V B V Y o.Y M M V o.M W +.Q Y Q W W ~ N L 8 L T W Y W E V R B 7 8 9 5 > 5 5 5 5 y 5 1 1 , $ $ $ , , $ # # $ # # # # $ $ $ $ $ * * & 3 = # # # # # # # * < = * * = * # # + o                             . X o # # # # & & & : X O                                                                               O   O O O O X X X X X X o o o o o o o o o O O o + & & : o O     O O O O O O O O O O O O O O               O X X & * - q 3 < ",
"f f k k k j ] X.$.>.L.L.P.U.U.U.U.U.U.U.U.U.U.U.U.U.I.I.L.h.t.>.*.} ] G j j j j j j j j j j j j j j j j j j j j 1.] ] ] ] ] ] ] { { X.{ { X.X.X.X.X.| { | } } } } } } } } } } }  . . . .} } } } } }  . . . . . .} }  . . . . . . . . . . . . . . . . . .} } } } } } } } #.#.#.#.#.#.#.#.#.#.#.#.#.#.#.#.} #.#.} +.+.#.+.o.o.+.o.} o.+.+.[ R R V V P Y R E E E E R P R } } } } } E R P C F Y W [ o.o.[ W ~ o.o.o.o.+.+.O.O.O.&.&.5.7.7.7.u.u.j.i.u.j.j.l.x.x.x.x.x.x.x.j.j.j.N.7.7.8.5.5.8.5.4.4.4.3.3.@.@.@.@.@.@.@.@.@.@.@.@.@.@.@.@.@.( ( @.@.@.@.%./ / / %.@./ ^ ^ Q Y T T ~ ~ T A A A A Y Q A V M V P V C R W R C C M M C M 8 8 V V V V Y W R M W Y J C M 8 8 M 6 M B F M M V V F Y B 7 7 u 7 6 M u 9 M M C C W R 8 8 T ~ C W Y Y Q Y L ~ Q N Z Z C W +.R C Y 8 [ M 9 u 7 1 6 > 7 > a 1 5 5 5 , , , 1 < $ # $ $ $ # # # $ $ # $ $ $ # * & & & & # # # # # # * = = * * * # # + o                             O X o # # # # # * & : X O                                                                                   O O O O X X X X X X o o o o o o o o o o o o : & & & o O O     O O O O O O O                           O o o & * < 3 3 < ",
"f k k k k j ] ..,.P.(.U.U.U.U.U.U.U.U.U.U.U.U.U.U.I.L.g.t.,.*. .X.] G h h j j j j j j j j j j j k j j j 1.U U ] ] ] ] ] X.X.X.X.{ { X.X.{ { X.{ } } } } | | } } X.X.| | | | | } X.X.} } } }  . . . . . . . . . . . . . ..... . . . . . . . . . . . .} }  . . . .} } } } #.#.} } #.#.#.#.#.#.#.#.#.#.#.+.+.#.#.} } +.+.+.+.+.+.o.[ +.#.o.P F F R } P R #.} [ R Y P P Y P [ R P F V V C V W E Y T o.o.~ W ~ ~ o.o.o.%.@.@.&.3.4.8.7.7.7.u.j.j.j.j.j.j.l.x.x.x.x.x.x.x.x.j.x.j.j.0.u.7.7.5.7.8.5.5.5.5.4.4.3.3.3.3.3.3.3.3.3.3.3.3.2.2.@.@.2.( @.( @.&.@.( / ( @.%./ ^ ^ ^ ^ T T ^ ^ Q A A L A A Q o.C A C Z T C C W W V P 9 9 B E B V 6 7 u M F R [ B M C Y Y Y V u M M 7 B M Q M m u V V V M 6 > 5 8 5 u 6 u B V F M [ B Y V O.V Q Y T T L Z T ~ A A 8 Z A O.Y A u V Y Y u 7 7 6 7 2 5 7 1 7 @ , 4 7 5 , , 4 $ # $ * # # # # # # # # $ $ * $ # # # # # # # # # # # * * * * * # # # o                             . X + # # & & * * * + X                     O O o O o o O O                                                 O O O O O O X X X X o o o o + + + + X o + + # # & # + X O           O O O O O O         O O O O X X X X + # * - < 3 3 3 ",
"k k k k k j ] ..,.L.(.U.U.U.U.U.U.U.U.U.U.U.U.U.L.g.t.:.=. .{ U G G h g j j j k j j j j j j j j j j 1.] ] ] ] ] ] ] ] ] X.X.X.X.X.X.{ { { { X.X.} } } } | | } } { X.| | | | } | X.X.} } } }  . . . . . . . . . . . . . ... ... . . . . . . . . . . .} }  . . . .} } } } #. .} } #.#.#.#.#.#.#.#.#.#.#.#.#.[ } +.#.+.+.+.O.+.[ [ } o.} [ F V F R E } o.[ Y F F P F F F F F F V V C F C C W W Q Q W W Q Q Q Q W ~ / %.O.&.3.4.8.7.0.0.j.j.j.j.j.j.x.x.z.x.x.c.V.c.x.x.x.j.l.x.l.j.i.u.u.7.8.7.7.7.7.7.7.8.8.5.5.5.5.9.9.9.3.3.3.3.3.3.3.3.2.2.2.3.3.@.@.@.@.@.@.%./ ) ^ / / ^ L T Q Q T A L Q C Q ~ ~ A Y N W Z L ~ W V V M 8 a V R B M 6 7 u C [ W F B V W W C M V u 8 M V 8 V F m B a V a V a 6 2 8 6 8 u 6 7 F M B R 8 M M Y W T Q T Y Y C A Q ~ T 8 Z M +.Q Y F B o.R u M M 6 > 5 > u , p 5 1 1 5 1 $ $ * 3 # # $ # + + # # & # * * * $ $ # # # # # # # # # # # # # * * * # # # o                             . X + # # & & * * * # X                 O O X o o o o o o O                                             O O O O O O O O X X X X o o o o + + # + + + # # & & # # + + o O O O O O O O O O O O X X X X X X X X o o + & & * - < < 3 3 3 ",
"k k k k j k ' X.<.>.P.U.U.U.U.U.U.U.U.U.U.P.L.h.t.,.=.} ] U j j h h h g k k k j j j j j j j j j j 1.] ] ] X.X.X.X.] ] ] X.X.X.X.X.X.X.X.{ { { X.X.} } } } } } } X.{ | | { { } } } } } } } } }  . . . . . . . . . . . . ..... . . . . . . . . . . . .} } } }  . .} } } } #.#.} } #.#.#.#.#.#.#.#.#.#.+.#.#.[ | #.#.+.o.o.o.[ +.$.} [ E E F F F P R +.+.E V F F F F F D V V D F P Y Y Y Y W W ~ ~ W W Q W ~ ~ ~ ~ %.@.&.3.4.8.7.7.0.j.j.k.l.x.x.x.x.x.x.x.x.x.x.x.x.x.x.x.x.l.l.l.l.k.k.j.u.u.u.u.u.u.u.u.u.0.0.7.7.8.8.8.8.8.5.5.5.9.9.9.9.3.3.3.3.( 3.3.@.@.@.@.@./ ^ %.%.L / A L / ^ T T Q T T T o.Q Y A C o.L W ~ V V 8 9 M P u 9 B M 9 u M W W W V M V C R W F M u M 7 R 8 C V C a C M M V M 7 8 6 a 6 a M u E B V R > C J W Y o.A A L A Z T Q A C 8 M C W o.V V u F W u 8 B 5 7 > u u , F 7 , , , , , 1 y 4 , * $ # # $ * * * * = = < , = = $ # # # # # # # # $ $ * * * & # # o                             . X + # # & * * * * # X               O o + # & & & & & & o O O     O O                     O O     O O O O O O X X X X X X X X o o : : # # + + + + # # & # # # # # # o o o o o o o o o + + # # # # & & & & & & * - - < < < < 3 3 3 ",
"k k k k k k ` ] $.,.P.U.U.U.U.U.U.U.U.P.P.L.t.>.*.} { U G j h h g h h h k k j j j j j j j j j j 1.] ] ] X.X.X.X.X.] ] ] X.X.X.X.X.X.X.X.{ { X.X.X.} } } } } } } { X.| | { X.} } } } } } } }  . . . . . . . . . . . . . ..... . . . . . . . . . . . .} } } }  .} } } } } #.#.} } #.#.#.#.#.#.#.#.} } +.} } +.+.+.+.+.+.o.o.o.o.+.E R R F R R P F [ } } [ R R R D V V V V F P E W R R R R W W o.o.W W / o.%.%.%.%.@.&.4.4.8.7.0.0.N.j.x.z.x.x.x.x.x.x.c.c.c.x.c.c.x.x.x.x.x.x.x.x.x.x.x.l.k.j.j.j.j.l.j.j.j.j.j.i.u.u.0.0.0.0.0.0.q.5.5.9.5.9.9.9.3.2.5.3.@.@.2.2.@.( ( ( @.@.^ L L ^ / / Q A ~ T Y ~ %.Y N L o.W L W C C C a u M 6 8 2 6 B 8 9 V R W Y M u V Y W F F V u B u u B R V F B P a a V V a 5 a 8 9 u M V B M F 6 M M V Y %.N N A A N Z N A v 9 8 Z W W W M C Y W A B M Y a 6 7 a 7 7 V y $ , , 1 , , w 4 , , * & & & * = = = , < = * $ # # # # # # # # # $ $ * * * & & # o                             . X + # # & * * * * # X               O o & & * - ; & & & o o X O O O O                     O O O O O O O O O O X O X X X X o X o o : : + # # # + + # # & & # # # # # : : : : : o o & & & & * * * * - - - - - - - < 3 q q < 3 3 3 3 ",
"k k j k k j j 1...,.t.P.U.U.U.P.I.U.P.h.,.:.#.} { ] j j g k k k k k k k k j j j j j j j j j 1.] ] ] X.X.X.X.X.X.X.X.X.X.X.X.{ { X.X.X.X.X.X.X.X.X.X.} } | | } } } } } } } } } } } } } } } }  . . . . . . . . . . . . . .#.#.#.#. . . . . . . . . . . . .} } } }  . . . .#.#.#.#.#.#.#.#.#.#.#.#.#.#.} } } +.#.#.+.+.+.} [ [ [ [ E D R P R E E [ [ F P B [ [ E W E R F F F R R Y R E W W W ~ ~ W Q ^ / / @.@.@.@.&.4.5.8.7.0.0.0.N.j.x.z.z.x.x.x.c.c.c.D.D.D.D.D.D.x.x.x.x.x.x.x.x.x.x.x.x.l.l.x.x.x.l.l.l.x.l.l.j.j.j.j.j.j.j.N.0.0.q.5.5.5.5.9.9.3.5.3.3.3.3.@.@.@.( ( @.3.( ^ L ^ / @.^ A Q T N / ~ %.Y Y W &.N W F C V M u u 7 7 7 7 6 V V 7 Y F R F 6 V 8 W u M u 8 1 u C B V V V V Y V M V C a 6 a 7 7 a V u a 8 u m 8 M C J o.N V A A N N N C M M v Z Q Q A W ~ A W o.Z R V R a > 7 7 > > } 7 5 5 , , , 4 1 , , , * * * * * = , < 4 * $ $ $ # # # # # # # # # & & * * & & # o                           . X X + # # # # # & * & o X             O + & * ; ; & & & & o o X X O O O       O O O O O O O O O O O O O O O X X X O X X o o o o o o : : # # # # # # # # # # # # # # # & # & & & & & & & * - - - - - - - - < < < < < 3 3 3 3 3 3 3 3 ",
"k k j k k k j ' X.<.,.L.P.U.P.P.L.L.>.:.#.| ] G j j j j j k k k g k k k j j j j j j j j 1.] ] ] X.X.X.X.X.X.X.X.X.X.X.X.X.X.{ { X.{ X.X.X.X.X.X.X.X.} } | | } } } } } } } } } } } } } } } }  . . . . . . . . . . . . . .#.#.#.#. . . . . . . . . . . . .} } } }  . . . .#.#.#.#.#.#.#.$.$.=.=.=.#.#.#.} } o.#.#.#.+.o.[ [ W W E F P [ F P } #.R P R B V Y F P Y Y R R R [ P P W W W Y L ~ ~ W Q Q ~ / / @.@.@.&.9.8.7.u.j.N.N.j.x.x.x.x.x.c.c.c.c.c.D.D.D.D.D.D.D.D.D.D.D.D.D.c.c.c.c.x.c.x.x.c.V.c.x.x.x.x.x.x.x.l.l.l.j.j.j.j.j.0.q.q.q.q.5.5.5.9.9.5.9.3.2.f.( @.f.( ( 9.3.@.( / / @.%.A T A Z ~ o.%.~ Z ~ O.C W F Y V M m u 7 7 7 7 6 7 u V u +.W Y M 8 M C R 7 2 8 2 9 M V V V V V P V V C V F 6 a 7 M 5 B u u u u V 6 C M V Y Y T T T Y Y Y Y Y L A Y Q Q L Q W Q T &.A C M E P 6 u u 7 5 , P , 1 , 1 , , , , * * * & & $ $ * , 4 4 * # # # # # # # # # # # # & & * * & * # o                           . . X + + + # # # & * & + X O         O X o : : & & & : o o o X O X O O O       O O O O   O O   O O O O O X O X X O O X X o o o o o o : # # # # # # # # # # # # # # # # & & & & & & & & & - - - - - - < < < < < < < < < < 3 3 3 3 3 3 ",
"k k j k j j j j ] ..,.t.L.P.L.h.>.,...} ] 1.j j j j j j j k k k h h k k j j j j j j 1.U ] ] X.X.X.X.X.X.X.X.X.X.X.X.X.X.X.{ X.X.{ { | | X.X.X.X.X.} } } } } } } } } } }  . . . . . . . . . . . . . . . . . . . . . . . ......... . . . . . . . . . . . .} }  . . . . . .#.#.#.#.} } } } +.#.#.#.#.#.+.} +.+.#.#.#.#.} } } } [ [ P B R [ R E #.F F R B V F P R R E W W R R [ [ Y W ! Y L ~ W Q Q W / @.@.&.&.3.4.8.0.j.j.x.x.x.x.x.x.D.D.D.D.D.D.D.D.D.V.D.D.D.D.D.D.D.D.D.D.D.D.D.B.B.B.D.D.D.V.V.V.B.x.x.x.x.x.x.x.j.j.j.j.j.x.x.x.x.N.p.0.0.q.q.5.5.8.5.9.2.f.2.f.f.( ) ( @.( / / @.&.%.A T N A Q O./ O.Z Q +.T W F W V M u u 7 7 7 7 6 1 6 B V [ O.M V M 8 C B B u 2 2 6 u V V V V V Y Z V Y B C B 7 9 B > 9 u u a 8 C 6 V M M 8 V M M C C Z Z V Z v N Q L Q / W Q W O.Q Q A V M [ a 7 5 1 > , 1 B $ $ , , , , , $ * $ $ $ $ # $ , < , $ # # # # # # # # # # # # & & * * * * # o                         . . X X + + + # # # & * = & + X       O X o o o o o O O O O O O     O O O O         O O       O O O O O O O X X X X o o o o o o o o o o : : # # # # # # # # # # # # & & & & & & & & & & ; ; * - - - - - < < < < < < < < < < 3 3 3 3 3 3 ",
"k k j k j j j j 1.X.<.>.h.L.>.,... .] U j j j j j j j j j k k k h h k h j j j j 1.] ] ] ] X.X.| X.X.X.X.X.X.X.X.X.X.X.X.X.{ X.X.{ { | } } } X.X.X.X.} } } } } } } } } }  . . . . . . . . . . . . . . . . . . . . . . . ......... . . . . . . . . . . . .} } }  . . . . .#.#.} } } } } } } } } } #.#.#.+.+.+.#.#.#.} } [ R P F F B V [ W W V } F R V F B W [ } +.W W R Y [ E E [ P R ! W W Q Q Q / @.@.&.&.4.4.8.0.j.k.x.x.x.x.x.x.x.D.D.D.D.D.D.D.D.D.A.A.A.D.D.D.D.D.D.D.D.D.D.D.D.D.D.D.D.D.V.V.V.D.x.x.x.x.x.x.x.x.x.x.x.x.N.x.N.x.N.x.j.N.0.q.0.q.0.5.9.9.9.3.2.3._ ( ( ( @.@.@.( @.^ ^ A Z A T O./ O.Q C +.W W L o.M M 8 u 9 7 7 7 6 6 6 6 u R +.+.C V 6 R 9 B B 6 1 > 6 V V V V V Y M V Y F M E 6 8 7 5 > 7 8 u u C M 8 M u 6 V C C V Z Z Z Z v v 8 L C W W Z v Z L O./ A V C B W I u 5 1 > > 7 7 , $ , , , , $ $ $ $ * * $ * * $ # # # # # # # # # # # # # # & & * * * * # o                         . . X X + + + # # # & & * * # X X O O X o o o o O                       O O                     O O O O X X o o o o o o o o o o o o o o : # # # # # # # # # # # # # & & & & & & & & & & & * = = - - - - - - < < < < < < < < 3 3 3 3 3 3 ",
"k k j k k k j j j ]  .,.,.,... .] 1.j j j j j j j j j j j j k k j j j j j j G U ] ] ] X.X.X.X.| X.X.X.X.X.X.X.X.X.X.X.X.{ { { { { { X.X.X.X.| X.X.X. . . . . . . . . . . . . . . . . . . . . . . . . . . . . . . . . . ......... . . . . . . . . . .} } } }  . . .#.#.#.#.#.} } } } } } } } } #.#.#.#.} } +.#.#.+.[ [ E P V B V B #.[ [ P Y [ F D V F R o.R +.[ M V E +.W W W R R R W W W ~ o.O.O.@.&.&.4.4.8.7.j.j.x.x.x.x.x.x.x.x.D.D.D.D.D.D.A.A.A.A.A.A.A.D.D.D.D.D.D.D.D.D.D.D.D.D.D.D.D.D.V.V.D.D.D.x.x.x.x.x.x.x.x.x.x.x.x.x.x.x.x.x.x.p.p.q.0.q.q.9.9.9.9.9.9._ 2.( ( @.3.@.( @.^ / S A N W O./ o.Q L o.Q A N ~ M 8 8 8 9 9 9 9 6 6 6 6 9 M o.o.W M M R B V M 8 7 2 7 M M M L C V M C M W a P M 8 6 8 6 9 9 6 V V 8 8 M 8 6 M V C C Z N Z V 8 8 8 C A Q L 8 Z Z Z v &.~ V V a M H R > 7 $ $ > 7 1 $ $ , 1 , $ $ $ $ $ $ $ , , $ $ * $ # # # # # # # # # # # # # & & & & # X                         O O X X o + + + # # & & * & & + o o o o & & o o O                   O O                             O O X X X o o o o o o o o o o o o o # # # # # # # # # # & & & & & & & & & & & & & & = = * = = = = = < < < < < < < < < < < < < < 3 3 ",
"k k j k k k j j j G ] ....X.] j j k k k k k k k k k k j j j j j j j j j G U ] ] ] X.X.X.X.X.X.X.{ { X.X.X.X.X.X.X.X.X.X.{ { { { { { X.X.X.X.| | X.X. . . . . . . . . . . . . . . . . . . . . . . . . . . . . . . . . . ......... . . . . . . . . . .} } } }  . . . . . .} } } } } } } } } } #.#.#.#.} } } #.#.+.[ R W R P V V F D $.W W P Y [ F F F R E P +.O.V B F [ +.~ W W Q W W ~ / o.o.%.O.@.&.3.4.4.5.7.0.j.j.x.x.x.x.c.x.x.x.D.D.D.D.D.D.A.A.A.A.A.A.A.A.A.A.A.A.A.D.A.D.D.D.D.D.D.D.D.D.V.D.D.A.D.c.x.x.x.x.x.D.D.D.x.x.x.x.x.x.x.x.x.p.p.p.p.x.j.5.q.9.9.5.9.f.3.3.( @.@.@.( ( ( ( L T N Q +.O./ W Q ~ ~ Y Z o.N v 8 8 9 9 9 7 6 6 6 6 9 8 W [ W C V Y B B M 8 V > 9 9 M 9 R V C M P V W M M C u 6 a 9 7 u 7 B M a a M 8 6 9 9 M Y A M M L Z 8 8 Z L Y W L L L x x L ~ C M M M V y H p 1 @ , 1 , $ $ , 1 , $ * , , $ + # , , $ # $ # + + + + + # # # # # # # # & & & # +                           O O X X o + + + # # & & * & & + o o o o & & o o O                                                     O X X X X X X X o o o o o o o o o # # # # # # # # # # & & & & & & & & & & & & & & = = * * = = = = - - = = < < < < < < < < < < 3 3 ",
"k k j k k k j j j j 1.] ] ` j k f k k k k k k k k k k k j j j j j j j ] ] ] X.] X.X.X.X.{ X.{ X.{ { X.X.X.X.X.X.X.X.X.X.X.X.X.X.| | X.X.| | | | .... . . . . . . . . . . . . . . . . . . . . . . . . . . . . . . . . . ......... . . . . . . . . . . . .} } }  .} }  . .} } } } } } } } #.#.#.$.#.} } } +.#.#.} { I E U F V V I P =.R R P Y [ F V [ o.Y W [ Y F P E [ o.o.W W ~ ~ ~ / o.o.@.@.@.&.4.4.4.5.8.0.j.j.j.x.x.c.D.c.c.D.D.D.D.D.D.D.D.A.A.Z.Z.A.A.Z.Z.A.A.Z.A.S.S.S.S.A.A.A.A.A.A.A.A.A.A.D.V.V.V.c.x.D.D.D.D.D.D.D.D.D.D.D.x.x.x.x.x.N.p.p.x.x.q.q.9.9.8.9.3.3.3.( ( @.( @.( ( / ^ L S T / O./ ~ ~ ^ W L N ~ M 8 8 8 9 9 9 9 9 9 9 9 9 9 R o.~ F C R M F 8 u M 7 6 M 6 V 8 Y Y Z R C B W V M M 7 M 8 5 a 9 a a B B M 8 > 6 6 u Y R Z M L Y 6 8 M C Y / &.N C A M Q W Y M B B B B D V p , , , $ * * $ , 1 , , , * $ $ $ $ $ $ $ $ # + + + + + # # # # # # # # & & & # o                           O O X X o + + + # # & & * & : o o o o o : : : : O                                                               O O O O o o o X o o o o # # : : # # # # & & & & & & & & & & & & * * * * * * * * = = = = - - = = < < < < < < < < < < 3 3 ",
"k k j k k k j j j j ` ` ` j j k k k k k k k k k k k k k k j j j ] ] ] ] ] X.X.X.X.X.X.X.X.X.{ X.{ { X.X.X.X.X.X.X.X.X.X.X.X.X.X.| | X.X.| | | | | .. . . . . . . . . . . . . . . . . . . . . . . . . . . . . . . . . . ......... . . . . . . . . . . . .} } } } } } } } } } } } } } } } #.#.$.#.#.| } | } +.} } { P I F V B D R R =.R P F Y [ F W P R +.W o.V V W W o.o.o.~ o./ / / / / %.@.@.@.4.4.5.5.8.0.N.j.j.j.x.x.D.c.c.c.D.D.D.D.D.D.D.D.A.A.Z.Z.A.A.Z.Z.A.A.S.S.S.S.S.S.S.S.S.S.A.A.A.A.A.A.A.A.A.V.D.D.D.D.D.D.D.D.D.D.D.D.D.D.x.x.x.x.x.N.p.p.p.q.q.9.9.q.8.9.3.3.( ( ( ( 3.@.@.@.^ A A A / &.@.^ ~ / Q A N ~ M 8 9 9 9 9 9 9 9 8 8 8 u 9 F W W C C W F 7 R 6 u 7 V 8 9 v v C Y C ! L Z E Z M B u V a 5 M u u 8 V V a M > 2 5 8 L R Z M Z C 8 8 M C A C T W L v C M C Y V V C P V F B p 7 1 1 > $ , $ $ y y , $ , 4 4 3 3 3 y y e w 4 4 4 4 4 4 3 3 < = < * + # # # + .                           O O X X o + + + # # & & * & + X O O O o : : : : o O                                                                   O O O O X o o o o # # : : # # # # & & & & & & & & & & & & * * * * * * * * = = = = < < = = < < < < < < < < < < 3 3 ",
"k k j k k k j j j j ` ` ` ` ` j j k k k k k k k k k k k k j ` ] ] ] ] ] X.X.X.X.X.X.{ { { { X.X.X.X.X.X.X.X.X.X.X.X.X.X.X.X. .} X.X.X.X.X.X..... . . . . . . . . . . . . . . . . . . . . . . . . . . . . . . . . . . . . . . . . . . . . . . . . . . . .} } } } } } } } } } } } } } } } #.#.#.#.#.[ #.} } | | | E U P D V B P I [ =.R P F Y } Y V R o.[ [ Y W o.+.o.o.o.o./ ~ ~ ^ / ( @.@.@.3.4.4.8.8.7.0.N.N.j.x.x.x.x.c.c.D.D.D.D.D.V.D.D.A.A.A.A.A.S.S.A.S.S.S.S.S.S.S.S.F.S.S.S.S.S.S.Z.A.A.A.A.A.A.A.A.A.D.A.A.A.A.S.A.D.D.D.D.D.D.D.x.x.x.N.x.N.p.q.q.q.5.9.8.8.5.3.3.( ( ( ( 3.@.@.@.^ L Q S / ^ %.O./ T ^ v N O.x 8 8 6 6 9 9 9 9 M 7 u M 9 M o.W W M C F 8 Y 9 9 2 6 V 1 C Z Z Q Y Q o.Y W M M R C 9 u 6 9 B 5 V u C M C > 5 6 8 C Y C Z Z Z N v Z Z A N Z Q ~ M N M M R V M M F V F D a u 7 5 1 > , > $ a 7 , $ , , , 4 , * $ # # # # # $ $ $ $ $ $ $ i 3 = # # * # X                         O O O O X X o + + + # # & & * & : X O   O o o : & & : o O                                                                       O O X X X X o o o o : : # # & & & & & # # & & & * & & * * * * * = = = = = = = = = = < - < < < < < < < < < < ",
"k k j k k k j j j j ` ` ` ` ` j j k k k k k k k j j j j j ] ] ] X.X.X.X.X.X.X.X.X.X.{ { X.X.X.X.X.X.| | X.X.X.X.X.X.X.X.X.X.} } X.X.X.X.X.X..... . . . . . . . . . . . . . . . . . . . . . . . . . . . . . . . . . . . . . . . . . . . . . . . . . . . .} } } } } } } } } } } } } } } } #.#.#.#.} } #.} } { { | E F D D F a R F } #.P P V E } Y B Y [ [ ;.-.E W W W W o.~ / / / / ( @.@.2.3.4.5.8.7.0.0.0.N.j.x.x.x.c.c.c.D.D.D.D.D.D.V.D.D.A.A.A.A.S.S.Z.S.S.F.S.F.S.S.F.F.F.F.F.F.F.F.F.G.S.Z.S.A.A.A.S.S.S.S.S.S.S.S.S.S.S.D.D.D.D.D.D.D.x.x.x.x.x.x.N.q.q.q.5.9.8.5.9.9._ _ _ ( 3.@.@.@./ ^ T A / ^ / @./ ^ ^ N N o.8 m M 6 8 6 9 9 6 M V 6 M 9 Z ~ ~ ~ L V M F M 8 u 6 6 M 9 M C v ~ C L O.R W C M M R C C 8 0 8 9 u 8 a u M M R C M M L ! L V Y v N Y M A N Z L Q Q N M M Y V B B R F F F V u 8 p 7 5 > > , 4 1 , , $ $ , , $ + $ # # # # # $ $ $ $ $ $ # + $ , , * * # o                         O O O O X X o + + + # # & & * & & o O     O o o & & & : o O                                                                       O O O     X X X X o o o o # # # # # : : # & & * * & * * * * * = = = = = = = = = = < < < < < < < < < < < < ",
"k k j j j j j j j j ` j j j j j j j j j k k j j j j ` ` ] ] X.X.X.X.X.X.X.X.X.X.X.{ { { X.X.X.| | ..| | ...... .X.X. . . . . . .| | .......... . . . . . . . . . . . . . . . . . . ... . . . . . . . . . . . . . . . . . . . . . . . . . . . . . . . . .} } } } } } } } } } } } } } } #.#.#.#.#.#.#.} } } { E { I D V s V +.P H #.+.P F B } [ P E o.O.O.[ R o.J R E W o.+.%.%./ ( ( @.2.9.5.5.7.7.0.u.j.N.N.j.x.x.c.D.D.D.D.D.D.D.D.A.A.A.A.Z.Z.S.S.S.S.S.S.G.F.F.F.F.F.F.F.F.F.F.F.F.F.F.F.F.G.S.S.S.S.Z.S.S.S.S.S.F.F.F.S.S.S.A.D.D.D.D.D.x.x.x.x.x.x.x.p.q.q.q.9.5.5.5.5._ 3.3._ @.@.@.@./ ^ T T ^ ^ Q &.~ / ~ Z Z T C 6 6 M J 6 8 9 7 M C M u 8 V W o.W W C 9 Y M M M 6 6 a 9 9 C V ~ C L O.W W E M 6 V M V 5 8 B > 8 a 8 M a 2 > 6 9 M Y W W A Y N N T L N W W ~ ~ Y / o.W W Y R W V M V Y C V M 7 7 7 7 7 4 1 4 4 , $ $ , 1 $ @ $ $ $ # # # # $ $ $ $ $ # # # * , < < & .                         O O O O X X o + + + # # & & * & & o O O     O o & & & : o o O                                                                       O         O O O O O X o o o o o o o o # & ; * * * * * * = = = = = = = = - - < < < < < < < < < < < < < < ",
"k k j j j j j j j j j j j j ` j j j j k k k j j ` ` 1.] ] X.....X.X.X.X.X.X.X.X.X.X.| | | X.X.| | ............ . . ... . . . . .| | ............ . . . . . . . . . . . . . . . . . ..... . . . . . . . . . . . . . . . . . . . . . . . . . . . . . . . .} } } } } } } } } } } } } } } #.#.} #.#.} #.[ } } R R E U D B D R R V I +.} F V B #.[ R [ W [ [ Y [ R Y R W ~ o.O.@.@.( ( @.2.3.5.5.7.0.u.i.i.j.N.x.x.x.x.c.D.D.D.V.D.D.D.D.A.A.A.A.Z.Z.S.S.S.S.S.S.S.S.F.F.F.F.F.F.F.F.F.F.F.F.F.F.F.F.F.S.S.S.Z.Z.S.S.F.F.F.F.F.F.S.S.S.A.D.D.D.D.x.x.x.x.x.x.x.N.p.q.q.5.9.5.5.5.3.3.3.2.( @.@.@./ ~ L Q ^ ~ T &.^ @.^ A Z A N 6 7 u W 2 8 9 9 M B W 8 M V R W R ~ L u M B B V 6 6 8 > 9 M o.! Y Q o.o.W [ V V V a P 9 6 a 6 M C u C V 9 5 9 9 6 M ~ O.T N C T 9 Y Z ! Q Q Q %.Q L L 8 9 M B R B u M B M M V a u 7 5 5 4 D a 4 4 4 4 , $ $ $ $ * * * $ $ $ $ $ $ $ $ # # # # # * = # X           O O         O O O O X X o + + # # # & & * & & o O O       O o & & & : o o O O O     O O O                                                                       O O O O X o o o o o o : & ; * * * * * * = = = = = = = = - - < < < < < < < < < < < < < < ",
"k j j j j j j j j j ` ` ` ` j j j j j j j j ] ] ] ] ] X.X.X.X.X.X.X.X.X.X.X.X.X.X.X.X.X.X.X..... . . . . . . . . . . . . . . . . . ..... . . . . . . . . . . . . . ..... . . . . . . . ......................................... . . . . . . . . . . . .} } } }  . . . .} } } } } } #.#.#.} } } } $.| | { R I E F B V I R B B R [ } V V C +.W [ o.W E W [ W J Y R ~ +.%.O.@.@.@.@.2.3.9.8.7.0.i.i.0.0.N.j.x.x.x.c.c.D.D.D.D.D.D.D.D.A.A.A.A.S.A.A.A.S.S.S.S.F.F.F.F.F.F.F.F.F.F.F.F.F.F.F.F.F.F.F.F.F.S.S.F.F.F.F.F.F.F.F.F.F.S.S.S.S.D.D.D.D.D.D.D.x.x.x.x.x.p.q.5.5.9.9.9.3.3.f.2.( @.@.@./ ^ L ^ S ^ ^ @./ @.^ L Z N Y 8 7 9 u u 9 8 M 8 A Y N A N C +.O.+.T C m C C W 8 > 8 7 6 N Z o.W Y Q o.~ ~ 8 Y 8 M 8 a M 9 5 M P M C +.R M 8 > 6 V Q Q W Y Q Z Z A L T ~ A Q ~ +.L C C m B B V R P V M F W a 7 u 9 5 1 5 a 7 3 3 , , , * $ $ * * * * $ $ $ $ $ $ # # # # # # # # * # + X         O O           O O X . X o + + # # # # & * & & + O           o : & & & : o o o O O O O O O O                                                                         O O O X X X O X o o & & * * = = = = = = = = = = = = - - = = , , < , < < < < < < 3 3 ",
"k j j j j j j j j j ` ` ` ` ` ` ` ` ` ` j 1.] ] ] X.X.X.X.X.X.X.X.X.X.X.X.X.X.X.} } } X.X.X. ... . . . . . . . . . . . . . . . . . ....... . . . . . . . . . . . . . ... . . . . . . . ......................................... . . . . . . . . . . . .} } } }  . . . .} } } } #.#.#.#.#.} } } } =.| { E E E I D V F E P B F R [ } F F R R R +.O.[ R [ o.J Q Y R o.&.O.@.@.@.@.2.3.9.8.7.0.0.0.0.0.0.j.x.x.c.D.c.D.D.D.D.D.D.A.A.A.A.A.A.A.A.A.Z.Z.S.S.S.S.F.F.F.F.F.F.F.F.F.F.F.F.F.F.F.F.F.F.F.F.F.F.F.F.'.'.F.F.|.|.F.F.F.F.F.F.F.S.A.D.D.D.D.D.x.x.x.x.x.j.q.5.q.5.9.9.9.3.f.2.( @.@.@.( ^ T L A / / @.%.&.^ L Z N Y 8 7 9 u m 9 9 9 B Y V C Y N A W -.W o.V 8 M M C C > 8 8 9 M 9 R &.Q Q +.L L ! E C M M 9 9 a M C M C M R M M R J Y Y W &.&.C N N Z A L L Q L W Q Q %.T M Y u m R M Y P B a Y Y u u a M u u , 7 , , 4 < , $ $ $ # + + + + # $ $ $ # # # # # # # # # + .   & &                     O . X . X o o + # # # # # & & & + O O           O : & & & : o o o o o O O O O O                                                   O O O O O O O O O O X X X X X X O O X o & & * * = = = = = = = = = = = = - - = = , , < < < < < < < < 3 3 ",
"j j ` j ` ` ` ` ` ` ` ` ` ` ] ] ` ` ` ' ] ] X.X.X.X. . .X.X. . .X.X.X.X. .X.X.X.X.} X.X.} X. . . . . . . . ..... . . . . . ..................... . . . . . ..... . ..... . . . ..... . ......................................... . . . . . . . . . . . .} }  . .} }  . .} } #.#.#.#.#.#.#.} } } +.$.| | { U U E I V P F D V R R E } I W [ F R +.o.[ o.O.+.J Q Y ! +.O.@.@.@.@.&.3.9.8.7.0.0.0.0.0.N.l.l.x.c.D.D.D.D.V.V.D.D.A.A.A.A.A.A.A.A.A.A.A.Z.S.S.S.S.F.F.F.F.F.F.F.F.F.F.F.F.F.F.F.F.F.'.'.'.'.'.'.'.'.'.F.F.|.|.|.|.F.F.F.|.'.S.S.A.D.D.D.D.x.x.x.x.l.l.0.q.0.q.8.9.9.3.3.3.( @.@.@.( ^ ^ S ^ / %.&.@.&./ L Z N Y 8 7 9 u M 9 6 8 m M C A T C Y A &.~ +.J m C 8 m J 6 9 6 9 M 2 Z &.+.Q Y W ! ! ! M E V 8 6 9 C C M P B Y F M 9 > 2 M A ~ ~ ~ Q N Z A L L L ^ ^ Q Q L O.Y M V 8 J J M R P 8 C Y V > > a B 7 > 7 , , , , , $ $ $ $ $ # # # # # # # # # # # # # # # # + X X   X q o               O   . X . X o + + + # # # # & * * & X O O           O : & & & : o o o o O O O O O O O O O O O O X X X X X X X X O O O O O X X X X X o o o o o o o o o o o o o o X O O O X o & & * * = = = = = = = = - < - - < < , , < < 3 3 3 3 3 3 3 3 3 3 ",
"j j ` j ` ` ` ` ` ` ` ` 1.1.] ] ' ] ] ] ] X..... . . . . .X. . .X.X.X. . .X. . . . .....X.X. . . . . . . . ..... . ............................. . . . ......... . ......... . ..... . ......................................... . . . . . . . . . . . . . .}  .} } } } } } #.#.#.#.#.#.#.} } +.#.#.| [ { R E I F I I H V D R P R +.[ [ W R o.o.o.o.+.+.o.Q Y Q W o.O.@.@.@.&.3.9.8.7.q.0.0.j.j.l.c.x.x.x.B.D.D.D.D.D.V.D.D.A.A.A.A.A.A.A.D.A.A.A.Z.S.S.S.S.F.F.F.F.F.F.F.F.F.F.F.F.F.F.F.F.F.F.F.'.'.|.'.'.'.'.'.'.|.|.|.'.F.F.|.}.'.F.F.S.A.D.D.D.x.x.x.x.x.x.p.q.0.0.q.9.9.9.3.3.( @.@.@./ ^ ^ L / / @.&.@.4./ L S N Y u 7 8 M 7 9 8 > J M 8 Y W A Y A o.O.+.W C Y M m N V 8 > 6 B 6 N Y &./ L W L W 8 B Y C M 6 9 R M L M V W M 9 8 > 6 M Y N o.Q / N Z L L Z Z / ~ Q ~ / L o.N 9 C C A R V W V V 8 R M 5 5 V 5 7 5 5 , * * $ $ $ $ $ $ # # + + + + + + + # # # # # * = * o O O     - & o O       O O O . X . X o o o + # # # # # & & : X O               O o & & & & : : o o O O O o o o o X X X X o X o X o o o o X X X X X X o o o o o o o o : : : : : : o : : o X O O O O X # & * * = = = = = = = = - - - - < < < , < < 3 3 3 3 3 3 3 3 3 3 ",
"j ` ` ` ` ` ] 1.` ` ' ] ] ' ' ' ] X.....<.,.,.>.>.,.,.,.,.<.<.$.=.$......... . . ...} }  . .X.X. . ......................................................... ................................................................... . . . . . . . . . . . .} } } } } }  .} } } #.#.#.#.#.#.#.| } #.#.#.} [ E R { H F R H V B V R F R o.[ [ [ o.O.[ o.O.+.o.~ W Q W o.o.+.@.@.&.3.5.8.0.0.0.0.i.j.l.x.c.c.c.c.D.V.V.D.V.D.D.D.D.A.A.A.A.A.A.A.A.Z.A.Z.S.S.S.F.F.F.F.F.F.F.F.F.F.F.F.F.F.F.F.F.F.F.F.|.|.|.|.F.|.|.|.|.|.|.|.|.|.|.|.|.|.F.'.F.S.S.D.D.D.x.x.x.x.x.x.p.p.q.q.q.9.9.9.3.3.( ( @.( / ^ ^ L / A @./ 6.@.&.L N N A m V 8 8 8 9 8 9 8 M M Y L L L L T &.o.o.Y L C M L M 8 6 8 B 6 8 N &.&.! W C ~ Z Z L Y M C v M M Y V V F u 7 B > > 8 M Y Y O.~ T Z L L Z S Q ~ ~ Q Q Q ~ T Z Z N M N C Z C W M F P M 6 > > 1 5 , , , , , $ $ $ $ $ $ $ $ # # # + # $ $ * * * = , 3 * o   O     o : & o O O O O O   . X X X X o + + + # # # # & & & + o O             O o : & & & & o o o o o O o o o o X X X X X X o o X o X X X X o o o o o o o o # # : : # # # # # # : & # o X O O O O X o & & & & & * = = = = = - - < < < < < < 3 3 3 3 3 3 3 3 3 3 3 3 ",
"j ` ` ` ` ` ] ] ` ` ] ] ] ] ' ] X...<.,.L.P.(./././.(.(.P.P.P.P.L.h.>.>.,.,.,.,.*.*.=........................................................................................................................................... . . . . . . . . .} } } } } } } } }  .} } } } #.#.#.#.#.} } } #.$.=.+.R I P E F F F B V a a F F E o.R W o.o.O.o.o.O.+.[ W W W ~ ~ %.O.@.@.3.5.7.0.u.i.i.0.j.l.x.x.c.m.m.D.V.V.V.V.V.D.V.D.D.A.A.A.A.A.A.A.A.S.Z.Z.S.F.F.F.F.F.F.F.F.F.F.F.F.F.F.F.F.F.F.|.|.|.|.|.F.|.|.F.|.|.|.|.|.|.|.|.|.|.|.F.F.F.F.'.F.F.A.D.D.x.x.x.x.x.x.p.x.q.q.q.5.q.9.3.3.( ( ( ( / ^ ^ L ^ L @.^ r.&.3.^ S N C M B u 8 8 8 8 8 9 9 M C A L Y A T %.o.o.~ A A M C M 8 m > B 8 9 v ~ &.Y ~ ! Y M L C R C V v 8 M R V V V B 9 M 2 6 8 M T T o.o.~ Z T T Z Z L Q ~ ^ T Q O.%.%./ ! Z v C v v L M C M W V 7 > 1 a 5 5 5 5 1 $ $ $ $ $ * = = * * $ $ * < 4 w w w 4 < $ .                 & O O O O O   . X X X X X X + + + # # # & & & & + O               O o & & & & & : o o o o o o o o X X X X o X o o o o o X X X o o o o o o o o # # # # & & & & & # & & & o X O O O X o : : # # + # # * = = = = - - < < < < 3 3 3 3 3 3 3 3 3 3 3 3 3 3 ",
"` ] ] ` ` ` ] ] ] ` ] ] ] ] X.X...,.L.P.^.aXPXKXPXjXkXaXaX^.^.^.^./././.(.(.(.P.P.P.L.L.h.>.>.>.,.,.,.*.*.<......................................................................................................... . . . . . . . . . . . . . . . . . .} } } } } } } } } } } #.#.#.} } } } +.=.=.#.[ { R H R R I V H V a a P P E [ V +.O.[ +.o.+.+.o.o.~ ~ ~ o.%.%.@.@.3.4.8.7.u.i.i.i.j.l.x.c.c.m.V.D.D.V.V.V.V.V.D.D.A.A.A.A.A.A.A.S.S.S.S.S.S.S.F.F.F.F.F.F.F.F.F.F.|.|.|.|.F.F.F.F.|.|.|.|.|.F.F.F.F.F.|.|.F.F.F.F.|.F.F.F.F.F.|.|.|.F.F.S.A.D.D.x.x.x.x.x.x.x.q.q.q.q.q.9.2.3.( ( ( ( / ^ ^ T S ^ / ^ 8.4.3.( L S N V u a 7 8 8 8 8 8 7 9 Z A Y Q A Q Q %.o.O.C Y N M C 8 1 m m 6 6 x L &.Y Q ~ Y L 8 ~ C M L 9 M V W C C V C 9 u 9 9 m M T Q ~ O.%.S L ^ Z Z S S Q ^ Q T / W Q / +.W Q L N Z Q C 8 8 E M 9 1 1 1 7 7 7 7 1 , , , < < , * * * * $ $ $ # # # # # # # X             O       O O O O   O . X X X . . X + + + # # # & * * * & o O     O O O O O o : & & & & & : : o o o o o o X X X X X X o X X o o X X X o X o o o o o o # # # # & & # & & # & ; & o X O O O o : o o X X X X + & * = - = < < < < 3 3 3 3 3 3 3 3 3 3 3 3 3 3 3 3 ",
"` ] ] ] ` ` ] ] ] ` ] ] X.....<.UXP.^.aXjXhXKXKXKXKXKXKXKXKXKXKXjXjXjXkXaXaXaX4X^.^.^././.R.U.P.P.P.P.P.L.L.L.t.>.>.,.,.,.*.<..................................................................... . . ............. . . . . . . . . . . . . . . . . . .} } } } } }  .} } } } } #.} } } } } #.+.} $.+.{ R a [ R I F P B a B E I R R F -.$.W o.+.O.o.o.W ~ ~ o.+.o.O.@.&.4.5.8.0.0.0.i.j.j.l.x.c.c.m.V.D.D.V.V.V.V.V.D.D.A.A.A.A.A.A.A.S.S.S.S.S.S.S.F.F.F.F.F.F.F.F.F.F.|.|.|.|.|.F.F.F.|.|.|.|.F.F.F.F.F.F.|.|.F.F.F.F.|.|.F.F.F.F.|.|.}.|.F.F.S.A.V.B.D.x.x.x.x.x.q.w.q.q.q.9.9.3.( ( ( @./ ^ ^ ^ S / ^ @.4.6.3.@.^ A N C 8 M 7 8 7 8 8 8 9 7 M C Y Q A ~ Y ~ ~ &.A T Z M J 9 8 2 M 9 6 v v o.~ C W W C M W C u 0 W C C W Y P V Y 8 V m 8 m M Y o.Q O.@.Z A ^ Z Z Z b L T Q T / Q Q / ~ &.&.Q L Q O.~ L Q W R R M 7 5 5 4 4 , 1 1 1 $ $ $ $ $ $ # # # + # * = * * * = # .   .           O       O O O O O . X X X . . X + + + # # # & * * * * : O     O O O O O o o o & & & & & & : o o o o o X X X X o o o o X o o o X X o X o o o o o o # # # # : : : # # # # & & o X O O o o o o o X O     X # & = = - < < < < 3 3 3 3 3 3 3 3 3 3 3 3 3 3 3 3 ",
"` ] 1.1.] ' ] ] ] X.X.X...,.,.P.^.aXkXjXKXKXKXKXKXKXKXKXKXKXKXKXKXKXKXKXKXKXKXDXDXDXhXjXjXkXkXaXaX^.^.^.^././././.(.(.P.P.P.P.L.L.UX>.>.,.,.,.,.*.*.<.=.=.=.#....... . ................. . ................. . . . . . . . . . ....... . . . . . .} }  . . . .} } } } } } } } } } } } } } +.+.+.[ =.+.R R B o.R P F F V V F [ E R R [ *.+.R +.O.O.W o.W Q ~ O.o.%.@.&.4.5.8.7.7.0.0.j.j.l.x.c.c.D.V.V.c.D.D.V.V.A.A.A.A.A.A.A.A.A.A.A.A.S.S.S.S.S.S.F.F.F.F.F.F.F.F.F.F.F.F.|.|.|.|.|.|.|.|.|.|.|.|.F.F.F.F.|.|.|.F.F.F.|.|.|.|.|.|.|.|.}.|.'.F.S.S.A.A.D.D.x.x.x.x.q.w.q.q.q.9.3.3.f.( ( ( ( ^ L %.N %.L @.6.4.@.&./ S N C V B M u 8 8 8 8 8 8 x N A ~ L Y L A ~ O.o.A Y A M m 6 6 9 R 8 x N A ;.Y E W L Y W V 9 0 V L Y W W Y V W M M Y m M M A Y ~ Q O.Z b L W L L 8 b L Q ~ Z ~ Q / T T &.O.T Z Z -.Q ~ W C ! L v u 7 u y 7 , , 1 $ @ @ $ $ $ $ # # # $ * * = = = = & .                       O O O . O . X X O X X X + + + # # # & * * * * & o X O O O O O O O o o o & & & & & : o o o o o o o o o X X X X X X X X o o o o o o o o o o : : : : : : : o : : : # # o o X X o : # # X         X # & = - - , , , < 3 3 3 3 3 3 3 3 3 3 3 3 3 3 3 3 ",
"` ] ] ` ` ` ] ] ] X...<.,.P./.IXkXjXKXKXKXKXKXKXKXKXKXKXKXKXKXKXLXLXKXKXKXKXKXKXKXKXKXKXKXKXKXKXKXKXKXDXhXjXjXkXaXaXaXaX^.^.^./././.R.(.P.P.P.P.L.L.h.>.>.>.,.,.,.,.*.*.*.=.......................#.#.#..... . . . . . . . . . ....... . . . . . .} } }  . . . .} } } } } } } } } } } } +.+.o.} } +.#.R F E [ F B V D P [ [ o.[ [ } #.o.W R +.+.o.W o.o.~ o.O.o./ @.3.4.7.0.0.0.0.j.x.x.x.c.c.m.D.V.V.c.c.D.D.D.A.A.A.A.A.A.A.A.A.A.A.A.S.S.S.S.S.S.F.F.F.F.F.F.F.F.F.F.F.F.|.|.|. X X|.|.|.|.|.|.|.F.|.F.F.|.|.|.F.F.F.|.|.|.|.|.|.|.|.}.|.'.F.F.S.A.A.A.D.c.x.x.x.N.q.q.q.q.9.2.9.f.( ( / / / ^ ^ ^ / ^ @.3.v.&.@.@.^ Z N C V B M a u u u 8 8 x N A T A Y T Y Y o.+.Q T L 8 M 9 6 6 Y N N v N O.! R W Y L W C M M M 6 C R ! Y V E V M +.M N L N A ^ T / ~ N A T S L L 9 x S T L Z b Q / Q / &.^ ~ L Q O.b 8 Z L L L V u 1 > 1 , , , $ $ $ $ $ $ $ # # $ $ $ * $ * * $ # *                             O O . X O O X X X + + + # # # & & * * * * & X O O O O O O O o o o : & & & & & : o o o o X o o o X X X X X X X X o o o o o o o o o o : : o o o o o o o o o o o o X O X o # # : X         X # * = - - , , , < 3 3 3 3 3 3 3 3 3 3 3 3 3 3 3 3 ",
"1.] ] 1.' ] X.X...<.,.L.(.^.kXjXKXKXKXKXKXKXKXKXKXKXLXLXKXKXKXKXKXKXKXKXKXKXKXKXKXKXLXKXKXKXKXKXKXKXKXKXKXKXKXKXKXKXKXKXKXKXhXjXjXdXkXaX4X^.^.^.^./././.R.(.P.P.P.P.L.L.h.>.>.>.>.,.,.*.=.=.#..................... . . . . . . ..... . . . . . . . . . . . . . .} } } } } } } } } } } #.+.+.o.#.#.[ } { R W R Y Y R E E E [ R D o.O.=.R R W o.o.W ~ ~ O.O./ O.%.%.@.4.8.r.j.k.j.l.l.x.x.x.c.V.V.D.V.V.c.c.D.D.D.A.A.A.A.A.A.A.A.S.S.S.S.S.S.F.F.S.S.F.F.F.F.F.F.F.F.F.F.|.F.|.|.}. X X|.|.|.|.|.|.F.F.F.F.F.F.F.F.F.F.F.F.F.|.|.|.|.|.}.}.|.'.F.F.F.S.S.A.A.D.x.x.x.N.p.q.q.q.9.2.9._ ( ( / / ( L / S / @.^ 4.k.6.@.&./ A S A C V B M a a u 8 8 x x N A A T ~ ~ A T o.o.W Y 9 C 8 6 6 C 0 Z Y N W W Y W ! V R Y 6 M M M v L ! Y V ! L M Q Y Y M M C / A L O.L b Z L L W S b S W S L T b L / / ^ / / Q @.4.@.~ ~ v N P Z a 5 , , , , , , $ $ $ $ $ $ # # $ $ $ $ # # # $ # X +                           O O . O . . X X X + + + # # # & * * * - - * + O O O X X o o o o o o : & & & & & & o o o o o o o o o o o o o o o o o o o o o : : : : # # : : o o o o X X o o X X O O X o # # o           X # * = - - , , , < 3 3 3 3 3 3 4 4 3 3 3 3 3 3 3 3 ",
"` ] ] ] X.X...<.,.UXP.^.kXjXjXPXKXKXKXKXKXKXKXKXKXKXLXLXKXKXKXLXKXLXKXKXKXKXKXKXKXKXKXKXKXKXKXKXKXKXKXKXKXKXKXKXKXKXLXLXLXKXKXKXKXKXKXKXKXKXPXjXjXkXkXaXaXaX4X^.^.^././././.(.(.P.P.L.L.L.h.UX>.>.>.>.,.,.*......... . . . . . ... . . . . . . . . . . . . .}  . . .} } } } } } } #.} #.} } #.+.#.o.I | [ F P E R P R F F [ F R +.=.$.R R o.[ W ~ o.W +.O.%.%.%.@.&.4.8.u.j.l.x.x.x.c.x.x.c.V.V.D.V.V.c.c.D.D.D.A.A.A.A.A.A.A.A.S.S.S.S.S.S.F.F.S.S.F.F.F.F.F.F.F.F.F.F.F.F.|.F.|.F.}.|.|.|.|.|.|.|.F.F.F.F.F.F.F.F.F.F.F.F.|.|.|.|.|.}.}.}.|.'.'.F.F.S.A.A.D.x.x.N.x.x.0.q.q.9.f.3._ ( ( @.( ^ ^ L ^ / @.@.@.4.k./ 4.@.L A A A A C N M M M x x x x b A A T o.%.Y T Q ~ +.A 9 A M 9 0 N Z 8 x C L W L Q W Z Y R 8 v 9 L 9 Z Y Y V ! L V T v M M M C Q Z Z / O.N b W L L S Z b Z ^ S Q S S L v L T @.@.&.Q ~ W ~ W ! ! Y M B u 1 > 5 , 4 , $ $ $ $ $ # # $ $ $ # # # # # X .   X #                       O O . O . . X X X + + + + + # # & * * - - * # X O O O O o o o o o o o : & & & & & & o o o o o o o o o o o o o o o o : : : : # # # # & & # : # : o o X X X O O O     O o : o X           X # * = = = = , , < 3 3 3 3 3 3 4 4 3 3 3 3 3 3 3 3 ",
"] ] ] X...<.,.,.P./.aXjXjXPXPXKXKXKXKXKXKXKXKXKXKXKXLXLXKXKXLXLXLXLXLXLXKXKXKXKXKXKXKXKXKXKXKXKXKXKXKXKXKXKXKXKXKXKXKXKXKXKXKXKXKXKXKXKXKXKXKXKXKXKXKXKXKXDXDXDXBXhXhXhXkXaX4X^.^.^.^.^.^././.U.(.P.P.P.L.L.h.h.h.>.>.,.,.,.,.:.*.*.=.#..... . . . ... .} } }  .#.} } } | } } } #.#.} #.} } #.+.+.o.H [ [ J R W R Y Y F F W Y [ +.O.+.W Q o.[ W W o.W ~ o.%.%.%.@.4.4.7.j.l.x.b.c.x.c.x.x.c.V.V.V.V.D.c.D.D.D.A.A.A.A.A.A.A.A.A.Z.Z.S.S.S.S.G.G.F.F.F.F.F.F.F.F.F.F.|.|.|.F.F.F.F.F.}.}.|.|.|.|.}.|.|.F.|.|.F.F.|.|.|.|.F.F.F.F.|.|.}.}.}.|.|.|.|.|.F.S.S.S.A.D.x.p.N.x.N.q.q.9.3.3.2.( ( @.( / S S / ^ @.@.@.@.3.3./ &.^ A T T T A A C C Z N N N 6 c A Q ~ %.o.O.Q Q Q O.W A M M M 0 9 M Z 8 M V +.W Q ! Z ! ! 8 M 6 9 6 N 9 o.Y R Y Y T W M Z 9 N C T C C T L T L T ~ L L v Z L W / / Q W L b W / L S @.^ / &.Q ! ! L C V u 5 1 7 1 5 5 , $ , $ $ # # $ # $ $ # # # # X     . = .   O                 . . . O . . X X X + + + + + + # & * = - - * & o X X X X o o o o o o o o : & & & & & : o o o o o o o o o o o o o o o : : # # & & & & & & # # # : o o o X O O           X o X           O o # * = = = = , < 3 3 3 3 3 3 3 3 3 3 3 q q q q 3 3 ",
"X.X.....,.,.P./.aXjXPXKXPXKXKXKXKXKXKXKXKXKXKXKXLXLXLXLXKXKXLXLXLXLXLXLXKXKXKXKXKXKXKXKXKXKXKXKXKXKXKXKXKXKXKXKXKXKXKXKXKXKXKXKXKXKXKXKXKXKXKXKXKXKXKXKXKXKXKXKXKXKXKXKXKXKXDXDXDXDXDXhXkXkXaX4X4X-X^.^.^./.R.U.U.U.U.P.L.L.L.h.h.t.>.>.>.,.,.,.*.*.*.=.#... .}  .*.} } } } } } #.$.+.+.o.+.$.} [ { R [ o.[ R R R W V F F R [ o.o.W [ W Q o.W W ! W ~ Q Q %.%.O.&.4.3.u.k.l.x.c.c.x.c.x.c.c.V.V.V.c.c.c.D.A.A.A.A.A.A.A.A.A.A.A.Z.Z.S.S.S.S.G.G.F.F.F.F.F.F.F.F.F.F.|.|.|.|.F.F.F.F. X X|.|.|.|.}.|.|.F.|.F.|.F.|.|.F.|.F.F.F.|.|.|.}.}.}.|.|.|.|.|.F.F.F.Z.S.A.D.N.N.x.x.q.q.5.9.2.2.( ( @.( / %./ ^ L S ^ @.4.( &./ ( @.S ^ J T L L A A A S S N Z N c L Q / ~ O.o.~ o.~ o.V A M C 9 9 N 6 M M 8 R W o.o.! L V v N 6 9 8 M 9 V L L Y L O.~ C Y N ~ T A A C Y %.T L Y Y ~ T Q L T b x Z / Q 9 Q T L v L Q 4./ S ! Q N Y Y V m 7 p > , > 1 $ $ , , $ $ $ # $ $ $ $ # & # X       X = O                   . . . O . . X X X X + + + + + + & & = - - * & + X X X X o o o o o o o o o : & & & & & : : : : : o o o o o o o o : : # # # # & & & & & & & # # # : o o o X O           O X           O X + & * = = = = , < 3 3 3 3 3 3 3 3 3 3 3 q 3 q q 3 3 ",
"X...,.,.P./.kXjXKXKXKXKXKXKXKXKXKXKXKXKXKXKXLXLXLXLXLXLXKXLXKXKXLXKXLXLXLXKXKXKXKXKXKXKXKXKXKXKXKXKXKXKXKXKXKXKXKXKXKXKXKXKXKXKXKXKXKXKXKXKXKXKXKXKXKXKXKXKXKXKXKXKXKXKXKXKXKXKXKXKXKXKXKXKXKXKXKXBXhXhXjXkXaX^.^.^.^.!./././.R.U.U.P.P.P.L.L.L.h.h.>.>.>.,.,.:.:.:.,.*.$.#.#.} #.=.#.$.O.o.#.} [ R [ [ E E [ W F V W Y Y o.R +.[ F W W Q W W R R ! Q T Q %.%.@.3.4.4.u.k.l.x.c.c.x.m.c.c.c.V.V.c.x.c.D.D.A.A.A.A.A.Z.Z.A.A.Z.Z.Z.Z.S.S.F.F.F.F.F.F.F.F.F.F.F.F.F.F.|.|.F.|.|.F.|. X|.|. X|.|.|. X|. X|.|.|.F.F.F.F.|.|.F.F.|.|.}.}.}.}.}.}.}.}.}.|.'.'.F.F.Z.Z.D.x.N.x.x.N.q.q.9.2.2.2.( @.( / &./ A L L ^ / ( &.8.3.( 3.S ^ ^ T L L L L L S S N L A c N A Q T +.o.Q o.A W +.C M C x M v 8 6 L 8 M W o.~ ~ C C Z Z 6 0 8 M 8 9 C C C C ~ Q M M x A M x Z L L T Q Q A N W W ~ L 9 b Z v v @.L v 9 L Z Z L S @.~ Q Z Q ! Y V M M u y p 5 1 , @ $ $ , , $ * * $ $ * * & # X         . =               .   . . . O . . X X X X + + + + + + # & = - - = & + X X X X o o o o o o o o o o : & & & & & # # # # : : : : : : : : : : # # & & & & & & & & & & & & # : o o X O                       O X o # * = = = = = < 3 3 3 3 3 3 3 3 3 3 3 3 3 3 3 3 3 3 ",
"*.,.(./.kXPXKXKXKXKXKXKXKXKXKXKXKXKXKXKXKXKXLXLXLXLXLXLXKXKXKXKXKXKXLXLXLXKXKXKXKXKXKXKXKXKXKXKXKXKXKXKXKXKXKXKXKXKXKXKXKXKXKXKXKXKXKXKXKXKXKXKXKXKXKXKXKXKXKXKXKXKXKXKXKXKXKXKXKXKXKXKXKXKXKXKXLXLXKXKXKXDXDXhXgXDXKXhXkXkXdXaX4X4X^.^./././.R.R.U.P.P.P.P.h.h.L.h.t.h.t.>.:.=.=.*.$.=.*.[ [ #.#.[ +.| [ [ [ R J R F F R [ [ +.W F W R Y W W Y L Y T Y Q O.%.@.3.8.8.u.j.l.x.c.c.x.m.c.c.c.V.V.c.x.D.V.A.A.A.A.A.A.Z.Z.A.A.Z.Z.Z.Z.S.S.F.F.F.F.F.F.F.F.F.F.F.F.F.F.|.|.F.F.|.|.|. X|.|. X|.|.|. X X|.|.|.|.F.F.F.F.|.F.F.F.|.|.}.}.}.}.}.}.}.}.}.}.'.F.F.F.F.S.A.D.x.N.x.x.x.q.9.3.2.2.( ( ( / %.^ b L L L ^ ^ @.@.3./ &./ L / ^ ^ L L L L L L b S S L b A Y A A T T T Y A L +.C A v N M 9 v M C 9 L Y W ~ Y ! C Z 2 2 6 8 M 9 M M M M Q &.T x 8 x 9 C N N Z x T T A Z Z Q L L L Z v v Z N Z A x b x L b Z L / L W L M V V V V a 7 7 a p 5 $ @ @ $ $ = = * * * * * * + X           O X .           .   . . . O . . X X X X + + + + + + # & = - - = & + X X X X o o o o o o o o o o o o & & & & # # # # : : : : : : : : : : # # & & & & & & & & & & & & # : o o X X O                   O X o + & = = = = < , 3 < 3 3 3 3 3 3 3 3 3 3 3 3 3 3 3 3 3 ",
"L./.aXKXLXLXKXKXKXKXKXKXKXKXKXKXKXKXKXKXKXKXKXKXKXKXKXKXKXKXKXKXKXKXKXKXKXKXKXKXKXKXKXKXKXKXKXKXKXKXKXKXKXKXKXKXKXKXKXKXLXLXKXKXKXKXKXKXKXKXKXKXKXKXKXKXKXKXKXKXKXKXKXKXKXKXKXKXKXKXhXjXjXhXhXjXhXBXKXKXKXKXDXBXhXKXKXDXBXBXhXhXhXhXhXgXgXkXaXaXaX4X^.~./.^.R./.P.R.U.R.L.t.>.t.:.e.:.*.=.+.=.R W W E Y [ F o.B P R E W W [ [ E Y Y Y R Y V o.N C L Y T o.@.%.&.4.r.r.0.i.l.x.c.c.x.m.x.x.c.m.m.c.c.V.V.A.A.A.A.A.A.A.A.A.A.S.S.S.S.G.G.S.S.G.G.F.F.F.F.F.F.F.'.'.|.|.'.|.|.|.}.}.}.}.}.}.}.}.}.}.}.}.|.|.F.F.F.F.F.F.|.|.|.|.}.|.|.|.}. X X X X X}.|.F.F.F.F.F.Z.V.D.x.x.x.N.N.q.9.3.( ( ( @.@.( @.L b L S T ( @.^ r.( @.%.^ / ^ T L L / %.%.^ ^ S v c Q T 0 Q Y N A A Y Y L A +.v x 6 L T x M 8 Y V Z T C N T Y L x > 8 6 M 9 v v v v V Y O.Z W V Y C M x C Z x ~ W A T L Z N W L 8 C Z 9 v Q 0 b Z T L Z Z L O.Z T M 7 8 9 M 7 7 p p 5 , @ 1 $ $ $ $ $ $ $ * * = $ + .             X X X               . . O X X X X + + + + + + + + # * = = = = ; # o o o o o o o o o o o o o o o o o & & & & & & & : : : : : : : : : : & & # # & & & & & & & & & # # : o o o X X   O O O           X o # & * = = = = - < 3 3 3 3 3 3 3 3 3 3 3 3 3 3 3 3 3 3 3 ",
"/.aXjXKXLXLXKXKXKXKXKXKXLXLXKXKXKXKXKXKXKXKXKXKXKXKXLXLXKXKXKXKXKXKXKXKXKXKXKXKXKXKXKXKXKXKXKXKXKXKXKXKXKXKXKXKXKXKXKXKXLXLXKXKXKXKXKXKXKXKXLXKXKXKXKXKXKXKXKXKXKXKXKXKXDXhXjXjXkXaXaX^.^.^.^.^.4XaXkXgXBXKXKXDXBXBXKXDXBXBXhXhXhXhXhXhXhXhXgXgXhXhXgXgX4XgX-XgX3X~.!.R.L.P.h.U.L.>.>.t.*.#.+.R [ W R R F F o.Y P R E [ [ o.W F Y Y Y Y Y C W C C C Y Q %.@.@.&.4.r.r.0.i.l.x.c.c.c.c.x.x.c.m.m.c.c.V.V.A.A.A.A.A.A.A.A.A.A.S.S.S.S.G.G.S.S.G.G.F.F.F.F.F.F.F.'.'.|.|.|.|.|.|.}.}.}.}.}.}.}.}.}.}.}.}.|.|.F.F.F.F.F.|.|.|.}.|.}.|.|.|.}. X X X X X}.|.F.F.F.F.F.G.'.x.D.D.c.x.N.N.q.9.2.f.@.@.@./ @.L S L S L / @.@.@.&./ 4./ / ^ ^ ) T ^ ( @./ / T A N T L Q 9 A N x T Y T T W Y Y x 2 2 Y Y N L Z C 8 ~ V Y N Y R C 8 2 A 8 6 8 8 x x x Y W Y N 6 Y M x 8 C N v C N L Z C L L N L W v v 9 9 Z 9 N Q v T L L T x W L W C 6 M 7 u 5 u 7 u , , @ $ $ $ $ $ $ $ # + $ $ + X                 X + X   .       . . X X X X X X + + + X + + + # * = = = = = # o o o o o o o o o o o o o o o o o o & & & & & & : : : : : : : : & : & & # # & & & & & & & & & # # : o o o o X O X X X X X O O X X # & * = = = - - < 3 3 3 3 3 3 3 3 3 3 3 3 3 3 3 3 3 3 3 3 ",
"aXjXPXPXKXKXKXKXKXKXKXKXLXKXKXKXKXKXKXKXKXKXKXKXKXKXKXLXLXLXKXKXKXKXKXKXKXKXKXKXKXKXKXKXKXKXKXKXKXKXKXKXKXKXKXKXKXKXKXKXKXKXKXKXKXKXKXKXLXLXKXKXKXKXKXKXKXKXKXKXKXDXjXjXkXkXaX^././.U.P.P.P.P.P.P./.^.^.aXkXBXDXBXkXDXDXBXBXBXBXhXhXhXhXhXhXgXgXBXBXBXhXsX3X4XgXgXgXgX!.L.t.t.I.L.U.U.-.$.e.R R [ E E R F R [ R P R E [ E [ R F Y Y Y Y R F J Y C L Y Q %.%.@.@.4.r.r.u.i.l.x.c.c.c.c.x.x.c.m.m.V.V.V.A.Z.Z.Z.Z.Z.Z.Z.Z.S.S.S.S.S.G.G.G.S.S.F.F.F.F.F.F.F.F.F.F.|.|.|.|.|.|.|.}.}.}.}.}.}.}.}.}.}.}.}.}.|.|.|.|.F.F.|.|.}.}. X}.}.}.|.|. X X X X X}.|.F.F.F.F.F.F.}.D.Z.V.D.x.x.x.q.5.9.3.3.( ( / @.( L S L S ) @.&.^ 4.@.@.@.( ^ ^ ^ ^ ^ ( @.%.%.^ T L 8 Y T Z x Y N v V A R W ~ T o.v > 8 T V N 8 A L A W V A N L L N 9 V > M 8 8 x 8 6 M T Y M 6 Z 8 8 9 N v x Y N 9 L A C Z L N Y C N 8 8 8 Z A 9 b S L L Z L 8 +.v C V M 6 7 7 p p y p , , 4 4 4 < < < < = $ $ $ + .                     . . o X     . O X X X X X X X + + X X + + # & * = = = = & : o o o o o o o o o o o o o o o o o o & & & & & : : : : : : & & & & & & # # & & & & & & & & & # # : o o o o X X o o o o o o o o # & * - = = = - < 3 3 3 3 3 3 3 3 3 3 3 3 3 3 3 3 3 3 3 3 3 ",
"kXjXjXkXjXKXLXLXKXKXKXKXLXKXKXKXKXKXKXKXKXKXKXKXKXKXKXKXLXKXKXKXKXKXKXKXKXKXKXKXKXKXKXKXKXKXKXKXKXKXKXKXKXKXKXKXKXKXKXKXKXKXKXKXKXKXKXKXLXLXKXKXKXKXKXKXKXKXKXKXhXgXaX-X/./.(.P.>.,.,.*.=.$.$.$.,.t.P.R./.^.aXgXhXaXDXBXBXBXBXBXhXhXhXhXhXhXgXkXgXhXBXBXhXgX-XBX3X~.R.-X~.!.-XI.g.e.t.+.t.o.R [ [ [ [ R R [ R F P R E [ F W W F Y Y Y Y R F V Q C L Y Q %.o.&.@.4.r.r.0.i.x.c.c.c.c.c.x.x.x.c.m.V.V.A.Z.Z.Z.Z.Z.Z.Z.Z.Z.Z.S.S.S.S.G.G.G.S.S.G.F.F.F.F.F.F.F.F.F.'.'.|.|.|.|.|.}.}.}.}.}.}.}.}.}.}.}.}.}.|.|.|.|.F.F.F.|.}.}. X X}.}. X X X X X X X}.}.|.'.F.F.F.F.F.F.Z.V.D.D.x.x.N.q.9.9.3.( ( ( ^ 3.T T S S L ( 4./ %.3.3.^ @.@.( / / L / @.@.@./ ^ T A x Z A M M C x 9 v C Y W Y Y A 8 > M M A Z 8 A x C ~ T 6 M C Z 6 C 8 9 8 8 8 8 9 6 Y N W L 8 x 9 6 M x 9 8 6 Z N Z L Q Q Y v N C C N v L L Z 0 x Z Z 8 Z v N Y M V +.> % p 7 F 7 7 y , , , , $ $ $ * * $ * * + .                         . o . . . X X X X X X X X + + X X X X + # & * = = = & # o o o o o o o o o o o o O O O o o o o : & & & & : : : : : & & & & & & & & & & & & & & & & & # : o o o o o o o o o : : # # & & & * - - = = < < < < 3 3 3 3 3 3 3 3 3 3 3 3 3 3 3 3 3 3 3 3 ",
"LXPXkXkXPXKXLXLXKXKXKXKXKXKXKXKXKXKXKXKXKXKXKXKXKXKXKXKXLXLXLXLXLXLXLXLXKXKXLXLXLXLXKXKXKXKXKXKXKXKXKXKXKXKXKXKXKXKXKXKXKXKXKXKXKXKXKXKXKXKXKXKXKXKXKXKXhXjXkXkXaX^./.P.L.,.,.,.<.$...X. . .X.X.X. .*.,.L.(./.^.aXkXaXhXBXhXgXgXgXhXgXjXgXkXgXgXgXgXhXhXgXgX-X4X!.sXsX~.~.R.-Xe.e.h.e.:.L.E R [ R E [ Y P R B D [ R F R R W E R J Y R Q Q Q T T Y C L ~ %.%.@.@.3.r.7.0.i.x.c.x.c.c.b.c.c.c.V.V.V.A.Z.Z.Z.Z.Z.Z.Z.Z.Z.Z.Z.Z.Z.Z.G.G.G.G.Z.Z.F.F.F.F.F.F.F.F.F.F.F.F.'.|.|.|.}.}.}.}.}.}.}.}.}.}.}.}.}.}. X X}.|.|.|.|.|.|.|.}.}. X X X X X X X X X X}.}.|.'.'.'.'.'.'.'.A.V.A.A.N.N.N.N.0.5.3.&.@.( / 4.^ ) / ( ( 4.k.k.3.3.&.( ( ( ( / %.L ^ 3.@.%.~ ^ Q N x Z N x x 9 9 9 8 Z Y Y 8 Z T 8 9 N v W M L Y V Q W A 9 v T M 8 6 L M 8 8 8 M 6 8 Z Z A 6 9 9 6 2 2 0 6 9 9 v N M Z L Y C M 8 N M 6 L C x v 6 Z v x L L A A +.Z W 9 > 1 6 7 F p 1 y 1 5 , , * $ + + $ * * $ X                         . . . . . X X X X X X X X X X X X X X + + & * = = = & # + + o o o o o o o o o o O O O o o o o : : & & & & & & & : & & & & & & & & & & & & & & & & & # : o o o o o o o o o # # & & & & & = - - = = < < 3 3 3 3 3 3 3 3 3 3 3 3 3 3 3 3 3 3 3 3 3 3 ",
"jXjXkXPXKXLXLXLXKXKXKXKXKXKXKXKXKXKXKXKXKXKXKXKXKXKXKXKXLXLXKXKXLXLXLXLXKXKXKXLXLXLXKXKXKXKXKXKXKXKXKXKXKXKXKXKXKXKXKXKXKXKXKXKXKXKXKXKXKXKXKXDXKXKXBXKXhXkXaX^./.P.UX,.,.<.<.....X.] ] ] ] ] ] U { X. .*.>.L.U./.aX^.kXaXaXaX4X4X4XaXaXaXaXaXaXaXkXdXaX4XaXaX4XgX~.R.-XdX~.U.L.I.e.$.I.$.[ o.o.R R [ F P R B D [ Y F R R E R Y J Y R W o.J o.T o.V C %.o.@.@.@.3.8.7.0.i.l.c.x.c.c.b.c.c.c.V.V.V.A.Z.Z.Z.Z.Z.Z.Z.Z.Z.Z.Z.Z.Z.Z.G.G.G.G.Z.Z.F.F.F.F.F.F.F.F.F.F.F.F.'.'.|.|.}.}.}.}.}.}.}.}.}.}.}.}.}.}. X X}.|.|.|.|.|.|.|. X}. X X X X X X X X X X X X X}.}.'.'.'.'.'.Z.A.A.A.D.x.x.N.N.8.9.3.@.^ &.4.8.T ) ) T @.@.3.^ &.3.( @.@.@.@.@./ S @.@.@./ ^ T Q A c N x x 8 9 9 9 8 M R C M A C 6 x v M o.M v L M ~ Q C v Z R C 9 8 6 M N x Y 8 8 Y M Z x M 8 9 6 2 2 2 0 6 6 8 v N Z L Y A ~ M 8 C 8 6 %.N T N 9 T N v v 8 u R 8 W u 6 6 8 B u , 5 y 1 7 , , * $ $ * * # + * #                       . . . . . X X X X X X X X X X X X X X + + # * * * * & # + + o o o o o o o o o o o o o o o o o o & & & & & & & & o & & : & & & & & & & & & & & # # # # o o o o o o : : o o # # & & & & & = - - = = < < 3 3 3 3 3 3 3 3 3 3 3 3 3 3 3 3 3 3 3 3 3 3 ",
"jXjXPXKXLXLXLXLXLXLXLXLXKXKXKXKXLXLXLXKXKXKXKXKXKXKXKXKXKXKXKXKXLXLXLXLXKXKXLXLXLXKXKXKXKXKXKXKXKXKXKXKXKXKXKXKXKXKXKXKXKXKXKXKXKXKXKXKXKXKXDXhXjXkXkXkXaX^.(.P.L.,.,.<.<...X.X.] ] 1.j j j j j j U ] X.| ..,.t.L.U.^./.^.^./././././././././././././.~.^.-XR.!.-XsX~.!.-XU.U.>.t.*.=.-.F [ +.} F F W V Y R V F [ Y F R [ R R Y J Y Q W o.Y %.Q O.L A o./ %.@.@.4.5.r.u.i.j.l.c.c.c.m.m.c.m.V.A.A.Z.Z.Z.Z.Z.Z.Z.Z.Z.Z.Z.Z.Z.G.G.G.G.G.G.F.F.F.F.F.F.F.F.F.F.F.F.F.F.F.F.|.|.}.}.}.}.}.}.}.}.}.}.}.}.}.}.}.}.|.|.}.|.|.|.|. X X X X X X X X X X X X X.X.X.X.X X}.'.'.F.F.F.Z.Z.Z.A.D.x.N.N.0.9.3.4.@.@./ 8.@.L S S ^ @.4.@.^ ^ &.( @.&.3.@.@.L / &.@.%./ T ~ T N N N 9 8 9 9 9 9 9 C T N M M Y 6 8 8 W A x 8 R C W ~ Y 8 L A N 9 8 6 8 C Z x 6 M C N C N v 8 9 6 2 > > 2 0 6 6 8 v Z L Y 8 T ~ L L x b Z Z L 9 9 Z 8 9 9 9 > R R 6 7 V M 8 V 1 1 > 1 @ , , , $ $ * $ + .   o = X                 .   . . . . X X X X X X X X X X X X X X + + # * * * * & # + # + o o o o o o o o o o o o o o o o o : & & & & & : & o o o o o & & : : # # # # # # : o o o o o o o o o : : : : # # & & & & & = - - = - < < 3 3 3 3 3 3 3 3 3 3 3 3 3 3 3 3 3 3 3 3 3 3 ",
"KXKXLXLXLXLXLXKXLXLXLXLXLXLXKXKXLXLXKXKXKXKXKXKXKXKXKXKXKXKXKXKXLXLXLXLXKXKXLXLXKXKXKXKXKXKXKXKXKXKXKXKXKXKXKXKXKXKXKXKXKXKXKXKXKXKXKXKXKXPXjXjXaXaXIX^./.(.P.P.UX,.,.<.<.X.X.] 1.` j j j j j j h j U ] X.} { ..,.t.P.P.P.P.L.L.L.L.L.L.L.P.L.L.P.P.P.P.R.L.L.!.^.-XR.4X~.P.R.h.:.+.e.R R o.E [ D F R V Y R V F [ Y F R E R R Y Y Y Q W o.o.o.o.O.~ Q W %.%.@.&.4.4.r.r.u.u.j.x.c.c.m.m.m.V.C.C.C.Z.Z.Z.Z.Z.Z.Z.Z.Z.Z.Z.Z.Z.G.G.G.G.G.F.F.F.F.F.F.F.F.F.F.F.F.F.F.F.F.F.|.|.}.}.}.}.}.}.}.}.}.}.}.}.}.}.}.}.}.}. X X X X X X X X X X X X X X X X X X.X.X.X.X.X.X'.'.'.F.F.G.Z.S.G.A.D.N.N.0.8.9.2.3.( ( ) 3.^ ) S S / / @.^ ^ / ^ / @.&.&.@.@./ @.@.@./ / T T T N v x 9 6 6 6 9 6 9 Y Y A 9 9 L M v 6 o.V Z M M Y o.~ M M 9 Y Y M M x 9 C T A 8 W C A 8 M x 8 9 6 2 2 > > 2 0 6 9 v Z L Y Z N Y Z N Z v Q ^ N v Z Z 8 9 9 8 > Y C 6 9 6 u R u 5 7 1 4 , 1 , , $ $ + X .       = .               . . . . . . X X X X X X X X X X X X X X + + # * * * * & # + # + o o o o o o o : : : : & : o o o o o & & & & & : & o o o o o o o o o o o : : : o o o o o o o o o o o o o : : # # & & & & & = - - = - < < 3 3 3 3 3 3 3 3 3 3 3 3 3 3 3 3 3 3 3 3 3 3 ",
"LXLXLXLXLXLXLXLXLXKXKXKXLXLXLXKXLXLXLXLXKXKXKXKXKXKXKXKXLXLXLXKXLXLXLXLXKXKXKXLXLXKXKXKXKXKXKXKXKXKXKXKXKXKXKXKXKXKXKXKXKXKXKXKXKXKXDXDXPXjXaX/.(.(.(.(.(.P.P.UX,.,.<.....X.] ] ` j j j j j j j j j j j U ] X.X. . .=.,.,... . .} }  . . . .....$.*.*.,.>.t.L.L.P.P.R.~.L.P.L.>.$.h.[ I P { F R E E [ V Y R V F o.F R Y R [ C R R R T Q T Q ~ ~ O.O.^ / %.( @.3.4.4.8.r.u.u.j.l.c.c.m.m.V.V.C.C.Z.Z.Z.Z.Z.Z.Z.Z.Z.G.G.Z.Z.Z.).F.F.G.G.G.F.F.F.F.F.F.F.F.F.F.F.F.F.F.F.|.|.}.}.}.}.}.}.}. X X X X}.}.}.}.}.}.}.}. X X X X X X X X X X X X X X.X.XXXXXXX.X.X.X.X.X X}.'.F. X}.'.G.F.D.D.N.N.N.N.q.9.9.3.( ( _ 3.) ) L ) / @.%.( ^ ^ T T / 3.3.@./ &./ @.^ ^ ^ S Z N b x 9 6 6 6 6 9 9 N Y C V 2 9 C C M W ~ C x C C Y ~ W T M 8 Z T 2 M 9 M N &.V L N V Y L V M 9 2 2 2 2 > > 2 6 6 9 8 Z T T L L b v x Z Z b / L v Q v 8 9 9 0 > Q 9 2 a u 6 C B 5 7 5 y 1 , , $ $ $ + .     X # o O             . . O .   . . X X X X X X X + + X X X X + + & * * * & # # # # # : : : : o o & & & & & & & : o o o o o & & & & & & : o o o o o o o o o o o o o o o o o o o o o o o o o o + + # # # # & & & * - - = = - < < < < < 3 3 3 3 3 3 3 3 3 3 3 3 3 3 3 3 3 < ",
"LXLXLXLXLXLXLXLXLXKXKXKXLXKXLXLXLXLXLXLXKXKXKXKXKXKXKXKXLXLXKXKXLXLXLXLXKXKXKXKXLXKXKXKXKXKXKXKXKXKXKXKXKXKXKXKXKXKXKXKXKXKXKXKXKXDXDXhXjXkX/.P.UXP.P.(.(.P.UXUX,.<.<.X.X.] ] G j j j j j j j j j j j j j U U ] X.X.X.X.} #.} X.X.X.X.X.| } } | X.{ } } } } #.$.>.h.L.t.t.$.t.t.*.} +.F I R P R E Y E V Y R V F [ E V W W W Y Y Q W W Q Q Q Q o.%.@.&.^ %./ @.3.4.4.5.r.u.j.j.l.z.c.m.m.V.V.Z.C.Z.Z.Z.Z.Z.Z.Z.Z.Z.Z.G.G.Z.Z.F.F.F.G.G.G.F.F.F.F.F.F.F.F.F.F.F.F.F.F.F.|.|.}.}.}.}.}.}.}. X X X X}.}.}.}.}.}.}.}. X X}. X X X X X X X X X X X.X.XXXXXXXXXXXXXXXXX X X X}.}.}.'.'.G.F.D.D.c.c.c.x.q.5.9.3.( ( 5.) ) L ) ^ ^ @.@.^ L S ^ ( ^ ( @.@.%.&.^ @.^ T A A A N x 9 6 6 6 6 6 9 x C M Z C 9 6 L A M T Y O.o.A C Y ~ ~ O.W 8 8 +.M 8 > 6 8 &.Y A N 8 8 R Q 8 6 0 6 6 9 6 > > 9 v 6 6 A T T L Z Z L 9 9 T S b W 9 Y N 8 v v v 8 M M 9 C 6 F 8 7 @ $ @ 1 , , , 4 , + .           &         # + O . . .   . . X + X X X X X + + X X X X + + & * * & & # # # # # # # : : : : & & & & & & & & & o o o o o & & & & & & : o o o o o X X O O O X X X X X X X X X o o o o o o + + # # # # & & & * - - = = - < 3 3 < < 3 3 3 3 3 3 3 3 3 3 3 3 3 3 3 < < < ",
"LXLXLXLXLXLXLXLXLXLXLXLXLXLXLXLXLXLXLXLXKXKXKXKXKXKXKXKXKXKXKXKXLXLXLXLXKXKXKXKXLXLXKXKXKXKXKXKXKXKXKXKXKXKXKXKXKXKXKXDXDXDXDXDXDXDXhXjXkX^.P.UXP.(.(.(.P.UXUX,.<.<.X.X.] ` ` 1.j j j j G G G G 1.1.1.1.j G G U U ] ] ] {  .X.X.X.X.X.X.X.X.X.X.{ { X.{ { { | } } {  .:.$.#.>.$.} E { I R P R I E V P V R E D F R E F } W R W C W W W Q ~ Y T %.@.@.%.&.@./ @.3.4.4.5.r.k.j.j.k.z.z.m.m.V.A.Z.Z.Z.Z.Z.Z.Z.Z.G.G.G.G.G.G.Z.Z.Z.Z.F.F.F.F.F.F.F.F.F.F.F.F.F.F.'.'.F.F.'.|.}.}.}.}.}.}.}.}. X X X X}.}.}.}.}.}.}.}.}.}.}. X X X X X X X.X.X.X.X.X.XXXXXoXoXoXoXoXoXXX X X X X X X}.'.'.V.A.D.D.D.x.q.q.5.9.3.( ) 9.^ ) S ) S ( @.^ ^ L T ^ @.( / ^ / &.^ &./ ^ S S S Z x x 6 6 6 6 6 6 9 M W M N N > 8 C M C o.Z V T A C Y O.+.o.W C v O.W Y M 6 6 &.+.M T Q 8 8 W v 8 9 9 2 2 7 9 2 9 N 8 v A T T %.%.Q O.Q b b b 9 Z Y A C 9 9 Z 8 M 8 M M 8 6 B a 7 > 1 5 7 7 4 < = # # o X O     O &   . = o     .       . . X + + + + X + + + X + X X + + & * * & & # & # # # # # # # & & & & & & & & & & & & o o o o : & & & & & & o o o o o X X O X O O X O O X X X X O X X o o o o + + # # # # & & & * - - = = - - 3 3 < < 3 3 3 3 3 3 3 3 3 3 3 3 3 3 3 < < < ",
"LXLXLXLXLXLXLXLXLXLXLXLXLXLXLXKXKXLXLXLXKXKXKXKXKXKXKXKXKXKXKXKXLXLXLXLXKXKXKXKXLXLXKXKXKXKXKXKXKXKXKXKXKXDXDXDXDXDXDXDXDXDXDXDXDXhXhXjXkX/.P.P.(.P.P.P.UXUX,.<.<.X.X.] ` ` ` 1.j j j j G G G G 1.1.1.1.G G G j j U ] { { ] X.} } X.X.X.X.X.X.X.] { { { { { { { } } | { [ #.#.[ { I E I R H { P E a V F Y W D F R D W } W Y W C W W Q ~ ~ A Y O.~ 6./ 4.@.( @.3.3.4.5.7.k.j.j.k.x.z.m.m.V.A.C.Z.Z.Z.Z.Z.Z.Z.G.G.G.G.G.G.Z.Z.Z.Z.Z.F.F.F.F.F.F.F.F.F.F.F.F.F.'.'.F.F.'.|.}.}.}.}.}.}.}.}.}.}. X X}.}.}.}.}.}.}.}.}. X}.}. X X X X X X.X.X.X.X.X.X.XXXoX>X>X>X>XoXXXXXXX X.XXXXXoX.XF.F.D.D.D.D.x.q.q.9.9.9.f.( 3.( ) L L S T ^ ( @.^ S S / ( @.@.^ @./ &./ ^ T A Z S N x 9 6 6 6 6 9 9 x W W M M C 2 8 M Z A C C A T A C Y W O.-.&.O.N ~ Q Y 8 M M -.Y C W Y C M Z Z Z M a 8 9 0 6 ~ 6 9 v v A T Q ~ -.&.@.&.L Z Z v 6 9 Z Q ! v V V > Z V 2 2 8 5 8 a > @ $ , , 4 , X         X X   X * = .   X . .         . X + + + X X + + + X + X + + + # # # # # # & # # # # # # # & & & & & & & & & & & & o o o o o : & & & & & o o o o o O X O O O O X X X X X X O O X X o o o o + + # # # # & & & * = = = = - - < < < 3 < < 3 3 3 3 3 3 3 3 3 3 3 3 3 < < < ",
"LXLXLXLXLXLXLXLXLXLXLXLXLXLXKXKXLXLXLXLXKXKXKXKXKXKXKXKXKXKXLXLXKXKXKXKXKXKXKXKXKXKXKXKXKXKXKXKXKXKXKXKXKXKXKXKXKXKXKXDXDXDXDXDXhXjXkXkXIX(.(.(.P.P.UXUXUX,.<.<.X.X.] ` ` ` ` 1.j j j j G G G G 1.1.1.1.U U U j j j U U ] ] { X.} X.X.{ X.{ X.X.{ { { X.{ U I { { { { | } | { I [ I F F I H R F F B H F P F F F R M +.#.R F o.C W +.W ~ o.~ L +.Q @.&.&.6.@.( &.3.4.5.7.u.j.j.j.l.b.m.m.V.C.Z.Z.Z.Z.Z.`.G.G.G.G.G.G.G.G.G.G.).).F.F.F.F.F.F.F.F.F.F.'.F.F.'.'.|.|.|.|.|.}.}.}.}. X X X X X}.}. X X X}.}.}.}. X X X X X X X X X X X X X X.X.X.X.X.XXXoX>X>X>XoXoXoXoX>XoXXXXX>X>XoX X'.Z.x.A.D.x.x.q.q.9.9.3.( ( 3.L ) L L L ^ ( ^ ^ T ^ ^ T / ) ( ) @.@.&.%.^ S S S N v 9 0 2 > 6 8 x x N C +.M M A 9 M M A C A M C W N Y T Q ~ Y &.O.T Y L V 8 v C ;.M ! +.L L M 8 V 8 8 C C 9 u 8 9 v 9 8 v Z o.4.-.O.4.&.&.O.L N v 8 L C 9 2 6 C C L R R Z V 8 7 u V 6 7 7 y 5 , 3 3 < < z - = - w w 3 = 3 & X X . . . . X + + + + + + + + + + + + + + + # # # # # # # # # # # # # # & & & & & & & & & & & : o o o o o o : & & & : o o o o o O O O O O O O O X O O O O O X X X X o o + + # # & & & & & * = = = = - - - - < < < < 3 3 3 3 3 3 < < < < < < < < < < ",
"LXLXLXLXLXLXLXLXLXLXLXLXLXLXKXKXLXLXLXLXKXKXKXKXKXKXKXKXKXKXLXLXKXKXKXKXKXKXKXKXKXKXKXKXKXKXKXKXKXKXKXKXKXKXKXKXKXDXDXDXDXDXhXhXjXkXaX^./.(.(.P.UXUXUX,.<.<.X.X.X.] ` ` ` ` j 1.j j j j G G U U 1.1.U 1.U U U U j G G j U { { { X. .{ { } { X.{ { ] ] { { U I { { { | { #.} { { { F H D P F I F H V F I F F F F F Y W =.W Y o.V W +.W o.~ o.Q ~ @.^ / 4.4.@.@.&.3.4.5.7.u.u.j.j.k.x.m.m.V.C.C.Z.Z.Z.Z.`.G.G.G.G.G.G.`.`.G.G.G.G.F.F.F.F.F.F.F.F.F.F.'.F.F.'.'.|.|.|.|.|.}.}.}.}. X X X X}.}.}.}. X X}.}.}.}. X X X X X X X X X X X X X X.X.X.X.XXXXXoX>X>X>XoXoX>X>X>XoXXXoXoX>X>XoX X'.D.D.D.x.D.x.q.5.9.9._ ( 3.( ) ) ) S S ( ( ^ ^ L ^ T / ) / ^ ( @.3.@.^ L S S S N 8 9 6 6 > 9 9 9 x M A ~ Y R C Z A M L M M v Y Q Y T Q ~ O.A ~ o.R L C Z L R Z o.Z W Y Y E a 9 9 9 6 9 a M 6 Y 6 9 9 8 v N Y O.Q ^ &.4.&.Q A A L v 9 L > 2 6 M u a C E 7 7 5 6 u u 7 > @ , 4 . X         O . X + + & = X . + = < = # + # & * * < 3 * + + + + + + + + + + + + # # # # # # # # & # & & & & & & & & & & : o o o o o o o o : & & : o o o o O O O O O O O O O O O O O O O X X o o o o + + # # & & & & & & * * = = = = - - < < - - 3 3 3 3 3 3 < < < < < < < < < < ",
"LXLXLXLXLXLXLXLXLXLXLXLXLXLXLXLXLXLXLXKXKXKXLXKXLXKXKXKXKXKXLXLXKXKXKXKXKXKXKXKXKXKXKXKXKXKXKXKXKXKXKXKXKXKXKXKXDXDXDXBXhXhXjXgXkXaX^.(.(.(.P.UXUX,.<.<.X.X.] ] ] ' ` ` ` ` j j j j j j U U ] ] 1.1.1.1.G j U U U j j j G U { ] X.{  .X.] {  ...#. .{ ] ] U U { { { { | [ { { R U B B U F I F F H H P I P F F F V R R =.+.R +.B o.O.~ O.~ o.Q ~ ~ / / / @.@.@.3.3.3.5.7.u.j.j.j.k.x.b.m.A.C.Z.Z.Z.Z.G.`.G.G.G.G.`.`.`.`.F.'.'.'.F.F.F.F.F.F.F.F.F.F.'.'.'.'.|.|.|.|.}.}.}.}.}.}.}.}. X X}.}.}.}. X X X X X X X X X X X X X X X X X X.X.X.X.X.XXXXXoX>X>X>XoXoXoX>X>XoXoXXXXXoX>X>X>XoX X'.N.A.c.D.x.N.q.5.9.3._ ( ( ) ) ) S S ^ / ( ^ / ^ T / ^ ^ ^ ^ @.&.@.^ S S N N b 9 9 8 M 9 M N N x m 9 Q T M C M 9 C N Q R C M C Y T Q ~ T o.L ~ Q Y C Z Z 8 M O.o.Y 8 V E [ R M a M M a M 8 6 M 9 9 9 8 0 C N L Q Q / ;.&.%.L Z 9 9 C 2 0 > 8 v 8 a 6 V u 6 5 7 5 1 1 , , 4 + X         O       . # X . X .     X + X X X + + + X 3 w + + + + + + + + + + + + + # # # # # # # # & : : : & & & : & : o o o o o o o o o o o o o o o o o O O O O O O O O O O O O O O X X X o o o o + # & & & & & & & & = * = = = = - - - - - - - - 3 < < < < < < < < < < < < < ",
"LXLXLXLXLXLXLXLXLXLXLXLXLXLXLXLXLXLXLXLXLXLXLXLXLXLXLXLXLXKXLXLXKXKXKXLXLXLXKXKXKXKXKXKXKXKXKXKXKXKXKXKXKXDXDXDXDXhXhXhXjXkXkXkXaX^.(.P.P.P.UX,.<.<.X.X.' ` ` ` ` ` ` ` ` ` j j j j j j U U U U 1.1.1.1.j j U j j j j j G G U ] ] ] ] }  .} { | { { { X.{ ] { | { { | { I G F H B a D I F I V F H F I P F P Y F F P E O.O.[ [ V o.O.o.+./ ~ T / ~ +./ ^ %.@.4.3.3.3.5.7.u.u.j.j.k.x.b.m.C.C.Z.Z.Z.Z.G.`.`.G.G.G.`.`.`.`.F.F.'.'.F.F.F.F.F.F.F.F.F.F.'.'.'.'.'.|.|.|.}.}.}.}.}.}.}. X X X}.}.}.}. X X X X X X X X X X X X X X X X X X.X.X.X.XXXXXoXoXoXoX>XoXoXoX>XoXoXoXXXXXoX>X>X>X>XoX}.A.N.A.D.c.x.N.0.9.3._ ( 3.) ( L ) ) L S &.) 4.^ T / ^ ^ ^ L %.@.@.^ T / ^ ^ Q Y Z 8 6 2 8 8 8 8 M x m o.T Q C C M C N M T N V Y T Q ~ Q A R W Y Y L C M M 8 N W W C 8 M P M R R 9 6 M 6 V 6 8 8 9 9 8 x 9 v v A Q Q Q +.&.+.W N 9 9 8 6 6 6 C 9 > 7 M V u 7 8 7 7 7 1 @ $ + .                 . + .             X X X O O O X O . + * = + + + # + + + + + + + # # # # # # # # & : : : : : : o : o o o o o o o o o o o o o o o o o O           O O O O O O O O X X O O o o o : # # & & & & & & & & = * = = = = - - - - - - - < 3 3 < < < < < < < < < < < < ",
"LXLXLXLXLXLXLXLXLXLXLXLXLXLXLXLXLXLXLXLXLXLXLXLXLXLXLXLXLXLXLXLXKXKXKXKXKXKXKXKXKXKXKXKXKXKXKXKXKXKXDXhXhXhXhXjXkXdXkXaXaXaX^.^./.(.P.L.UX,.<.....X.] ] j j j j ` ` ` j j j j j j j j j j j j j G G U U G G j j j j j j j j U j G U U X.| | { { ] ] { { { { | } { { } { B B H H H B D R I I H F F F I P F R Y F F F E +.O.+.W Y ~ &.o.o./ / ~ ~ ~ @./ ^ / @.4.3.3.3.5.8.r.u.j.j.k.l.b.m.V.C.C.Z.Z.`.`.`.`.`.`.`.`.`.`.`.F.F.F.F.F.F.F.F.F.F.'.'.'.'.'.F.F.'.'.'.'.'.}.}. X X X X}. X X X}.}.}. X X X X X X X X X X X X X X X X X.X.X.X.X.X.XXXoXoXoX>X>X>X>XoXoXoXoX>XoXXXXXoXoX>X>XoX>X.XG.N.A.D.x.x.j.0.5.9.f.( 3.( ( ) ^ ^ L S L ^ / 3.) L @.^ L S L @.( ^ ^ T L S S v 2 9 6 2 6 8 8 8 x m m C +.T A A A N C 9 C C C A N A Q W R R ~ T Y C N M C 6 6 8 J M M B M 7 2 u Y V 2 8 6 8 M N 8 N M 9 L 9 N N Y T A Q ~ ~ +.W M 6 6 8 6 6 V 9 6 2 6 8 P 9 1 6 8 7 , @ . # . . O O             . X         . . . X . . . X X X X X # = 3 & & + + + + + + + + # # # # # # # : : : : : # # # : + o X X o o o o o o o o o O O o o O O           O O O O O O O O X X o o X o + + # # & & & & & & & * * = * = = = < < < < < < < < < < < < < < < < < < < < < < ",
"PXPXKXKXKXKXLXLXLXLXLXLXLXLXLXLXLXLXLXKXKXKXKXKXKXKXLXKXKXKXKXKXKXKXKXKXKXKXKXKXKXKXKXKXKXDXhXjXhXhXgXkXkXkXaXaX4X^.^.^./././.(.P.P.>.,.<...X.] ] ] j j j j j j j j j j j k k k k j h j j j j j j j U U G G j j j j j j j j j j G G | U G ] ] U ] { { { { { | | | { | R a B V H a B I [ I U D D F F P P F R R F F Y E o.+.O.W Y Q O.o.+.+.O.~ Q ~ O.T ^ / @.@.2.3.3.5.7.u.u.u.j.k.l.b.m.m.C.C.C.`.`.`.`.`.`.`.`.`.`.`.`.F.F.F.F.F.F.F.F.F.F.'.'.'.'.'.F.'.'.'.'.'.'.}.}. X X X X X X X X X X}. X X X X X X X X X X X X X X X X X.X.X.X.X.XXXoXoXoXoXoX>X>X>XoXXX.XXX>X>X>XXXoXoXoX>XoXoXoX'.c.A.V.x.V.x.q.8.9.3.f.2.( ( ) ) / ^ L S L ^ @./ n ( T ^ ^ L / / ^ ^ L L S S L 6 5 6 6 9 8 x x x m m x Y T T N M T A T 8 N N x N A C Q T W W Y T C Y x C M 6 M m V u M 8 9 6 u 7 M R V 8 > M M M 6 6 x Z Z 0 M N Y %.C Y +.~ ~ W Z 2 6 M 6 M C u 6 6 7 C M 1 1 6 7 7 1 @ , X                     +         .   . X . X X X X X X X X X < e   X X + + + + + + # # # # # # # : : : : : # # : o + X X X o o o o o o o o o O O O O O O O O O X X X X X X X X X X X o o o o + + # # # & & & & & & & * * = = = = = < < < < < < < < < < < < < < < < < < < < < < ",
"KXPXjXjXjXjXjXjXjXjXjXPXPXPXPXPXhXhXPXPXKXKXKXKXKXKXKXKXKXKXLXLXKXKXKXKXKXKXKXKXKXBXhXjXkXkXkXaXaXaX4X^.^.^.^././././.R.(.(.P.P.L.>.,...X.X.] ` ` j j j j j j j j k j k k k f f k k k k h h h h j j j j G G G U ] G j j h g g h G X.U ] ] G G { { { { { { { | } } { [ F a a H V H D U { I U D D F P F P F R R F F R W W o.O.W Y W O.+.O.O.O./ L T &.T L ^ @.( 3.3.3.9.8.u.u.j.j.l.l.z.b.m.V.C.C.Z.Z.`.`.`.`.G.G.`.`.G.G.F.F.F.F.G.G.F.F.F.F.'.'.'.'.'.'.'.'.'.'.'.'.}.}. X X X X X X X X X X X X X X X X X X X X X X X X X X X X.X.X.X.XXXXXoXoXoXoX>X>X>X>XoXXX.XXX>X>X>XoXoXoXoX>X>X>XoX.XA.D.A.D.c.x.q.q.9.9.9.2.( ( ) ^ ^ / ^ L S L ( ) ^ L T ^ / ^ ^ ^ ^ ^ T L S S L N 6 6 9 8 m m x x x x 8 x Y T A T M N T Y x A 8 M M M V Y Y L C Z C v M M V m M 6 m u 8 8 8 9 6 2 2 2 R 8 M M Z C 8 v v > v C M Y Q A ~ C 8 ~ +.W A M 6 M 9 M 9 6 6 8 M 6 8 8 8 6 2 7 7 , * .                     +               X . X X X X X X X X . . X i # # + + + + + + # # # # # # # : # : : : # # # o o X X X o o o o o o o o o O O O O O o o o o o o o o o o o o o o o o o : + + + # # & & & & & & & & * * = = = = = - - < < < < < < < < < < < < < < < < < < < < ",
"KXPXjXjXkXkXkXkXkXkXaXaXaXkXkXkXaXaXkXkXkXkXkXkXkXkXkXkXkXjXjXjXjXjXjXgXjXgXgXkXkXaXaX4X^.^.^.^.^./././.R.(.(.(.(.(.P.P.P.(.P.P.L.,...X.] ] ` j j j j j j k k k k k k k f f f f k k k k k k k k g h h j U j j ] ] U h f i f h ] U G U ] U U I ] { { { { | } #.} #.{ { F a a H H R D D I I F D H F P F F F R R F F E [ [ o.+.W Y W O.O.+.o.%./ ~ Q &.L ^ / ^ ( @.3.3.4.8.7.u.j.k.l.l.z.b.m.m.C.C.Z.Z.Z.Z.Z.Z.G.G.G.G.G.G.G.G.G.G.G.G.F.F.F.F.'.'.'.'.'.'.'.'.'.'.'.}.}.}. X X X X X X X X X X X X X X X X X X X X X X X X X X X X.X.X.X.XXXoXoXoXoXoXoX>X>X>XoXoXoXoX>X>X>X>X>XoXoX>X>X>XoXoX'.A.A.Z.x.x.q.q.5.9.9.3.( ( ( ) ) ( ^ T L S L ^ ^ S ^ ^ / @.L L ^ / T L S S 8 Y M 6 8 x M m m x m x 9 8 A C C N A A N Y Q A M 9 9 x 9 N A C Q &.v A N 6 M J 8 8 2 M 8 8 8 u 7 2 1 6 1 8 8 9 6 0 M 8 Z x x x M C Y / x Z A 9 T o.~ A 8 u M m F M 9 8 8 6 B 8 7 > 2 8 7 7 @                       X               . . X X X X X X X + X . X * = < = # + + + + # # + # # # # # # : : : o o o o o X X X o o o o o o o o o O O O O O o o # # # # : : : : : : : : : : : # # # # # & & & & & & & & & * * = = = = = - - < < < < < < < < < < < < < < < < < < < < ",
"LXLXKXKXPXjXkXaXaXaXaXaXaXaXaXaXaXaXIXIXIXIX^.^.^.^.^.^.^.^.^.IX4X4X4XaXaX4X^.^.^.^././././.(.U.U.(.(./././././././.^.^.^./.(.(.L.,...] ] ` ` j k j j k j k k k k k k k k f f f f k k f k k k k k g g j U j g h j k j h j .. .j G g U { ] U ] U { } { | #.#.#.| H R #.F F F H H I H H F U F D U U P P P F R R F P [ [ W o.O.Q R W +.+.+.o.o.o.~ ~ @.L ^ ^ ^ ( @.3.3.4.7.0.u.j.k.l.l.b.b.b.m.C.C.Z.Z.Z.Z.Z.Z.Z.G.G.G.G.G.G.Z.Z.G.G.F.'.'.F.F.'.'.'.'.'.'.'.'.'.}.}.}.}.}.}.}. X X X}. X X X X X X}. X X X X X X X X X X X X X X.X X.X.XXXXXXXoXoXoXoXoX>XoXoX>X>X>X>X>X>X>X>X>X>XoXoX>X>XoXoX}.Z.A.G.x.x.q.q.9.9.9.3.( 2.( ) ) ( &.( ^ L n L / ( S ) L &.^ L ^ ) ( S S S Z M M > 6 x A m m m N C x 8 x N A A A Y Q N M Q O.Z 8 9 v 9 8 A C Y o.8 C 8 2 8 B 8 6 1 B M > > 6 7 7 9 6 6 8 8 9 > 9 m 6 2 6 2 M M M Z Z M M v M Y T T Y V Y M M C 6 A 9 9 6 C 2 6 1 > 1 p ,                       X                 . X X X X X X X X + X X X & * = * & + + # # # o # # # # # # # # : o o o o o o o o o o o o o o o o o O O O O o o : # # # # : : # # # : : : : # # # # # & & & & & & & * * * * * = = = = = = = = = = = - - - < < < < < < < < < < < < < < ",
"LXLXLXLXLXLXLXKXKXPXjXjXjXkXaXIX^.^.^./././././.(./././.(.(.(.(.U.(.U.U.(.(.(.U.(.U.U././.^.aX4X-X4X4X4XaXaXaXaXaX4X4X4X^./.P.P.,...X.] ] 1.` j k k k k k k k k k k k k k f f f f f f d f f f f f f f g g f f f g r h X.] j g j h g U { ] G G G ] { I { } | [ #.F R [ B V V V V D D I { F F D F P R I F F R R F F o.[ Y +.O.W Y Q O.W +.+.o./ ~ ~ O.^ T ^ ^ ( 2.3.3.9.8.7.u.j.l.l.l.b.b.b.m.C.C.Z.Z.Z.Z.Z.Z.Z.Z.G.G.G.G.G.G.Z.G.F.F.'.'.F.F.'.'.'.'.'.'.'.'.'.}.}.}.}.}.}.}. X X}.}. X X X X X X}. X X X X X X X X X X X X X X.X X.X.XoXoXXXXXXXoXoXoX>XoXoX>X>X>X>X>X>X>X>X>X>XoXoX>X>XoXXX.X'.Z.Z.V.x.0.5.9.9.9.9.f._ ( ) ( ^ ( 4.( ) b n ^ @.^ ) L ( ^ ^ / n ) / S S v x V 8 9 x J M N C C C N x 9 x A A A Y A Y Y A Y o.Z 6 9 x 8 0 M 6 +.~ 9 M M 6 M J 8 9 u m 2 > > 5 7 2 6 6 6 7 M 6 % 6 6 > 9 > M 9 V m M M M M 9 N C T T M M x 9 M 9 Y M M 9 Y > > > > 1 y y $ .                   .                   . X X X X X X X X X X X X + X & = < * + o o X # & # : : # # # : o o o o o o o o o o o o o o o o o o o o o o : & # # # # : : # # # : : : # # # # # # & & & & & & * * * * * * = = = = = = = = = = = = = = < < < < < < < < < < < < < < ",
"LXLXLXLXLXLXLXLXLXLXKXLXLXKXKXPXjXjXjXkXkXaXaXIX^.^.^.^././././././././././././.^.-XaXaXaXaXaXaXaXaXaXaXaXaXaXaXaX-X^.^./.P.>.,.....X.X.] 1.j j j j k j k k k k k k k k k f f f f f d d f f f f f f f f g j f t G  .X.h d g j ] ] G G G G G G G U U { I { | | { I R [ s B B s s H I { { F F F F I R I F F R R F F +.W Y +.O.W Y W O.W O.O.o./ ~ ~ @./ L L ^ ( 2.3.4.5.8.7.u.j.l.l.l.z.b.m.m.V.C.C.Z.Z.Z.Z.Z.Z.Z.G.G.G.G.G.G.G.G.G.G.'.'.F.F.'.'.'.'.'.'.'.'.'.}.|.}.'.}.}.}. X X}. X X X X}.}. X X X X X X X X X X X X X X X X X.X.XoXoXoXoXXXXXXXXXoXoXoXoX>X>X>X>X>X>X>X>X>X>XoXoX>X>X>XoXoX}.F.A.A.D.x.q.5.9.9.9.9.f.( ( ) 3.@.3.4.) ) L S L 4.^ L S / L ) ) ^ T / L Z x M M 9 N T N C C A A C N x 9 C A A A C Q Q A N Y O.Y 6 9 9 6 6 M V O.V M V 8 M 8 C 8 2 u 7 > > > 1 1 6 5 2 > 6 8 > % 6 2 6 2 9 8 8 8 x M Z V A 8 T V C W T V x Y N 2 M M 2 6 C 6 > > > 1 4 < $ .                                     . X X X X X X X X X X X X X + + + + * 3 -   * o # # # # : : # : o o o o o o o o o o o o o o o : o o o o o o & & & # # # o o : : # # : : : # # # & & & & & & & & * * * * * * = = = = = = = = = = - - = = < < - < < < < < < < < < < < ",
"LXLXLXLXLXLXLXLXLXLXKXKXKXKXKXKXKXKXPXjXjXjXjXkXkXkXkXkXkXkXaXaXaXaXaXaXaXaXaXaXaXaXaXaXaXaXaXaXaXaXaX4X4X-X4X4X^.^././.P.>.*...X.X.X.X.] 1.j j j j j j k k k k k k k k k f f f f k k f k f f f g g k k j X... .X.X.U ] ] ] X.{ ] G G ] ] U ] { { ] } { { { I I I { [ a a a a a { { { U F F F I R P F P I R R F Y o.R W +.O.T T ~ ~ ~ O.O.o./ ~ Q &.@.S L ^ ( 3.3.9.8.8.7.u.j.k.l.l.z.b.m.m.V.C.A.C.C.Z.Z.Z.Z.Z.Z.Z.G.G.G.G.G.`.G.G.F.F.F.F.F.F.'.'.'.'.'.'.'.}.'.'.'.}.}.}. X X}.}. X X X X}. X X X X X X X X X X X X X X X X X.X.XoXoXoX.XXXoXXXoXoXXXoXoX>X>X>X>X>X>X>X>X>X>XoXoX>X>X>XoXoX.X'.Z.A.V.D.x.q.9.9.9.9.f.f.) ( 2.5.3.@.&.^ ) L L ) @.L / S L ( ( ^ ^ T / / N x 8 x N Q C C C C A C C N x M A A A A A Y A T N x R Y v 6 6 9 v C Z o.J 8 m 8 9 6 8 1 7 M > 5 1 2 7 6 2 > > > 1 6 > 1 8 > 7 2 B 2 8 8 v C C C A M ~ C Y Z W Y Z M M C C 6 2 M 1 > 1 1 > > , , +         . . .                       . . X X O O X X X X X X X X X X + + # + # w * # # # & & : : : : o o o o o o o o o o o o o o o : & & & & & & & & & & : : o o : o : # : : : # # # & & & & * & & & * * * * * * = = = = = = = = = = < - - - < - - < < < < < < < < < < < ",
"LXLXLXLXLXLXLXLXLXLXLXLXLXLXKXKXKXKXKXPXhXjXjXjXjXjXjXjXjXkXkXkXaXkXaXaXaXaXaXaXaXaXaXaXaXaXaXaXaXaXaXaXaXaXaXaX^.^./.P.,.<...X.X.X.X.] ] ] ` j j j j j j j k k k k k k f f f f f f k k k k j j g g g g ] ] ] r d ] h g ] X.} { ] U U { { U { { { { #.| { I U U I { F H y a D a { D U g p { I { E H F I F P R P Y } P [ +.o.T W o.W o.+.+.o.~ W W @.%.L L ^ @.3.3.5.8.8.7.u.j.k.l.l.z.b.m.m.V.V.V.A.C.C.Z.Z.Z.Z.Z.Z.G.G.Z.Z.`.`.G.G.F.G.F.F.'.'.F.'.'.'.'.'.'.'.}.}.}.}.}.}. X X}.}.}. X X X X}. X X X X X X X X X X X X X X X X.X.XXXoXXX.XXXXXoXoXoXoXoXoX>X>X>X>X>X>X>X>X>X>X>X>XoXoX>XoXoXXX}.G.V.V.V.c.N.q.9.9.9.3.f.) ( ( 3.8.3.k.5.( n ) L ) ( ^ ( L S T @./ L S @.r.A x x N T Z N T N v N N N x x N C A A N W Y V T M M Z u M 0 > 2 > M C Y V 8 8 9 u 2 > M M u > > > > $ > a % > 1 5 2 > 6 6 > 6 M M M 9 u Z C Y x x A W C Z Y A C M M v x u u M 7 2 5 1 > @ $ $ * .       . . .     . .       . . . . . . X X . . O X X X X X X X + X X + + X X + # # # # & & & & & # # + + + o o o o o o o o o o : & & & ; ; & & & & # o o O X X X o : : # # # # & & & & & & & & * * * * & & * * = = = = = = = = = = - - = - < < < < < < < < < < - - - < ",
"LXLXLXLXLXLXLXLXLXLXLXLXLXLXKXKXPXKXKXPXBXjXhXjXjXjXjXjXkXaXaXaXaXaXkXaXaXaXaXaXaXaXaXaXaXaXaX4X4X4X4X4XaXaXaX4X^./.P.,..... . .X.X.X.] ] ] ] ` j j j j j j k k k k k k f f f f f f f f l r r r i i i i i r ] h d f s U ] I ] } } { { | { { I | } | I { { I I I U { F H F a a s I D I D D D F } [ H I F F P R Y C +.E W +.~ Y W o.W +.+.o.o.~ ~ ~ ^ %.^ ^ ^ @.2.3.5.8.7.7.u.j.k.k.l.z.b.m.m.m.V.V.V.A.C.C.C.Z.Z.Z.Z.G.G.G.Z.`.`.G.G.G.G.Z.F.F.F.F.'.'.'.'.'.'.'.'.|.}.}.}.}.}.}. X}.}. X X X X}. X X X X X X X X X X X X X X X X.X.XXXoXXX.X.XXXoXoXoXoXoXoXoX>X>X>X>X>X>X>X>X>X>X>X>XoX>X>XoXXX}.'.Z.V.V.c.x.q.9.9.9.9.3.f.( ) ( ( 3.5.5.8.( S ) ^ ^ L ) L ^ ^ ( @.^ S S ^ 6.Q v N ~ T A Q Z N N N N x x x N N T N M C N Y V M L V 9 Z 6 > 2 2 M M Y 8 u 7 a 5 2 5 8 Y 7 > % > @ > > 5 , , 5 5 @ 9 > 6 8 > R 8 9 8 M Z A x 9 x Y Y Y Y A C M M 8 M C Y 8 M 8 2 > > % @ @ , X . X .           X .           . . . . . . . . O X X X X X X X + + X + + + X + + + # # & & & & & & & # # # # + + + o o o o o o : & - - - - & & : o X         O O X : # # # # # & & & & & & & & * * * * * & * * = = = = = = = = = = = - - - < < < < < < < < < < - - < < ",
"LXLXLXLXLXLXLXLXLXLXLXLXKXKXKXKXKXPXKXKXKXKXPXPXhXjXjXkXaXIX^.^.4XaXaXaXaXaXaXaXaXaXaXaXaXaXaX-X^.^.^.^.^.^.^.^./.P.,...........X.X.X.X.X.] ] ] ` j j j j j k k h h k k k f f f f f f f f f f f f f k f k d k  .g h G h h ] ] U U G G ] | { { | | { U { { I I I U { D D U h s D U D E U D B I { R P I F P R P F C +.W W +.W Y o.+.W / / / / / ~ ~ / Q / / / @.2.4.5.8.7.u.u.j.k.l.l.z.m.m.m.m.V.V.V.A.C.C.C.Z.Z.Z.Z.G.G.G.G.G.`.G.G.G.G.Z.Z.F.F.F.'.'.'.'.'.'.'.|.|.}.}.}.}.}.}. X X X X X X X X X X X X X X X X X X X X.X.X.X.X.XXXXXoXXX.XXXoXoXoXoX>XoXoXoXoX>X>X>X>X>X>X>X>XiXiX>X>X>X>XoXoX X'.G.V.D.V.c.0.q.9.9.9.3.3.f.) ( ( 3.u.7.5.3.( S L ) / ^ L L ^ @.^ T ^ ^ S ^ %.%.L L T A ~ A C v N N N 9 9 x M Z C v M M Z Y Z C W u 6 C 8 > 5 2 V 8 C M 6 8 6 M V V B 5 9 6 % % % . 5 , > 1 5 > > @ a 7 > a C 6 9 v M A M 9 6 v T ~ T A Z N N 6 9 M B V V p 1 1 7 1 $ $ = y $   . . + + . . . .       . . . . . . . . . . X X X X X X X X + + X X + + X X + + # & & = = = = * * & & & & # & # & & & o o o & & & - - ; & & o O             O o : # # & & & & & & & * * * * * * * * $ $ * * * * = = = = = = = = - = - - < < < - < < < < < < < < < < ",
"LXLXLXLXLXLXLXLXLXLXLXLXKXKXKXKXKXKXKXKXKXKXKXPXjXkXaXaX-X^.^.^.^.-X4XaXaXaXaXaXaXaXaXaXaXaXaX-X^.^.^.^.^.^.^./.U.L.>.,.<.......X.X.X.X.X.X.] ] ` j j j j j k k h h k k k f f f f f f f f f f f d d f f f f k f } h G G G h G U U h D ] $.I  .{ I I { I U U I I U { D D s D U D D D { I s D } I V R P R E R F F W +.E o.o.T Y o.o.W ~ / ^ / / ~ W ~ %.^ ^ ^ @.3.4.5.8.7.u.u.j.k.l.l.z.c.m.m.m.V.V.V.A.C.C.C.Z.Z.Z.Z.G.G.G.G.G.G.G.G.G.G.G.G.F.F.F.'.'.'.'.'.'.'.|.|.}.}.}.}.}.}. X X X X X X X X X X X X X X X X X X X X.X.X.X.X.XXXXXoXXX.XXXoXoXoXoX>X>XoXoXoX>X>X>X>X>X>X>X>XiXiX>X>X>X>X>XoXXX}.'.A.D.B.c.j.q.5.9.9.3.f.f.f.( ) 3.9.8.5.k.5.3.S n ) ^ L L ) ^ ^ ^ T @.%.^ S L &.^ T T ~ L A v N N N 9 9 8 x 2 A N v x M ! V 9 6 M V > 8 E 6 > 6 8 Y V 6 8 8 > > 6 V a a a 9 , $ @ . 5 , , 1 9 1 > > a > 9 P 6 6 8 M Q L v 9 9 C W Q A C N N M M M M 8 8 M D F B 5 $ , $ 4 = X .   . X . . + X X . . . . . . O . . . . . X . . X X X X X + + + X + + + + + + + & & = - - - = * * * * & & & & & & & o o o & & & & & & & o                 O o : # # & & & & & * * * * * * * * * * * * * * * * = = = = = = = = = - = - < < < - < < < < < < < < < < ",
"LXLXLXLXLXLXLXLXLXLXKXKXKXKXKXKXKXKXKXKXKXPXhXjXkXaXaXaXaX4X^.^.-X4XaX4X4X4XaXaXaXaXaXaXaXaXaXaXaXaXaXaX4X^.^.^./.(.P.L.L.>.,.,.<.....X.X.X.X.] ] ` ` j j j j j h h h k k k k k f f f f f f f f f f f f k k k k j ..G U ] ] U ] U G U { #.] | { I I { I U U { { { { I D D h D E U D E D H { { I F R I R R R Y F o.o.W W W T Y W ~ W ~ ~ ~ / / W W / / T ^ ^ @.3.9.5.8.7.u.u.j.j.k.l.x.z.m.m.m.m.V.V.V.A.C.C.Z.Z.Z.Z.Z.Z.Z.Z.Z.Z.Z.Z.G.G.G.G.F.F.F.'.'.'.'.'.'.'.'.'.}.}.}.}.}.}. X X X X X X X X X X X X X X X X.X.X.X.X.X.X.X.X.XXXXXXXXXXXXXoXoXoX>X>X>X>XoXoXoX>X>X>X>X>X>X>X>X>X>X>X>XoX>XoXXX X|.Z.V.D.x.x.0.q.5.9.9.f.f.3.( ) ) 9.3._ 3.7.r.( n n S ^ ) S T ^ / ( ( / @.^ T T &.%.~ ~ ~ Q Z N N N x 9 9 6 9 8 M N 8 m B V V 9 5 8 a 8 % M M 2 Y B W C 8 5 > @ 5 9 > 6 V 9 u > @ . > 5 1 > 5 7 1 > 7 7 7 B 6 9 8 M T +.6 8 9 N T Q A x x Z N N B B V M M Y Y B y y , $ # , $ . . . . . . X X . .     .   . . . . . O   X . . X O O X X X X X X + + + + + + + # & * - - - = * * * * * * * * & & & & : o o & & & o o o O                 O o : # & & & & & & & & * * = = * * * * * * = = = = = = = = - - - - - - - < < < < < < < < < < < < < < < ",
"LXLXLXLXLXLXLXLXKXKXKXKXLXLXKXKXKXKXKXKXKXjXkXaXaXaXaXaXaXaXaXaXaXaXaXaXaXaX-X4XaXaXaXaXaXaXaXaXaXaXaXaXaXaX4X^.^.^././.(.P.P.P.L.,.,.<.....X.] ] ] ` j j j j j h h h k k k k k f f f f k k k k k k k k g k g k f f  . .G g g h G { { { { { I { R F F U U { | } } } { D I D s D I D U D { R I I R R R F D R E R W o.o.W Q T R T Q W ~ ~ ~ / ~ Q W @.L T / ( @.3.9.5.8.7.u.u.j.j.k.k.l.z.b.m.m.m.V.V.V.A.C.C.C.C.Z.Z.Z.Z.Z.Z.Z.Z.Z.Z.G.G.G.G.F.F.F.'.'.'.'.'.'.'.'.'.}.}. X}.}.}. X X X X X X X X X X X X X X X X.X.X.X.X.X.X.X.X.X.XXXXXXXXXoXoXoXoX>X>X>X>X>X>X>X>X>X>X>X>X>X>X>X>X>X>X>XoXoXoXXX.X}.F.A.B.x.x.N.q.5.9.9.3.f.f.3.( f.) _ 3.( 9.7.k.( ) n ) / ^ L ) / ( %./ ^ &.^ ^ A &.%.Q Q Q A N N N x 9 9 6 9 9 8 M 8 m M M C 8 6 5 6 V M % 2 B W V M B M 7 > @ 2 6 6 2 5 5 5 a . @ > 5 5 1 1 5 6 > > 7 5 F M 6 M W A N Y 8 9 v L ~ ~ N N 9 M N M M 6 6 6 8 8 u a 1 $ @ @ # = # * X .   . X X .               X + X X . O . . X X X X X X X X X + + + + + + + # & * = = = = * * * * * * * * & & & & & : : o o o o O O O O O             O o : # & & & & & & & & * * = = * * * * * * = = = = = = = = - - - - - - - - < < < - < < < < < < < < < < ",
"LXLXLXLXLXLXLXKXKXKXKXKXKXKXKXKXKXKXhXjXjXkXaX^.^.IXaXaX^.-XaXaXaXkXaXkXkXaXaXaXaXaXaXaXaX4X4X4XaXaX4XaX4XaXaXaXaXaXaXaXaX^.^.(.(.P.P.t.,.<...X.X.] 1.` j j j j j j j k j j j j k k k k k k j j j j j j k k g g j j G  .*.| G G U U G H U } { I I I I I { } $.*.*.=.| D U s s s I s I R { I I I R I P P I R P Y W o.W R Y R T Y T o.W W ~ ~ W ~ ~ @.L ^ / @.3.3.9.5.7.r.u.u.j.j.k.k.l.x.c.m.m.m.V.V.V.A.C.C.C.C.Z.Z.Z.Z.Z.Z.Z.Z.Z.Z.G.G.G.G.F.F.F.'.'.'.'.'.'.'.'.'.}.}.}.}.}.}. X}. X X X X X X}.}. X.X.X.X X X.X.X.X.X.X.X.X.XXXXXXXXXXXXXoXoX>X>X>X>X>X>X>X>XoX>X>X>X>X>X>X>X>X>X>X>X>X>X>XoXoX.X}.'.Z.V.c.x.N.q.q.5.9.9.f.f.9.3.) f.) 9.3.( ( 7.r.5.( L ) ( ^ T ^ ( @.%.^ @.^ ^ ^ T %./ T L T Z N N x 9 9 6 6 9 9 8 8 8 9 9 9 C M > 2 2 V 8 a 6 R 6 6 u a 7 1 % > 2 > M u 1 9 7 5 . % 5 5 6 > > 8 > > > 8 M 9 M V C M M N M 9 x L %.T A C x V C V V V M 8 u 1 1 F 1 @ @ @ @ , 4 * . .   . + X . .           .   . + + + . . X X X X X X X X X X X + + + + + + # & * * = = = * * * * * = * * & & & & & & & : o o O O O O O O             X o # & & & & & & & & & & & = = * * * * * * = = = = = = = = - - - - - - - - < < - - < < < < < < - < < < ",
"LXLXLXLXLXKXKXKXKXKXKXKXLXKXKXKXKXhXjXjXkXaXaXaXIXIX^.^.^.4XaXaXaXaXaXaXaXaXkXaXaXaXaXaXaXaXaXaX4X4X4X^.^.^.aXaXaXaXaXaXaXkXgXaX^.^./.(.L.,.<.....X.] 1.j j j j j j j k j j j h k k k k k k j j j j j j j j h g g ] G ] g *.,.{ ] U D D G } D { { { { [ } $.*.:.:.:.} U s y s D D D [ I R I I F I I I I R F F W o.[ R R Y R T Y R ~ W W ~ W W / @.^ ^ T / @.3.3.5.8.r.r.u.u.j.k.k.k.l.x.c.b.m.m.V.V.V.A.C.C.C.C.Z.Z.Z.Z.Z.Z.Z.Z.Z.Z.G.G.F.F.F.F.F.'.'.'.'.'.'.'.'.'.}.}.}.}.}.}. X}.}. X X X X X X}. X.X.X.X X X.X.X.X.X.X.X.X.XXXXXXXXXXXXXoXoX>X>X>X>X>X>X>X>XoX>X>X>X>X>X>X>X>X>X>X>XiX>X>X>XXX.X}.'.Z.A.B.x.x.q.q.q.9.9.9.2.2.9.9.) ( ) 2.3.( ( r.3.k.( S ) ^ ^ ^ / / @.&.T / ^ ~ T Q o.^ L T A N N x 9 9 6 6 6 9 9 m 8 6 6 6 9 u M 8 5 6 M 6 > 6 M 8 8 7 B 5 % 1 1 6 B a F a > 5 % @ 1 6 6 > > M > 5 > > a V 9 6 8 N M M 9 x x A o.~ O.x 9 6 9 9 9 W C 7 2 5 5 7 F , > , , $ , @ @ .   . + X   .         . . . . . X # X X . . . X X X X X X X X + + + + + + # & * * = = = * * * * * * * * & & & & & & & o o O O                     O X o # & & & & & & & & & & * * * * * * * * * = = = = = = = = - - - - - - - - < < - - < < < < < < - - < < ",
"LXLXLXLXLXLXKXKXKXKXKXKXKXKXKXKXjXjXkXaXaXaXaXaXaXaX4X-X4XaXaXaX4X4X4X4XaXaXkXkXaXaXaXaXaXaXaXaX4X4X4X^.^.^.-X4X4X4X-X4XaXaXaXaX4X4X^.(.L.,.*.$..... .X.] ` j j j j j j j j j j j j j j j j j j j j j j j j j j j j j U G g U *.:.#.{ I H { R H I [ #.#.-.=.:.h.R.:.=.s F B B F B F } D D F U I U P P P P Y R } o.W R Y Y Y T Y R W W W ~ Q W / &.^ ^ ^ / @.3.9.8.7.7.r.u.u.j.k.k.k.l.l.z.b.m.V.V.A.A.C.C.C.Z.Z.Z.Z.Z.Z.Z.Z.G.G.Z.Z.G.'.F.F.F.F.'.'.'.'.'.'.'.}.}.|.}.}.}.}.}.}.}.}. X}.}.}.}.}.}.}. X.X.X.X X X X.X.X.X.X.XXXXXXXXXXXXXXXoXoXoXoXoX>X>X>X>X>X>X>X>X>X>X>X>X>X>X>X>X>X>X>X>XoXoXXX X X}.'.Z.V.c.x.p.q.q.q.5.9.9.3.9.5.f.) ( ( 3.9.3.9.@./ r.3.) ) / ( ^ @.^ / %.^ ^ T L ^ T T ~ ~ T Z N x N 6 x 6 6 6 7 6 B 8 6 2 6 7 u m 6 6 7 2 > > 9 9 9 9 M 8 % 5 > 5 V 9 > [ 8 5 1 > 2 6 5 7 > > a 6 > M Y 8 M 8 9 Z v 8 M 6 9 C ~ O.~ C 8 6 6 6 9 8 V B 7 2 5 5 7 a y $ @ , y . $ $     + X . .       . . . . .   . + + X . . O O X X X X X X X X + + X X o + & & * * * * * * * * * * * * & & & & & & & o o O O       O O     O   O X o o # & & & & & & & & & & & * * * * * * * * * * = = = = = = - - - - - - - - < < < < < < < < - - < < 3 3 ",
"LXLXLXLXLXLXLXLXLXLXKXKXKXKXKXjXkXaXaXaXaXaXaXaXaXaXaXaXaXaX4X-X4X4X4X4X-X-X4XaXaXaXaXaXaXaXaXaXaXaXaXaX4X-X^.^.^.^.-X-XaX-X-X^.^./.(.L.,.,.$.....$.......X.] ] 1.` j j j j j j j j j j j j j j ` ` ` j j j j j j j G U G I ] G H ] | #.} #.$.#.{ | =.:.t.h.>.!.!.h.F R D s B F V R { D P D B B F U P P P R } E E E Y F J Y T Y Y T Q W / ~ ~ @.O.%.L ^ ( 2.3.9.8.7.7.r.u.u.j.k.k.k.l.x.c.b.m.V.V.A.A.C.C.C.Z.Z.Z.Z.Z.Z.Z.Z.G.G.Z.Z.`.`.F.F.F.F.'.'.'.'.'.'.'.}.|.|.}.}.}.}.}.}.}.}. X X}.}. X}.}.}. X.X.X.X X X X.X.X.X.X.XXXXXXX.XXXoXXXoXoXoXoXoX>X>X>X>X>X>X>X>X>X>X>X>X>X>X>X>X>XiX>XoX.X X.X.X.X X'.F.A.D.x.j.q.q.q.q.5.9.9.5.q.8.3.( ) ( ( 9.( 3.( ( r.5.( ) ^ ( T %.@.^ / ^ L L L ^ ^ L Q ~ Q N x x 6 6 6 6 6 7 6 u 6 7 6 6 6 9 8 6 6 u 9 2 1 6 6 7 B 9 M 9 > > > M 9 % 7 M 8 B > 1 5 2 2 6 5 8 V V % 1 8 M 8 9 M 8 x M 8 6 M o.A T W T Y A 8 6 > 6 V V 7 2 1 5 a , , , . y . . $ . . X + @ .         . .   . . . . + + X X . . X X X X X X X X + + + X o + & & * * * * * * * * * * * * & & & & & & & : o o O O O O O O O O O O X o : # & & & & & & & & & & & & * * * * * * * * * * = = = = = = - - - - - - - - < < < < < < < < - - - < 3 3 ",
"KXLXLXLXLXLXLXLXLXLXKXKXKXPXjXkXaX-X^.-XIXaXaXaXaXaXkXkXkXkXkXaXaXaXaXaXaX4X-X4X4X4X4X4X4XaXaXaXaXaXaXaXkXaXaXaX-X-X-X4XIX^././.(.P.L.,.<.<.<.<.<.*.,.,.<...] ] ] ] j j j j j j j j j j j j j j 1.1.1.` j j j j j G U U U ] U G U ] ] ] { { } #.$.$.:.h.I.U.t.2XW.:.I E D s s D D | I D B D P R E [ E P F P } R R R P C C Y R Y Y Y T ~ / Q Q / / / ^ / @.3.3.5.8.7.7.7.u.u.j.k.k.k.l.x.c.m.m.m.A.A.C.C.Z.Z.Z.Z.Z.Z.Z.Z.Z.Z.G.G.Z.Z.F.G.F.F.F.F.F.'.'.'.'.'.'.'.'.'.}.}.}.}.}.}.}.}.}.}.}.}. X}.}.}. X.X X X.X.X.X.X.X.X.X.XXXXX.XXXXXoXoXoXoXoXoXoX>X>X>X>X>XoX>X>X>X>X>X>XiX>XiX>X>X>X>XoX.X}. XXXXX.X}.'.Z.V.c.x.q.0.0.q.q.5.9.9.q.i.q.3.( ( ( ( ( ( ( ( ( ( 5.( L T ^ ^ ^ %./ ^ ^ T A T T A ~ T A T A x x 2 2 6 6 7 6 7 1 9 8 6 2 6 7 1 2 9 8 6 2 6 6 9 6 M V M 9 > > M 8 5 u a 8 8 > > 2 6 6 5 5 B V 2 > 6 8 M 8 9 8 8 8 8 9 x V Y Y Q ~ C 8 W o.R 6 6 8 C 7 > > > 1 5 , $ 1 p , . @ + $ @ + = .               . . . . . + # + X . . X X X X X X X + + X X X + & & * * * * * * * * * * * * & & & & & & & & o o o O o o o o o o o o o : & & & & & & & & & & & & & & * * * * * * * * * * = = = = = = - - - - < < < < < < < < < - < < - < < < 3 3 ",
"PXLXLXLXLXLXLXLXLXLXKXKXKXjXkXaXaXIX^.^.IXIX-X4XaXaXaXaXaXaXaXaXaXkXkXkXaXaXaX4XaX4X4X^.^.^.4X4X4X4XaX4X4XaXaXaXkXkXaXaX-X/.(.P.P.t.,.*.....<.,.,.,.>.,.,...X.] ] ] ] ] 1.1.1.1.1.1.1.1.1.1.] 1.] 1.] 1.j j j j j G ] ] ] U G U ] ] G G } | #.:.>.>.t.L.!.I.t.~.h.*.R | D s s D D | U D { { E I F R V B D E R E E R F V C Y Y Y L Y R Q ~ Q T ^ ^ ^ @.( @.3.5.5.8.7.7.7.u.u.j.k.k.k.l.x.c.m.m.m.V.A.C.C.Z.Z.Z.Z.Z.Z.Z.Z.Z.Z.G.G.Z.Z.F.F.F.F.F.F.F.'.'.'.'.'.'.'.'.'.}.}.}.}.}.}.}.}.}.}. X}.}.}.}.}. X X}. X.X.X.X.X.X.X.X.XXXXXXXoXoXoXoXoXoXXXoXoX>X>XoXoXoXoXoX>X>X>X>X>XiXiX>X>X>X>X>XoXoX.X.XoXoXXX X'.S.A.B.x.j.0.q.q.q.q.9.5.8.0.8.7.3.3.) ) ( ( ( ( ( 3.( 3.@./ L ^ ^ / / ^ Q L L S S L T Q Q A ~ N N 6 2 6 6 7 6 2 > 8 8 2 1 6 1 2 1 6 u 7 2 6 6 7 8 8 B a Y 6 9 M 8 C P 5 6 5 6 > > 5 > 9 V 7 2 8 M > 8 M 8 9 9 v 8 6 M 9 v T C Q W C T C x M W V 9 8 V V u 6 1 4 @ , @ . y , . X * $ + =   .             . . . . . X + * X . X X X X X X X X X X X X X o # & & * * * & & * * * * * * & & & & & & & & & : o o o o o o o o o : # # & & & & & & & & & & & & & & * * * * * * * * * * = = = = = = - - - - < < < < < < < < - - < < < < < < < 3 ",
"PXKXLXLXLXLXLXLXKXKXjXjXkXkXkXkXkXaXaXIXaXaXaXaXaX4X-X-X-X-X4XaXaXaXaXaXaXaXaXaXaXaX4X4X^.^.^.-X4X-X-X-X-X-XaXaXkXaXsXaX^./.U.L.t.>.,.,.<.<.,.,.,.,.,.,.*...X.] ] ] ] ] ] ] ] ] ] ] ] ] 1.] ` ` ] ] ' ] ' 1.j j G 1.] ] ] U U G G ] } #.#.#.:.>.L.!.L.!.$X!.L.L.:.:.#.[ I H H I I { #.| F H B a B F a B F [ P E E P C V F Y Y Y Y Y T Q ~ Q T ^ ^ / @.@.@.3.5.8.7.7.r.u.u.u.j.k.l.l.l.b.c.m.m.V.C.C.C.C.Z.Z.Z.Z.Z.Z.Z.Z.Z.Z.`.`.G.G.'.'.F.F.'.F.F.'.'.'.'.'.'.'.'.'.}.}.}.}.}.}.}.}.}.}.}.}.}.}.}.}. X X}. X.X.X.X.XXXXX.X.XXXXXXXoXoXoXoXoXXXXXoXoX>X>X>XoXoX>X>X>X>X>X>X>XiXiXiX>X>X>X>XoXoXoXoXoXoXoXXX}.'.S.D.D.x.0.q.q.q.q.5.5.q.0.0.i.8.9.f.( ( ( ( ( ( 3.3.@.3.&.^ ^ L S T ^ ^ T T L A S A A L A C N Y x 6 6 6 6 7 5 1 2 7 1 2 5 1 1 1 6 u 8 2 6 7 7 8 9 8 M 9 M 6 M 9 M M 8 9 M V 6 6 5 9 V % 8 6 9 8 6 1 9 8 9 B C V 7 8 9 8 M M Y W T Y ~ C Z 9 x C V M V R +.V u $ , $ . y . . . $ + + &   . .   .         .     .   X = + . X X X X X X X X X X X X X X + # & & & & & & & & & & & & & & & & & & & & & & & : : : & & # # & & & & & & & & & & & & & ; * * * * * * * * = = = = - - - - = = = = = = = = - - - < < < < - - < < < < < < < < < ",
"PXKXLXLXLXLXKXKXPXjXaX^.IXaXaXkXkXkXkXkXkXkXkXaXaX^.^.^.^.-XaXaXaXaXaXaXaXaXaXaXaXaXaXaXaXaX4X4X-X-X-X-X-X4XaXaXaXaX-X^./.P.t.>.>.>.>.t.>.>.,.,.,.,.$... .X.X.X.] ] ] ] ] ] ] ] ] ] ] ] ] ] 1.1.] ] ] ] ] ] 1.j G 1.] ] ] ] ] { ..#.$.*.t.:.L.t.$X-XW.!.I.h.L.t.-.>.[ } } I H H { } I D F H B s B V u H R R P R P D V C Y Y Y Y Y Y T Q ~ Q Q ^ ^ %.@.@.@.3.5.8.7.7.r.u.u.u.j.k.l.l.l.b.c.m.V.V.A.C.C.C.Z.Z.Z.Z.Z.Z.Z.Z.Z.Z.G.G.Z.Z.'.'.F.F.F.F.'.'.'.'.'.'.'.'.'.'.}.}.}.}.}.}.}.}.}.}.}.}.}.}.}.}.}.}. X X.X.X.X.XXXXXXXXXXXXXoXoXoXoXoXoXoXoXoXoXoXoXoXoX>X>X>X>X>X>X>X>XiXiXiX>X>X>X>X>X>X>X>X>X>XoXoX X'.S.A.D.x.j.0.0.q.q.8.5.q.0.0.i.0.5.3.9.3.3.3.@.3.( ( 3.( 3.3./ L L A L L T L S Z Z N A A L N x C Y 6 6 6 6 7 5 1 2 1 1 1 1 1 1 1 6 7 8 6 6 9 9 9 9 7 V 5 M 9 M 8 V V 6 6 > u > 6 V M 6 2 8 8 6 7 V 1 9 B C V M 8 6 8 9 8 M x Y W W W Y C Y V 9 0 Q 8 V 8 V Y R 7 a , 1 4 $ + . $ , & + X . X . X . . .     .   . . X + * X . X X X X X X X X X X O X X + # & & & & & & & & & & & & & & & & & & & & & & & & & & & & & & & & & & & & & & & & & & ; ; * * * * * * * * = = = = - - - - = = = = = = - - - - - - < < < - - - < < < < < < < < ",
"aXkXPXKXLXKXPXjXaX^./././.^.^.^.^.aXkXkXkXkXkXkXkXkXkXaX4X4X4X4XaX4X4X4X4XaX4X4X-X4XaXaXaXkXkXaXaX4XaXaXaX4X4X4X^.^.R.P.h.,.,.,.,.,.,.>.,.,.<.<....... ... .X.X.X.X.X.] ] ] ] ] ] ] ] ] ] ] ] ] ] ] ] ] ] ] ] ] U ] ] { X.|  ...:.>.t.L.L.U.P.h.3X~.gXU.h.I.h.=.t.#.} #.+.R F F I | s a F D B B V V B F P F P F D V F F J Y Y Y Y R T Q ~ Q Q ^ / @.&.@.3.3.5.8.7.r.r.u.u.k.k.l.l.l.z.b.m.m.V.C.C.C.C.Z.Z.Z.Z.Z.Z.Z.`.`.G.G.G.G.`.`.'.'.F.F.'.F.'.'.'.'.'.'.'.'.|.}.}.}.}.}.}.}.}.}.}.}.}.}.}.}.}.}. X X X X.X.X.X.XXXXXXXXXoXoXoXoXoXoXoXoXoXoX>XoXoXoXoXoXoXoX>X>X>X>X>X>XiXiXiX>X>X>X>X>X>X>X>X>X>X>XoX.X}.'.Z.V.D.x.j.N.0.q.q.q.q.0.0.0.N.8.9.5.5.3.( 9.( ( _ ( 3.( L ( ( ^ ^ L Z Z Z Z Z N N N A A T C x N v 6 0 6 9 2 1 2 1 5 1 1 1 1 1 1 6 M 6 7 9 9 9 9 6 M 6 8 8 V M C 9 M > 9 M 9 8 2 2 8 M 6 M u 8 M M 8 u 9 8 M 8 6 8 9 8 M x A Q Q Y Y Q Z C 8 M v W C 2 R P M P 7 @ . 5 $ . @ , , , $ $ X X X X . . . . . . . . . . . * + X X X X X X X X X X X X X X + # & & & & & & & & & & & & & & & & & & & & & & & & & & & & & & & & & & & & & & ; ; ; ; ; ; * * * & * * * * = = = = - - - - = = = = - - - - - - - - < < - - < < < < - < - - < < ",
"^.IXkXPXKXPXjXkX/./.(.(.(.(.(.(./.^.^.-XaXaXaXaXkXkXjXkXkXaXaXaXaXaX4X4X^.^.^.^.^.4XaXaXaXaXkXkXkXkXgXkXsXaX4X^./.P.L.>.,.$.......<.,.,.*.<........... ... . .X.X.X.X.X.X.] ] ] ] X.X.X.] ] ] ] ] ] ] ] ] ] ] ] ] ] { | ..$.:.,.t.L.U.~./.R.!.t.L.-XsXL.~.L.h.h.*.e.#.[ [ R R [ B { y a F H B s H H H H F D F D V F C V F F Y Y Y Y T Q ~ Q Q ^ / @.3.&.3.3.5.8.8.r.r.u.u.k.k.l.l.l.b.b.m.m.V.C.C.C.C.Z.Z.Z.Z.Z.Z.Z.`.`.Z.G.G.G.`.`.'.`.F.F.'.'.'.'.'.'.'.'.'.'.}.}.}.}.}.}.}.}.}.}.}.}.}.}. X}.}.}. X X X X.X.X.X.XXXXXXXXXXXoXXXXXoXoXoXoX>X>X>XoXoXoXoXoXoXoX>X>X>X>X>X>XiXiXiX>X>X>X>X>X>XiXiXiX>X>X>XXX X'.F.A.D.x.x.j.j.q.q.q.q.q.0.0.0.0.8.9.9.9.3._ _ _ ( ( ( ( ) L L ^ ^ T L S Z Z Z N N N N A x T N C C 6 6 6 9 6 1 2 5 1 5 1 1 1 1 1 2 M 6 7 7 9 9 9 9 2 8 6 a V M F Y C > 6 M 6 9 6 2 8 9 8 C Y B 6 M 2 6 7 8 u 8 6 9 9 8 M v C T Q Q Z R C C M 8 u M V V V 7 9 u > 7 > $ @ $ $ 4 y < $ $ . . . . . .   . . . . . . . O X + + X . X X X X X X X X X X X + # & & & & & & & & & & & & & & & & & & & & & & & & & & & & & & & & & & & & & & ; ; ; ; ; ; * * * & * * * * = = = = - - - - = = = = - - - - - - - - < < - - < < < < - - - - < < ",
"(.(.IXkXPXjXkXaX^././.(.(.(.(.(.(.(././.^.^.^.^.-XaXaXaXaXaXkXkXaXaXaXaXaX-X^.^.^.4XaXaX4XaXkXkXkXgXdXdXsXaXaX^.P.h.,.*... .X.]  ................................. . .X.X.X.X.X.X.X.X.X.X.X.] ] ] ] ] ] ] ] |  ...$.,.,.>.h.L.P.U./.R.$X3X-X/.h.h.~.U.$X~.I.-.e.t.e.+.I { R I F a E H V s a a V H V H H F F F V V F V V V F J J Y J Q T Q ^ ^ ^ / &.3.3.3.4.5.8.7.r.u.u.u.k.k.l.b.b.b.b.m.m.C.C.C.Z.Z.Z.Z.Z.Z.Z.Z.Z.`.`.G.G.G.G.G.G.'.'.F.F.'.'.'.'.'.'.'.'.'.'.}.}.}.}.}.}.}.}.}.}.}.}.}.}. X X}.}. X X X X.X.X.X.XXXXXXXXXXXXXXXXXoXoXoXoXoX>XoXoXoXoXoX>XoXoX>X>X>X>X>XiXiXiXiX>X>X>X>X>X>XiXiXiXiXiXiXoX.X}.'.Z.A.B.x.N.N.q.q.q.q.q.0.q.0.0.q.5.9.9.9.3.( f.f.( ( 3.( ^ ^ / ^ T L A A S A A N v x N Z A 9 v M 8 6 9 6 6 2 1 2 2 5 5 1 1 5 1 2 M 9 6 6 9 8 6 9 a 9 2 9 M W 8 E 8 6 > 6 B 6 8 5 M M M C M 8 8 2 6 9 a 8 8 6 > 9 9 8 M x M A ~ W C A M C C N v 6 M M 8 M 8 B } D B a y , , 4 4 y $ * .   . . . . . . . . . . . . . . + + X X X X X X X X X X X o X + # & & & & & & & & & & & & & & & & & & & & & & & & & & & & & & & & & & & & ; ; ; ; ; ; ; ; = = = * = = = = = = = = - - - - = = = = - - - - < < < < < < < < < < < < < < < < 3 3 ",
"P.P./.kXkXkXkXkXaXIX^.^.^.^./././.(.(.(.(.(.(././.^.^.^.^.IXkXkXkXkXkXkXkXaXaXaXaX4X^.^.-XaXkXkXkXsXaXaXaX^.R.L.>.,.#... .X.X.X.X.X. ............................... .X.X.X.X.X.X.X.X.X.X.] ] ] X.X.X. . ...$.*.,.>.L.P.L./.-X^.^.sX4X$X!.3XR.!.g.U.U.3XI.L.e.h.>.#.o.#.{ R I F V P H H a a V H V B V F F H H V V V V C F J A J T J T A T ^ ^ ^ ( @.3.3.3.5.5.8.7.r.u.u.u.k.k.l.b.b.b.m.m.m.C.C.C.Z.Z.Z.Z.Z.Z.Z.Z.Z.`.`.G.G.G.G.G.G.'.'.F.F.F.F.'.'.'.'.'.'.'.'.}.}.}.}.}.}.}.}.}.}.}.}.'.}. X X}. X X X X.X.X.X.X.XXXXXXXXXXXXXXXXXoXoXoXoXoXoXoXoXoXoXoXoXoX>X>X>X>X>X>X>XiXiXiXiX>XoX X}.oXiXiXiXiXiXiX>XoX X'.'.Z.V.x.x.x.q.q.q.q.5.q.0.0.q.5.0.5.9.9.5.q.f.( ( ( ( ( ( / / ^ T L L S x c S N v x x N A ~ v 8 C 9 M 7 6 6 2 2 2 5 5 1 1 5 2 2 8 9 9 9 8 u 9 8 M 8 6 M 6 Y V F 6 M 6 6 8 C M 6 M 8 M M 8 9 7 > 9 M 9 a M 9 > 6 9 8 Z M M C A W Y L v M Z Z M 7 8 M M M 6 2 7 7 > @ , $ , 1 , + * w . . . . . . . . . . . . . . . O . X # # X X X X X X X X X o X + & & & & & & & & & & & & & & & & & & & & & & & & & & & & & & & & & & & ; & ; ; ; ; ; ; ; ; = = = * = = = = - = = - - - - - = = = = - - - - < < < < < < < < - < < < < < < < < < ",
"P.P./.IXaXaXkXkXkXaXaXaXaXaX4X^.^./././.(.(.P.P.P.(././././.^.^.aXaXaXaXaXaXkXkXkXkXaXaXaXkXkXkXkXaXaX4X^.R.L.t.,.*... . . .X. . . . . ............................. .X.X.X.X.X.X.X.X.X.X.X. . . .....*.,.,.>.h.L.U./.~.~.4XgXaX~.aXaXgX4XaXL.U.L.R.I.2Xt.>.-.;.-.[ } $.{ R I F F V D D a V D V B H F H B B V V H H V C F J C J T J T A T ~ ^ / @.&.3.3.4.5.5.8.7.r.r.u.i.k.l.b.b.b.m.m.m.C.C.C.Z.Z.Z.Z.Z.Z.`.`.`.`.`.`.'.'.'.'.G.G.`.`.'.F.'.F.'.'.'.'.'.'.'.'.}.}.}.}.}.}.}.}.}.}.}.}.}.}. X X X X.X.X.X.X.X.X.X.XXXXXXXXXXXXXXXXXXXXXXXXXXXoXoXoXoXoXoX>X>X>X>X>X>X>X>X>XiXiXiXiX>XoX'.'..X>XiXiXiXiXiXiXoX.X{.'.Z.A.D.x.x.q.q.q.q.q.q.0.0.q.q.q.q.q.5.2.5.5.9.3.( ) ) ( ( T ^ T L L ^ L Z N x v x 9 x A Q Z 9 M Z Z 8 7 6 6 6 2 5 5 5 5 6 1 6 8 8 8 8 M M 9 M M M 7 C 6 C C W M 8 6 > M 9 F M M 6 M 8 9 6 6 > 6 9 6 M M 8 2 6 6 8 M M M M M W Y Y 8 8 x M M 8 9 8 M P M 6 2 > 2 1 > @ % , , $ . * $ + . . . . . . .     . . . . O . . # * X X X X X X X X X X X + & & & & & & & & & & & & & & & & & & & & & & & & & & & & & & & ; ; & & ; ; ; ; ; ; ; ; ; ; = = * * = = = = - - - - - - - - - - = = - - = = - - < - < < < < - - - < - - < < < < ",
"(././.^.^.aXaXaXaXaXaXkXkXkXaXaXaXIX^.^.^.^./.P.P.P.P.P.(.(.(././././.^.^.-XaXaXaXaXaXkXdXkXkXkXkXaX-X^.R.P.L.L.t.,... .X. . . . . .........................X. ..... .X.X.X.X.X... . . .....<.,.,.>.L.P.P.U././.-XaXdXgXsXsXsXsX~.hXdX-XaX-Xg.P.R.P.-XI.h.>.;.+.#.#.#.[ { E I F I p F F V D D D V F F a p a B V H H V V V C A Y Y J Q Q Q ^ ^ / @.&.3.3.4.5.5.7.r.r.r.u.i.k.k.b.b.b.m.m.m.V.C.C.C.Z.Z.Z.).Z.`.`.`.`.`.`.'.'.'.'.G.G.`.G.'.F.'.'.'.'.'.'.'.'.'.'.}.}.}.}.}.}.}.}.}.}.}.}.}.}. X}. X X X X X.X.X.X.X.X.X.XXXXXXXXXXXXXXXXX.X.XXXoXoXoXoXoXoX>X>X>X>X>X>X>XiXiXiXiXiXiX>XoXoX.XoX>XiXiXiXiXiXiX>XoX}.'.'.Z.V.c.x.q.0.0.0.0.q.q.q.0.0.q.q.q.q.9.f.9.9.5.9.( ) n S ^ ^ T L L 9 A T N 9 x x x x N v A v 9 R v M 8 7 6 2 2 2 6 6 2 6 5 6 u 9 8 u M M M M V M 9 M 6 Y V V C 7 M > 7 9 9 V M 6 u 9 6 6 6 6 > > 9 M M 9 1 0 0 6 x v v M v R C Y v 9 9 8 M 8 6 8 V V M 6 1 > @ @ 7 . @ , 1 4 . X X # X .   . . . .     . . . . O . . + # o X X X X X X X X X X + & & & & & & & & & & & & & & & & & & & & & & & & & & & & & & & ; ; ; & ; ; ; ; ; ; ; ; ; ; * * * * = = = = - - - - - - - - - - - - = = = = - - - - < < < < - - - - - - - - < - ",
"^.^.^.^.^.^.^.^.IXaXaXaXaXaXkXaXaXaXkXkXaX^./.P.P.P.P.P.P.P.P.P.P.P.(.(././.^.^.^.^.^.aXaXaXaXkXaX^./.R.U.P.P.U.P.P.h.,.,.,.<................................. .X. ...........<.,.,.,.,.,.>.h.L.P.U.(./.^.4XaXaXkXgXgXgXhX-XsX4XU.sXBX-X-XU.R.!.L.!.L.g.t.$.} $.=.=.#.[ R E R H V B D V P P D V V I F s a a B V H V V B B V A L Y Y T Q ~ ~ / / @.&.3.3.4.5.5.7.r.u.u.u.i.k.k.b.b.m.M.M.M.C.C.C._._._._.).).`.`.`.).`.`.`.`.`.'.'.'.'.'.F.F.'.'.'.'.'.'.}.}.}.}.}.}.}.}.}.}.}.}.}.}.}.}.}.}.}.}.}.}. X X X X.X.X.X X.X.XXXXXXXXXXXXXXXXXXXXXXXXXoXoXoXoXoXoX>X>X>XoXoXiXiXiX>X>XiXiXiX>X>XiX>XiXiXiXiXiXiXiX>XoXXX}.'.'.Z.V.c.x.x.j.N.0.q.q.q.q.0.q.q.q.q.q.9.9.f.9.9._ ( ) L S A A A A N c N S N x x 9 c N N M T T M 8 x M 8 6 1 % 2 6 6 > 7 6 6 8 8 8 8 M M M M C C M 2 M 8 u Y C V M 6 7 5 8 V M 6 M 6 M 9 9 6 > > > 8 a 6 % 6 2 6 8 v v v M 8 x N Z Q x 6 6 M x 8 M V 2 C 2 6 % @ 1 , % y , @ . X . X . . .   . . . . . . . . . O . . X o X X X X X X X X X X X + # & & & & & # : : # # # # & & & & & & & & & & & & & & & & & & & & & & ; ; ; ; ; ; & & & & & & & & * * * * * * * = - - - - = = = = - - - - - - < < < < - - < < < < - - - - - - ",
"aXaXIX^.^.^.^.IXaXaX4XIXIX4XaXaXaXaXkXkXaX^.(.P.P.P.P.P.P.P.P.P.P.P.P.P.P.P.(.(.(.R./.^.^.^.-X-X^./.U.U.U./.^.^.^./.R.P.P.P.L.>.,.,.,.,.*.*.*.*.*.<.<.<.....<.....$.*.*.,.,.>.>.t.L.P.P.P.(././.^.-XaXaXsXkXkXgXgXhXBXBXgXsX^.-X8X-X-X3X3XW.8X4Xh.!.t.-.-.$.+.[ #.[ } [ H R { R a U V E U D H V H F G V B B V V V B M M B V C A Y Y Y T ~ ^ / / @.&.3.3.4.4.5.7.r.u.u.u.k.k.l.b.b.m.M.M.M.C.C.C._._._._.).`.`.`.`.).`.`.`.`.`.'.'.'.'.'.F.F.'.'.'.'.'.'.}.'.'.}.}.}.}.}.}.}.}.}.}.}.}.}.}.}.}.}.}.}.}.}. X X.X.X.X.X.X.XXXXXXXXXXXXXXXXXXXXXXXXXXXXXoXoXoXoX>X>XoXXXoX>XiX>X>X>X>X>X>X>XiXiXiXiXiXiXiXiXiXiX>XoXXX}.{.'.Z.V.V.x.x.x.N.q.q.q.q.q.q.q.N.q.q.q.q.q.9.f.3.9.( ) L S S S S S S N c N A x x A x 9 9 M N o.M 8 8 v m 6 2 6 6 6 2 > 9 6 5 6 M v 8 M C 8 C M M C 6 u 8 M C C M V 6 M > u V M 6 M M V 7 6 9 6 2 6 M 8 6 > 6 6 6 8 x v x x 8 9 9 x ~ C 9 6 9 M M x m 9 9 6 8 > @ % u 5 y , @   X . . . . . . . . . . . . . . . O . . O X X X X X X X X X X X X + # & & & & & # : : # # # # & & & & & & & & & & & & & & & & & & & & & & ; ; & & & & & & & & * * & & * * * * * * = = - - - - = = = = - - - - - - < < < < - - < < = = - - - - - - ",
"kXkXaXaXaXaXIXIXaXaX^.^.^.^.^.^.^.^.IX^./.(.P.P.P.P.P.P.P.P.P.P.P.P.P.P.P.P.(.P.P.P.P.U.U.R././.R.U.R./.^.4XaXkXkXaX-X^.^././.U.P.P.P.P.L.L.L.h.h.h.UXUXUXUX>.>.t.L.L.P.P.P.P.U.(.R./.^.^.4XaXaXgXgXhXjXgXdXdXkXgXhXBXBXBXhXP.-XsX-X-X-X$X$XsX-XL.t.t.=.$.$.#.#.-.{ } { D R { R P V E U D V B H F R R R { R F H F F V V V V C A L Y Y T ~ / %.%.@.&.4.4.5.5.5.7.u.u.u.k.k.b.b.m.M.M.M.C.C.C._._.Z._._.`.).).`.`.`.`.'.`.`.`.`.`.'.'.'.'.F.F.'.'.'.'.'.'.'.'.'.'.}.}.}.}.}.}.}.}.}.}.}.}.}.}.}.}.}.}.}.}. X X.X.X.X.XXXXXXXXXXXXXXXXXXXXXXXXXXX.X.X.XoXoXoXoX>X>X>XoXoX>X>X>XoXoX>X>X>X>X>X>XiXiX>X>XiX>X>X>X>XoXXX X}.'.'.A.A.D.x.x.N.q.q.q.q.q.q.0.0.j.j.0.q.q.q.3.f.3.( ( ) L N S S S Z S N c 9 x x 9 c A C v M W C x 6 8 m m u 1 8 6 2 1 9 6 6 6 M M v M ! M C M M C 9 6 u M M Y M Y V 6 6 7 M 8 > 9 M V 7 6 9 6 2 6 B 9 1 > 6 0 6 8 8 v 8 x 8 6 9 8 Q W Z 6 > 8 C M m M 6 9 6 6 5 7 7 7 5 , $ . . . . . . . . .   . . . . . . . . . O O X X X X X X X X X X X X + # & & & & & # : : # # # # & : : & & & & : & & & & & & & & & & & & & & & & & & & & & & & & * * * * * * * * = = = * = = = = = = = = - - - - - - < < < < - - < < = = = - - - - - ",
"aXaXaXkXkXkXkXkXkXaX^.^.^.^.^.^.^.^./.(.P.P.P.P.P.P.P.P.P.P.P.P.P.P.P.(.(./././.(.(.P.L.L.P.U.U.R./.^.-XaXkXkXgXgXgXkXkXaXaXaX^.^.^./././.R.R.R.(.(.(.(.R.(.R.(././././.^.^.^.4XaXdXkXkXkXkXjXgXjXjXgXgXgXkXaXaXgXhXBXBXBXgX-XP.dX$X~.8XR.4X!.U.>.L.h.#.#.[ #.>.g.} +.R R [ R H [ [ D V B s s s H H V B B H H H V V V M M V C A A L Y T ~ / %.@.@.3.4.4.5.8.8.r.u.u.i.k.k.b.b.M.M.M.M.C.C.C._._.C._.`.`.`.`.`.`.`.`.'.'.`.`.`.`.'.'.'.'.F.F.'.'.'.'.'.'.'.'.'.'.}.}.}.}.}.}.}.}.}.}.}.}.}.}.}.}.}.}.}.}. X X X.X.XXXXXXXXXXXXXXXXXXXXXXXXXXXXX.X}. XoXoXoXoX>X>XiX>X>XiX>X>XoXoX>X>X>X>X>X>XiX>X>X>X>X>X>X>X>XoXXX}.}.'.'.G.A.D.c.x.j.0.q.q.q.q.q.q.q.0.q.q.q.q.q.5.3.( ( ( ^ ) b N N b N Z S N S c c 9 x c x M V M Y N 9 8 m 8 8 R 8 6 2 1 7 7 9 6 M M M M R V M C C M a 2 u M 8 R M R V 8 2 6 u 9 > 6 6 M 9 9 6 > > > V 6 > > 9 6 6 9 9 8 8 8 8 6 9 8 Y W A 8 > 8 C M M 8 M 7 1 > % @ > 1 > 4 , @ + . . . . . X .   . . . . . . . O O O O X X X X X X X X X X X o # # & & & & & # : : # # # # & : : : & & & & & & & & & & & & & & & & & & & & & & & & & & & & * * * * * * * * = = * * = = = = = = = = - - - - - - < < < < - - < < = = = - - - - - ",
"^.IXaXaXaXaXkXkXkXaXaXaXaXkXaX^./.(.P.P.P.P.P.P.P.P.P.P.P.P.P.P.P.P.(./.^.^.IX^.^./.R.P.L.P.U././.^.4XaXdXkXkXkXkXkXgXgXjXgXgXgXgXgXkXkXaXaXaXaXaXaXaX^.4XaXaXaXaXkXkXgXjXjXjXjXgXgXgXhXjXjXhXhXhXhXjXjXhXgXaXsXgXgXBXBXgXdXBXL.3X!.~.8X$X~.!.!.g.e.=.#.| $.+.*.e.} { R I E [ [ D D D D s s a B V V a a B B V V B V B M B V W L C A Y Q ~ ~ %.@.@.4.4.4.5.8.7.r.u.u.i.k.l.b.b.M.M.M.M.C._._._._.C.Z._.`.`.`.`.`.`.`.`.`.`.'.'.'.'.'.`.G.F.'.'.'.'.'.'.'.'.'.'.'.'.'.}.}.}.}.}.}.}.}.}. X X X X X X X X X X X.X.X.XXXoXoXXXXXXXXXXXXXXXXX.X.X.X X}.}..XXXoXoXoX>X>X>X>X>X>XoX>X>X>X>X>XiXXXoX>X>X>X>X>X>X>X>X>X>X XXX X'.'.F.Z.A.c.c.x.x.0.0.q.q.0.q.q.j.j.j.q.q.q.5.5.2.( ( ^ ) L S N N N N Z S A x M x x x x x A x C M m x 8 8 8 6 M 2 6 > 9 9 8 6 M N C Z A Y C L C M R 6 v 9 L 6 Q 8 C v 8 6 M 9 M 9 8 M 9 M 6 2 > > 8 6 2 6 9 6 6 9 9 8 8 8 8 6 6 8 C L A Z 8 9 Z M 8 8 M C 9 9 > @ 1 @ $ @ $ $ $ X . . . X X .   .     . . . . . . . . . X X X X X X X X X o o # & & & & # # # # # # # # # & & & & & & & & & & & & & & & & & & & & & & & & & & & & & & & & & & * * * * = = = = - - - - - - - - - - - - - - - - - - < < - - < - - - - - - - - - ",
"^.^.^.^.^.IXIX^.IXaXkXaXaXaXaX^.P.P.P.P.P.P.P.(././././.(.(.P.P.P.P./.^.aXkXaXaXaX^./.(.P.R./.^.4XaXaXsXkXkXkXkXkXkXgXgXhXhXhXhXjXhXjXjXjXjXgXgXgXgXaXjXjXjXjXjXhXhXhXhXhXjXjXjXgXgXgXgXjXjXjXhXhXhXhXjXhXgXsXBXDXBXdXsX3XdX2XI.W.8X-X~.~.gX!.U.L.=.*.#.-.#.#.>.=.=.$.+.[ R I I D D H V V B s V H H a a B B B V V u u F Y C ! C C L T ~ ^ / @.@.&.4.4.4.5.8.7.r.u.u.i.k.l.b.b.M.M.M.M.M.C.C.C.C.C.C._._._.`.`.`.`.`.`.`.`.`.'.'.'.'.`.`.'.'.'.'.'.'.'.'.'.'.'.'.'.'.}.}.}.}.}.}.}.}.}. X X XOXOX X X X X X X.X.X X.XXXoXXXXXXXXXXXXXXXXX.X.X X}.'.}.}. XoXoXoXoX>X>X>X>XiXiXiX>XoXXXXX X XXXoX>X>X>X>X>XoXoXoXoXoX>XXX}.'.'.Z.A.V.D.c.x.j.j.j.0.q.0.q.9.0.j.q.q.q.q.5.9.( ( ( ) L L S S N N Z N c v A x x x x 9 ~ M 8 8 V M 9 6 9 M u V m 1 M 8 9 9 v Z C C M &.Y Y C M Y > N Z Z M Z M M C 6 x M B 6 9 M V 6 6 8 6 > % 6 2 6 9 6 2 6 8 M M 8 8 8 2 6 8 M Z C C M 8 C Z M 9 6 6 8 9 > 5 > % $ $ @ . X $ + . . X X . . .       . . . . . . . . X X X X X X X X X o o # & & & & # # # # # # # # # & & & & & & & & & & & & & & & & & & & & & & & & & & & & & & & & & & * * * * = = = = - - - - - - - - - - - - - - - - - - < - - - - - - - - < - - - - ",
"aXaX^.^.^.^.^.^.^.^.^.kXkX^./.(.P.P.P.(.P.(.(././././././.(.(.(.(.(./.IXaXaXkXkXaX/.(.R.R./.^.4XaXsXgXgXgXgXgXgXgXgXgXgXhXhXhXhXjXjXjXhXhXhXhXhXhXkXhXhXhXhXhXhXhXhXhXhXjXjXjXjXjXjXgXgXgXjXhXhXhXhXhXhXhXhXsXBXBXBXBXBXgXvX3XL.~.2X3XL.$X3X!.t.*.>.:.=.>.#.#.-.+.o.R D [ F H I D D D D V V V D F H a a a B B B B V B B C W P C C R Q ~ ^ / @.@.&.4.4.4.5.8.7.r.u.k.k.k.l.b.b.M.M.M.M.M.M.M.M.M.M.M.C.C.C.C.C.C.C.C.Z._.Z.).`.`.'.G.'.'.'.'.'.'.'.'.'.'.'.'.'.'.'.'.}.}.}.}.}.}.}.}. X X X X XOX X X X X X X X X X X.XXXXXXXXXXXXXXXXXXX.X.X}.}.}.'.'.'.XXoXoXoXoXoXoXoX>XXX{.'.V.V.Z.Z.Z.`.'.'.XXXXXXXXXXXXXXXXXXXXXX X'.`.Z.A.A.V.c.c.c.x.x.j.j.q.9.q.7.q.q.q.q.q.7.8.2.( ( ^ ) L S S N Z A N x c 9 N M 9 9 x Q 8 8 9 8 8 8 x 9 8 M > Y 7 8 9 8 9 x Z T 6 6 Z Q R A M C 9 N C 9 M Z R Z x N M 8 M 7 8 M V 6 6 9 6 2 > 2 > 2 6 2 6 9 8 M V M V m 2 6 9 x M C C M v Y C C 8 6 2 6 u 6 7 % , , , , $ X X X X . . X .   .   . . . . . . . . . O O X X X X X X X X o o # & & # # # # # # # # # # # & & & & : : & & & & & & & & & & & & & & & & & & & & & & & & & & & & * * * * = = = = - - - - - - - - - - - - - - - - < - < < - - - - - - < < < < - - ",
"jXkXaXaX4X^.^.^.^.^.^.^.^.(.P.P.P.P.P.P.(./.^.^.aXaXaXaX^.^././././.^.^.^.^.^.^.^.R.U./.!.^.4XaXdXgXgXgXgXgXgXgXgXgXgXgXhXhXhXhXjXjXjXhXhXhXhXjXjXhXhXhXjXjXjXjXjXjXjXjXjXjXjXjXjXjXgXgXgXjXhXhXjXjXhXhXhXhXsXBXBXgXgXgXfXsXR.~.R.!.~.$X~.-XL.:.e.*.:.#.*.} $.| [ F F E I a B [ D D D D F D D F F H a a a a a a B B B B V R O.M L Y Q Q ~ / @.@.@.4.4.4.5.8.7.r.u.k.k.k.z.b.M.M.M.M.M.M.M.m.m.M.C.M.b.b.M.M.C.C.C.C.C.Z.Z.Z.`.`.'.'.'.'.'.'.'.'.'.'.'.'.'.'.'.'.'.'.}.}.}.}.}.}.}.}.}. X X XOXOX X X X X X X X X X X X.XXXXXXXXXXXXXXXXX.X X}..X}.'.'.).XX.X.X.XXXXXXXoX}.`.c.j.Z.C.C.C.`.'.'.{.XXXXXXXXXXXX.XXX{.'.'.{.{.'.G.C.C.A.V.m.m.c.x.x.l.l.q.5.9.5.q.q.q.q.q.7.3.2.( / ^ ^ L S N N A N x x 9 9 x 8 9 M N M M 8 8 m 8 8 9 6 B u 2 Y V M m 9 8 C T 8 9 x Q T C A V W x 8 L M M 8 Z M x A 6 6 V V 8 M 9 M 2 6 9 8 C M 8 u 9 9 8 M C Y M C M 6 2 6 8 x Z A Z N Y L C M 8 8 6 M 8 6 , 1 , , @ . @ $ $ @ X . .     . . . . . . . . . . . O O X X X X X X X X o : # & # # # # # # # # # # # # : & : : o o & & & & & & & & & & & & & & & & & & & & & & & & & & * * * * * * = = = = - - - - - - - - - - - - - - - - < < < < - - - - = = < < < < = = ",
"kXkXaXaXkXaXaX^.^.^./.(.P.P.P.P.P.P.P.P.(./.aXkXkXjXkXaXaX^.^.^.^.-X^.^.^.^./././.R./.^.^.4XaXdXkXjXjXjXgXgXgXgXgXgXhXhXhXhXhXhXhXhXhXhXhXhXjXgXgXBXhXhXhXgXgXgXhXhXhXhXgXhXjXjXhXhXhXhXhXhXhXhXjXBXBXBXhXhXdXBXBXBXgXsXsX-XW.!.I.I.~.fXsXL.t.L.g.*.e.$.*.#.} #.| R I I V U { | F F F F F B B F P D V B B B B B B V V V V R ! W Y Y Q Q ~ / @.@.@.3.4.5.5.7.7.r.u.i.k.k.k.b.M.b.b.M.M.M.M.b.b.M.M.M.b.z.b.m.M.M.M.C.C._.Z.Z.`.`.`.`.'.'.'.'.'.'.'.'.'.'.'.'.'.'.'.'.}.}.}.}.}.}.}.}.}.}. X}.OXOX X X X X X X X X X X X X.XXXXXXX}.'.'.'.'..XXX}.'. X.X'.A.'.'.'.}.XX{.{.c.l.x.C.m.m.C.C.C._.'.{.Z.'.XX{.`. X{.Z.`.`.{.C.`.C.m.k.N.N.k.c.j.j.j.j.j.i.0.q.7.q.0.q.q.q.7.7.9.3.3.( ) T S S S N A Z b x 6 6 9 m x N M M N x 8 M 8 8 8 6 M V V V M C N 9 M 8 Y 9 6 N A Y T Y A T Q 6 9 8 M V M L M 9 V 9 9 V M M M M 9 > 6 6 6 9 2 > 6 6 8 M C Y M A C 9 > 6 9 8 M C v N L W Q N x Z 6 R > 8 , 7 , $ $ . . @ + X & + X   . . . . . . . . . . . . O O X X X X X o o o o : : # # : : : : : # # # # # # : : : : : : : & & : & & & & & & & & & & & & & & & & & & & & & & & & * * & & = = * * - - - - - - - - - - - - - - - - - - = - - - - - - - - - = = - - ",
"^.^.aXaXaXkXkXaX^./.P.P.P.P.P.P.P.P.P.P./.^.^.IX4XaX4X^.^.^.aXkXkXkXaX4X^./.U.U.R.!.^.aXaXaXkXkXkXkXjXjXgXgXgXgXgXgXhXhXhXhXhXhXhXhXhXhXhXhXgXgXhXhXhXhXhXhXhXhXhXhXhXhXhXhXjXjXhXhXhXhXhXhXhXhXBXjXjXBXBXhXdXgXgXgXdXdX-XR.~.!.2XR.E.!.U.h.>.g.e.:.e.#.#.$.#.{ { E R F V U { | F F F I R I I R E { R H V H D D D D F V C Y Z L Y Y Y T ~ / @.@.@.3.4.5.8.7.r.r.u.i.k.k.k.b.b.k.k.b.z.j.k.b.b.k.l.k.k.k.b.b.M.m.M.M.C.C.C.C.Z.Z.`.`.`.`.'.'.'.'.'.'.'.'.'.'.'.'.'.'.'.'.}.}.'.'.}.}.}.}.}.}.}. X X X X X X X}.}.}.}.'.}. X.X.X.X X'.'.'.'.).'. X'.'.'.'.c.'.V.Z.XX}.'.x.Z.0.m.0.7.u.5.u.7.u.j.k.k.C.m._.`.M.k.j.k.8.r.b.M.b.k.j.0.j.j.7.8.8.8.8.l.x.b.b.i.0.q.q.q.q.7.7.5.9.3.( ) S ^ S A S Z S N c 9 9 9 x V N x x N m 8 M 9 m m M C 9 9 V M A Z 9 T > N Y 2 x x Y ~ T A A ~ x 8 v M M M Z M x 8 M M 8 M M M M 9 > 6 6 9 > 7 > > 2 8 M M M 8 M Q 6 2 6 6 8 8 M 8 N A Y L v 8 v M M M 5 2 7 , , 1 , . @ X . + < *     . . . . . . . . . . . O O X X X X X o o o o : : : # : : : : : # : # # # # o o o o : : : & : & & & & & & & & & & & & & & & & & & & & & & & & & * * & & = = * * - - - - - - - - - - - - - - - - - - - - - - = = = = - - - - = = ",
"(./.^.^.^.aXaX^.(.P.P.P.P.P.P.P.P.P.(.(./././././.^.^.!./.^.aXaXkXkXaX^.R.U.U./.^.4XaXsXkXkXkXkXjXjXgXgXgXgXgXgXhXhXhXhXhXhXhXhXhXhXhXhXBXhXgXgXhXhXhXhXhXhXhXhXhXhXhXhXhXhXjXhXhXhXhXgXgXgXhXhXhXhXhXBXBXgXdXBXBXBX-X3X3X~.3X!.vXI.$XL.I.R.h.g.>.>.:.o.} #.} R E { E B V U { | F P F F F P P H B a V P F D D D F F F F Y E L R Y Y Y T ~ / @.@.@.3.4.4.8.r.r.u.u.i.k.k.k.7.7.k.k.r.8.u.k.r.r.u.7.7.r.r.u.u.u.k.k.z.b.b.M.C.C.C.Z.Z.Z.`.G.'.'.'.'.'.'.'.'.'.'.'.'.'.'.'.'.'.'.'.'.}.}.}.}.}. X X X X X X X X X}.}.}.'.}. X X X X X'.'.'.Z.A.A.'.).Z.Z.).A.V.`.x.'.XXj.x.9.q.9.9.3.( 2.( ( ( ( ( ( ) 3.9.3.3.5.k.r.u.5.5.8.3._ 5.( ( 3.8.9.9.9.9.8.0.j.b.l.l.0.5.q.q.7.7.8.5.3.@.) ^ S L S S Z A N c 9 9 9 A x N x 8 M M x 2 N N M 8 x 6 6 M 8 C L Y v 0 9 C 8 0 M M A O.T Y Q C M M v v M x M N M 8 8 M V V V V 9 > 6 6 9 > 6 > > 6 8 V A Z N N Z C 6 6 6 6 9 8 9 N L Y C N v 8 M Y Y 2 6 5 $ 1 1 , , @ . .   # = + +     . . . . . . . . . O O X X X X X o o o o : : # # # : : : : : : # # # : : : o o : : : : # # # # & & & & & & & & & & & & & & & & & & & & & & * * * * = = * * - - - - = = - - - - - - - - - - - - - - - = = = = = - - - - = = ",
"(.(.(.(./.^./.(.P.P.P.P.P.P.P.P.P.P.P.P.P.P.(.(.R./.!./.R.^.^.^.-XaX^.R.U.R.!.4XaXaXdXgXgXgXkXkXjXjXgXgXgXgXgXgXhXhXhXhXhXhXhXhXhXhXhXhXBXhXgXgXhXhXhXhXhXhXhXhXhXhXhXhXhXhXhXhXhXhXhXgXgXgXhXhXhXhXhXBXBXgXdXBXhXgX-X-X-X3X-X~.3XR.~.g.~.8XI.L.>.-.#.#.#.{ R [ { { I V V U { [ F I F F I [ [ I P P R P D D D V B B B V F R L ! Y L T Q ~ / %.@.@.3.4.4.8.r.u.u.u.k.k.u.r.8.8.7.7.8.5.5.8.7.8.9.3.3.3.4.4.3.3.3.3.5.7.u.l.b.C.C.C.C.C.Z.G.`.'.'.'.'.'.'.'.'.'.'.'.'.'.'.'.'.'.'.'.'.}.}.}.}. X X X X X X}. X X}. X X}. X X X}.}.}.'.'.'.V.Z.Z.V.Z.V.V.).).`.).c.'.A.q.x.5.0.f.f.3.2.( ( ( ( ( ( 4.@./ @.@.( ( @.( 3.@.3.@.3.9.2.( ( ( ( 9.9.9.9.f.3.9.8.l.m.k.5.q.q.5.7.8.5.9.3.( ) T L S S N S N c 8 9 9 x V C M x 9 x M 9 x x x 9 m 8 2 M 9 C A Y v 6 9 N 8 0 2 N Q o.O.J A A Z M v 8 v 9 M Y 9 V V 9 C C C C 9 > 6 6 6 > > 2 > 9 8 M C Z N N N x 6 9 9 6 6 9 6 8 A Q C Z N 8 M A +.2 6 1 % 1 , % @ $ X . . + # X + X X . . . . . . . . . O O X X X X X o o o + : : # # # : : : : : : # # # # : : : o : : : : # # # # & & & & & & & & & & & & & & & & & & & & & & * * * * = = * * - - - - = = - - - - - - - - - - - - - = - - = = = = - - - - = = ",
"(.P.P.P.P.P.P.P.P.P.P.P.P.P.P.P.P.P.(.(.P.P.P.P.(./.^.^.^.^.^.^./././.R.R.~.4XaXgXgXkXkXkXgXgXgXjXgXgXgXgXgXjXjXhXhXhXhXhXhXhXhXhXhXhXhXhXhXgXgXhXhXhXhXhXhXhXhXhXhXhXhXhXhXhXhXhXhXhXhXhXhXhXhXhXhXhXBXBXgXgXgXgX3X3X-X~.3X-X-X2X!.R.>.E.U.g.t.t.#.#.} R { [ [ { R P F F +.$.[ [ I [ F R R E E R [ R F D F D V V B B V F R L Y Y C L Q ~ / %.@.@.3.3.5.8.r.r.u.u.k.r.8.4.5.5.4.4.4.4.4.4.4.4.&.@.@.@./ ( ( ( ( ( ( ( 3.8.8.8.u.j.l.m.C.C.Z.G.F.`.'.'.'.'.'.'.'.'.'.'.'.'.'.'.'.'.'.'.'.}.}.}.}.}.}. X}.}. X X}.}. X}.}.}.}.'.{.{.'.'.'.'.Z.V.c.x.V.x.c.V.Z.Z.V.`.0.l.5.8.( 9.2.2.3.3.( @.@.@.@.( ^ ( @.@.@.3.4.@.&.3.3.3.3.3.9.4.@.( 3.3.3.9.3.3.3.3.f.5.j.x.j.8.5.5.5.5.5.5.9.( ) ) L ^ S N Z N c x 9 9 x C C N x 0 v N x 6 x x 8 8 x 6 8 8 V C Z Z x 9 x x 0 6 C N A O.T o.o.A Z M v 8 9 9 M R 8 M M V V 8 C C 6 9 6 > > > > 6 9 9 8 N Z v N N 8 6 6 9 6 6 9 9 6 C A C A 9 9 8 8 +.8 6 2 > > > @ $ $ $ . X + X . X X y +     . . . . . . O O X X X X X + + + o + + # # # : : # # : : : : : : # # : : : : : : # # # # & & & & & & & & & & & & & & & & & & & & * * * * * * - - - - - - = = = = - - - = - - - - - - - - - - - - - - - - - - - - - - ",
"/.(.P.(.(.P.P.P.P.P.P.P.P.P.P.P.P.P.P.P.P.(./.^.aXaXaX4XaX^./.U.U.R./.~.^.4XaXsXgXkXkXkXkXgXgXjXgXgXgXgXgXgXjXjXhXhXhXhXhXhXhXhXhXhXhXhXhXhXgXhXhXhXhXhXhXhXhXhXhXhXhXhXhXhXhXhXhXhXhXhXhXhXhXhXhXhXBXBXBXsXBXsXsX3XsX2X$X2X3X-X$X2Xt.U.!.t.>.:.:.} o.} R { [ [ { R P F R +.#.[ [ I { U R R I F P P F V V V V F Y R R Y R W R ! Y V Z L ~ / / @.@.3.4.5.y.r.r.r.r.r.5.4.4.r.8.4.3.4.8.4.@.@.@.@.@.@.@./ ^ ^ ^ ( ( ^ ) ) ) 2.5.9.3.9.0.c.C.C.C.Z.G.`.`.'.'.'.'.'.'.'.'.'.'.'.'.'.'.'.'.'.}.}.}.}.}.}.}.}.}. X X}.}.}.{.'.'.'.}.`.'.`.A.B.V.x.l.q.q.l.l.l.b.V.A.b.x.0.i.j.8.5.u.3.2.5.2.@.@.@.( ^ 4.4.3.( ( ^ ) ^ ^ ^ L S K ( @.( 3.3.5.8.5.2.@.3.3.( ( f._ ) 9.k.x.0.8.9.9.9.9.5.3.( ) L ) S N Z N c 9 9 9 N N N N x 9 v M x 0 x M 8 8 M 8 2 N C C v A N 9 v N 0 6 m N C o.Q O.Y T A M v 8 9 9 8 M W 9 M M R C V 8 9 M 9 > > > > 9 9 0 9 v Z Z v v N 9 6 6 9 9 6 2 8 Q Z x N v Z 8 8 W V 9 7 6 2 > % , @ $ $ @ $ + . . .   d 3     . . . . . O O X X X X X + X + + + + # # # : # # # : : : : : : # # : : : : : : # # # # & & & & & & & & & & & & & & & & & & & & * * * * * * - - - - - - - = = = - - - = - - - - - - - - - - - - - - - - - - - - - - ",
"^.^./././././.(.(.(.(.(.P.P.P.P.P.P.P.P.(./.^.aXkXaXaXaXaX-XR.P.U./.^.-X4XaXkXkXkXkXgXgXgXgXjXjXgXgXhXhXjXgXjXgXhXhXhXhXhXhXhXhXhXhXhXhXhXgXhXhXhXhXhXhXhXhXhXhXhXhXhXhXhXhXhXhXhXhXhXhXhXhXhXhXhXhXhXBXhXaX3XgXgX3XsX2X$X$X8X2X2XgX>.~.L.*.e.e.#.[ E { R { [ [ { R P F [ } [ { [ R { F R R R R P I I F D V V P F B B V C Y C Y L C Z L Q / / @.@.3.4.y.r.r.y.8.6.4.4.4.4.4.4.3.3.4.@./ ^ ^ ^ ^ ^ ^ ^ ^ ^ ^ / / / / ^ ) ) ) ) 3.9.3.3.9.0.z.m.C.C.Z.`.`.`.'.'.'.'.'.'.'.'.'.'.'.'.'.'.'.'.}.}.}.}.}.}.}.}. X X}.{.{.'.'.'.'.x.V.Z.Z.V.c.x.l.q.q.q.9.m.j.l.x.b.l.b.0.0.0.q.0.u.9.7.2.3.3.( @.@.3.@.@.@.( ^ ) ) T ^ ^ ( ( @.( ( ( 5.8.7.8.7.5.2.( 3.5.9.f.( 3.( 2.l.j.8.9.9.9.9.9.3._ ( ) L L A Z N c x 9 x A x N Z M x c x v 6 v M v 8 8 m 6 C A Z 9 N C N 0 x N 9 9 N A ~ ~ N o.~ T Z v 8 9 9 9 8 8 W 8 M Y B M V M 6 C 6 > > > 6 M 6 6 8 b L L N 8 C 6 0 N L C N 2 9 8 0 0 8 v 9 0 M Y 9 2 > > % @ , @ @ $ @ $ @ . . X X . = < O   . . . . . X X X X X + X X + # # # # # # # # # # : : : : : : # # # # # # # # # # # # # # # # & & & & & & & & & & & & & & & & * * = = = = - - - - ; ; - - = = - = - - = = - - - - - - - - - - - - - - - - - - - - ",
"IX^.4X^.^.^.^././.(.(.(.(.(.P.P.P.P.P.P.(./.^.^.aXaXaXaX^.~.R.R./.^.4XaXaXkXgXkXkXkXgXjXjXjXjXjXjXjXhXhXjXjXgXjXhXhXhXhXhXhXhXhXhXhXhXhXhXkXhXhXhXhXhXhXhXhXhXhXhXhXhXhXhXhXhXhXhXhXhXhXhXhXhXhXhXhXhXgXsX3XgXgXgX4XgX-X~.$X3X3X-X-X>.g.h.=.e.=.{ [ F { R { { [ [ R P F #.[ { { [ R { F R R R R F F P P F F D V V F V V C R Y Y Y C C L Q ^ %.@.@.4.5.r.r.y.6.3.@.3.4.4.4.&.&.@.@./ ^ ^ ^ ^ A S L ^ ^ ^ / / / ^ ^ / / / ^ ^ ) ) ( 3.3.2.3.5.j.z.m.V.C.Z.`.).`.'.`.'.'.'.'.'.'.'.'.'.'.'.'.'.'.}.}.}.}.}.}. X X}.'.'.'.'.).A.V.x.q.q.q.0.x.x.x.j.7.i.0.c.i.l.l.i.x.9.l.i.q.5.9.5.2.u.5.@.4.3.3.3.4.@.^ ^ ^ ^ ( @.3.@.@.@.( 3.9.9.3.8.8.4.3.7.7.8.3.2.( f.( ( f.) 2.8.7.5.9.9.9.9._ 3.( ( L ^ L N b x x 9 x A 8 N A N N 9 9 v x x N v x 8 8 M C A M 9 v C N 9 v x x 9 C C Q ~ J T +.Q C v 8 9 9 9 6 8 M R M 8 6 M W 9 C 6 9 6 > > > A 9 0 8 b L L Z v 9 N Z Z Z 9 > > x 8 Z v L N Y N Z o.C 6 6 1 % @ $ $ $ @ , = @ @ . . .     < # .   . . . . O X X X X X + + + # # # # # # # # # # : : : : : : # # # # # # # # # # # # # # # # & & & & & & & & & & & & & & & & * * = = = = - - - - ; ; - - - - = = = - - - - = - - - - - - - - - - - - - - - - - - ",
"aXaXaXaXaXIX^.^.^.^././././.(.(.(.(.(.P.(.(.(./.^.^.^.^.R.R.R.!.^.4XaXdXgXdXkXgXkXkXjXjXjXhXhXhXhXhXhXhXhXhXhXhXhXhXhXhXhXhXhXhXhXhXhXhXhXgXhXhXhXhXhXhXhXhXhXhXgXgXgXjXjXjXgXgXgXgXgXjXjXjXgXgXhXhXgXgXsXsXgXgXsX4XgX-X~.2XbX$X2Xt.>.h.:.:.O.} [ E R E { +.E | P } [ #.#.{ R { [ +.E I R R R R F F R R P F D V C Y F F F R Y R Y C C Y Q ^ %.@.&.4.y.y.6.4.4.@.@.@.&.-.@.@.%.~ ^ T J T T T J A L T T ^ / / / / / / / / ( ( ( ( ( ( @.@.2.3.5.u.l.x.m.V.C.Z.Z.Z.`.`.'.'.'.'.'.'.'.'.'.'.'.'.'.'.}.}.}.}.}.}.}.}.}.'.'.'.`.Z.V.x.l.q.0.i.l.q.q.q.i.q.q.j.l.0.l.q.0.q.i.q.7.5.5.9.i.u.5.r.4.2.2.2.@.@.@.@.3.3.2.2.3.3.2.3.3.2.3.8.@.@.( ( ( 2.2.3.3.3.3.3.3.5.( ( ( 9.3.9.5.8.9.3.3.3.( ( ^ T S S Z x c x x N x x N L b c 9 x v x M x x 8 M C C C Z 6 9 Z A 9 v x x A N N +.C A A Q / O.N 9 v 0 6 9 6 6 8 V Y 9 6 V M M V 6 6 8 > > M 8 9 v Z L T L v Q ~ A N 6 6 6 2 2 0 0 6 6 6 9 x M M C M 7 6 > . > > > @ , , $ @ . . .     O + X   . . . . O + + X X X + + + # # # # # # # # # # # # # # # # # # # # # # # # # # # # # # & & & & & & & & & & & & & & & & ; ; & & = = = = - - - - ; ; - - - - - - - - - - - - - - - - - - - - - - - - - - - - - - ",
"aXaXaXaXaXaX^.IXaXaXIXIX^.^.^./././.(.(.(.(.P.P.R.R.(./.U./.^.-XaXkXgXgXgXkXgXgXgXgXhXhXhXhXhXhXhXhXhXhXhXhXhXhXhXhXjXjXhXhXhXhXhXhXhXhXhXgXhXhXhXhXhXhXhXgXjXjXgXgXgXgXjXjXgXjXgXgXgXgXjXjXgXgXgXsXdXgXgXhXsX3X4X8XsX3X~.gXbX!.R.g.h.*.>.#.#.R E R R E [ | { [ } [ $.*.o.E R E E o.E R R R R R R [ } W Y D V F Y Y F P Y E C Y Y C C L T ~ %.@.&.6.6.&.@./ @.@.&.%.@.o.~ ~ T J A A J T T T T T T T ^ ^ ^ ^ / / / / / %.@.( ( @.@.@.@.@.3.9.2.9.8.u.k.l.b.V.C.Z.`.Z.Z.`.`.`.'.'.'.'.'.'.'.'.'.'.'.'.}.}.}.}.}.}.}.'.'.'.'.'.Z.V.c.j.q.q.q.j.l.i.q.q.q.j.x.j.j.i.q.i.l.i.5.7.r.u.u.r.i.5.4.u.4.3.3.3.4.5.5.4.2.@.( 3.8.u.r.5.3.2.7.7.8.5.5.3.3.2.2.3.9.5.8.9.k.3.( ( 3.( ( 9.9._ ( 3.( ( / S N S ^ c c 6 x N x v 9 %.0 N x x N v N N M 8 x N C V W 6 2 N L 9 x v N x A N T M A N A O.Y o.8 Z x 2 > 0 6 8 9 V R 9 9 M M 9 M 6 7 6 2 6 N 9 9 Z T Q ~ L 9 9 N L C N % > 0 6 x 9 9 9 9 x M M Q v 9 B a 1 1 @ . @ $ $ @ @ . .         . #   . . . . O + + X X X + + + # # # # # # # # # # # # # # # # # # # # # # # # # # # # # & & & & & & & & & & & & & & & & & ; ; & & = = = = - - - - ; ; - - - - - - - - - - - - - - - - - - - - - - - - - - - - - - ",
"aXaXaXIXIXaXaXaXkXkXaXaXIXIXIXIXIXIX^.^./.(.P.P.P.P.P.(./.^.aXaXdXgXkXkXgXgXgXgXhXjXhXhXhXhXhXhXhXhXhXhXhXhXhXhXhXjXjXjXhXhXhXhXhXhXhXhXhXgXgXhXhXhXhXhXhXgXgXjXgXgXgXgXjXjXjXjXgXgXgXgXjXhXhXgXdXhXhXdXsXsXhX4X-XsX3X-X~.gX3XU.!.t.>.h.*.=.E [ E R E [ [ { | [ [ #.L.$.} E I R P [ [ [ R R E E R F Y E R D C P Y F Y Y Y E C R Y C C L T ~ o.@.-.4.&.%./ o.o.%.%.o.T Q Q T J J J J T T A A A A T ~ ^ / / @.@.@.%.%.%.( ( @.@.%./ %.@.@.@.( 9.3.3.9.0.k.x.x.b.V.C.C.`.`.`.`.'.'.'.'.'.'.'.'.'.'.'.'.}.}.}.}.}.}.'.'.'.'.'.`.Z.V.c.x.i.q.q.9.5.i.V.c.x.j.x.b.j.j.l.x.i.5.0.u.i.l.7.l.5.5.i.9.5.5.3.2.@.@.%.@.3.4.u.7.5.3.3.5.u.u.u.7.8.8.5.5.3.3.5.9.3.2.2.3.2.2.2.K ( 3.2.( ( 3.( ( ( / / S N T Q S x c x N x x c A Z N v 9 v N M A N 8 x N N C Z 6 0 Z x Q 9 9 N 9 N N Y N C x x Q +.Q Q N v 9 > 2 6 9 M 6 V Y 9 M M 9 8 9 2 6 2 2 A v 8 8 Z ~ ~ W Z Z L Y 0 N 0 6 x Z L v 9 v 9 x N N N C V M V > 8 1 @ , @ @ @ @ @ .             # . . . X X + + X X X + + + # # # # # # # # # # # # # : : : # # # # # # # # # # # # # # & & & & & & & & & & & & & & & & ; ; * * = = = = - - - - ; ; - - = = - - - - - - - - - - - - - - - - - - - - - - - - < < ",
"aXaXaX^.IXaXaXkXkXaXaXaXaXaXkXkXkXaXaXaX^./.(.P.(.R./.^.^.4XaXdXkXgXkXkXgXgXhXhXhXhXhXhXhXhXhXhXhXhXhXhXhXhXhXhXjXjXjXjXhXhXhXhXhXhXhXhXhXkXgXhXhXhXhXhXhXgXgXgXgXgXgXgXjXjXjXjXgXgXhXhXhXgXhXhXhXgXdXsX3XgXsX4X-XsX3XW.$X8XR.U.R.-.t.I.#.| } } R R E [ [ R +.{ } t.:.t.} R I I F [ [ [ R R E R R R E R P F C Y Y V R Y Y W C R Y C C L T ~ o.@.-.%.%.%.%.@.~ ~ T A Q Y J T T T Q ~ ~ o.o.~ ~ ^ ~ ^ / / / %.%.%.%.%.%.@.@.@.@.@.@.@.@.@.@.@.2.3.3.9.9.9.7.j.l.b.m.V.C.Z.`.'.'.'.'.'.'.'.'.'.'.'.'.'.}.}.}.}.}.}.'.'.'.'.Z.Z.V.c.c.c.l.i.i.0.0.q.i.x.x.l.b.m.j.l.l.l.i.0.l.l.i.i.i.7.8.7.7.7.5.5.2.3.3.3.4.5.5.8.5.7.8.u.5.7.7.3.2.3.5.5.u.u.k.k.i.u.i.k.0.u.5.3.9.2.) ) 9.3.( 2.3.L ) ^ ^ T S N S T A c x N x x 9 x ~ v N x v N x N C x x x M Z C N 9 9 x Z Z x N x 9 A ~ N N x v Z Y Q Y Y T 0 6 0 2 2 8 M 9 V V u M V u M > > 6 0 8 v 8 8 L W / W N 0 8 Q T N Z 0 > v Q N v N 9 x N Z M 8 9 M u V 1 > 1 7 > , $ @ @ . .       .   X X . . X X + + X X + + + + # # # # # # # # # # # # # : : : # # # # # # # # # # # # # # & & & & & & & & & & & & & & ; & & & * * = = = = - - - = ; ; - - - = - - - - - - - - - - - - - - - - - - - - - - - - < < ",
"aXaX4X4XaXaXkXaXaXaXaXaXaXkXjXgXgXkXaXaX^././.R./.!.^.4XaXkXkXkXgXgXgXgXhXhXhXhXhXhXjXjXhXhXhXhXjXjXjXjXhXhXhXhXhXhXhXhXhXhXhXhXhXhXhXhXhXkXgXhXhXhXhXhXhXhXhXhXhXhXhXhXhXhXhXgXhXhXhXBXgXsXhXhXhXgXhX-X-X3X-X8X$XbX3X3X3XR.R.@Xt.e.U.-.} [ [ E } F [ [ [ } #.*.$.:.=.#.} R I P F E [ E I R E E R R [ R Y F F R Y V W Y Y W C R Y C A Y T ~ o.@.%./ ~ T o.o.~ Q J J T Q ~ ~ o.o.o.o.o.%.@.@.@.%./ %.@.@.@.@.@.@.@.@.@.@.@.@.@.@.@.@.@.@.@.2.@.2.3.9.9.9.9.7.i.l.z.b.V.A.Z.`.'.'.'.'.'.'.'.'.'.'.'.'.'.}.}.}.}.}.'.'.'.).Z.Z.V.B.x.x.x.x.j.i.q.i.j.i.x.x.c.V.j.x.l.l.l.l.m.b.l.k.k.u.u.i.7.5.5.5.5.8.7.7.r.u.r.i.l.i.i.u.i.i.i.i.i.k.l.b.l.i.u.k.z.k.k.5.3.3.9.2.5.8.3.) ( 2.@.) 5.( ) ^ ) S S L S S A N N N v v 9 x @.A N x N N x N C M 8 6 v N A L 6 0 8 8 C v M N C A C T L Z 8 x Q T A Y L L 8 2 8 6 8 v M N L 8 9 A Y 9 9 2 8 0 9 v L L 0 v W / o.A N N v L A 8 6 8 C Z Z M 9 9 N N M 9 2 m V 6 F 2 1 1 1 7 $ $ .   . .         . . . . X X + + + X X + + + # # # # # # # # # # # # # # # # # # # # & & & & & & & & & & & & & & & & & & & & ; ; & & & & ; ; ; ; ; ; - - = = = = = = - - - - - - - - - - - - - - - - - - - - - - - - - - - - - - ",
"^.aXaXaXaXaXaXaXaXaXkXkXkXjXgXkXgXkXaX^./.(.U./.^.^.aXsXkXkXjXjXgXgXgXhXhXhXhXhXjXjXjXjXhXhXhXhXjXjXjXjXhXhXhXhXhXhXhXhXhXhXhXhXhXhXhXhXhXkXgXhXhXhXhXhXhXhXhXhXhXhXhXhXhXhXhXhXhXhXgXsXsXgXgXBX3X3XsX3XbX8X3X!.~.sXW.3X~.I.$Xt.>.e.L.*.} [ { R H R #.[ [ [ #.*.*.*.e.=.} R I P P R [ R P R E E E R [ R Y F C Y Y F R R Y W C Y Y A A Y T ~ %.O.~ ^ ~ o.o.~ Q T Q o.o.%.%.%.@.@.@.%.@.@.@.@.@.@.@.&.4.4.4.3.3.3.3.@.@.@.3.3.3.3.3.3.3.3.3.3.3.3.3.3.9.9.9.9.7.i.l.b.m.V.A.Z.`.'.'.).).Z.'.'.'.'.'.'.'.{.}.}.}.}.'.'.'.'.'.Z.Z.V.x.p.0.p.l.l.q.l.x.j.l.l.x.V.x.l.x.l.l.c.c.b.x.l.j.l.l.i.u.0.u.k.k.u.r.u.k.i.b.b.b.b.M.b.b.b.b.b.z.l.k.l.z.M._.M.M.u.k.u.0.u.i.u.8.3.2.2.) 2.( ) ) &.) L L S S L L S N A A N v v x c N o.N x N N N v A N x 6 x N Z Q 6 9 0 6 N N M N N N ~ 0 Y Q N v 9 L Q A T Z N 6 x 9 9 8 8 M L M v N x v M 6 8 2 8 Y v N Z 9 8 W ~ +.N 8 C v v Z N 8 v L N v x 9 N N m 6 > 9 6 2 p a u > > 1 y @ $ . . . .       . .   . X X + + + X X + + + # # # # # # + + + + + + : # # # # # # # & & & & & & & & & & & & & & & & & & & & ; ; & & & & ; ; ; ; ; ; - - - - = = - = - - - - - - - - - - - - - - - - - - - - - - - - - - - - < - ",
"aXaXkXkXkXaXaX-X4XaXkXgXgXjXkXkXaXaX^./.U.U./.^.4XaXdXkXkXjXjXjXjXjXhXhXhXhXhXhXjXhXhXjXhXhXjXjXhXhXjXjXhXhXhXhXhXhXhXhXhXhXhXhXhXhXhXhXhXgXgXhXhXhXhXhXhXhXhXhXhXhXhXhXhXhXhXhXhXgXgXgXgXgXgX3X3X3X4XsXgX3XdX3XfXsX~.gX!.$XW.t.L.t.:.{ [ [ E I E +.[ R E [ =.=.=.:.$.+.[ R I P P R } R P I E E R R [ P F F F J Y Y Y E R W C Y Y A A Y T ~ %.o.O.o.Q T Q T T T ~ o.%.%.&.&.4.4.3.3.4.4.4.4.4.4.4.5.6.5.6.5.5.4.4.4.4.4.4.4.4.4.4.4.4.4.3.3.3.3.3.3.9.5.9.9.5.7.i.l.b.c.V.A.Z.`.).Z.Z.Z.).'.'.'.'.'.'.{.}.}.}.}.'.'.'.'.'.Z.Z.V.V.B.x.x.j.q.c.V.V.c.x.l.b.V.c.c.m.c.x.m.V.m.b.x.l.m.m.l.l.l.k.0.0.l.b.b.b.b._.M.b.b.b.b.M.C.C.M.M._.'.{.{.{.`.b.l.q.i.u.m.x.j.0.8.8.8.9.) 3.2.( L ) ( L L S S L L S c A A N c v x 0 A T Q x x A C v A A M 6 x x N L v 8 9 6 6 N M v x x %.A 9 A L N 0 v A Q Z L C M M 8 6 9 9 x A Z M M 8 M 8 6 T 8 9 6 9 8 L v Z N Q L Y 8 9 8 v 9 L x v L N N N v Y L M 6 > 9 > > 1 B 7 7 1 @ 6 7 , X . . .   .   . .   . X X X X X X + + + + # # # # # + + + o o o o o o # # # # # # & & & & & & & & & & & & & & & & & & & & ; ; ; ; ; ; ; ; = ; = = - - - - - - - - - - - - - - - - - - - - z z z z - - - - - - - - - - < < < < ",
"gXgXkXkXaXaX-X^.^.4XaXkXkXdXkXaX^./.(.U.(./.^.3XaXkXdXgXjXjXjXhXhXhXhXhXhXhXhXhXhXhXhXhXhXhXjXjXhXhXjXjXhXhXhXhXhXhXhXhXhXhXhXhXhXhXhXhXhXgXgXhXhXhXhXhXhXhXhXhXhXhXhXhXhXhXhXgXsXgXgXgXgXhXsXgXDXhX4XdXdXfX3XsXbX$XsX-XU.U.t.I.U.-.} #.[ { R R R [ I #.[ $.=.$.#.} #.} [ R I P F I [ R I R R I Y R [ Y C J F F Y R Y W R W V Y L A A A T ~ o.Q / ~ ~ ~ o.%.-.-.@.@.&.4.4.4.6.8.8.8.r.r.r.r.r.8.8.8.r.r.r.r.r.r.8.8.5.5.4.4.4.4.4.4.4.4.9.9.9.9.9.3.3.9.9.9.5.5.7.i.l.b.c.V.A.Z.Z.Z.Z.Z.S.'.'.'.'.'.'.}.'.{.}.'.'.'.'.'.Z.Z.V.V.B.B.c.x.x.l.j.c.V.A.x.B.V.V.V.V.V.B.V.V.A.V.m.m.c.c.b.b.l.l.x.l.l.b.l.b.b.M.M.M.M.M._._.`.`.`.`.`.'.{.{.{.`._._.m.m._.b.0.0.i.l.x.j.0.u.9.2.8.3.( ) L / L S S S L S N A A A b c x 9 c A ~ x x A A v A Y Z 9 x v N N C N v x 0 9 N x 8 9 A ~ N M Z Z Z > 9 N Q Q L Z Y M 6 9 9 8 C V M 8 A M > 6 > 8 A N 0 9 N Y N 8 8 L N L 8 9 9 9 0 N Z Z A N x 9 C A N 8 > x > @ > 7 1 7 2 > > 5 I . . . .       . .     . X X X X X + + + + # # # # # + + o o X X o o o : : # # # # # # # # & & & & & & & & & & & & & & & & ; ; ; ; ; ; ; ; = = = = - - - - - - - - - - - - - - - - - - - - z z z - - - - - < - - - - - < < < < ",
"jXjXkXkXaXaX4X^.^.-X4XaX4X4X4X^./.U.U./.!.-XaXkXkXkXjXgXhXhXjXhXhXhXhXhXhXhXhXhXhXjXhXjXjXjXjXjXhXhXhXhXhXhXhXhXhXhXhXhXhXhXhXhXhXhXhXhXhXgXgXhXhXhXhXhXhXhXhXhXgXgXgXgXhXhXgXsXsXgXgXgXgXsXgXgXvXdXgXgX-XsX~.sX3X!.8XW.!.R.L.I.L.#.#.[ { R R E [ R [ } +.-.-.$.+.#.+.[ { R I P F F [ [ R R R R P R W Y C F C F Y ! R W T T C Q L A A A T T ~ ~ A A Q ~ o.@.%.@.@.&.4.4.6.y.r.r.u.u.u.u.u.u.u.u.r.r.u.u.u.u.u.u.r.r.7.8.8.8.5.5.5.5.5.5.5.5.5.5.5.5.9.9.5.5.5.5.8.u.j.l.b.m.V.A.A.A.A.A.Z.).'.'.'.'.'.'.'.'.'.'.'.'.'.'.`.Z.A.V.D.B.c.c.c.x.x.x.B.V.V.V.A.V.A.A.V.V.V.V.A.V.V.V.m.b.c.x.x.x.x.z.z.b.b.b.b.M.M.M.C.C.`.`.`.`.'.'.'.'.'.'._.`.'.'.XX'.G.Z.C.V.m.c.m.m.l.7.9.2.2.5.@.( n ^ L S S T L S S A L L N b x x 9 A Q S x A T N Z T A c x N N N A C N N 9 9 v M x 9 Q N Y T Z 9 9 v 6 x T O.Q Z A N M 8 6 C Y M W M Y x x 8 9 2 M M 8 x N Z C N v N Z Z Z N 8 9 0 x Z N C N N N C Y C x 2 M 2 > > > @ % 6 > % 7 B { * + + X     .       . . . O X + + + + + # # # # + # # o X X X o X o + + + + # # # # # # & & & & & & & & & & & & & & & & ; ; & & ; ; ; ; ; = = = - - = = - - - - - - - - - - - - - - - - - - - - < < - - < < - - - - < < < < ",
"kXkXkXkXaXaXaXaX4X-X^.^.^.^./.R.U.U./.^.aXaXkXkXkXjXhXhXhXhXDXPXPXBXBXhXhXhXhXhXhXjXjXjXjXjXjXjXhXhXhXhXhXhXhXhXhXhXhXhXhXhXhXhXhXhXhXhXhXgXgXhXhXgXhXhXhXhXhXhXgXgXgXgXhXhXsXgXgXgXgXgXgXdXhXdXsXsXgXfXfXdX~.$XU.DX$X~.!.L.h.:.L.#.[ E R R E E { } [ e.*.:.-.#.} { R R E R I P F F E { R R E Y F R W P V V C Y Y R W W T Y A T A A A A A Y Q ~ ~ o.o.%.@.@.@.@.@.@.3.4.5.r.u.k.i.u.i.u.u.u.u.u.u.u.u.u.u.u.u.u.u.r.8.8.8.8.8.8.8.8.8.8.8.8.8.8.8.8.5.5.8.7.7.7.7.u.j.l.x.x.c.V.A.A.A.A.A.).).).'.'.'.'.'.'.'.'.'.'.'.'.).Z.Z.Z.Z.V.c.c.B.B.V.B.V.A.Z.Z.A.V.A.A.A.A.V.V.V.B.V.c.c.c.c.c.c.x.c.c.c.c.b.c.b.m.m.m.C.C._.`.`.`.`.`.{.{.{.{.'.'.{.{.{.{.{.'.'.'.`.`.x.V.C.C.x.q.3.( 9.( n ^ S S S S L L L L T S L b x x x J A %.x A T C N T T N c v N N C Z N v v v 8 6 C x Y 9 x A L v 9 6 9 9 Z ^ Q ~ N C N x 6 N Y x Y C C 8 M M 6 8 x 2 9 9 8 8 Z N N N Z v v 8 8 8 9 6 x Z Z Z A N T Y C Z m M m % @ > . % % 1 . @ , , D 4 + X             . . . . X + + + + + + + # # + # + X X X o o X X + + o o + + # # : : # # : # & & & & & & & & & & & & ; & & & ; ; ; ; ; ; = = - - = = - - - - - - - - - - - - - - - - - - - - < < - - < < - - - - < < < < ",
"aXaXkXkXkXkXkXaXaX4X^.^./.U.(.R./.^.-XaXkXkXkXkXgXhXhXDXDXDXDXDXKXBXBXhXhXhXhXhXhXjXjXjXjXjXjXjXhXhXhXhXhXhXhXhXhXhXhXhXhXhXhXhXhXhXhXhXhXhXhXgXgXhXhXhXhXhXhXhXhXhXgXhXhXsXhXhXgXgXgXdXaXsXdXaX-X8XgXgXDXfX~.!.!.sX~.-XL.e.h.L.h.#.} { R E { { R [ *.} -.>.=.} [ [ E { { R I P F F R E R R R R Y W E P V V Y R R R W W Q A Y T A A A A A A T Q Q ~ o.%.@.@.3.4.6.8.r.r.r.u.u.u.i.u.u.u.u.u.u.u.u.u.u.u.u.u.i.u.u.7.8.8.8.8.8.8.8.8.8.8.8.7.7.7.7.8.8.8.7.0.0.7.0.i.j.l.l.l.x.V.V.V.A.A.A.).'.'.'.'.'.'.'.'.'.'.'.'.'.'.`.Z.`.`.Z.Z.V.V.V.A.A.A.A.Z.Z.Z.Z.A.V.V.V.V.V.B.B.B.c.c.c.c.c.c.x.x.x.x.x.c.c.c.c.c.b.c.m.V.C.Z.`.`.Z.Z._._._.Z.Z.Z.`.'.'.}.XX X}.{.'.'.'.Z.V.A.B.p.q.5.3.3.( S S L S S S T L L L S S N x 9 b A A Q ~ A A A N L T Z 9 9 v N Z Z N v v v N > v Z A v 9 v A N c 0 9 x v A T o.L A N v 9 v Y 9 M Y C 8 M M > 2 0 M 8 8 9 9 9 v v v v v v v x 8 9 0 9 N Z A C N Y Z M M m 8 6 @ @ 7 2 6 > 6 % , , , + i w + .         .   . . . X + + + + + + + # # + + o X X X o o X X + + + + + + # # : # # # : : & & & & & & & & & & & & ; ; & & ; ; ; ; ; ; ; ; - - - = - = = = - - - - - - - - z z z z z z z z < < < < < < < - - - < < < < ",
"4XaXkXgXjXjXkXkXaXaX^./.(.P.U./.^.-XaXkXkXkXkXkXhXhXDXDXDXDXDXDXBXBXhXhXhXhXhXhXhXjXjXjXjXjXjXjXhXhXhXhXhXhXhXhXhXhXhXhXhXhXhXhXhXhXhXhXhXhXhXgXgXhXhXhXhXhXhXhXhXhXhXgXgXgXhXhXgXdXgXdXsXBXgXsX-X3XsXfXgXgX8XW.$X3X~.R.U.h.t.~.:.$.$.{ R { { } I $.:.>.$.:.$.I I I R R E R I P F F Y E W E P R W o.W F B V Y ! W R W W Q A Y Y A A A A Y J A T ~ %.@.&.&.3.3.3.5.8.7.r.r.u.k.k.i.u.u.u.u.u.0.0.u.u.u.u.u.u.i.i.u.7.7.8.8.7.8.8.8.8.8.8.7.7.7.7.7.7.7.7.7.0.0.7.q.u.j.l.l.l.l.c.V.V.V.A.A.).'.'.'.'.'.'.'.'.}.'.'.'.'.'.'.'.`.Z.Z.Z.Z.Z.Z.Z.Z.Z.Z.Z.Z.Z.Z.V.V.V.V.V.B.B.c.x.c.x.x.x.x.x.x.x.x.x.c.c.c.x.x.x.x.x.c.m.V.V.C.Z.Z.Z.`.`.`.`.`.'.'.{.{.}.'.'. X}.'.'.'.Z.V.Z.Z.A.l.i.9.3.( L S L L L L T L L L T L S b 9 b Z S N ^ A A C A A A A x 9 x Z N A A N x 9 x N v 0 A Q v 9 x N v 9 0 x Z Z A Y o.T N N 9 N L 6 9 T Y x M 8 > 9 2 6 Z N x 8 > 9 8 8 8 v v v v 9 0 0 0 v C A Y %.W T Y N M M 6 > % > B > % @ . > , $ X . * = # X . . . .   .   . X + + + + + + + # # + + X X X X o o X X + + + + + + # # # # # # : : & & & & & & & & & & & & ; ; & & ; ; ; ; ; ; ; ; - - = - - = = = - - - - - - - - z z z z z z z z < < < - < < - - - - < < < < ",
"4XaXkXjXjXjXkXaX4X^./.R.(.R./.^.aXaXkXkXkXgXgXhXhXBXKXKXBXBXBXBXBXBXhXhXjXjXjXjXjXjXjXjXjXjXjXjXhXhXhXhXhXhXhXhXhXhXhXhXhXhXhXhXhXhXhXhXBXBXBXgXgXhXhXhXhXhXhXBXBXBXhXgXgXfXhXvXgXsXhXdXdXgXsX3X8X8X~.-X~.-X3X~.U.$X$XdXU.:.L.-X=.-.[ P E [ R [ [ #.=.*.$.#.+.[ P P I R E E R P F F R E [ E Y F W o.[ P V F F R W R W ! W Y Y A A A A A Y T Q ~ ~ %.@.4.5.8.r.r.r.r.r.r.u.i.i.k.j.j.j.u.u.u.j.0.u.j.u.0.u.0.j.j.u.7.u.7.7.7.7.7.8.8.8.8.7.7.7.7.7.7.0.0.0.0.u.i.0.u.j.k.l.l.l.x.c.V.V.A.A.Z.`.'.'.'.'.'.'.'.'.'.'.'.'.'.{.'.'.Z.Z.Z.S.Z.Z.Z.Z.Z.Z.Z.Z.Z.Z.A.V.V.D.c.c.c.c.x.x.x.c.x.x.x.x.c.c.c.c.c.x.x.x.x.l.l.x.x.x.c.b.m.V.C.C.Z.Z.Z.`.`.'.'.'.'.}. X'.'.G.Z.A.V.V.V.c.V.m.l.i.2.2.) S L S ^ ^ ^ L L L L ^ S N c N N N A S L T Z A N A T x 9 c N v C A Z v x N x 9 9 9 A Z Z x Z v v 9 9 9 A L v W A ~ Z 9 N Z 9 9 L N M M M 9 6 M 9 6 9 8 M 6 6 N 0 9 0 v v v 8 > 0 0 8 Z C L L T T R C V V V 9 7 1 > 2 > . . @ , @ * * * $ # X . .   . . . . . X + + + + + + + + + + o X X X X X X o o o o o o o o : : : : # # # # # # # # & & & & & & & & & & & & * * = = * * = = - - - - = = - - - - - - - - - - - - - - < 3 3 3 - - - - < < < < < < < < < < ",
"4XaXkXaXkXjXkX-X!.R.(.R./.^.4XaXkXkXkXkXgXgXhXKXBXKXKXKXBXhXhXhXBXBXhXhXjXjXjXjXjXjXjXjXjXjXjXjXhXhXhXhXhXhXhXhXhXhXhXhXhXhXhXhXhXhXhXhXBXBXhXhXhXgXgXBXBXhXhXhXBXBXhXhXgXgXhXBXhXsXgXgXgXgXsX4X4X2XsX4X-X-XW.I.R.~.-XR.W.h.L.L.=.*.[ I [ R [ R +.$.=.=.#.#.} { I I R E E E R P F F R E W E Y Y R R E } R R F R W R W ! W W R Y A A A A Y Y Q ~ %.@.4.6.5.8.r.r.r.r.r.u.i.i.i.i.u.u.j.u.u.u.u.u.u.j.u.0.0.7.u.j.u.7.j.7.7.7.7.7.8.8.8.8.7.7.7.7.7.7.0.0.u.u.u.i.u.i.i.j.j.j.l.x.b.c.V.A.V.Z.Z.`.'.'.'.'.'.'.'.'.'.'.'.'.}.}.'.'.F.'.'.'.`.Z.Z.Z.Z.Z.Z.Z.Z.V.V.D.c.c.c.c.c.c.x.x.c.c.x.x.x.x.x.x.x.l.l.j.j.j.j.j.j.j.j.i.j.k.l.x.x.x.x.x.m.C.Z.Z.`.`.'.'.}.}.'.'.'.`.A.V.m.V.c.l.u.9.( ) S T S ^ ^ / T L S L L L S N A b b A N ^ Q N L N A A c x v x N Z A A Z v Z N N v 9 Z v N x Z T 9 x 2 c b N ~ N Q T T A 9 v v 0 Y M M M M 9 8 8 Y 9 9 8 8 V 2 2 x 9 9 v N N v > > 2 6 v N C C C N C A R Y 9 M > % % 8 5 1 @ @ 4 $ $ $ # # X + .     . . . . . X + + + + + + + + + + X X X X X X X o o o o o o o o : : : : # # # # # # # # & & & & & & & & & & & & * * = = * * = = - - - - = = - - - - - - - - - - - - - - < < 3 3 - < - - < < < < < < < < - < ",
"4XaXaX^.^.aX4X/.R.U.R.!.^.aXaXkXkXjXjXjXjXhXKXKXKXKXKXBXPXPXPXPXBXhXhXhXjXjXjXjXjXhXjXjXhXhXhXhXhXhXhXhXhXhXhXhXhXhXhXhXhXhXhXhXhXhXhXhXjXhXhXBXhXgXgXgXhXhXhXhXBXhXhXBXBXgXgXBXBXdXgXgXgXsX3X8X2X3XgX-X2X2XR.~.3X~.dXU.t.U.L.t.=.*.[ E [ I [ R #.:.*.$.+.} [ E P R R E E E R P F Y R E W R Y Y E [ E F Y Q F Q W R W E W W R Y A A A A A A Q o.~ @.@.3.5.8.r.r.r.r.r.u.u.i.i.i.k.u.u.u.u.u.r.7.7.u.7.8.8.8.8.7.r.8.r.7.7.7.7.7.r.r.7.7.7.7.7.7.7.7.r.r.u.u.u.i.i.i.i.j.j.j.l.x.b.c.V.V.V.A.Z.).'.`.'.'.'.'.'.'.}.}.}.}.}.}.}.'.'.'.'.'.'.'.'.G.Z.Z.Z.Z.Z.V.V.B.c.c.B.B.B.x.c.c.c.c.x.l.j.j.j.j.0.0.q.8.7.7.5.5.9.9.9.9.9.5.5.7.0.0.0.0.u.l.b.V.m.V.Z.G.'.'.}.}.{.'.`.Z.Z.Z._.C.l.7.( ) S ) S ^ / / / L L ^ L L S S L c N S N %.Q N A N A A c x x A 9 N A L S N v b N Z v v 9 v Z L b A 9 c 0 b v Q T ~ L T Q 0 x N 0 C M M M M 2 v 6 0 8 8 9 9 8 N 9 0 9 v N v N Z Z 8 6 0 0 v C Y T C N M M M ! 9 8 9 @ 6 1 @ . . $ @ @ @ + X X X X     . . . . . X + + + + + + + + + o X X X X X X X o o o o o o o o : : : : : : # # # # # # & & & & & & & & & & & & * * = = * * = = - - - - = = - - - - - - - - - - < < < < < 3 3 3 < < < < < < - - < < < < < - ",
"4XaX-X^./././.R.R./.^.4XaXaXkXkXjXgXgXhXhXKXKXKXKXKXKXBXKXPXPXPXBXBXhXhXhXjXjXjXjXjXjXjXhXhXhXhXhXhXhXhXhXhXhXhXhXhXhXhXhXhXhXhXhXhXhXhXjXhXhXhXjXhXgXgXgXhXhXhXBXhXhXBXBXhXgXhXBXhXgXdXsX3X4XsX3XvX3X~.U.W.U.sX~.3XU.!.L.L.L.:.=.*.[ [ E [ I [ $.-.*.} } [ { R I R R R R E R P F Y R E R W R R E [ R D C Y R W W W W E W Q Y C C A A A A A Q %.@.&.4.4.5.8.r.r.r.r.r.u.u.i.i.i.i.r.u.r.r.r.r.8.8.7.8.9.5.5.3.5.7.5.r.7.7.7.r.r.r.r.r.7.7.7.7.7.7.7.r.r.r.u.u.u.u.i.i.j.j.j.l.x.b.c.V.V.V.V.Z.Z.`.`.'.'.}. X X XXX X X X}.}.}.'.'.'.'.'.'.'.'.'.Z.Z.Z.Z.Z.V.V.B.c.B.B.B.B.B.c.x.x.x.x.j.i.0.u.0.9.3.3.3.2.3.2.3.3.3.3.9.5.8.7.7.7.8.8.8.5.7.0.k.l.x.m.m.G.`.'.'.{.'.'.'.A.V.A.`._.k.5.) S ) S ^ / / @.L ^ ^ L S A N A b b N Z %.Q N A b A T N x c N x x N S A Z 9 9 v b N x 0 x Z L Q N c c c 9 9 / Q ~ / A ~ 9 x x v N M M M M 9 0 M M m m 9 6 6 N 8 9 8 Z 8 8 v v A 9 6 0 > 9 8 N L C C C M M V V 9 6 6 6 7 @ @ @ , % @ @ + X X . . . .         . O X + + + + + + + + o X X X X X X X o o o o o o o o : : : : : : # # # # # # & & & & & & & & & & & & * * * = * * = = - - - - = = - - - - - - - - - - < < < < < 3 3 3 < < < < < < - - - < < < - < ",
"aXaX^./.(.(.(././.^.aXaXkXkXkXjXhXhXhXBXKXKXKXKXKXKXKXKXKXKXKXKXPXPXPXPXhXhXhXhXhXhXhXjXhXhXhXhXhXhXhXhXhXhXhXhXhXhXhXhXhXhXhXhXhXhXhXhXhXBXBXBXBXBXhXgXgXgXgXgXhXhXhXhXBXBXgXhXBXBXgXsX3X3XgXgXsX8X$XgX8XvXU.JXR.W.h.I.-.>.L.$.$.-.$.E R E [ $.=.$.+.+.=.R H I R E I R R E R F F R R R R W R R R W Y F F C Q W R W E W Q Y Y C V J M A A N ~ &.@.3.4.6.8.r.r.r.r.r.u.u.u.r.r.r.8.r.r.8.8.5.5.3.3.4.4.3.@.@.@.3.4.3.4.3.4.5.8.7.7.r.r.r.7.7.7.7.7.7.r.r.r.r.r.u.u.i.j.i.j.k.l.l.b.b.m.A.A.A.A.Z.`.'.'.'. X.XXXoXXXXXXX.X X}.}.{.'.'.'.'.'.'.'.'.Z.S.Z.Z.A.V.B.B.B.B.B.B.V.V.c.x.l.j.i.0.7.5.2.( 2.2.@.@.2.@.3.3.3.3.4.5.r.u.l.k.k.b.v.k.r.u.7.5.5.8.u.k.m.C.`.'.'.'.'.'.{.'.V.b.l.i.5.( ) L S L / ( @.^ ^ T L S S S A b b N N ^ ^ Z A N A T A x x x N x v b A A C N 9 9 N N N N M A 9 T T x L N c Z / L ~ ^ Q v 0 9 v Z v M v 8 M 6 6 M 8 M 9 m 8 8 8 9 9 N 0 v N x Z 9 0 9 > 6 9 9 Z Z C C M M 9 9 2 x 6 M 1 > . @ $ @ . @ @ $ @ . . . . . . . . . . X + + + + + + + + o X X X X X X X o o o o o o o o # # : : : : # # # # # # & & & & & & & & & & & & & & * * * * = = = = = = = - - - - - - - - - - - < < < < < < 3 3 < < < < < < - - - - - < < < ",
"aX4X/.(.P.U./.^.^.4XaXkXkXkXjXhXBXDXDXKXKXKXKXKXKXKXKXPXKXKXKXPXPXPXPXPXhXhXhXhXhXhXjXjXhXhXhXhXhXhXhXhXhXhXhXhXhXhXhXhXhXhXhXhXhXhXhXhXBXBXBXBXBXBXhXhXBXgXgXgXgXhXhXhXhXBXvXgXgXhXBXdX3X3XsXsX-X!.gX3X8X-X!.sXW.8XI.L.>.>.h.#.#.$.#.R R R [ $.t.[ E $.R { [ R R E I R R E R F F R W R R R W R W W R F J J R R R [ W R Y Y J C V J M A A A o.@.@.3.4.6.y.r.r.r.r.r.u.u.u.r.r.4.4.r.8.y.5.3.@.( @.3.&.@.@.@.@.@.@.( @.( ( @.3.3.4.5.r.r.7.7.7.7.7.7.7.7.7.7.7.7.7.u.i.j.i.j.k.l.l.b.b.m.A.A.A.Z.).'.'.{. X.XoXoXoXoXoXoXXXXXXX}.}.}.'.'.'.'.'.'.S.Z.Z.Z.A.V.B.B.B.B.B.B.c.c.x.l.j.0.5.3.2.@.@.3.2.@.3.3.3.@.4.3.@.@.4.4.4.4.@.5.k.M.I.v.v.v.k.r.8.8.5.5.j.m.C.C.`.'.'.'.'.'.'.Z.A.b.7.( ) L L T ^ @.@.T L ^ L S A ^ S b b N N ^ ~ N A A L Q A x 9 c N N c 9 Z L C Z Z v A x T N %.T A M @.A Q x v v T T L ~ ~ L 0 9 v N 8 M x 8 6 8 9 2 9 m 6 8 x 9 9 8 > v 9 v N N Z 9 0 x 6 6 6 9 N N V M M M T x 9 8 2 6 8 5 @ @ @ @ . @ @ @ X $ $ .     . . . . . X + + + + + + + + o X X o X X X X o o o o o o o o # # : : : : # # # # # # & & & & & & & & & & & & & & * * * * = = = = - = - - - - - - - - - - - - < < < < < < < < < < < < < < - - - - - - < < ",
"^./.(.P././.^.4X4XaXkXkXgXjXjXhXKXKXKXKXKXKXKXKXKXKXKXKXKXKXPXPXKXBXPXPXhXhXhXhXhXhXhXhXhXhXhXhXhXhXhXhXhXhXhXhXhXhXhXhXhXhXhXhXhXhXhXhXBXBXBXBXBXBXBXBXBXBXBXgXfXfXhXhXhXhXBXfXgXgXgXgX3XdX-X8X-XgXBXVX8XLX-XsXfXHXI.I.>.W.-.=.#.[ { R R I [ $.#.[ *.$.{ [ E H F { I R R E E F F R W W R Y o.W R W Y F Y R R W +.Y Y W Y J C C V J M A C A %.@.@.3.4.8.r.r.r.r.u.u.u.u.r.r.y.5.4.@.4.&.@.@.&.@.@.&.&.@.@.@.@.@.@.@.y.8.4.@.( ( @.2.4.5.5.8.7.7.7.7.7.7.8.8.7.7.7.7.u.i.i.i.j.k.l.l.x.b.V.A.V.Z.`.'.'.{. XXXXXoXoXoXoXoXoXXXXXXX X}.}.}.'.'.'.'.'.Z.Z.Z.Z.A.B.x.B.B.x.x.x.l.j.0.7.5.3.@.@.@.&.4.3.@.&.@.%.^ @.%./ L @./ ^ ^ @.&.y.4.6.k.v.M.M.k.r.7.8.9.7.u.l.z.A.`.'.'.'.'.`.`.`._.k.2.) ) ) L / @.&.L T ^ L L L ^ S b b N S ^ T A A A L ~ A v 9 9 A N v 9 v Z N N N N N 9 C c Q C 0 0 9 A N N b c Z Q S / ^ T 0 9 v N 6 8 M V 9 m M 6 6 8 6 9 8 8 9 8 > 9 8 v N A Z 8 9 v 9 6 0 8 M C C 8 M 9 N A M M 2 M 2 u > > @ . . @ @ , , $ . . . . . . . . . X X X + + + + + o o X o o o o X X o o o o o o o o # # # : : : : # # # # # # # # # & & & & & & & & & & & * * * = = * * = = - - - - - - - - - - - - - - < < - - - - < < < < < < - - - < < < < < ",
"/.(.(./.^.^.aXaXaXkXkXjXjXjXhXDXKXKXKXKXKXKXKXKXKXKXKXKXKXKXPXPXPXBXPXPXhXhXhXhXhXhXhXhXhXhXhXhXhXhXhXhXhXhXhXhXhXhXhXhXhXhXhXhXhXhXhXhXBXBXBXBXBXBXBXBXBXBXBXBXhXhXhXgXgXhXhXfXgXgXsXsXsX4XsXsXdXVXBXfXvXSX!.gX9X8Xh.$Xt.8Xt.#.} R I R R E } } #.} :.} P P R R R E I R R { W F J W Q R R F +.W W W Y F Y W Y [ +.Y R Y J C C V V A M A N T @.@.3.4.5.8.r.r.r.r.u.u.u.r.r.y.5.4.@.@.@.6.y.&.4.-.@.&.-.@.%.@.@.O.&.&.y.y.y.4.4.3.@.( ( @.3.4.5.8.8.7.7.7.8.7.7.8.8.7.7.u.i.i.j.j.k.l.l.x.c.A.A.Z.Z.'.'.{. XXXXXoXoXoX>XoXoXoXoX.X.X X X}.}.'.'.'.'.Z.Z.Z.A.V.B.c.x.x.x.x.l.i.q.7.3.2.@.@.3.3.&.&.@.^ @.^ T T A Y A Z T Z Z T A A J J ^ @.4.r.v.k.r.r.r.7.8.5.8.0.l.A.`.'.'.'.`.`.`._.b.8.) ^ ) T / @.&.L @.L T T L S L b c N S ^ v / L T N ~ Z N x 6 N N b 9 c v x x M M M N Z M Q 9 0 9 x N T N N b 9 L T / ^ A 0 9 x N > v T R Q M M A 6 9 2 6 6 9 v v 0 2 9 N Z Y Z v 8 v 9 9 6 8 v C Y 9 v 6 8 O.9 > 8 v 6 1 2 5 > . @ @ $ $ , , $ . . . . . . . . X X X + + + + + o o X o o o o o o o o o o o o o o # # : : : : : # # # # # # # # # & & & & & & & & & & * * * * = = * * = - - - - - - - - - - - - - - - < < - - - - < < < < < < < - < < < < < < ",
"U.(./.^.^.aXaXkXkXgXjXgXjXhXKXKXKXKXKXKXKXKXKXKXKXKXKXBXBXhXhXBXBXBXBXBXhXhXhXhXhXBXBXBXhXhXhXhXhXhXhXhXhXhXhXhXhXhXhXhXhXhXhXhXBXBXBXBXBXBXBXBXBXBXBXBXBXBXBXBXhXhXhXgXdXgXgXgXhXgXsX3XsX8XBXgX8X8XfX3XHXvXvXE.-XVXU.SXt.W.h.#.R R R R H P { } R *.-.R [ { } I R R R [ { E { F Y W R E R R o.o.[ Q Y J R o.Q o.o.Y R F C F B V V V M C C Q O.@.3.4.5.8.r.r.r.r.r.r.r.r.y.4.@.3.y.6.~ &.-.6.o.-.&.O.O.-.~ %.%.~ O./ &.6.4.@.3.r.4.@./ ^ ( @.3.4.4.4.5.5.5.8.8.8.8.8.8.7.u.i.i.j.j.k.l.x.c.V.V.Z.).'.'.{. X.XXXoXoX>X>X>XoXoXoXXX.X.X X}.}.'.'.'.F.Z.Z.A.V.D.c.c.c.c.x.l.i.q.5.3.2.2.@.3.@.@.@.@.@.Q A Y A A A J Y A C C A N A N N A T N A T ~ %.r.k.k.r.7.8.9.3.q.m.Z.V.`.'.'.`.Z.C.b.7.2.) ) / ^ ( ( ^ ^ T ^ ^ L S L b ^ c S ^ A L S T C ~ N N x 0 N x A x 9 b x v v v v Z C Z T 0 6 8 9 x Y C Z 9 v M Q ~ O./ M 0 9 Z N 8 C A C Y 8 M M 7 9 6 > 8 8 M 6 > 2 8 C T N M 8 x 6 6 6 8 M N T 9 x 6 0 9 -.M 6 Z 8 > 8 1 > 1 , , $ $ $ , , @ . . . . . . X X + + X X + + + + X X X X o o o o o o + + + + + + + + + + # # # # # # # # # # # # & & & & & & & & & & & & * * * * = = = = - - - - - - - - - - - - < < < < < < < < - < < < < < < < < < < < < < ",
"R./.^.4XaXkXkXgXjXjXhXhXPXKXKXKXKXKXKXKXKXKXKXKXKXKXKXBXBXBXhXBXBXBXBXBXhXhXhXhXhXhXBXhXhXhXhXhXhXhXhXhXhXhXhXhXhXhXhXhXhXhXhXhXBXBXBXBXBXBXBXBXBXBXhXhXBXBXvXBXhXhXhXgXdXsXgXDXDXBXBX3XsXBXVXgX-XdXgXSXDXbX-XW.vX2XW.@Xh.U.L.$.R R R R F R } #.#.#.E V +.} #.R P R [ } [ R E R R R [ R R W W [ [ Q Y Y Q o.o.o.o.Q F V V F B F V M M C A Q @.&.4.4.6.y.r.r.r.r.r.r.5.4.@.4.3.@.4.6.4.T ~ O.Q Q o.J J o.J R R A J A %.@.@.%.@.4.r.y.5.3.^ ^ ( @.2.4.4.5.5.5.8.8.8.8.8.8.0.u.i.i.j.k.l.l.c.V.V.Z.).'.'.{. X.XXXoXoX>X>X>XoXoXoXXX.X.X.X X}.'.'.'.Z.Z.A.V.D.D.x.x.c.x.l.i.q.7.9.2.2.2.@.@.@.@.O.o.Q L L Y Y J Y Y Y A C C A M M Y J A N N N S J T @.3.6.7.7.7.7.9.9.q.x.A.Z.`.'.'.Z._.m.0.2.) ) / ) / ( ( T / L / ^ S L b T N S T S L T T A ~ N N x 9 x 9 N x 9 x N N N v M Z C Z T 2 x 9 6 M x A N N 9 Z L L %.o.N 9 9 v 8 0 Y C V Z L 8 M 2 9 > 2 8 9 M 6 > 2 8 Z R M v 8 8 6 6 6 9 v C L x x 9 0 0 O.Q 6 x M 2 6 7 7 5 , , $ @ . $ * + X . . . . . X X + + X X + + + + X X X X o o o o o o + + + + + + + + + + # # # # # # # # # # # # & & & & & & & & & & & & * * * * = = = = - - - - - - - - - - - - < < < < < < < < - < < < < < < < < < < < < < ",
"/.^.aXaXkXkXkXjXhXhXDXKXKXKXKXKXKXKXKXKXKXKXKXKXKXPXBXBXPXBXKXKXKXKXBXBXhXhXhXhXhXhXhXhXhXhXhXhXhXhXhXhXhXhXhXhXhXhXhXhXhXhXhXhXhXBXBXBXBXBXhXhXhXhXhXhXBXhXvXvXBXhXvXBXBXhXdXhXDXDXgXgXBXBXgXBXgXvXvXDX8XdXdXE.$XdXR.-X2Xh.t.#.R R R R R [ #.$.:.$.R R +.} #.R I { [ [ } F P R E R W R R W W W W Q J Y W o.+.W W Q C B V Y V F V M m N A ~ @.&.4.4.6.y.r.r.r.r.y.6.4.@.%.4.y.y.o.-.-.-.J T A N V C V V B J J B Y J Q A A ~ %.@.4.4.6.4.@.%.^ ^ @.@.4.4.4.5.5.5.8.7.7.7.7.0.u.i.i.j.l.l.x.V.V.Z.).'.'.{. XXX.XoX>X>X>X>XoXoXoXXXXX.X.X}.'.'.'.F.Z.S.A.D.B.c.c.x.x.x.0.q.7.9.2.2.2.2.@.@.@.o.~ Q T Q Q T T T T T Y Y C C x 8 O.J Q Y T A C A A A A ^ &.r.k.0.0.8.9.9.q.c.V.Z.`.'.`.`.C.u.2.) ) ^ / ^ / ( L ^ ^ / ^ S S S L L S L Z S ^ ^ A / C N x x x 6 x x 9 c v N N N N M Z A N N 9 6 6 x 9 J N N 9 Z A Z ~ ~ N 9 8 9 x > v C M 8 C M M 9 6 2 6 v 9 8 6 2 0 9 N Y v x 8 9 6 0 0 6 8 C L N x N 9 0 v e.N > 8 M M 8 1 @ , , $ $ $ . . X + . . . . . X X X + + + + + + + X X X X o o o o o + + + + o + + + + + + # # # # + + + + # # # # # # # # & & & & & & & & & & = = * * = = - - - - - - - - - - - - - - - - < - - - - - < < < < 3 < 3 3 < < < < ",
"4XaXkXkXkXkXjXjXDXKXKXKXKXKXKXKXKXKXKXKXKXKXKXKXKXPXBXBXPXKXKXKXKXPXBXBXhXhXhXBXhXhXhXhXhXhXhXhXhXhXhXhXhXhXhXhXhXhXhXhXhXhXhXhXhXBXBXBXBXhXhXhXhXhXhXhXBXBXgXhXBXBXBXBXBXDXBXgXhXBXsXBXDXDXgXgXgXsXHXLX3XDX@XU.~.vX!.8X0Xt.h.$.R R R R { } #.*.#.[ P R [ { } I R [ [ R +.V P E E E Y R ! W W W W W Y J W O.o.W T Y C V C Y D F B M m M A ~ @.&.4.4.8.y.r.r.r.r.4.3.3.4.4.@.&.4.-.T o.W Y V N V C m m C V J J C C J ~ A N A T ^ / %.@.@.3.@.@.) ( @.@.3.3.4.5.5.5.5.8.8.8.7.0.u.i.j.j.l.b.V.A.Z.Z.'.'.{. XXX.XoX>X>X>X>XoXoXoXXXXX.X.X X'.'.'.S.S.A.A.D.D.x.x.x.x.p.q.q.9.2.2.2.2.2.@.@.%.~ Q A O.O.o.T Q Q Q W T Y C V V W.O.Q I.C J J J J A A C S S S 3.8.0.q.0.9.9.q.c.V.Z.'.'.'.A.i.2.) ) ^ 3./ T ^ L L ( / ^ S T ^ S T S L S b T / Z ~ N v x c x 0 6 9 c x v v N N N v v A N x x > 8 9 8 N Z 9 v M A N Y T N v x 2 M 2 > M 9 M 9 Z M R 6 8 9 M 6 9 6 2 0 9 v A v 8 8 6 9 6 0 0 8 A L Z x C 6 0 A -.L 8 N 9 2 1 > > , , $ . @ $ $ @ @ @ @ . X X + + + + + + + + + + + X X X X X o o o o + + o o + + + + + + # # # # + + + + # # # # # # # # & & & & & & & & & * = * * * = = - - - - - - - - - - - - - - - - - - - - - - < < < < < < - - - - < < ",
"aXkXkXkXjXjXjXPXKXKXKXKXKXKXKXKXKXKXKXKXKXKXKXKXKXKXBXBXBXBXKXKXKXKXhXhXhXhXKXKXBXBXBXBXBXBXhXhXhXhXhXhXhXhXhXhXhXhXhXhXhXhXhXhXhXhXBXBXBXBXhXhXBXBXBXBXBXBXhXBXBXBXBXBXDXDXDXBXgXgXgXDXDXDXDXBXsX~.gXsXvX3XE.U.$XHX@XU.9Xe.g.=.R R E E [ [ $.#.#.R $.E E { { R R [ { I [ #.R [ W E F Y ! W W W W Q Y J ~ -.~ W T Y C V C C V V B M M M A ~ @.3.4.4.5.8.y.r.r.r.3.@.4.y.6.&.%.o.~ T C N C m m J V C C C F F J J Y Y W A A N A A S T %.@.@.@.3.3.^ ^ @.@.4.4.5.5.5.5.8.8.7.7.7.u.i.j.j.l.b.A.A.Z.Z.'.'.'.}.XX.XoX>X>X>X>X>XoXoXoX.X.X X X}.'.'.S.S.A.D.D.c.x.x.x.N.q.9.9.5.9.2.2.2.2.@./ ~ ^ +.&Xg.e.-.o.o.+.Y o.Y A R M h.&.Y e.J Q A T A J o.T M N Z A L ^ 2.5.j.0.9.9.j.V.Z.'.`.`.`.b.5.( ) ( / @.L / ) L ) ( / / S S N L N A S L T Q T T T x x x x 9 9 x 8 M N x N N N N x Y C 6 9 M x 9 x x N A 0 9 C T ~ o.A x 9 x A 9 9 N Y 8 N M v Y Z 6 6 0 6 9 6 > > N x C M 8 9 2 9 2 2 6 8 A T C x Z x > ~ %.O.x 6 9 6 7 7 > > @ . @ @ > , @ @ $ + @ X X X + + + + + X X X X X X X X . X o o + + + + + o + o + + + + + + + + + + + + # # + + # # & # & & & & & & * * & & * * * * = = = = - - - - - - - - - - - - - - - - - - - - - < < < < < < < < < < < ",
"aXkXjXjXjXPXKXKXKXKXKXKXKXKXKXKXKXKXKXKXKXKXKXKXKXKXBXBXBXBXKXKXKXKXhXhXhXhXKXKXBXBXBXBXBXBXhXhXhXhXhXhXhXhXhXhXhXhXhXhXhXhXhXhXhXhXBXBXBXBXhXhXhXBXBXBXhXgXBXhXBXBXBXDXDXDXDXDXBXgXHXDXDXgXDXHXHX2XU.3X3X$XJXfXI.9X$XT.!.h.e.>.[ E E R H +.#.$.} R #.E R R R E R E E P I #.P [ [ R Y R R E W W W Y A T o.O.~ ~ W J C V V B V B B B B B A ~ @.3.4.4.5.8.y.r.r.6.&.&.&.4.@.o.~ T J A C N m J W J J J J R E E R Y P R W L W Q A N S T ^ ^ @.@.@.3.3.( ^ ( 3.4.5.5.5.5.5.5.5.7.7.u.i.i.k.l.b.A.A.Z.Z.`.'.'.}.XX.XoX>X>X>X>X>XoXoXoX.X.X X X}.'.'.S.S.A.D.D.D.x.x.x.q.q.5.9.5.9.2.2.3.@.^ ) ^ @.g.GXeX&X-.&.;.T.O.+.C Y o.V Y 8 V o.g.g.J Q J J O.;.Y C N N L L ( 2.i.V.x.9.9.q.c.A.Z.Z.C.x.5.( ( ( ( @.) ^ ^ ) T / / L ^ N L N A A Z A L T T T T x x x x 9 9 9 x x M 8 N N C C C ~ C Y 6 > 8 x x x Z v 9 0 v A Q ~ N N x 0 9 0 6 Z M v > 6 C v Z v 8 9 8 M 6 > 0 v M V m 8 9 2 2 > > 8 2 V T Z x x 6 9 %.A / M 0 6 > 1 5 7 1 $ @ . @ > > . . $ , , + . X X X X + + X X X X X X X .   X + # + + + + o o o o o o + + + + + + + + + + # # # # # # # # & & & & & & * * & & * * * * = = = = - - - - - = - - - - - - - - - - - - - - - - < < < - - - - - < < ",
"aXjXjXBXKXKXKXKXKXKXKXKXKXKXKXKXKXKXKXKXKXKXKXKXKXKXKXKXBXBXBXKXKXKXPXBXhXBXKXKXBXBXBXBXhXhXhXhXhXhXhXhXhXhXhXhXhXhXhXhXhXhXhXhXhXhXhXBXBXBXBXhXBXBXBXBXhXgXBXBXBXDXDXDXDXDXDXDXBXBXLXSXbXgXJXLXHXgX2XL.8XbXLXvX@XR.W.R.%XL.$.e.} [ R P F { | #.R R } { R F R [ E R R P I R } R R R R R R R R R o.A C o.O.O.o.o.Q V Y C V V B B B B M B J ~ @.3.4.4.4.6.y.r.y.4.&.&.@.O.~ Q A A N N V C J +.+.F Y Q W W o.W Y F V C +.e.W ~ W Y A ^ ^ ~ %.%.@.@.5.3.( / @.3.4.5.5.5.5.5.5.7.7.u.i.i.k.l.c.A.A.Z.Z.`.'.'.}.XX.XoX>X>X>X>X>X>X>XoXXX.X.X X}.'.'.S.Z.A.D.D.B.c.x.x.q.q.5.5.9.2.2.2.2.^ ^ / 4.g.I.Y.n.h.e.o.o.r.+.O.~ N Y W Y.Y N +.O.+.o.o.T T -.e.+.Y C Z A S L ) 5.0.x.x.q.q.0.D.C.C.m.l.5.( ( ( ) ( ( ) / ) ) ^ / L ^ b T c S L N Z A A T T T x x x x x 9 2 x 8 x 9 M N N M A ~ 9 x A x 6 9 C A Z v 9 0 x N Y ~ N N x 0 x 9 6 6 9 M 6 2 x L 9 L 6 6 9 M 6 2 9 M M M 8 8 8 > 2 > > 8 > 8 N N N N x 0 / N T A 6 9 > % > 7 y 1 , @ @ @ @ @ $ $ $ $ $ $ $ $ # + + + + + X X X + X X o o # + + o o o X o o o o o + + + + + + + + # # # # # # # # # # & & & & & & * * & & * * * * = = = - = = = = = = - - - - - - < < < < - - - - - - < < - - - - - - < < ",
"kXjXBXKXKXKXKXKXKXKXKXKXKXKXKXKXKXKXKXKXKXKXKXKXKXKXKXKXBXBXPXKXKXKXPXBXBXBXKXKXhXBXBXBXhXhXhXhXhXhXhXhXhXhXhXhXhXhXhXhXhXhXhXhXhXhXjXjXBXBXBXBXhXBXBXhXgXvXBXBXDXDXDXDXDXDXBXBXBXHXHXSXbXbXHXHXLX3X-X!.dXbXHXvX$XL.R.W.t.h.*.+.+.[ P D #.D I +.F { [ R R V I $.P R I F P H +.P P R E R R Y R R Q Y Y ~ +.+.+.o.T V R V V V B B M M M V J ~ @.3.4.4.4.5.y.y.4.&.@.-.@./ T J A C m M C C O.O.o.Y R W [ o.W R V M M [ $X+.h.E.+.o.T o.&.4.%.%.@.@.3.4.4.@.@.@.3.4.5.5.5.5.5.7.7.u.i.i.k.l.c.A.A.Z.Z.`.'.'.}. X.XoX>X>X>X>X>XoXoXoXXX.X X X}.'.'.F.Z.A.V.D.B.c.x.x.5.q.q.7.9.2.2.2.2.^ %.4.r.v.Y.I.#Xv.r.&.O.6.t.O.o.A Y C Q W o.O.+.o.O.%.J ~ 4.-.-.Y T T N S L L ) 9.x.V.V.j.q.x.c.V.x.i.9.( ) ( ) ( ( L ( ) ) ) / L L b L N c ^ b N Z A T T T x 8 x x x 9 > x 9 8 9 x x x 9 C Q A x x N N 9 N A N A 0 9 x x Z T A x 9 x x v v v 8 8 Z 9 2 Y M Z Z 8 M C 6 9 8 N M M M M 8 6 8 6 6 8 8 v v N N x N 0 Q 9 Z Q A Z 6 % @ > M 7 , @ . @ $ . . . . + $ $ + @ + + + + + X X X X + + # & # o X X X o o X X o o o o + + + + + + + + # # # # # # # # # # & & & & & & & & & & * * * * = = = - = = = = = = - - - - - < < < < < - - - - - - < < - - - - - - - - ",
"kXjXKXKXKXKXKXKXKXKXKXKXKXKXKXKXKXKXKXKXKXKXKXKXKXKXDXDXKXKXKXKXKXKXKXKXBXBXKXKXKXKXhXhXhXhXhXhXhXhXhXhXhXhXhXhXhXhXhXhXhXhXhXhXhXhXhXBXhXhXhXhXhXhXvXhXhXBXBXDXDXDXDXDXSXBXvXvXBXLXHXJXbXSXLXSX-X~.LXE.vXvX2X~.I.g.R.L.e.g.>.#.=.[ P R U H D P I { E R H H } } I E R F P V } P P R R R E P R Y Y W R W o.o.+.o.M V C V V B B B M u M V J ~ @.3.4.4.4.4.6.4.&.@.&.o.T A N C N N C Y o.-.e.;.[ R O.t.>.[ [ D F o.M @X=.W R.[ W +.W Q 6.v.-.%.%.&.%.@.3.4.2.@.2.3.5.5.5.5.5.7.7.u.i.i.k.l.x.V.V.Z.Z.`.'.'.}..X.XoX>X>X>X>XoXoXoXoX.X.X X X}.'.'.F.Z.S.A.V.V.B.x.x.p.q.q.5.9.2.2.@.( @.3.4.v.v.v.Y.I.I.v.&.o.&.6.O.O.o.T A Q ~ o.+.%.%.%.o.T o.%.O.-.O.T ^ / ^ S L ) f.9.c.Z.Z.m.c.V.m.c.x.q.2.) ) f.) 3.) L ( L S ^ ^ L L T b b c L N N N ~ N A x x 6 x 9 6 6 6 m x 6 8 9 x 8 N Q o.N x x N x x N A x 9 x N Z L ~ Z x 9 v v v v v v v v N > 6 9 8 Z 8 9 2 > > 6 6 x M V M M 8 M 8 8 8 N v 8 8 x v v N N v N A M 6 x 2 > 1 > 5 a > @ $ $ . . . . @ @ @ @ X X X + + + + + + + + # # + + X X X X o o o o o o + + + + + + # # # # # # # # # # & & & & & & & & & & * * * * * * * * = * = = = = = = - - - - - - - - < - - - - - - - - - - - - - - - - - - - ",
"jXKXKXKXKXKXKXKXKXKXKXKXKXKXKXKXKXKXKXKXKXKXKXKXKXKXKXDXKXKXKXKXKXKXKXKXBXBXPXKXKXKXhXhXhXhXhXhXhXhXhXhXhXhXhXhXhXhXhXhXhXhXhXhXhXhXhXhXhXhXhXhXhXhXvXvXvXBXBXDXDXDXDXDXSXBXDXfXBXLXKXDXvXbXSXfX-XzXbX8X-XdX-X@X!.L.U.L.e.;.>.} #.+.E P F H D P E { R I H E I [ [ { R F F P [ P F Y Y R E P R Y R W W W ~ o.o.[ W M M B V B B B M u M C Y ~ @.3.4.4.4.4.6.4.&.@.@.J b b N C C C Y o.;.e.e.e.O.O.F o.e.+.o.Y F Q M a C R ;.h.I.O.o.W y.I.Y.r.&.^ %.( @.3.3.2.@.2.4.5.5.5.5.8.7.0.u.i.j.l.l.c.V.Z.Z.`.'.'.}. X.XoX>X>X>X>XoXoXoXXX.X.X X X}.'.'.F.Z.S.A.A.A.B.x.x.N.p.q.7.9.2.2.@.2.3.4.5.r.v.Y.Y.Y.T.I.6.%.@.&.@.4.-.@.o.^ o.%.%.%.o.%.o.o.&.&.o.o.&.@.@.4.) 4.3.( ( 9.0.V.Z.`.`.`.C.m.c.0.3.( ) 2.( ( ( ) ( ) L ^ T L S / b 9 b L S N N Q C N x x 6 x 9 9 6 6 m x 9 8 8 M M 8 T +.~ N N M 9 9 8 N 9 2 0 x M A Q v 9 Z c v v v v M Z C C M > M C N 8 8 > > > 6 6 9 8 8 6 8 M V m m 8 M 8 0 0 6 8 M M N v x M N 8 8 9 2 > 1 > > 5 7 , @ @ @ . . . . @ # @ X + + # $ $ $ * * + + . O X X X X X o o o o o o + + + + + + # # # # # # # # # # & & & & & & & & & & * * * * * * * * = = = = = = = = - - - - - - - - < - < - - - - - - - - - - - - - - - - - ",
"KXKXKXKXKXKXKXKXKXKXKXKXKXKXKXKXKXKXKXKXKXKXKXKXKXKXKXDXKXKXBXKXKXKXKXKXhXhXKXKXKXPXPXBXBXBXhXhXhXhXhXhXhXhXhXhXhXhXhXhXhXhXhXhXhXhXBXBXhXhXhXhXhXhXBXBXBXDXDXDXDXDXSXDXDXLXbXvXDXLXHXHXvXdXbX3X9X9XbX5XW.fX@X0X%XL.L.h.-.;.$.=.#.+.E P U D D U { E R F P { P E { { R P F { [ V Y R Y R W P R Y R W E W W W W W W V M V V B B B M u M F Q o.@.3.4.4.4.4.6.4.&.@.@.T S S N S J T o.;.t.e.g.t.O.o.+.o.g.[ O.[ F V m C Z N / O.;.O.+.o.e.I.Y.I.r.3.@.^ ^ @.2.3.2.2.3.5.5.5.5.8.7.0.i.i.i.j.l.b.V.A.Z.`.'.'.}. X.XoX>X>X>X>XoXoXoXXXXX.X X X|.'.'.F.S.F.G.A.A.V.B.x.x.j.0.5.9.2.2.@.3.3.4.4.5.k.M.I.Y.T.I.r.O.O.O.&.-.-.&.@.%.@.@.&.%.@.4.y.&.%.o.@.%.4.@.@.5.9.5.k.0.l.u.3.0.V.`.'.'.`.A.c.0.9.( ) f.f.) ( ) ) / L T L S b L L b x A A b N Y A x 8 8 6 x 6 9 6 9 m v 9 8 8 N N 9 A N ;.T N 8 0 x Y A c > > 9 x Z T C v 0 N N N v v v M Z C 8 M N C M M 8 > > > 9 6 6 9 6 % % 6 8 8 2 > 8 9 6 6 9 v N N N v 9 9 Z Z 9 6 9 9 2 9 2 5 5 > > > $ @ . . . . X # # + + X X X X X X X X X X X X X o X o o o o o o + + + + + + # # # # & # # # # # & & & & & & & & & & * * * * * * * * * * = = * = = = - - < < < < < < < - < - - - - - - - - - - - - - - - - - ",
"KXKXKXKXKXKXKXKXKXKXKXKXKXKXKXKXKXKXKXKXKXKXKXKXKXKXKXKXKXKXBXBXKXKXBXBXBXhXKXKXKXPXPXPXBXDXhXhXhXhXhXhXhXhXhXhXhXhXhXhXhXhXhXhXhXhXBXBXvXhXhXhXhXBXvXBXBXDXDXDXDXBXDXDXDXDXSXDXDXLXHXHXSXSX-X3XvX8X2XW.~.!.5X%X%Xh.e.:.>.=.:.:.=.[ P R U D D U { E I E E P { I R { R P F [ E B Y R F E W P R P R W R W W W W R Y Y F V V V B B M u M F R o.@.3.3.3.3.4.4.4.@.@.^ S N N N S T ~ -.e.e.e.e.e.+.+.$.O.+.e.$.o.F 8 v N C o.&.O.%.&.O.%.r.Y.Y.I.l.r.r.@.) @.@.2.3.2.2.4.5.5.5.5.7.7.0.u.i.j.l.l.c.V.Z.`.'.'.}.}..XoX>X>X>XoXoXoXoXXX.X.X X}.'.'.'.F.F.F.F.F.Z.A.D.D.x.j.q.9.9.2.2.2.2.2.2.2.2.@.@.4.8.r.y.r.3.@.@.@.%.%./ / @.@.3.4.3.@.@.%.^ ^ / @.3.5.3.9.8.j.7.k.m.C.C.0.5.q.x.D.A.C.A.c.j.9.f.( ( f.( ) ( ) ( L L L S b L b b L N A N v N A 8 8 8 6 8 6 9 6 6 m 8 9 8 9 x M 8 A 9 N O.C 9 6 6 x Q N 0 2 9 9 N L T N 9 > x x N M 6 9 8 x Z 9 8 v Z 8 u > > > 6 6 9 8 9 > 6 8 8 8 6 > 9 6 > > 6 8 N N N v 6 6 M C 8 0 6 M 5 % 1 5 1 1 > > , $ @ @ @ @ X X @ @ @ . . . . . . . . X X O X X o o o o o o o o + + + + + + # # # # & # # # # # & & & & & & & & & & * * * * * * * * * * = = * * = = - - < < < < < < < - < - - - - - - - - - - - - - - - - - ",
"KXKXKXKXKXKXKXKXKXKXKXKXKXKXKXKXKXKXKXKXKXKXKXKXKXKXKXKXBXBXBXBXKXBXBXhXKXPXKXKXKXKXDXBXBXhXhXhXhXhXhXhXhXhXhXhXhXhXhXhXBXBXBXBXhXhXhXhXBXBXBXhXBXbXBXBXBXDXDXDXDXvXJXDXHXDXDXSXSXHXHXHXbXvX8XSXvX$X8XW.W.W.8X@XU.h.e.>.e.:.e.t.;.o.} I U D F I { R F F E I +.{ I R R P P { R V P R B E W Y R P R ~ R W W W W R Y C R V B B B M M u B F T ~ @.&.4.4.3.3.3.@.@./ S S N Z ~ ~ %.%.4.6.e.e.e.t.6.[ +.O.O.=.*.$.o.Y T ~ ~ o.-.&.@.%.o.-.v.I.v.v.l.i.9.( ^ ( @.2.2.3.3.4.5.5.5.5.7.7.q.u.i.j.l.l.c.V.Z.).'.'.'.}..XoXoXoXoXoXoXoXoXXX.X.X X}.'.'.'.'.F.F.F.F.Z.A.V.D.V.x.q.9.9.2.2.2.2.2.3.3.@.3.3.@.2.3.3.3.4.4.4.4.3.( ( @.@.4.@.@.3.3.@.@.( ^ 3.3.3.8.u.u.b.l.j.l.Z.Z.Z.Z.V.x.N.q.N.x.m.x.0.9.f.f.2.f.3.( ( ) ) L ) ^ ) S L b c c A b A N N A x 9 8 m 8 6 6 > 8 9 8 9 9 9 x x 8 C x x N o.x 6 2 6 8 M x > 9 8 N A C M M > x 2 x C ~ A N C T A Q Y W W Y L M P M M 8 u 9 M u 6 8 9 6 6 9 6 > % > 9 9 9 8 v 9 6 8 M 8 9 6 6 M 1 9 > 1 2 > > > , $ $ @ @ . . X @ @ X . . X . . . O X X X X X X X + + o o o o + + + + + + + + # # # # # # # # & & & & & & & & & & * * & & * * * * * * = = = = = = - - - - < < < < < - - - - - - - - - - - - - - - - - - - ",
"KXKXKXKXKXKXKXKXKXKXKXKXKXKXKXKXKXKXKXKXKXKXKXKXKXKXDXDXPXKXBXBXBXBXBXhXBXhXKXKXKXKXDXBXBXhXhXhXhXBXhXhXhXhXhXhXhXhXhXhXBXBXBXBXhXhXBXBXhXhXBXvXBXSXBXBXDXDXDXDXDXDXbXDXLXDXJXSXSXHXHXSXvX2XdX@X0X$X2X!.$XU.%XR.I.h.e.>.>.-.g.>.:.O.| I U D F I { E F P I I [ { R E E P P R R F F R V R E Y R F Y W R W W W W Q Y M C V B M V M M u B J R o.@.&.3.3.3.@.@.^ ^ %.S S S A %.@.-.4.@.-.e.r.r.g.e.o.o.+.O.O.$.-.O.~ %.@.@.@.@.@.@.%.%.@.4.4.5.4.9.3.@.@.@.( @.2.3.3.3.4.5.5.5.5.7.7.q.u.i.j.l.l.c.A.Z.Z.'.'.'.}..XoXoXoXoXoXoXXXoX.X.X X}.|.'.'.'.'.'.F.'.'.Z.A.A.D.V.x.q.7.5.9.5.9.5.5.5.5.2.3.9.3.3.3.3.3.3.3.3.3.@.3.3.2.2.@.@.5.5.5.4.4.5.4.2.5.5.u.b.m.x.x.c.V.`.`.`.`.'.G.Z.V.q.N.0.0.5.f.f.( f.9.f.( ) ( ) ( S ) ) ) ^ S c c c S L N N N M 8 8 M u 6 8 > 6 m 8 9 9 9 8 x 8 M x 9 M A A 6 6 9 8 2 8 Y x M N N A x v 8 9 8 6 A N 8 6 6 9 > 0 v M M v 8 9 C 2 9 m 7 > % > 6 6 9 9 9 8 9 2 > % 6 6 6 9 9 9 6 8 M 8 9 6 6 6 7 @ > > 2 > > $ $ , , , $ @ . . @ @ @ + X X X X X X X X X X X X X + + o o o o + + + + + + + + # # # # # # # # & & & & & & & & & & * * & * * * * * * * = = = = = = - - - - < < < < < - - - - - - - - - - - = - = = - - - - ",
"KXKXKXKXKXKXKXKXKXKXKXKXKXKXKXKXKXKXKXKXKXKXKXKXKXDXDXDXKXKXKXKXKXKXBXBXBXhXhXhXKXBXDXBXBXhXhXhXBXBXhXhXhXhXhXhXhXhXhXhXhXBXhXhXBXBXBXBXBXhXBXBXDXDXDXDXDXDXDXDXDXDXLXDXKXKXSXSXJXHXJXgX2X-X@X$X9X2X~.U.@X!.Y.W.L.e.h.:.>.-.g.>.:.*.[ I U D D I { E F P F R I E E [ [ P P R R P F R P Y R Y R F Y W Y [ o.W W R ! M V C B u F B a m B J Q o.@.&.4.3.&.3.&.@./ A S A ) ^ %.@.@.@.4.4.6.y.4.r.r.y.O.o.+.O.+.O.&.+.@.@.@.@.@.@.@.@.4.4.4.3.3.2.2.2.2.2.2.@.@.3.3.3.3.4.5.5.8.8.7.7.0.u.i.j.j.l.b.V.A.Z.'.'.'.}..XoXoXoXoXoXoXoXoXXX.X X}.|.}.}.}.'.'.'.'.'.Z.Z.A.V.V.x.p.0.i.q.i.q.7.7.7.7.5.9.9.5.5.5.5.5.5.5.5.5.3.3.9.7.3.5.7.4.u.u.i.u.u.b.u.5.3.0.m.m.x.V.Z.'.'.'.'.'.{.'.'.'.'.Z.x.j.q.9.f.f.9.5.3._ ( ( ) ( L L ) ^ / L c c b c c A A N N x M V M 9 x 6 6 M m 8 9 8 8 9 x M x 8 x > Q x 2 9 2 0 2 > Z Y Q C N T Y N T M N x N N M x 9 > 9 V M M Z V 8 6 6 6 6 6 2 > > 6 2 6 8 M 8 9 > @ 2 9 0 6 6 6 6 0 9 x 9 9 6 6 M 6 6 2 > 1 % > > > , $ , 4 4 , , , $ $ $ # + + X X X X X X X X X X + + X X X X o o + + + + + + + + + + # # # # & & & & & & & & & & & & * * * * * * * * = = = = = = - - - - < < < < < - - - - - - - - - - - - - = = = - - - ",
"KXKXKXKXKXKXKXKXKXKXKXKXKXKXKXKXKXKXKXKXKXKXKXKXKXDXDXDXKXKXKXKXKXKXKXBXBXhXhXhXhXhXDXBXBXhXhXhXBXBXhXhXhXhXhXhXhXhXhXhXhXhXhXhXBXBXBXBXBXBXBXBXDXDXDXDXDXKXLXDXDXLXDXDXLXLXSXbXHXHXSX-XR.2X8X@X-X$X!.W.E.R.W.!.h.g.>.t.e.:.e.t.*.:.[ E F D D P E { F P V I H E [ [ { I F I R P F R R Y R P R Y Y W Y W o.W W R Y V M V B u F B u m B J Q o.@.&.4.4.&.@.@./ ) A J ^ %.@.@.@.@.&.&.4.4.y.4.6.6.r.-.O.+.@.O.O.O.@.@.@.@.@.&.4.4.8.6.5.5.3.5.5.9.3.2.3.2.2.2.3.3.9.3.4.5.5.8.8.7.7.0.u.i.j.j.l.b.V.Z.Z.'.'.'.}..XoXoXoXoXoXoXoXoXXX.X X}.|.}.}.}.'.'.'.'.'.S.S.A.V.D.x.j.i.l.p.p.p.i.i.i.i.q.5.5.q.q.q.q.7.7.7.7.8.3.7.u.r.l.7.i.r.k.l.l.b.l.k.b.j.7.N.V.A.D.Z.'.{.'.'.'.'.'.'.'.'.'.'.G.x.N.q.9.9.9.9.5.f.3.( ( ) / L S L @.L b c 9 N c S N A N N N V M 9 9 M 9 M 8 8 6 8 8 9 x x 9 9 6 9 N A 2 x 9 6 6 2 6 v A x x M 2 x 8 M x N N C C M > 2 M Z v M Z V M 8 6 9 8 6 > > 2 6 2 6 9 M M 8 6 > % 2 0 6 0 6 > > 2 9 9 6 6 6 8 1 2 2 > > @ % @ . . @ % @ . @ $ $ $ $ * = = $ + X . . O X X X X X + + X X X X o o + + + + + + + + + + # # # # & & & & & & & & & & * & * * * * * * * * = = = = = = - - - - < < < < < - - - - - - - - - - - - - = = - - - - ",
"KXKXKXKXKXKXKXKXKXKXKXKXKXKXKXKXKXKXKXKXKXKXKXKXKXKXKXKXDXDXDXBXKXKXKXKXPXBXDXDXBXBXBXBXhXhXhXhXhXhXhXhXBXBXBXBXBXBXBXBXBXBXBXBXBXBXBXBXBXBXBXDXDXDXJXDXDXLXLXHXfXvXSXHXHXSXSXHXDXSX@XR.9X8X$X!.$X8X!.!.E.2XU.E.t.e.>.e.e.t.t.-.*.#.} [ D V H F E { F P E F F [ } { I P F I R F H R F P R P Y Y Y W Y W W W Q Y F V B V B B V V B M B J Q o.@.&.3.&.@.@.%.^ ^ ^ ^ @.@.@.&.3.4.4.3.4.2./ @.3.2.3.4.&.&.-.-.&.&.-.4.4.4.&.4.5.6.r.r.r.r.r.7.7.9.5.5.5.4.3.3.3.4.5.4.3.5.5.8.8.7.7.0.u.u.i.j.l.x.V.A.Z.S.'.'.}. XXXoXoXoXoXoXXXXXXX.X.X}.}.}.}.}.}.|.'.'.'.'.).Z.A.V.x.p.i.p.p.p.p.i.i.i.i.i.q.q.q.i.i.i.i.i.i.i.u.7.i.i.i.i.i.l.l.b.b.b.b.b.b.b.b.l.0.A.A.Z.'.}.}.}.}.}.}.}.}.}.}.'.'.`.c.x.q.9.9.9.9.5.9.3.2.@.) 3.L S S ^ / / L S b c b N 9 N C N N v 8 M J 6 M 8 8 9 8 8 8 6 8 6 6 6 6 9 C 8 x 9 6 0 0 0 8 N 8 9 9 2 9 8 M x Z V C C C M 6 8 M 8 8 M V N M 9 9 8 8 9 6 9 6 6 2 9 M C 9 x 6 6 6 0 2 0 0 > > 2 6 6 6 6 8 8 1 1 2 > > > % . @ . . @ @ @ . X @ $ @ + $ , , = # X X X X X X X X X X o o o o o o o o + + + + + + + + # # # # # # & & & & & & & & & & & & * * * * * * * * = = = = = - - - < < < < < < - - - = - - - - - = = = - - - - - - ",
"KXKXKXKXKXKXKXKXKXKXKXKXKXKXKXKXKXKXKXKXKXKXKXKXKXKXKXKXDXDXBXBXKXKXKXKXBXBXBXhXBXBXBXBXhXhXhXhXBXBXhXhXBXBXBXBXBXBXBXBXBXBXBXBXBXBXBXBXDXDXDXDXDXDXDXDXHXLXHXDXvXDXHXHXLXJXSXHXvX2X0X!.dX8X$XE.2X@X5XW.~.2XW.L.e.>.-.;.h.h.t.*.#.[ E R F D D P E [ F I R P P E [ R P P F I I F F F V Y R Y Y R R W J Y Q Y Y J F B B B B D B V B M B J ~ %.@.@.@.@.@.@.@.@.@.%.@.4.4.4.4.4.4.4.4.@.%.%.%.@.%.@.&.@.&.&.&.@.&.4.4.y.8.5.8.k.u.k.k.k.k.k.i.7.u.7.r.r.7.5.5.4.4.5.5.3.5.5.8.8.7.7.0.u.u.i.j.l.x.V.A.Z.S.'.'.|. XXXoXoXoXoXoXXXXXXX.X.X}.}.}.}.}.}.}.|.'.'.'.'._.A.V.x.p.i.q.i.i.i.i.i.i.i.i.i.i.i.i.i.i.i.p.l.l.l.l.l.l.l.l.b.b.b.b.b.M.b.b.b.b.b.c.x.Z.G.'.'.}.}.}.}.}.}.}.}.}.}.'.'.F.V.x.0.7.9.9.9.5.9.2.2.( 3.( ( ) L / / ^ L S N b c N 9 N A N M x 8 2 C 8 m m 8 6 8 8 8 2 m 8 6 9 6 9 8 M 8 9 9 0 0 9 v M 8 9 0 9 6 9 M x 9 8 R m C C M 8 9 9 6 9 M C C 9 9 9 9 8 8 2 6 9 8 8 9 C 6 6 > > 1 2 2 2 2 > > 2 6 6 6 7 8 9 1 1 6 6 2 2 > @ . . . . @ @ @ . X = + . X + + $ $ $ * # + X X X X + X o o o o o o o o + + + + + + + + # # & # # # & & & & & & & & & & & & * * * * * * * * = = = = = - - - < - < < < < - < - = - - - - - = = - - - - - - - ",
"KXKXKXKXKXKXKXKXKXKXKXKXKXKXKXKXKXKXKXKXKXKXKXKXKXKXKXKXKXKXDXDXPXKXhXBXhXhXhXhXhXhXBXBXhXhXBXBXBXBXBXhXBXBXBXBXBXBXBXBXBXBXBXBXBXBXBXBXDXDXDXKXDXKXHXDXHXLXDXhXDXKXLXDXHXvX8X3XgXbX$XW.9X8X$XE.%X5X@XE.!.-XL.I.h.g.-.h.W.L.e.-.} E R P I U P R E [ P I U R R P P R I F H P P F F V F F Y R R R R W F J Y J J F V V B M B V D V B M B J ~ %.@.@.@.&.3.3.@.@.%.@.3.5.y.4.4.4.y.y.4.@.@.3.4.2.%.3.4.3.&.@.@.3.4.4.6.6.r.r.r.z.k.k.k.l.l.k.i.u.l.i.i.u.r.7.5.5.5.5.5.4.9.8.7.7.7.7.7.0.u.i.i.l.x.B.A.Z.Z.'.'.}. X.XXXoXoXXXXXXXXXXX.X.X}.}.}.}. X}.}.}.}.}.{.'.).Z.V.c.l.i.i.q.i.i.i.i.i.i.p.p.p.p.p.l.b.b.b.b.b.b.b.b.b.b.b.M.M.M.M.C.C.C.A.V.V.V.V.Z.'.'.'.'.}.}.}.}.}.}. X X X X}.'.F.A.c.j.q.9.9.9.5.5.9.2.3.L ( 3.( ^ / ^ ^ ^ ^ ^ ^ L N 6 N A N M 8 8 8 6 6 M M 8 6 8 8 8 2 8 8 9 6 6 9 6 N 8 6 x 0 0 9 v v 8 6 0 9 6 9 M x 6 > 6 V N M N V M 8 2 2 m C A x 9 9 9 9 9 2 6 9 8 9 6 8 9 2 > > > > > > > > > 5 6 6 6 8 9 6 2 2 6 7 9 7 6 1 y y + . . @ X X . = # X X . . . X + + + + # + + + X X X X X X X X o o o o + + o o + + + + & & # # & & & & & & & & & & & & & & * * * * * * = = = = = - - - - - - - < < < < < < - - - - - - - = - - - - - - ",
"KXKXKXKXKXKXKXKXKXKXKXKXKXKXKXKXKXKXKXKXKXKXKXKXKXKXKXKXKXKXDXDXBXBXhXBXhXhXhXhXhXhXhXhXhXhXhXhXBXBXBXhXBXBXBXBXBXBXBXBXBXBXBXBXBXBXBXDXDXDXKXKXKXKXLXDXDXLXDXgXKXHXDXJXfXdXgXvXvX8X!.$X9X8X%XE.$X5X@XE.R.E.U.L.h.;.;.t.I.t.$.o.[ R P P E I I E E [ P I F R E H H I I H H P P H H H R F F E R R W W C J J C J J V B M B V V V V V M M J ~ %.@.@.&.@.@.@.@.3.4.4.4.y.6.4.4.6.y.4.4.3.4.y.y.4.@.4.5.4.4.4.4.5.8.r.r.y.r.u.i.i.r.k.l.b.l.l.b.b.b.b.i.u.7.5.5.5.5.5.5.4.4.5.7.7.7.7.7.0.0.i.i.l.x.B.A.Z.Z.'.'.|.}..XXXXXXXXXXXXXXXXX.X X}.}.}. X X X}. X}.}.}.{.'.).A.B.x.p.i.i.i.i.i.i.i.i.p.p.b.l.b.b.b.b.B.B.A.A.C.C.C.C.C._._.A._._._.Z.C.Z.Z.Z.Z.'.'.'.'.'.'.}.}.}.}. X X X X X}.'.F.Z.D.x.q.5.9.9.5.9.2.2.( ( 3.( &.( @.^ L ^ ^ ^ L L N 6 N A N M 8 8 8 8 9 6 9 9 6 8 8 8 2 8 8 9 6 6 9 9 V 8 8 M > 0 9 8 8 6 6 9 > 6 8 x 8 8 2 6 2 8 m V C V m 6 > 6 M C C 9 8 8 9 9 9 9 6 2 6 x > 8 6 1 > > 2 > 0 > > > 2 6 6 9 u 7 6 9 6 2 6 7 6 6 1 , , , $ $ $ $ @ + $ @ X @ X X X X X X X X + + + + X X X X X X X X X X X X o o o o + + + + & & # # & & & & & & & & & & & & & & & & & & * & * * = = = - - - - - - - < < < < < - - - - - - - - = - - - - - - ",
"KXKXKXKXKXKXKXKXKXKXKXKXKXKXKXKXKXKXKXKXKXKXKXKXKXKXKXKXKXKXKXKXDXDXBXBXBXBXDXDXhXhXDXDXBXhXhXBXBXhXBXhXBXhXhXhXBXBXBXBXBXBXBXBXBXBXDXDXDXDXKXKXLXLXLXDXDXLXBXgXKXJXbXvXbXvXSXvX0X@XE.$X8X-X$X%X2X8X-XE.W.I.L.>.O.:.e.e.L.t.$.[ R R I P I I E { } [ P H R R F H H I I H H F F H V V F F Y E W E R W C J J V Y J V B M M B V M V V M M J Q o.@.@.@.@.@.3.4.4.6.5.5.5.6.5.y.6.4.4.4.4.r.r.r.4.3.8.r.8.5.5.8.r.r.i.u.u.u.u.k.i.i.l.b.b.b.b.b.M.b.b.l.u.7.5.5.5.5.5.5.4.4.5.7.7.7.7.7.0.u.i.i.l.x.B.A.Z.).'.'.|.}.OXXXXXXXXXXXXX.X X.X X X}. X X X X X X X X.X X'.).Z.A.B.x.p.p.i.i.i.i.i.i.p.l.b.b.b.b.B.B.B.B.A.A.A.A._.`._._._.`._._._.Z.Z.S.'.'.'.'.'.'.'.'.'.'.}. X X.X.X.X.X.X X}.'.F.V.x.p.q.9.5.5.9.2.) ) ) 3.( ( 3.@.( / ) ^ ^ ^ T A N v A M x 8 8 9 9 6 6 6 6 9 8 9 8 2 9 9 9 6 2 6 M M M 8 M 2 6 6 8 9 6 6 6 > 6 8 9 8 8 2 2 > 6 6 8 V N M 9 > 2 x C C 8 8 v N N C 9 > 2 2 9 9 9 8 6 6 9 6 > 9 8 9 7 8 M B F Y F F u 6 2 6 9 2 7 , @ @ $ $ $ $ $ $ $ $ $ + + X X @ X X X . @ + X + X X X X X X X X X X X X X o o o o + + + + & & & # & & & & & & & & & & & & & & & & & & & & * * = = = = = - - - - - - - - - - - - - - - - - ; ; ; ; = = - - ",
"KXKXKXKXKXKXKXKXKXKXKXKXKXKXKXKXKXKXKXKXKXKXKXKXKXKXKXKXKXKXKXKXKXKXDXBXBXBXDXDXhXhXDXDXhXhXhXhXBXhXBXhXBXhXhXhXBXBXBXBXBXBXBXBXDXDXDXDXDXDXKXKXLXKXLXKXDXDXdXsXDXDXSXSXvXgXvXfX0X@XE.$X0X%X$X-X2X2X@XW.I.I.e.>.;.>.-.t.*.} o.W R P D B R { [ { } [ P H I U H V D I I F H F F H V V V F R R E W W R C F J C J J V B M u M J u B V B B J T ~ @.@.@.3.4.4.4.5.5.y.8.8.y.y.y.y.4.4.4.5.y.r.r.5.5.7.r.7.7.7.7.r.u.i.i.i.u.i.k.l.z.b.M.b.b.b.b.b.b.b.k.i.0.7.5.5.5.5.5.5.5.8.r.r.7.7.7.7.0.0.i.j.x.B.A.Z.).'.'.|.}.OX.XXXoXoXXX.X.X X X X X X X X X X X X X X.X.X}.'.).S.A.B.b.b.l.p.i.i.i.i.i.i.l.l.x.b.b.b.B.B.A.A.A.A._._._._.`.)._.`.Z.Z.Z.S.'.'.'.'.'.'.}.}.'.'.}..XXXoXXX.XXXXXXX X}.'.Z.B.x.q.9.5.5.9.2.( ) ) ^ @.( &.4.@./ T L T ^ ^ A A N b M x 8 9 9 9 9 9 6 6 9 8 9 9 2 6 6 9 6 > > 8 V m 6 9 2 6 6 9 6 2 6 2 > 6 8 9 9 9 2 6 > > 2 6 8 M M m 6 > 6 L M M 6 9 8 v Z M v N 8 9 8 Y 8 6 6 6 6 > 2 % @ @ > > 1 6 7 6 % u V 8 8 9 6 5 1 @ @ $ @ @ @ @ $ $ $ $ # + + X X X X . . . X . X X X X X X X X X X X X X X X X o o + + + + & & # # & & & & & & & & & & & & & & & & & & & & * * * * = = = = - - - - - - - - - - - - - - - - ; ; ; ; = = - - ",
"KXKXKXKXKXKXKXKXKXKXKXKXKXKXKXKXKXKXKXKXKXKXKXKXKXKXKXKXBXBXPXPXKXKXPXPXDXPXDXDXBXBXDXDXhXhXhXhXBXBXBXhXBXBXBXBXBXBXBXBXBXBXDXDXDXDXDXDXKXKXKXKXKXKXLXDXDXgX8XhXHXHXbXfXdX8XgX8X0X$XE.$X-X$X%X8X5X$XW.I.I.U.e.e.e.e.-.O.#.[ } R R I P P [ } [ { | { P D F D V s V I I F H F F H V V V D F R E E R R C V C J C C F V M M M M R m m M C J Q o.@.@.3.4.4.5.5.8.r.r.r.8.r.r.r.r.8.5.5.5.8.8.r.7.7.7.7.0.0.0.7.u.i.i.k.k.k.l.b.b.M.M.M.M.b.b.b.b.l.l.k.i.u.r.7.7.7.7.8.5.5.r.u.u.7.7.0.0.0.0.i.l.x.B.A.Z.).'.'.'.}.}..XXXoXoXXX.X.X X X X X X X X X X X X X.X.X.X X}.'.'.S.A.A.A.B.b.l.p.i.i.i.i.i.p.p.p.l.l.x.b.b.m.V.A.A.Z.Z.Z.Z.Z.A.A.A.A.A.A.S.Z.Z.Z.Z.A.S.F.'.}.}.}..XXXXXXXXXXXXXXX X}.'.Z.c.l.5.7.5.9.3.2.K ) ) S 3.( @.@.@./ ^ ^ L T A A A N M x 8 9 9 9 9 8 9 6 6 9 9 9 2 6 6 9 9 2 > 6 > A 6 6 6 6 2 6 6 2 2 > 2 9 8 9 9 8 6 6 > > > > 2 8 M M 8 2 6 N M 8 v v N Z Z Z v 9 Z L N 9 Z V 8 > v > % > > % > > 2 6 9 6 1 > > 2 2 9 M 7 1 > @ @ @ @ @ @ @ @ $ , $ + @ X X X @ . . . . . X X X X X X X X X X X X X X X X o o + + + + # # # # & & & & & & & & & & & & & & & & & & & & * * * * = = = = = - = - - - - - - = - - - - - - ; ; ; ; - - - - ",
"KXKXKXKXKXKXKXKXKXKXKXKXKXKXKXKXKXKXKXKXKXKXKXKXKXKXKXKXBXBXBXBXKXKXKXPXPXPXDXDXBXBXDXDXhXhXhXhXBXBXBXhXBXBXBXBXBXBXBXBXBXDXDXDXDXKXKXKXKXDXDXDXDXKXDXDXDXgXvXDXJXSXSXSX8X2X8X3X8X@XE.$X%X$X-X8X$X@XW.g.U.U.h.h.g.#.O.W R [ F R P E +.#.+.o.[ { [ { U H D V B s B P I F H H H V B V V B D E R W W R V B V Y V V V B B M m B Y m u m B J ~ %.@.3.4.4.5.5.8.8.r.r.r.r.r.r.r.r.8.8.8.8.8.8.7.7.7.7.0.u.u.u.q.u.i.k.l.z.b.b.b.M.C.M.M.b.b.b.l.l.l.l.i.i.u.u.r.r.r.u.7.8.8.u.u.u.7.7.7.0.0.0.i.l.x.B.A.Z.).'.'.'.|.}. XXXXXoXXX.X.X X X X X}.}.}.}.}.}. X X.XXX.X X}.'.'.).).).)._.A.B.b.l.p.i.i.i.i.i.i.i.i.p.p.l.l.x.x.V.V.A.V.V.V.V.V.B.B.D.D.D.D.D.D.A.V.A.A.Z.Z.F.'.}. XXXXXXXXXXXXXXX X}.F.A.x.q.w.5.9.3.3.n ) ^ b ) ( @.@.&.4.@./ ^ ^ A A L A N x 8 9 9 9 8 9 9 6 6 6 6 9 2 2 2 6 9 2 > 2 > 8 8 9 9 6 2 6 6 2 2 > 2 9 8 9 6 8 9 6 > > > > > 6 8 V m 6 8 8 M 2 9 8 v N N Y Q L N v 9 v M 6 9 V V 6 2 6 > > > 2 6 9 8 8 8 2 2 8 8 2 u 7 1 1 $ @ @ @ @ @ . X $ $ $ @ + X + + X . . . . . X X X X X X X X X X X X X X X X o o + + + + # # # # & & & & & & & & & & & & & & & & & & & & * * * * = = = = = = = - < - - = = = - - - - ; ; ; ; ; ; - - - - ",
"LXLXLXKXKXKXKXKXKXKXKXKXKXKXKXKXKXKXKXKXKXKXKXKXDXBXKXKXDXDXBXDXDXDXDXDXBXBXBXBXBXBXBXBXBXBXBXBXBXBXBXBXBXBXBXhXBXhXBXBXDXDXDXDXDXKXDXDXDXDXDXDXDXDXDXDXDXhXhXSXbXvXgX8X2X2X2X2X2X$X~.0X~.!.$X$X!.@XI.W.U.>.I.t.-.+.[ E [ E R P +.+.} E +.$.} E { E U V V V V s s V U F F H H B B B B a V E P [ W Y C V V F V V B B B M m B J B m m B C ~ %.@.3.4.4.4.5.8.8.r.r.r.r.r.r.r.r.r.r.r.7.r.7.r.r.u.u.u.u.u.i.i.i.j.l.l.b.b.b.b.b.m.b.b.b.l.l.l.l.l.l.i.i.u.u.u.7.7.7.7.7.r.r.u.u.u.0.0.0.q.0.i.l.x.V.A.Z.).'.'.'.'.|.}..XXXXXXX.X.X X X X}.}.}.}.}.}. X X.X.XXXXX.X X}.'.'.'.'.)._._.A.A.A.b.b.x.p.p.l.p.p.i.i.i.i.p.j.j.l.x.x.x.D.x.x.x.x.x.x.x.D.D.D.D.A.A.Z.'.}.}.}. X X.XXXoXoXoXXXXXXX.X}.'.S.D.x.q.9.9.9.9.) n ( n n ^ T / @.@.L L ^ T A A A N M x 8 9 M 6 8 9 9 9 6 6 6 6 9 2 2 6 8 6 2 > > 6 8 6 9 6 6 6 6 6 2 > > 6 9 9 6 9 7 6 > > > > > 2 9 C M 8 x 9 x 6 8 8 8 8 Z L L Z ~ Y v 0 Z > 9 9 Z v > > 2 0 9 8 8 2 9 6 6 6 6 9 u 1 u 7 1 1 , @ @ @ @ @ @ @ $ $ $ + + X + + X X X . . . . . X X X X X X X X X X X X X X o o + + + + # # # # # # # # # # # # # # # # # # # # & & & & & & * * * * = = - - - - - - - - - - - - - - = = = = = = = = = = ",
"LXLXLXKXKXKXKXKXKXKXKXKXKXKXKXKXKXKXKXKXKXKXKXKXDXBXKXKXDXDXhXDXDXPXDXDXBXBXBXBXBXBXBXBXBXBXBXBXBXBXhXhXBXBXBXhXBXBXBXBXDXDXDXDXDXBXBXBXDXKXKXHXDXHXLXDXDXBXsXBXfXgXdXsX2X2X2X2X8X$XW.@XE.$X@X$XE.I.W.@XL.t.e.$.+.[ E R E F R +.#.[ E } #.+.| E { E U V V V V B a a V U P H V V B a a B V F E { W R Y J F V V V B B B M M M F B m B M C T %.@.3.4.4.4.5.8.r.r.r.r.r.r.r.r.u.u.u.i.u.i.u.u.u.i.i.u.u.i.k.l.l.l.l.l.l.l.l.l.l.l.l.l.l.l.l.l.l.k.l.k.k.k.u.u.u.u.7.7.r.u.u.u.u.u.0.0.0.q.q.i.j.l.V.V.A.).'.'.'.'.'.}.OX.X.X.X.X X X X X}.}.}.}.}.}.}. X.XXXXXXX.X.X}.'.'.'.'.'.`.`._._._.A.A.A.B.B.B.b.b.l.l.l.l.l.l.i.q.q.q.p.p.p.x.x.x.x.x.D.A.S.F.'.'.}.}..XXXXXXXXXoXoXoXoXoXoXoXXXXXXX.X}.F.A.D.x.q.5.5.9.) K L S S S / S ( @.@.L S T A A A N M x 8 9 m 9 8 9 9 9 6 6 9 8 m 2 > 9 6 8 9 > 6 6 6 6 6 6 6 6 6 2 > > > 6 9 9 6 9 6 6 > > > > 2 1 6 V M M 8 9 9 9 9 8 v v v Z L L A W Q Z 8 2 0 0 6 x M > 0 6 6 0 2 6 u 6 6 6 6 9 9 > 6 7 7 1 , , $ @ @ @ @ @ @ $ $ $ @ X X X + # + X . . . . X X X X X X X X X X X X X X X X + + + + # # # # # # # # # # # # # # # # # # # # & & & & & & & & * * = = - - - - - - - - - - - = = = = = = = = = = = = = ",
"KXKXKXKXKXKXKXKXKXKXKXKXKXKXKXKXKXKXKXKXKXKXKXKXKXDXDXKXDXDXhXhXPXPXPXDXBXBXBXBXBXBXBXBXBXBXBXBXhXhXBXhXBXBXBXBXDXDXDXDXDXDXSXhXBXDXKXKXLXLXLXLXLXKXDXDXDXdX3XdX8X8X8X3X3X2X2X2X8X~.R.~.@X@X2XE.U.E.E.I.h.e.o.[ [ E R R R R o.$.| #.+.R $.} { { { E U V V V g s a a B F F F H H B a a B B a E R E W W Y C V V V B B B B B B F m m B M C T %.@.3.4.4.5.8.r.r.r.r.r.r.r.r.u.u.u.u.u.u.u.u.u.u.u.u.u.u.i.k.l.l.l.k.l.k.k.k.p.p.i.i.i.i.i.i.i.l.l.l.l.i.k.k.i.u.u.u.u.u.u.u.i.u.u.u.u.i.q.0.i.l.x.V.V.A.Z.).'.'.'.'.|.}. X.X.X.X.X X.X X X}. X}.}.}. X X.XXXXXXXXXXXXX}.{.'.'.'.'.'.).)._._._._._.A.A.A.A.B.b.b.b.b.x.c.V.A.A.Z.A.A.A.Z.A.A.A.S.'.}. X.XXXoXXXXX.XXXXXoXoXoXoXoXoXoXoXoXXXXX.X X'.S.A.D.N.q.5.5.( ^ n S S n ^ S T ^ / %./ A A Z A N N x 8 9 8 x 6 9 9 9 6 6 9 8 m 6 > > m M m 2 6 2 2 6 6 6 6 6 6 > > > > 9 9 9 6 6 6 6 > > > > > > 6 M M M x 6 6 v 6 9 v Z v Z L L Z Q Q Z N Z v v 9 > 6 x 8 6 6 6 8 6 2 6 6 6 6 6 6 > > 7 p 7 @ % $ @ @ @ @ @ @ @ $ $ + X X X + + + + X . X X X + + + + + X X X X X X X o X X o o + + # # # # # # # # # # # # # # # # # # # # & & & & & & & & * * * * = - - - - - - - - - - = = = = = = = = = = = = = ",
"KXKXKXKXKXKXKXKXKXKXKXKXKXKXKXKXKXKXKXKXKXKXKXKXKXBXDXDXDXhXhXhXPXPXPXDXBXBXBXBXBXBXBXBXBXBXBXBXBXBXBXBXBXBXBXBXSXSXSXSXSXDXDXDXKXKXDXDXKXKXKXDXKXKXHXDXSX3X8X8X,X2X3X3X3X2X2X2X$XE.R.$X@X$X@XW.W.E.t.h.e.[ W W E R R R P #.$.[ #.} [ [ $.[ { R E E U V V V g g a s B V H F H B a B B a a B P P R W W Y V V V B B B B B V B F m m B m C T %.@.3.4.5.8.7.r.r.r.r.7.7.8.8.8.7.r.r.r.r.r.r.u.u.u.u.u.u.u.u.i.i.i.i.i.i.i.i.i.i.i.i.i.i.k.k.k.l.l.l.l.k.i.k.i.i.i.i.i.i.i.i.u.i.u.u.i.i.q.u.i.l.x.c.A.A.Z.).).).'.'.'.}.}. X.X.X.X X.X X X}. X}.}.}. X X.XXXXXXXXXoXoX.X X}.}.}.'.'.'.'.).).).)._._._._.A.A.B.B.B.B.V.V.V.V.V.V.A.A.Z.S.S.S.).'.'.|.}. X.X.X.X.X.XXXXXoXoXoXoXoXoXoXoXoXoXXXXX X|.F.S.D.x.N.7.0.3.2.S n b n S / n S / ^ / / A Z A N N x x 8 8 M 2 9 9 6 9 6 6 6 8 2 > 6 6 m M M 2 6 2 6 6 6 6 9 6 > > > 6 6 9 9 6 9 9 7 > > > > > > 2 8 M M M 9 6 8 0 9 N Z Z L L Z Z Z Z v 8 Z 9 6 0 9 9 9 8 8 0 0 6 8 6 6 6 5 6 6 1 > > > > p $ $ $ $ @ @ $ @ @ @ $ $ $ $ @ . . . X + + + + + + + + + + + + + + + + + + + o X o o + + # # # # # # # # # # # # # # # # # # # # & & & & & & & & & & & & * * = = - - = = = = = = = = * * * * * * * * * * ",
"KXKXKXKXKXKXKXKXKXKXKXKXKXKXKXKXKXKXKXKXDXKXKXBXKXDXDXDXPXDXDXDXDXDXDXDXBXBXBXBXBXBXBXBXBXBXBXBXBXBXhXhXhXBXBXBXhXhXBXSXSXDXDXDXKXDXDXDXDXDXDXDXDXDXDXDXgX-X8X3X,X2X3XsX$X$X$X$X$X2X~.R.W.~.$Xg.I.L.g.$.#.[ W E P F F P +.#.#.+.#.[ #.} o.} } } I I U V V g s a a a s B V F H B a s B a a V F P P R E Y C V V V V V V V B B F m m B m C Q %.@.3.4.5.7.u.u.u.u.r.0.8.8.5.5.5.8.8.8.7.8.7.7.7.r.r.7.7.7.u.u.u.u.u.i.i.i.i.i.i.i.j.l.l.l.l.l.l.x.l.l.l.j.i.i.i.j.i.k.k.k.k.i.i.i.u.u.i.q.0.i.l.l.m.A.A.A._.).).'.'.|.}.}. X.X X X X X X X}. X X X X XOX.XXXXXXXXXXXoXXX.X.X X X}.}.'.'.'.'.'.'.'.).)._.Z.A.A.A.A.A.A.Z.V.V.A.A.Z.Z.S.S.S.S.'.|.|.|.}.OXOXOX.X.XXXXXoXoXoXoXoXoXoXoXoXoXoXoX.X.X X'.F.Z.V.x.j.0.5.2.) ( n n ^ ^ N 0 ^ N A T T A N c Z N x x 2 x > > 2 6 8 6 6 6 6 2 2 6 > 9 m o.8 2 2 6 6 2 6 8 6 2 > > 6 6 6 9 9 9 6 9 > > > > > > 2 9 u V N 8 0 8 v v N v v N Z Z Z v x 8 8 8 8 8 9 9 > 9 x M 6 9 9 v 6 9 9 6 9 6 1 1 > % @ 7 1 > > , @ $ $ $ $ $ $ $ $ $ @ . . . @ $ $ $ # + + + + + # # # # # # # # # + + o + + + + # # # # # # # # # # # # # # # # # # # # # # & & & & & & & & & & & * * * * * * * * * = * * * * * * * & & & & * * ",
"KXKXKXKXKXKXKXKXKXKXKXKXKXKXKXKXKXKXKXKXKXKXKXBXKXKXDXDXPXPXDXDXDXDXDXDXDXBXBXBXBXBXDXBXBXBXBXBXBXhXgXkXgXgXgXhXhXBXDXDXDXDXDXDXDXDXDXDXHXKXDXDXDXDXDXvXdX$X8X2X,X2X2X3X$X$X$X$X$X2X~.U.W.W.I.g.I.e.o.$.[ W E R Y Y R } $.$.#.+.#.| #.} o.o.} } E I U D V g s s a a s s V F H B a a a a a V F I F P Y Y F V V V V V V V B B F B B m C B T %.@.3.4.8.r.u.k.k.k.k.j.j.u.u.u.7.5.9.5.5.5.5.5.5.5.5.5.5.5.5.7.7.7.7.7.q.q.0.p.l.x.x.b.b.b.b.b.b.b.b.l.l.k.i.i.i.k.l.l.l.l.l.k.i.i.i.u.i.0.u.i.l.l.c.A.A.A._.).).'.'.|.}.}. X.X X X X X X X}. X}. X X X X.XXXXXXXXXXXXXXXXX.X X X X X}.{.'.'.'.'.'.'.'.)._.)._._.).).).Z.Z.Z.Z.Z.Z.Z.S.S.S.S.'.|.|.}.}.OX XOX.X.XXXXXoXoXoXoXoXoXoXoXoXoXoXXXXX.X X|.'.F.A.c.l.u.8.3.) S L S b ^ ^ c T c b S S A A A N N x 8 6 8 6 2 2 6 8 6 6 8 2 9 6 > 2 2 m 8 W 6 2 6 6 2 2 8 6 6 > > 2 9 6 8 8 6 6 8 2 > % > > > 2 7 M M M M 6 9 > 6 N C Z Z Z Z N v x 9 9 9 9 8 x x 0 0 8 v 8 8 9 8 2 6 8 M 6 6 1 1 > > @ % a > > @ $ @ @ @ @ @ @ $ $ $ $ @ . @ @ $ $ $ $ + + + # # # # # # # # & & & # + + + + + + # # # # # # # # # # # # # # # # # # # # # # & & & & & & & & & & & & & & * * * * * * * * * * * * * * & & & & & & ",
"KXKXKXKXKXKXKXKXKXKXKXKXKXKXKXKXDXDXDXDXBXBXKXKXKXKXDXPXhXhXDXDXDXDXDXDXDXDXBXBXBXBXBXBXBXBXhXgXkXgXhXDXDXDXDXDXDXKXDXDXDXDXDXDXDXDXDXDXKXHXHXJXDXSXSXsX2X~.8X3X2X,X-X-X$X$X$X$X2X2XW.I.I.h.R.I.h.=.#.E [ E R R R W +.$.$.#.} | +.| #.o.} o.} } { I I U V V a s a s a s B H H B a a a a B V F I F P P P F V V V V B B V B B J B B m C C T @.@.4.4.8.u.k.k.k.k.k.l.l.z.l.l.k.k.k.u.u.7.7.7.7.7.8.7.7.r.7.u.i.u.u.i.l.x.x.c.m.m.c.m.m.B.m.B.m.b.b.x.l.l.j.i.i.k.l.z.z.z.l.l.k.i.i.u.u.u.u.i.l.l.b.B.A.A.).S.).).'.|.}.}. X.X X.X X X X X}.OXOX X X X X.XXXXXXXXXXXXXXXXXXX.X.X.X.X.X X}.{.}.}.}.}.'.'.).).).).).'.'.'.`.Z.Z.Z.Z.S.).).S.).'.|.|.|.}.OX X X.X.XXXXXoXoXoXoXoXoXoXoXoXoXoXXXXXXX.X}.|.F.Z.V.x.j.7.3.) n L K T T S S ^ b c c N Z Z A x m x 9 6 9 x 9 2 6 6 9 9 2 8 9 9 > 2 2 6 8 M 8 6 6 6 2 2 6 6 8 6 > 2 9 6 9 8 9 6 6 6 % % > > > 2 7 M M N Z 9 6 6 9 6 6 Z Z Z Z v 8 8 9 6 6 6 9 x N 9 9 9 8 v x 8 8 2 6 8 M 6 6 1 1 > > > 5 5 , > @ $ @ . . . . @ @ @ $ $ $ @ $ $ $ $ $ + + + + + + + # # # # # # & & & # # # # # # # # # # # # & & & & # # # # # # # # # # # # & & & & & & & & & & & & & & & & * * * * & & & & & & * * & & & & & & ",
"KXKXKXKXKXKXKXKXKXKXKXKXKXKXKXKXKXDXDXDXPXPXKXKXKXDXDXDXPXPXDXDXDXDXDXDXDXBXBXDXBXBXBXDXBXBXgXgXhXhXDXDXDXDXDXDXDXDXDXDXDXDXDXDXDXDXDXDXDXDXDXDXSXvXgX3X-X!.8X8X2X-X~.~.$X$X$X$X3X$XW.I.I.I.I.L.+.+.o.[ W E R R [ #.#.#.#.#.} | +.} #.o.o.o.} } | E U U D s a B s s s s a V V V B a a a B H F P P P P F C C V V V B B V B B F m M B m C Q @.@.4.5.7.u.k.k.l.l.l.l.l.b.b.z.l.l.z.b.l.k.k.k.i.i.u.i.i.i.i.i.k.k.k.l.l.x.c.m.m.m.m.A.A.A.B.B.m.m.b.x.x.l.l.j.j.l.l.l.z.z.l.l.k.i.i.u.u.u.i.i.l.l.b.B.A.A._.).S.).'.|.}.}. X.X X.X X X X X}.OXOX X X X X.X.XXXXXXXXXXXXXXXXXXXXXXXXX.X.X X X X X}.}.}.'.'.).).).).'.'.'.'.'.'.'.'.'.).).S.).'.|.|.|.}.OX X X X.X.XXXoXoXoXoXoXoXoXoXoXoXXXXXXXXXXX X}.'.G.C.c.k.0.9.( n n S b T ^ ^ ^ Z b c b N b N N x M 8 9 8 N x 6 6 > 9 9 9 6 9 8 6 > > 6 8 6 8 9 6 6 2 2 6 6 M M 6 2 6 6 > 6 M 9 > > % % > > > 2 9 M M M C 9 6 0 9 0 2 8 b Z Z v 8 9 6 0 0 6 0 0 v x 8 8 9 N x 8 M 6 8 8 6 9 6 2 1 > > > 5 7 1 1 , , $ @ @ . . @ @ @ @ $ $ $ , , $ @ @ + + @ @ + + + # # o # # # & & & # + # # # # # # # # # # & & & & # # # # # # # # # # # # & & & & & & & & & & & & & & & & * * * * & & & & & & * * * & & & & & ",
"KXKXKXKXKXKXKXKXKXKXKXKXKXKXKXKXKXKXKXKXKXKXDXPXPXhXDXDXDXDXPXPXDXDXDXDXBXBXBXBXDXBXhXhXhXhXhXhXBXDXDXDXDXDXDXDXDXDXDXDXDXDXDXDXDXDXDXDXDXDXDXBXfXdX8X3X-X!.8X8X$X-X2X2X~.$X$X~.@XR.E.I.L.@Xg.O.-.[ R [ [ [ F { +.$.+.+.#.o.+.} } } #.} } } } } } { I I F a p H V a a a B V H H B a a a B F V F P P P P F F V V B M M B V M V M m B m C T @.3.4.8.r.u.k.l.z.z.z.l.z.b.b.b.b.b.b.b.b.b.b.z.l.l.l.l.l.l.b.l.l.b.l.x.b.m.M.A.A.A.A.A.B.A.B.B.b.b.b.b.l.l.l.l.l.l.l.b.b.b.b.l.k.i.i.i.i.i.i.l.l.x.b.B.A.A.Z.S.).).'.|.|. X XOXOXOXOX X|.|.|.|.|.OXOX X X X X.XXXXXXXXXoXoXoXoXoXXX.X.X.X.X.X.X.XOX}.}.'.'.).).).).'.'.'.'.'.'.'.).).'.'.'.'.).|.|.|.OXOX}. X XOX.X.XoXoXoXoXoXoXoXoXoXoXoXoXXXoX.X.X}.'.'.Z.m.z.u.5.3.S n S b S ^ ^ Q Z b x b N x N N x N x 8 x M x 0 9 2 9 9 6 6 6 9 9 9 9 6 6 8 m M 6 8 6 6 6 6 9 v v 0 2 9 9 > M 8 6 % % % % > > 2 9 v M 8 L 6 6 0 6 6 0 0 v Z A N v 9 0 0 0 > > 0 9 x x c x N v v N 9 8 8 6 9 8 6 2 > > 1 1 1 1 1 1 1 , $ @ @ @ @ @ . . , , $ $ $ $ @ @ X X X + + # # # # + # + + # # # # # # # # # # # # # & & & & & & & & & & & & & & & & & & & & & & & & & & & & & & & & & & & * * * & & & & & & & & & & & & & & ",
"KXKXKXKXKXKXKXKXKXKXKXKXKXKXKXKXKXKXKXKXKXKXDXPXhXhXDXDXDXDXhXhXDXDXDXBXBXBXBXBXBXhXgXkXhXBXDXDXDXDXDXDXDXDXDXDXDXDXDXDXDXDXDXDXDXDXDXDXDXSXBXfXsXsX3X2X-X~.sX3X2X2X$X~.E.$X$XW.I.R.E.L.g.I.;.-.$.[ E [ [ W I [ #.$.#.#.#.+.#.#.#.} #.+.#.} } } } [ { { I B s H H a a H H H V B s a a a B F B D P Y Y Y J B Y V M M M B V B B m M M M C ~ @.4.5.r.r.u.l.z.b.l.b.z.b.b.b.b.b.M.m.m.b.b.b.b.m.m.m.m.M.M.M.M.B.A.B.A.A.C.A.A.A.A.A.A.A.B.B.B.B.m.m.b.b.b.x.x.l.x.x.b.b.b.b.l.k.i.i.i.i.i.i.l.l.x.b.B.A.A.Z.S.).).'.|.|.}. XOXOX XOX|.|.|.|.|.|. XOX X X X X.XXXoXoXoXoXoXoXoXoXXXXX.X.X.X.X.X.XOX}.}.'.'.'.).).).).'.'.).).).).'.'.).).'.).'.|.|.|.|.OX}.OXOXOX.XoXoX>X>X>XoXoXoXoXoXoXoXoXXXoX.X.X}.}.'.`.C.m.j.8.5.) S S S S N S T N N N x N c N N C c x 9 9 6 6 2 9 2 9 6 6 6 6 9 9 9 6 6 2 6 6 M M 6 8 9 6 6 6 x 8 C 9 9 9 2 8 9 6 % > % > > > 2 6 8 M 8 Y 6 6 0 6 6 6 6 9 v 8 N v 8 0 0 0 0 > > 0 9 x N N N N N Z 8 8 9 6 9 8 9 2 > > 1 1 1 1 2 7 , 1 1 , $ @ , $ $ @ $ $ @ $ $ $ + X X + + + + # # # & = + + + + # # # # # # # # # # # # & & & & & & & & & & & & & & & & & & & & & & & & & & & & & & & & & & & * * * & & & & & & & & & & & & & & ",
"KXKXKXKXKXKXKXKXKXKXKXKXKXKXKXKXBXBXKXKXKXKXKXDXhXDXDXDXPXPXhXhXDXDXBXBXhXhXhXjXgXgXhXDXDXDXDXDXDXDXKXKXKXKXDXDXKXDXDXDXDXDXDXDXDXDXDXDXDXBXhXsX3X3X2X,X$X!.3X~.W.!.~.$XE.I.I.W.L.$XL.g.W.t.=.-.+.} [ [ W R [ +.#.#.$.+.+.+.+.+.#.} #.#.#.#.} } } [ { E I F H H B a a H F F B B B B B B B V u B F P Y P F Y B V B M B B V V m M M m M N %.&.4.8.r.u.k.k.z.b.b.b.b.b.b.m.M.M.C.C.C.C.A.A.A.A._._._._._._._.A.A.A.Z.A.A.A.A.A.A.A._.A.A.B.A.B.B.B.m.b.b.b.b.b.b.b.b.b.b.b.l.l.i.i.i.i.i.i.k.l.l.b.b.A.A.Z.S.).).'.'.|.|. XOXOXOXOX X X X X|.|. X X X X X X XXXXXXXXXXXXXXXXXXXoXXX.X.X.X.X.X.XOX}.}.|.'.'.).).).).).).S.S.S.S.'.'.'.'.|.|.'.|.|.|.|.OX}.OX.X.XoXoX>X>XoXoXoXoXoXoXoXoXoXoXoXoX.X.X X}.'.`.Z.m.k.7.8.@.S S S S Z b Z Z A N N A b c c N x x x x x x 2 9 > 9 6 6 6 6 6 6 6 6 m 8 8 8 M M 6 8 8 9 6 6 8 Y Y W M 9 2 8 6 2 > > > > > > > 2 9 8 8 Y 6 6 6 0 9 6 9 9 C 9 8 8 9 6 0 0 0 0 0 > 0 9 N Z Z Z Z A v v 8 8 9 9 9 6 > > 1 1 2 > > 1 % , 1 1 , $ @ . . . @ @ $ , $ $ + X + + + + # # # + # < * # + # # # # # # # & & & & & & & & & & & & & & & & & & & & & & & & & & & & & & & & & & & & & & & & & & * * & & & & & & & & & & & & & & ",
"KXKXKXKXKXKXKXKXKXKXKXDXBXBXKXKXBXBXKXKXKXKXKXDXBXBXDXDXDXDXDXDXBXBXhXhXhXhXhXhXhXhXBXDXDXDXDXDXDXDXKXKXKXKXDXDXKXDXDXDXDXDXDXDXDXDXDXDXSXgXsX3X3X3X,X-X~.E.$XE.3X2X2X,X~.E.E.~.U.U.R.U.Y.+.-.+.[ } [ W E P } #.+.+.$.#.o.+.+.+.#.#.} +.#.#.} } | { { { R D H D B p s F F F H H s s B B B B u B V F R Y F V F V M M M B V F m M M M M m %.&.4.r.u.i.k.k.z.b.b.b.M.M.M.M.C.C.A.C.C.C.Z.Z.Z.Z._._._._.`.`.`.).).).).Z.A.A.A.A.A.A._.A.A.A.A.A.A.A.A.M.M.b.b.b.b.b.b.b.b.b.l.l.i.i.i.i.i.k.j.l.l.b.b.B.A.Z.S.).).|.'.'.|. XOXOXOXOX X X X X|.|. X XOX X X X X.XXXoXoXoXoXoXoXoXoXXX.X.X.X.X.X.XOX}.}.|.'.'.).).).).).).S.S.S.S.'.'.'.'.|.'.'.|.|.|.|.OXOXOX.XoXoXoX>XoXoXoXoXoXoXoXoXoXoXoXoXoX.X.X.X X{.'.Z.V.l.0.7.9.) ) K S A c c T b b b T S N x c v 9 9 x x 8 2 9 > 6 9 6 6 6 6 6 9 9 9 9 6 2 M m m 9 8 8 9 6 2 6 Z Y T M 2 8 2 2 > > > > > > > 2 9 8 8 Y 6 6 6 0 6 6 8 6 L 9 8 x 8 N 9 9 9 9 9 0 0 9 N L Z A A L N N v m 9 6 6 6 2 > > 1 1 1 , > , , , , , > $ $ @ @ $ $ , 4 $ $ + @ $ $ # # # # # + + * < * # # # # # # # # & & & & & & & & & & & & & & & & & & & & & & & & & & & & & & & & & & & & & & & & & & & & & & & & & & & & & & & & & & ",
"KXKXKXKXKXKXDXKXBXBXBXBXhXhXBXKXBXBXKXKXPXPXDXDXDXDXDXDXDXDXDXDXBXBXhXhXjXjXhXhXBXDXDXDXDXDXDXDXDXKXKXKXKXKXKXDXKXKXDXHXHXHXDXDXDXDXDXBXgXsX3X2X2X2X,X$X~.~.~.!.3X-X$X2XE.R.$XR.W.E.R.T.e.-.$.o.[ +.[ { E F #.#.#.+.#.} } } #.#.#.#.} } #.} } | [ { { [ { I F F B p V H H F F H H V B B B B M M V F R Y F V R C B M B B V D B B B B M N %.4.4.r.u.i.k.k.z.b.b.M.M.M.M.C.A.A.Z.Z.Z.Z.`.Z.Z.).).).).).).).).).).).).).).Z.Z.Z.Z.Z.A.Z.A.Z.A.Z.A.A.A.A.V.c.m.b.b.b.b.b.b.b.l.l.i.i.i.i.k.k.l.l.l.l.b.B.A.).S.S.).|.'.|.|.|..X.XOXOXOXOXOXOXOXOXOX|.|.|. X X X.XXXXXXXXXoXoXoXXXXX.X.X.X X XOXOXOX X}.|.'.'.).S.S.S.S.S.S.S.S.).'.).'.'.'.'.|.|.|.|.:X:XOX.XoXoXoX>XoXoXoXoXoXoXoXoXoXoXoXXXXX.X.XOXOX X}.'.Z.V.b.j.7.8.( ) ) S ^ N c ~ c b b S A A N c N x x C x 9 8 9 x 9 9 6 6 6 8 > > 8 m m 6 6 8 8 m 8 8 M 9 M 6 8 9 8 C C C C 9 > > % % > > > 6 2 6 v v 8 9 6 0 0 0 6 0 9 9 L 9 x x 9 9 9 9 9 c 9 9 c N ^ A A Z A C N v 8 8 9 9 9 6 6 5 5 1 2 1 , 1 > > $ , > @ $ , 1 , @ , $ , % X . . X @ + # $ # + + + = * # # # # # # # # & & & & & & & & & & & & & & & & & & & & & & & & & & & & & & & & & & & & & & & & & & & & & & & & & & & & & & & & & & ",
"KXKXKXKXKXKXDXDXBXBXDXBXhXhXBXBXBXBXKXKXhXhXBXhXDXDXDXDXBXBXDXDXBXhXhXhXhXhXhXhXBXDXDXDXDXDXDXDXDXDXKXKXKXKXKXDXKXKXDXDXDXDXDXDXSXBXhXgXsX3X3X2X2X2X2X$X~.2X~.W.E.~.$X~.R.W.R.R.E.T.I.W.e.=.O.[ [ +.[ E R F } #.#.#.} } #.#.#.#.#.#.| } #.} | [ [ { { [ { [ R F B a G H B V H H I I H B B V V V V D M Y R F R V V V M B V V B B B B M N @.4.6.r.u.k.k.k.z.b.b.M.M.C.C.C.A.Z.Z.Z._._.Z.Z.Z.).).).).).'.'.'.'.'.'.'.'.).).).).).S.Z.Z.Z.Z.Z.Z.Z.A.A.A.A.V.m.b.b.b.b.b.b.b.l.l.i.i.i.i.k.k.l.l.l.l.b.B._.).S.S.S.S.|.|.|.|.OXOXOXOXOXOXOXOXOXOXOX|.|.|.}.}. XOX.X.X.X.XXXoXoXXX.X.X X X}.}.OX.X.XOX|.|.'.).).S.S.S.S.S.S.S.).'.'.).).).'.'.|.|.|.|.OXOX.XoXoXoXoX>X>XoXoXoXoXoXoXoXXXoXoXXXXX.X.X.XOX X}.'.`.A.c.l.0.0.2.) ) S ^ Z x ~ x b N N Z N N T N N N T N x x 6 x 9 9 6 6 2 8 2 2 8 8 8 9 9 9 M 9 m M 9 M 8 9 v C 2 M N V C M 2 2 > @ % > > 2 2 6 9 v x 8 8 9 6 6 0 x v 0 v 0 9 N N c 9 9 c x 9 x Z x ^ L N x v N v x 8 9 9 9 u M B B m 8 7 1 , > > > > , > $ , , , 1 , 1 , , , = , + $ $ # + + # # # # & & # # # # # # # # & & & & & & & & & & & & & & & & & & & & & & & & & & & & & & & & & & & & & & & & & & & & & & & & & & & & & & & & & & ",
"KXKXKXKXKXKXKXKXKXKXDXDXPXPXDXDXBXDXDXDXhXhXhXhXDXDXDXhXBXhXhXhXBXBXBXBXBXBXhXhXDXDXDXKXDXDXKXKXKXKXKXKXKXKXKXKXHXHXDXDXDXDXDXBXgXgXdX8X3X3X3X2X2X2X2X$X~.2X$XR.$X-X!.U.W.R.R.W.@XR.I.I.e.$.+.[ [ +.W E R F +.#.#.#.} } #.#.#.#.#.#.| } } } | | } } [ R [ +.{ H H H { I I F F P F D B B B V V V F V u V Y Y Q B M V F J F V B M B B M m &.4.8.r.i.k.k.l.b.b.m.M.C._.C.C.Z._.Z.Z.Z.Z.Z.S.Z.S.).).).).'.'.'.'.'.'.'.'.'.'.'.'.).S.Z.Z.Z.Z.Z.Z.Z.Z.A.A.A.V.m.m.m.b.b.b.b.b.l.l.i.i.i.i.k.k.l.l.l.l.b._._.).).S.S.S.'.|.|.|..X.X.X.X.X.XOXOXOXOXOX X X|.}.}. X X.X.X.X.XXXoXoX.X.XOX X}.|.|.|.}.}.}.|.'.).).S.S.S.S.S.S.S.S.).).).).|.|.|.|.|.|.|.OXOXoXoXoXoXoXoX>XiXiXiXiX>X>XoXoXXXoXoXXXXX.X.X.X.X X}.'.`.Z.V.l.0.u.3.) ) S ^ S Z ~ N N N N N N Z c N A J ~ A N v 0 9 x 8 9 6 6 6 6 6 9 8 2 V 9 v 6 M 8 M 8 M 8 Z C 9 8 8 v V C M 8 8 > % % % > 6 8 v 8 x M M N 8 6 0 0 v Z 6 6 9 9 N A N x 9 x c 0 9 A N o.%.Q M v v 9 6 6 9 9 6 2 2 1 2 1 2 2 1 > > > > > > > > , > $ , 1 , , 4 4 $ + $ * , $ + + # # * # # + # # # # # # # # & & & & & & & & & & & & & & & & & & & & & & & & & & & & & & & & & & & & & & & & & & & & & & & & & & & & & * * & & & ",
"DXDXDXKXKXKXKXKXKXKXDXDXDXDXDXDXBXDXDXDXhXhXDXDXDXDXhXhXhXhXhXhXBXBXBXBXhXBXDXDXDXDXDXKXDXDXKXKXKXKXKXKXKXKXKXDXDXHXHXDXDXDXBXhXdX8X3X3X3X3X2X2X2X2X2X$X~.2X~.!.3X~.!.~.@XI.~.E.$XE.I.e.>.O.o.W [ o.[ R R F +.#.#.#.} } #.#.#.#.#.#.| } } } | [ } +.[ R [ | R G H G { I F H V P R F F D D F V D F V V u M V W F C F F V V V B M B M M N -.6.r.u.k.k.k.z.l.b.m.A.C._._._._.`.Z.Z.Z.Z.S.S.S.S.).).).S.'.'.'.'.'.'.'.'.'.'.'.'.).S.Z.Z.Z.Z.Z.Z.Z.Z.A.A.V.V.m.m.m.b.b.b.b.l.l.l.i.i.k.k.k.k.l.l.l.l.b.A._.).).S.S.S.S.|.|.}.OXOX.X.X.X.XOXOXOXOXOX X X|.}.}.}. X X XOX.X.XXX.X.XOX X}.}.|.|.'.'.'.'.).).S.S.S.S.S.S.S.S.S.S.S.S.).).|.|.|.|.|.|.|.OX.XoXoXoX>XoX>X>XiXiXiXiX>X>XoXoXXXoXoXXXXX.X.X.X.X X X'.'.Z.V.x.i.0.5.( ) S / S Z ^ S N N N x N Z c x N A ~ T N N > 9 v 9 9 6 0 6 6 6 6 2 m 6 M 8 v 8 x 8 M 8 M C C Z 0 6 8 M C N x N 6 > > > > > 8 x 6 x M Z C N 8 6 0 9 Z 8 9 Z x x Z Z N N N N 0 0 N A A ~ ~ L Z x 8 9 6 6 6 2 6 6 5 5 6 7 8 6 > > % $ , > > 1 > $ @ % , @ $ $ $ $ $ # + # $ $ $ $ # # & # + # # # # # # # # & & & & & & & & & & & & & & & & & & & & & & & & & & & & & & & & & & & & & & & & & & & & & & & & & & & & * * * * & & ",
"DXDXKXKXKXKXDXDXDXDXDXDXPXPXDXDXDXDXDXDXBXBXBXBXBXBXhXhXBXhXhXhXBXBXBXhXhXBXDXDXDXDXDXKXDXDXDXDXDXDXKXKXLXHXHXHXDXDXHXSXbXvXhXgX8X3X2X2X2X3X2X2X2X2X2X$X@X$X~.~.E.~.E.@X!.!.$X~.9XE.R.;.;.O.W W [ [ [ R R R +.#.#.#.} } #.#.} } } #.} } } } [ | +.} [ { [ o.R F F R R I F D F R E R F D D F V F F V B u u B [ R Y Y F V V B B B B M m C -.6.r.u.k.k.l.l.l.b.M.A.A._._.`._.`.Z.Z.Z.Z.S.S.S.).).).).).'.'.).).'.'.'.'.|.|.).).).S.S.Z.Z.S.S.S.Z.A.A.A.A.B.m.m.m.b.b.b.b.l.l.l.i.i.i.i.k.k.l.l.l.l.b.A.).).).S.S.S.'.|.|.|. XOXoXoXoXXX.XOX X X X X X X}.}.|.OX X XOXOX.X.X.XOX XOX|.|.|.|.|.|.'.S.S.S.S.S.S.S.S.S.S.S.S.S.S.).).|.|.|.|.|.|.|.OXOXOXoXoXoXoX>XoXiXiXiXiX>XoXoXoXoXoXoXoXXX.X.X.X.X.X X X'.'.).V.b.l.0.5.@.) S / S A L ^ A N N c b N N c x N T ~ C L N 9 v 9 N 6 6 9 6 6 2 0 9 8 8 V M 9 C M N C v M M v v 0 6 v M M M m 8 > 6 2 > > 2 6 6 9 Y T Z N N N N v N 9 x x Z N Z N 0 T L N c 6 N Z b ^ Q T T Z v 8 8 9 6 2 2 6 6 6 6 9 u 9 1 > > > > > > 1 $ > > , > % @ @ @ @ @ , * $ + # $ $ $ $ $ # # # # # # & & & $ & & & & # # # # & & & & & & & & & & & & & & & & & & & & & & & & & & & & & & & & & & * & & & & & & & & & & & * & * * ",
"BXBXKXKXPXPXhXhXDXDXDXDXPXPXDXDXDXDXDXDXDXhXhXgXhXhXBXBXBXBXBXBXBXBXBXBXDXDXDXDXDXDXKXDXDXDXDXKXDXDXKXKXLXKXHXHXDXDXSXbXvXfXgXsX8X3X2X2X2X3X3X2X2X2X-X~.~.E.!.~.-X-XE.W.@X-X@X$X%XW.U.e.-.+.W o.} [ [ E R E +.#.+.+.| } #.} } } } #.} } } [ [ | } [ [ [ [ o.R R R E R P F R R F R F V V V F V F F V m M V F E E R J F V B B M B B M M A -.6.r.u.k.k.l.l.b.b.M.C.A._._.`.`.).Z.Z.Z.Z.S.S.S.).).).).).'.'.).).'.'.'.'.|.|.'.).).S.S.Z.Z.S.S.S.Z.A.A.B.B.B.m.m.b.b.b.b.l.l.l.l.k.k.k.k.k.l.l.l.l.l.b.A.).).).).).S.S.'.|.|.OXOXoXoXoXoX.XOXOX X XOX X X}.}.|.OX X XOXOXOXOXOX.X X}.|.|.|.|.|.|.|.S.S.S.S.S.S.S.S.S.S.S.S.S.S.S.).|.|.|.|.|.|.OX:XOXOXoXoXoXoX>XiXiXiXiXiXiXoXoXoXoXoXoXXXXX.X.X.X.X.X.X X}.'.`.Z.V.l.0.5.@.) S ^ S L c %.A S b b N b b N b N Z Q A A Q 9 N 8 Z 8 6 9 6 0 2 0 6 9 8 C M A M 8 6 Y C M M v v 0 9 6 M M M M m 6 9 9 6 > > 2 9 8 9 x C v v v v N 9 x 9 v L C A S c L L S S N L N c Q L ^ ^ Q v 8 v v 8 6 2 > > 6 6 6 9 p 7 p 7 1 > % > > 7 > > , > % @ @ @ + + X + * , $ + # , , $ # # # $ $ $ # # & & & & & & # # # # & & & & & & & & & & & & & & & & & & & & & & & & & & & & & & & & & & & & & & & & & & & & & & * & * * ",
"BXDXDXKXBXBXhXBXDXDXDXDXPXDXDXDXDXDXDXhXhXhXBXBXBXBXBXBXBXBXBXBXBXBXBXDXDXDXDXDXDXKXDXKXDXDXKXKXDXKXKXKXDXDXHXHXDXDXBXhXgXdX8X3X8X3X2X2X2X3X2X2X3X2X$X~.E.R.!.$X2X~.!.W.~.-X@X-X-XW.g.=.O.o.W o.o.W [ W E E } +.+.+.} #.#.#.} } } } } } } | | | | } [ [ [ | { E { { R I P V B F R D M B F V F D D B u D R R F R Y J F V B M M M B m B J -.y.r.u.k.l.l.b.b.b.A.A._._.`.`.'.'.).).Z.Z.).).S.).).).).).).).).).'.'.'.'.|.|.'.).S.S.S.S.S.S.S.S.Z.A.A.B.B.B.B.m.m.b.b.b.z.k.l.l.l.l.l.l.l.l.l.l.l.l.b.A._.).).).).S.S.F.|.|.OX.XoXoXoXoX.X.X X X X.X.X X X}.|.OX X X XOXOXOX X XOX|.|.|.|.|.|.|.|.S.S.S.S.S.S.S.S.S.S.S.S.S.S.S.).|.|.|.|.|.OX:XOX.XoXoXoXoXoXoXiXiXiXiXiXiXoXoXoXoXoXoXXXXXXXXXXXXX.X.X X}.'.'.Z.A.l.0.8.@.^ S A A A S ^ ^ A b N b b b b N Z N T A v v Z C x C x 9 8 6 2 2 0 0 9 8 N > 6 v v N 6 Z M M v v 8 > 8 8 x M M M 6 6 6 8 6 2 2 6 9 > 2 x 8 8 8 8 x 9 8 0 9 L C Z A b S A S c 9 L A b ^ L A @.Z Z M M M v 8 6 > > 1 6 6 6 1 > > 6 8 9 7 u V > > % , > % @ @ @ + @ + + $ $ $ , , $ * = = * $ * * $ * & & & & & & & & # # # & & & & & & & & & & & & & & & & & & & & & & & & & & & & & & & & * * * * & & & & & & * * * * * * * * ",
"DXDXKXKXBXBXBXBXDXDXDXDXPXDXDXDXDXDXDXDXBXBXDXBXBXBXBXBXBXBXBXBXBXBXBXDXDXDXKXKXDXDXDXDXDXDXKXKXDXKXKXKXDXDXHXSXBXvXgXgX8X8X3X3X3X3X2X2X2X2X2X2X2X-X~.~.W.E.$X-X$XI.R.~.~.!.2X8XE.R.h.-.O.o.o.o.[ W [ W W E [ } o.#.} #.#.#.} } } } } } } | [ [ | +.[ E [ [ R { [ [ { F B V V F F V a B F V F V V B u J E R V F Y J F B M m m m M m B J -.y.r.u.k.z.b.b.b.M.A._._._.`.`.'.'.).).Z.S.).).S.).).).).).).).).).).).'.'.'.'.).S.S.S.S.S.S.S.S.S.S.A.B.B.B.B.m.m.m.b.b.b.z.k.l.l.l.l.l.l.l.l.l.l.l.l.b.A._.).).S.S.S.S.S.|.|.OX.XoXoXoXoX.X.X X X X.X.X X X}.|.OXOXOX X X X X X|.|.|.|.|.|.|.|.|.'.S.S.S.S.S.S.S.S.S.S.S.S.S.S.S.).|.|.|.|.|.OXOXOX.XoXoXoXoXoXiXiXiXiXiXiXiXoXoXoXoXoXoXXXXXXXXXXXXXXX.X X X}.'.'.A.x.u.8.@.^ A S S S S L ^ L N N c c b b N N N L N Z v 6 A N A v 8 x 9 0 > 2 6 6 9 x v 6 v 9 9 8 Z M v v v 8 6 2 8 8 x M M 9 0 6 x 8 6 6 9 2 > > 2 9 9 9 9 9 x 0 0 0 N x 9 N b N S S N b L L b ^ T T / A Z N M M M 8 7 2 > > 2 6 6 2 > > > 5 8 M 7 > 7 5 7 , > % @ X @ + + . X = < , = = , < < , = = * * $ * & & & & & & & & # # # & & & & & & & & & & & & & & & & & & & & & & & & & & & & & & & & * * * & & & & & & & * * * * * * * * ",
"BXBXBXPXBXBXDXDXDXDXDXDXBXBXBXBXBXDXBXBXDXBXBXBXBXBXBXBXBXBXBXBXDXDXDXDXDXDXDXDXDXDXDXDXKXKXKXKXDXDXDXDXDXDXDXBXvXfXgX8X8X8X3X3X3X3X2X2X2X2X2X-X-X@X~.R.E.$X3X-X$XU.$X~.$XL.~.~.I.L.t.-.O.+.o.o.[ [ [ W W R E [ } +.+.#.#.+.+.} } } } } o.} [ [ [ [ [ R W +.W [ [ [ E D B V V D F F M V F D V V V V B Y Q Y F J F C V B M M M B M m V J -.y.r.u.k.l.b.b.M.C._._._.`._.`.'.).).).).).).).).).).).).).).).S.S.).).'.'.'.).).S.S.S.S.S.S.S.S.S.S.A.B.B.B.B.M.M.M.b.b.b.b.l.l.l.l.l.l.l.l.l.p.p.l.l.b.B.).).S.S.S.S.S.F.|.|. X.XoXoXoXoXoX.X.X.X.X.X X X X X X}.}.}. X XOX X|.|.|.|.|.|.}.|.|.|.F.S.S.S.S.S.S.S.S.S.S.S.S.S.S.).|.|.|.|.|.|.OXOX.X.XoXoXoXoXoXoX>X>XiXiXiX>X>X>XoXoXoXoXXXXXXXXXXXXX.X.XOX}.}.'.'.Z.x.i.8.2.^ S S ) L S ^ ^ T S N x c N b c x N Q N S N N v C Z 8 Z C M 6 8 0 6 6 8 2 2 v v 9 9 8 v M 8 v C 8 6 6 8 8 6 9 N 8 0 0 8 8 9 9 9 > > > > 6 2 6 Z 8 x M N 6 x N x v A 9 Z S N N A A v ^ T T ~ Q C N N M 8 8 9 6 > > 1 2 5 2 > > 1 5 7 p 5 5 > > 5 p 1 % @ @ X X . . . @ , , * = , < 3 3 3 , = = = * * & & & & & & & # # # & & & & & & & & & & & & & & & & & & & & & & & & & & & & & & & & & & & & & & & & & * * * * & * * * * ",
"DXBXBXPXBXBXDXDXDXDXDXDXBXBXBXDXDXDXBXBXBXBXBXBXBXBXBXBXBXBXBXBXBXDXDXDXDXDXDXDXDXDXDXDXKXKXKXKXDXDXDXDXDXDXBXhXfXgXsX8X8X8X8X8X3X2X2X2X2X2X-X$X2X~.~.I.~.2X3X-X!.R.$X!.!.!.U.I.L.h.e.=.O.+.o.o.o.o.[ W W R R [ } +.+.#.#.+.+.} } } } } o.} [ [ [ [ [ { [ #.+.} [ R F D V V V V F Y B F F F V B C C Q Y J J Y Y F V B M M M B B B m B A -.y.r.u.k.l.b.b.M.M.C._._._._._.).).).).S.S.).).S.S.).).).).).).S.S.).).).).).S.S.S.S.S.S.S.S.S.S.S.S.B.B.B.B.B.b.M.M.b.b.b.b.l.l.l.l.l.l.l.l.l.l.l.l.l.b.B.A.S.S.S.S.S.S.'.|.|.OX.XoXoXoXoXoX.X.X.X.X.X X X X X X X X X X X X X|.|.OX|.|.|.|.|.|.F.S.S.S.S.S.S.S.S.S.S.S.S.S.S.S.).|.|.|.|.|.|.:XOX.XoXoXoXoXoXoXoXiX>XiXiX>X>X>XoXoXoXoXoXXXXXXXXXXXXX.X.XOXOX}.'.'.Z.x.i.8.2.) S S L L S / ^ L S N x x N b b 9 S ~ N Z L x v A v C N N M 9 8 2 0 > C 6 0 8 8 9 9 8 v v 9 8 Z x 9 6 8 8 9 9 M N 8 0 0 9 9 8 8 2 > > > > 0 6 2 6 6 8 8 9 9 x x b A 9 Z N c v S Z c ^ T L L %.Y C L L A M 8 6 2 1 6 7 6 2 > 6 8 7 1 1 > > u u > , 1 1 , @ X . . . . + , = * * $ $ = 3 3 3 3 3 < - = = = * + + & & # # # & & & & # # # # & & & & & & & & & & & & & & & & & & & & & & & & & & & & & & & & & & * * * * * * * * ",
"DXDXKXPXPXPXDXDXDXDXDXDXBXBXBXBXDXDXBXBXBXBXBXBXBXDXBXBXBXBXBXBXDXDXDXDXDXDXKXKXKXKXDXDXDXDXDXDXDXDXDXDXDXBXhXgXgXsX8X3X3X3X3X8X2X2X2X2X3X2X-X-X$X~.!.R.~.2X2X~.!.R.$XW.!.~.L.h.h.e.-.O.+.+.o.o.o.o.[ [ W R R [ } } #.#.#.+.o.o.} } } } +.} [ { { { W [ o.+.#.} E J D D V B B V J R V J J F B B F Q o.Y J Y Y J V M B V F F B m M M B C -.y.r.k.k.l.b.b.M.M.C._._._.`._.).).).).).S.S.S.S.S.).).).).).).).).).S.S.S.S.S.S.S.S.S.S.S.S.S.S.S.A.B.B.B.B.B.B.M.M.b.b.b.b.l.l.l.l.l.l.l.l.l.l.l.l.l.b.b.B.A.B.D.S.S.F.'.|.|.OXXXoXoXoXoXXX.X.X.X.X.X.X.XOXOXOXOXOX XOX X X X|.|.OXOXOXOXOX|.|.F.S.S.S.S.S.S.S.S.S.S.S.S.S.S.).).|.|.|.|.|.OXOX.XoXoXoXoXoXoX>XiXiXiXiX>X>X>XoXoXoXoXoXoXoXXXXXXXXXXXXXXX.XOX}.}.'.Z.c.j.7.2.) K A A T ^ / ^ L S N x c N b N N x A N N L N v N N L N 8 Y 2 8 0 2 6 N 9 6 8 9 9 9 8 v 8 6 8 M N 8 0 6 9 9 9 M M M 8 0 0 6 8 v 8 6 > > > 6 6 > 2 6 9 8 x 6 x M b A 9 Z N c c N N c A ~ L A ~ v 9 N T W T Z 8 6 > 2 6 6 7 7 6 6 1 1 1 5 5 5 5 6 y u 7 , 4 , X . . . + * = * * $ $ $ = , 3 3 4 w e e r e q - & # # # # # & & & & # # # # # # # # # # # # & & & & & & & & & & & & & & & & & & & & & & & & & * * * * * * * * * ",
"BXBXKXKXPXPXDXDXDXDXDXDXBXBXBXBXDXBXBXBXBXBXBXBXDXDXBXBXBXDXDXDXDXDXDXDXDXDXKXKXKXKXDXDXDXDXDXDXDXDXDXDXBXhXgXdXsX3X2X2X3X3X3X3X2X2X2X2X2X2X-X$X~.~.U.-X$X-X~.!.W.R.-XR.@XR.L.t.e.-.-.+.+.+.o.~ o.o.[ W W R R [ } } #.#.#.o.o.} } } } } +.} [ { E E [ [ [ [ #.E J D V D V B B V F E D J J F B M J o.Q Q Y Y J C V B B B B V F F V M M C -.y.r.k.k.l.b.b.m.C.C._._._.`._.).).).).S.S.S.S.S.S.).).).).).).).).).S.S.S.S.S.S.S.S.S.S.S.S.S.S.A.B.B.B.B.B.B.B.M.M.b.b.b.b.l.l.l.l.l.l.l.l.l.l.l.l.l.l.b.B.B.B.B.S.S.F.|.|.|.OXXXoX>XoXoXXX.X.X.X.X.X.X.XOXOX.XOXOXOXOXOX X|.|.|.OXOXOXOXOX|.|.F.S.S.S.S.S.S.S.S.S.S.S.S.S.S.).).|.|.|.|.|.OXOX.XoXoXoXoXoXoXiXiXiXiXiX>X>XoXoXoXoXoXoXoXoXXXXXXXXXXXXXXX.X.X}.}.'.Z.c.j.7.2.( S A S L @./ ) T A N x x N b b x 9 N c Z b S v x L Z N M M x 6 9 6 M > 9 6 9 6 6 9 8 v 8 9 6 M M 8 6 2 8 9 9 M v N M 9 2 9 8 M N v 2 > 2 6 8 v 9 8 v N x 9 9 x v A 9 N b c x v v c Z L S A Q C v x 8 v N M M 8 6 9 7 6 6 8 7 1 > > > > > > > 5 1 @ $ , , , , 4 X X $ * * * $ * = , , < < < < , - = * * - q r < - # # # & & & & # # # # # # # # # # # # & & & & & & & & & & & & & & & & & & & & & & & & & * * * * * * * * * ",
"DXDXDXDXBXBXBXBXDXBXDXDXBXBXBXBXBXBXDXBXBXBXBXBXBXBXDXDXDXDXDXDXDXKXDXDXKXKXDXDXDXDXDXDXDXDXDXDXDXDXDXBXgXdXsX8X8X3X3X2X3X2X2X2X2X2X2X2X2X-X$X$X$XR.!.2X~.~.R.$X~.R.!.U.U.P.t.*.-.-.$.O.+.+.+.o.o.o.o.[ W R R E [ o.+.#.#.} } } #.[ #.} [ +.+.[ } R O.W W E R Y F V V V V B B B V R F Y Y V B B [ o.W W Y J A C C V M M M B M M B M M C -.r.r.k.k.l.b.b.b.M.C._._._._.).).)._.).).).S.S.S.S.).).).).).).).).).).S.S.S.S.S.S.S.S.S.S.S.S.S.A.B.B.B.B.B.b.B.b.b.b.b.b.l.l.l.l.l.l.l.l.l.l.l.l.l.l.l.l.B.B.B.B.S.S.S.|.|.|. XXXoXoXoXoX.X.XOX.X.X.XOXOX.X.X.X.X.XOXOXOXOXOX X|. X XOXOX X X|.|.F.S.S.S.S.S.S.S.S.S.S.S.S.S.).).|.|.|.|.|.:X:X.XoXoXoXoXoX>XiXiXiX>XoXoX>XoXoXoXoXoXoXoXoXoXXXXX.X.XXX.X.XOX}.}.'.Z.c.k.8.( ( S T S T @.( ^ ^ S N x x v b b x 9 x x N v A N M A N N v v N 9 x x M > 9 9 9 0 9 9 x m x x 0 x v x 9 0 8 8 9 N N M M 6 2 8 8 x C J 8 > > > > 9 6 6 2 M A C v 9 v N Y v c 6 9 x x x N A C C L L N x x 8 8 8 8 8 9 9 6 6 6 9 7 1 > > > % > > > > , , $ $ $ $ $ @ @ $ $ $ & $ * = , , < < , , = = * # $ * # = * 3 < * # # # # # # # # # # # # # # # & # # # # # # # # # # & & & & & & & & & & & & & & & & & & & & & & * * * * ",
"DXDXDXKXBXBXBXBXDXBXDXDXBXBXBXBXBXBXDXDXBXBXBXBXBXBXDXDXDXDXDXDXDXDXDXDXKXKXDXDXDXDXDXDXDXDXDXDXDXDXhXdXsXsX8X3X3X3X3X2X3X2X2X2X2X-X2X2X2X-X~.~.R.!.!.~.$X~.!.$X~.I.R.I.P.t.:.-.-.*.$.$.+.O.+.o.o.+.o.o.[ W R R [ } +.+.+.} } +.} [ +.} [ o.#.#.+.=.h.[ W E R Y F V V V V B B B B V R F J V M C o.[ W W J J C C V V B M B B M B M M M V -.y.r.u.k.l.b.b.b.b.B.C._._._.).).)._.).).).Z.S.S.S.).).).).).).).).).).S.S.S.S.S.S.S.S.S.S.S.S.A.A.B.B.B.B.B.b.m.b.b.b.b.b.l.l.l.l.l.l.l.l.l.l.l.l.l.l.l.l.B.B.B.S.S.S.S.).|.|. XXXoXoXoXoX.X.XOX.X.X.XOXOX.X.X.X.X.X.X.X.X.XOXOXOX XOXOXOX X X|.|.F.S.S.S.S.S.S.S.S.S.S.S.S.S.).).|.|.|.|.:X:X.X.XoXoXoXoXoX>XiXiX>X>X>X>X>XoXoXoXoXoXoXoXoXXXXXXX.X.XXX.X.X.X}.}.'.Z.V.l.8.( ) ) S S ^ / 3.) ^ S N x x v b b x c x N N N Z A L Z A v 9 x v v v M 6 6 9 9 9 6 6 9 x N N 8 9 9 x x 9 0 8 8 9 N C M x 2 > 8 6 6 M A Y 6 > > > 6 2 > 6 9 N M 9 2 0 9 C x 6 0 6 9 c x v Z N N A A N x x 9 8 M M 8 9 8 9 9 7 7 5 5 5 1 > % % $ > % , 4 , $ $ $ @ @ . @ $ , , = , < < , , , , , = = = * $ $ # # # + # < # # # # # # # # # # # # # # & & # # # # # # # # # # & & & & & & & & & & & & & & & & & & & & & & * * * * ",
"DXDXDXDXDXBXDXDXDXDXDXDXBXBXBXBXBXBXBXBXBXBXBXBXDXDXDXDXDXDXDXDXKXDXDXDXKXKXDXDXDXDXDXDXDXDXDXDXBXhXdXsXsX8X3X3X3X3X2X2X2X2X2X2X2X-X2X2X2X$X~.W.U.$X!.!.-X~.$X-X~.L.I.g.t.:.*.:.$.$.*.-.+.O.+.[ [ o.+.o.} [ W R E } } +.o.} } } #.$.#.$.$.#.#.*.:.e.O.Y W E R Y F V V V B B B B B V R Y J B V W o.W W T J A C V B B V V B B M M M M M N -.r.r.k.k.l.b.b.b.b.M.C.A._._.).).)._.).).).S.S.S.).).).).).).).).).).).S.S.S.S.S.S.S.S.S.S.A.A.A.B.B.B.B.B.B.b.b.b.b.l.b.b.l.l.l.l.l.l.l.l.l.l.l.l.l.l.l.l.B.B.A.S.S.S.S.).|.|.OXXXoXoXoXXX.XOXOX.X.XOXOX.X.X.X.X.X.X.X.X.XoX.X.X.X.XOXOXOXOXOXOX|.|.|.'.'.).S.S.S.S.S.S.S.S.S.).|.|.|.|.|.:X:XoX.X.XoXoXoXoX>X>X>X>X>X>X>X>XoXoXoXoXoXoXoXoXoXoXoX.X.XoXXXXX.X X}.'.Z.V.l.5.( ) ) S K ^ ( 3.T ^ A N x v v b b x c x N N v N A L C L N x 9 x 9 x A M 9 6 9 9 6 9 9 x N N 9 x 9 8 x 9 0 9 x 9 N A M x 2 6 x 6 6 2 Y +.M 2 > % 2 > > % 9 N M 9 2 2 0 N 9 0 0 0 9 9 9 x M v v Z A Z Z Z N v M M 8 8 8 8 8 8 7 6 5 1 , > @ @ % > % $ $ 4 , , , $ @ @ @ $ $ * = , < < , , , , , = = = * * $ & # # # # # < # + # # # # # # # + + # # # # # # # # # # # # # # & & & & & & & & & & & & & & & & & & & & & & * * & & ",
"DXDXDXDXDXDXDXBXBXBXDXBXBXBXBXBXBXDXBXBXBXBXBXBXDXDXDXDXDXDXKXDXKXDXDXDXDXKXDXDXDXDXKXDXDXDXDXDXhXgXsXaX3X3X3X3X3X2X2X2X2X2X2X2X2X-X-X2X2X$XW.R.R.2XW.-X3X~.-X-X~.h.L.>.*.:.:.#.#.$.*.-.+.O.+.[ ~ o.+.o.o.[ [ E R W } +.} } } #.-.>.*.:.t.:.$.*.>.W V F W E Y P F V V V V V V B V F C Y R m C o.W W W Y C C N M m M V F B B M M M M M M &.r.r.k.k.l.b.b.b.b.b.B.A._._.).).)._.)._._.Z.S.S.S.).).).).).).).).).S.S.S.S.S.S.S.S.S.S.A.B.B.A.B.B.B.B.B.B.B.b.b.b.l.b.b.l.l.l.l.l.l.l.l.l.l.l.l.l.l.l.l.B.B.A.S.S.S.S.).|.|.OXXXoXoXoXXX.XOXOXOX.X.X X.X.X.X.X.XXXXXoXoXoXoXoX.X.X.XOXOXOXOXOX|.|.|.'.'.'.S.S.S.S.S.S.S.S.).).|.|.|.|.OXOX.XoX.XoXoXoXoXoXoX>XoX>X>XoXoXoXoXoXoXoXoXoXoXoXoXoXoX.X.XoXXX.X.X}.}.'.Z.V.l.5.( ) ) S S ) @.( / ^ J N N N N N x c 9 x N x c N N Z A A T Z 9 9 9 M x N 8 6 9 6 0 6 9 x M N x 9 9 x x 6 0 9 x 9 N N x x 8 x N 8 9 9 V Y ~ 6 2 % > > % > 2 A C v 9 0 6 N c 0 2 0 6 9 6 9 x x x N N v x N N M 9 6 9 9 9 8 8 8 7 7 2 > > > $ > % @ @ % % $ , , 1 $ $ $ $ * , $ $ , , , , , , , , = = = * * $ & # # # # # # * $ $ + + # # # # + + + # # # # # # # # # # # # # & & & & & & & & & & & & & & & & & & & & * * * * & & ",
"BXBXDXDXDXBXBXBXBXBXSXSXBXBXBXBXBXBXBXBXDXDXDXDXDXDXDXDXKXKXKXKXKXKXKXKXDXKXDXDXDXDXDXDXDXDXbXgXgXsX8X3X3X3X3X2X2X2X2X,X2X,X,X,X2X$X$X2X~.R.~.W.2X$X$X2X-X!.!.!.L.t.:.$.*.*.=.=.#.#.=.-.O.O.+.o.~ o.o.o.} [ [ W R E o.O.$.o.>.-.t.I.t.=.t.*.$.-.[ V V Y E R P P F V V V V V V D F F B R Q m C o.T T T Y C N N M M M M M B B M M M M M m @.r.r.k.k.k.l.b.b.b.b.B.A._._.).).).).).).S.S.S.S.S.).).).S.).).).).).S.S.S.S.S.S.S.S.S.A.B.D.B.B.B.D.D.B.B.B.b.b.b.b.b.b.b.b.b.l.l.i.l.l.l.l.l.l.l.l.l.l.b.B.B.A.S.S.S.S.).|.|.OXoXoXoXoXXX.X XOX.XOXOX.X.XXXXX.X.X.X.XoXoXoX.X.X.XoX.X.X.X.X.X.XOX|.|.|.|.'.).S.S.S.S.).).).).).|.|.|.|.OXOX.X.X.XOXoXoXoXoXoXoXoXoXoXoXoX>XoXoXoXoXoXoXoXoXoXoXoXoXoXoXXX.XOX}.}.'.Z.V.l.9.( ) ^ K ) ) ( / ( ^ A A N N N N x x x b x x c v N N Z A Q T 9 9 9 M 8 N x 9 8 2 0 9 8 x 8 x x 0 9 9 v 0 0 9 v 9 N N 8 x M N N x 9 9 x A Y V 7 > % 1 > > 1 M Y Z 6 2 > x 9 0 > 2 6 9 0 0 9 8 x v v x 9 v N N 9 0 9 8 8 8 9 7 6 7 5 , , , , , $ % % @ @ @ $ , , y , * * * * $ $ * = , , , , , , = = * $ $ $ & # # # # # + * * * + + # # # # # # # # # # # # # # # # # # # # & & & & & & & & & & & & & & & & & & & & & & * & & & ",
"BXBXDXDXBXBXBXBXBXBXBXBXBXBXBXBXBXBXBXBXBXDXDXDXDXDXKXKXDXKXDXDXKXKXKXKXDXKXDXDXDXDXDXDXBXgXgXsX8X3X3X3X3X3X2X2X2X4X,X,X,X,X,X,X2X$X$X2X~.~.I.$X-X~.~.-X~.!.R.U.t.>.*.=.$.$.$.$.#.#.$.$.O.+.+.o.~ [ o.+.o.[ W [ [ E [ O.t.>.t.t.t.L.:.>.:.*.#.o.R V V W R Y P F V V V B B B B V F F M R W V J Q T T T Y A C N M M M M M B B B B B B N N %.r.r.k.k.k.l.b.b.b.b.B.A._._.).).).).).S.S.S.S.S.S.).).S.S.S.S.S.S.S.S.S.S.S.S.S.S.S.B.B.D.B.D.B.B.B.B.B.B.B.b.b.b.b.b.b.b.b.b.b.l.i.l.l.l.l.l.l.l.l.l.l.b.B.B.A.S.S.S.S.).|.OXOXoXoXoXoX.X X XOXOXOXOX.X.X.XXX.X.X.X.XoXoXoXoXoXoXoXoXoXoXoX.XoX.X|.|.|.|.|.'.'.S.S.S.).).).).).|.|.|.|.|.OX:X.X.XOXoXoXoXoXoXoXoXoXoXoXoXoXoXoXoXoXoXoXoXoXoXoXoXoXoXXXXX.XOX}.'.'.Z.V.l.9.^ ) ^ ) ) ^ ( ( / ) Z ~ A N m N x x N c c c x x N M v C T ~ 9 x 0 x M 9 x x 8 2 0 9 x x 9 0 9 0 9 9 x 0 0 9 x x N N x x M N M x 9 6 6 C C C 8 2 > 6 > % % C C N M 0 0 8 6 2 > > 0 6 0 0 6 9 8 x v v 9 x 9 9 v Z N N x 9 6 6 6 7 7 5 1 , , > > > $ $ @ @ $ $ @ @ 1 y 1 $ + $ $ * , , , , , , = = = * $ $ $ & # # # # # # = = + # # # # # # # # # # # # # # # # # # # # # # & & & & & & & & & & & & & & & & & & & & & & * & & & ",
"BXBXBXDXBXBXBXBXBXBXBXBXBXBXBXBXBXBXDXDXDXDXDXDXDXDXDXDXDXDXKXDXDXDXDXDXDXDXDXDXDXDXBXhXgXdX8X3X3X3X2X2X3X3X2X2X2X2X,X,X4X,X,X-X$X~.~.-X~.R.R.~.$X!.!.$XR./.P.t.:.*.*.*.#.#.#.#.#.#.#.$.O.+.+.o.[ ~ o.+.+.W E o.o.E E o.t.*.-.t.t.e.-.e.:.-.[ F V B M o.Y P F V V V V B B B B B V F B Y Q J Q T Y Y Y A J A C V M M M M B B B B V V V V ~ y.r.k.k.k.l.b.b.b.b.A.A._._.).)._.)._.).).S.S.).S.).).S.S.S.S.S.S.).).).).).).S.S.S.B.B.B.D.D.B.D.D.B.B.B.B.B.b.b.b.b.b.b.b.m.b.l.l.l.b.l.l.l.l.l.l.l.x.b.B.A.S.S.S.S.S.).|.|.OXXXoXoXoX.XOXOXOX.XOXOX.X.XXXXX.XXX.XoXoXoXoXoXoXoXoXoXoXoXoXoXoXoXOX|.|.|.|.'.'.'.).'.'.'.'.).).).|.|.|.|.:XOX.X.XOXoXoXoXoXoXoXoXoXoXoXoXoXoXoXoXoXoXoXoXoXoXoXoXoXoXoXXX.XOX}.'.'.Z.V.l.3.) ) ) ) ^ ) ( @.^ T N Q A C x N x x N 9 x x v x N M v N A %.c 9 9 6 M 9 x x 9 9 2 6 m x 9 6 8 0 0 9 9 0 9 x x x x N N M N M N M 8 6 > 8 M B 8 6 > 6 > % % 6 Y L 8 6 9 6 0 > > > > 2 0 2 2 0 9 9 v N x N x v v N N v 8 9 9 7 7 6 7 7 6 5 > , , , , , @ @ @ @ @ @ @ @ + $ $ $ $ * , , , , , , = = = * $ $ $ & # # # # # # = < * * # # # # # # # + # # # # # # # # # # # # # & & & & & & & & & & & & & & & & & & * * & & & * & & ",
"BXBXBXBXBXBXBXBXBXBXBXBXBXBXBXBXBXBXDXDXDXDXDXDXDXDXDXDXDXDXDXDXDXDXDXDXDXDXDXDXDXBXhXgXsXsX3X3X2X2X2X2X3X3X2X2X2X2X,X,X4X,X-X-X$X~.~.$X!.W.~.!.~.!.!.~.P.P.>.*.$.=.*.=.#.#.#.#.#.#.#.#.O.O.o.o.o.W [ +.#.W E +.+.W R [ #.-.:.>.h.#.:.>.t.:.Y Y V D u o.Y F C V V V V B V V D V V D B V J Y ~ W Y A A C J C C Y M M M M B B B V V V V V Q y.r.k.k.l.l.b.b.b.b.B.A._._.)._.)._._.).).S.S.S.S.).).S.S.S.S.S.S.S.S.).).).).S.S.S.S.A.B.D.B.x.x.D.B.B.B.B.b.b.b.b.b.b.b.b.m.m.b.l.l.l.l.l.l.l.l.l.l.x.b.B.A.S.S.S.S.S.).|.|.OXXXoXoXXX.XOX XOXOXOX XOX.X.X.X.X.XoXoXoXoX>X>X>X>X>XoXoXoXoXoXoXoX.XOXOX|.|.|.'.).'.).'.'.'.'.).).|.|.|.|.:XOX.X.XOXoXoXoXoXoXoXoXoXoXoXoXoXoXoXoXoXoXoXoXoXoXoXoXoXoXoXXX.XOX}.'.'.Z.V.l.3.) ) T ( ) ( ( @.^ %.Z N Y A 9 N x x x x x 9 x v N N x v A Q Z 6 8 8 9 x x x 8 8 0 6 m x 9 9 N 2 0 0 9 0 x M x N x N N M N M N C 8 6 > 2 8 8 6 > > 1 > > > 2 8 8 9 9 8 2 2 > > > > 2 6 2 > 0 6 9 x x x N x v N Z M v 8 6 6 6 7 6 6 5 5 1 > , > , , , $ @ @ $ $ @ @ @ $ , , * * * = , , , , , , = = * $ $ $ # # # # # # # & = e * # # # # # # # # + # # # # # # # # # # # # & & & & & & & & & & & & & & & & & & * * & & & & & & ",
"DXDXBXBXBXBXDXDXBXBXBXBXBXBXBXDXDXDXDXDXDXDXDXDXDXDXKXDXDXDXDXDXDXDXDXDXDXDXDXBXvXgXgX8X8X8X3X3X2X2X3X3X2X2X2X2X2X2X2X2X2X,X-X$X~.-X~.E.!.!.!.!.!.!.R.U.h.t.,.*.$.$.$.$.}  .#.$.$.#.o.+.&.O.o.O.+.W [ +.O.o.[ o.+.[ P E +.*.>.:.*.=.:.>.*.F B D B F R [ P F V V B B B B B V F F V D B M C Q ~ Q Y C C C M V C Y B F V M B B B V C V M M Y 6.r.u.k.l.l.b.b.b.M.B.A.A._._.).).).).).).S.S.S.S.).).S.S.S.S.S.S.S.S.S.S.S.S.S.S.S.S.A.A.A.B.B.B.D.B.B.B.B.b.B.B.b.b.b.b.b.b.b.b.b.b.b.l.l.l.l.l.l.l.b.b.B.A.S.S.S.S.S.'.|.|..XoXoXoXXX.XOX XOXOX X X X.X.X.X.X.XoXoXoXoXoX>XoXoXoXoXoXoXoXoXoXoX.X.XOX}.|.|.'.).).).'.'.'.'.'.'.|.|.|.|.:XOX.X.X.XoXoXoXoXoXoXoXoXoXoXoXoXoXoXoXoXoXoXoXoXoXoXoXoXoXoXXX.XOX}.'.'.Z.m.k.2.) T L ( ( ( ( ( ^ / S x A Y M N M c 9 c c 9 v v N N v x A T L 9 x 8 9 x 9 9 x x 6 6 m m 9 8 N 0 9 0 9 0 9 M N C M M M M x x N C 8 6 6 > 6 6 6 2 > 9 % % @ 6 8 u 8 9 9 6 5 > > > > 2 2 2 > 2 0 8 x x x x x 8 8 8 6 6 6 6 6 9 7 6 6 5 5 1 > > > > , , $ $ $ $ $ $ + $ $ $ $ $ $ = = = = , , , , , , * $ $ $ & & # # # # # # & g < # # # # # # # # # # # # # & & & & & & & & & & & & & & & & & & & & & & & & & & & & & & * & & & ",
"BXBXBXBXBXBXDXDXBXBXBXBXBXBXBXDXDXDXDXDXDXDXDXDXDXDXKXDXDXDXDXDXDXDXDXDXDXDXBXBXfXgX8X8X8X3X3X2X2X2X2X3X2X2X2X2X2X2X2X2X2X,X-X$X$X~.W.~.!.!.!.!.R.R.P.L.>.:.=.#.$.$.$.$.$.$.#. .} #.$.$.;.&.o.O.O.W o.+.$.#.+.[ } [ Y R [ #.:.=.:.>.:.+.[ V B u M V Y E Y F V V B B B B B V F F F V B m N Q Q Q Y C C V V V C C B M B Y B B B V C V M M A 4.r.u.k.l.l.b.b.b.M.B.A.A._._._._.).).).).S.S.S.S.).).S.S.S.S.S.S.S.S.S.S.S.S.S.S.S.S.S.A.A.D.B.B.D.B.B.B.b.b.b.b.b.b.b.b.b.b.b.b.b.b.b.l.l.l.l.l.l.l.b.b.B.A.S.S.S.S.S.S.).|..XoXoXoXXX.X X X XOX X X X X.X.XOX.XoXoXoXoXoXoXoXoXoXoXoXoXoXoXoXXX.X.XOXOX}.|.'.'.).).).).).).'.'.|.|.|.|.:XOXOX.X.XoXoXoXoXoXoXoXoXoXoXoXoXoXoXoXoXoXoXoXoXoXoXoXoXoXoXXX.XOX}.'.'.Z.x.l.@.L ) S ( ( ( ) ^ ^ ^ T N N A Q v N v c x x x M N N N M v A T L M 9 9 x 9 x 8 6 m 9 6 x m 9 6 x 0 0 0 v 9 9 x C C N N M N 9 8 Y M 8 6 8 > 2 6 6 2 > 5 5 @ > 2 9 8 8 9 9 6 6 > > > > > 2 2 2 2 2 x v N M 8 9 6 6 2 > 2 6 6 9 9 9 6 6 5 2 1 > > > > > , , $ @ $ @ + + @ @ @ @ @ $ , , , , , , = = , , * $ $ $ # # # # # # # # # 3 t # # # # # # # # # # # # # & & & & & & & & & & & & & & & & & & & & & & & & & & * * & & * & & & ",
"BXBXBXBXBXBXBXBXBXDXDXBXDXDXDXDXDXDXDXDXDXDXDXDXDXDXDXDXDXDXDXDXDXDXJXDXDXBXhXfXgXsX8X3X3X3X2X2X2X2X2X2X3X3X2X2X2X2X2X2X2X4X-X$X$X~.~.W.!.!.!.!.U.L.h.>.*.=.#.#.....#.$.$.$.=.=.$.>.t.t.e.;.o.O.O.W o.+.$.O.O.W [ [ Y F R } $.#.>.>.$.R F D u 7 u B F R P F V V B V V B B V D F D V B m M T W ~ Y C C C C V V V Y B m M B B B V C V M M N @.r.i.u.k.l.l.b.b.B.B.A.A._._._._.).).).).S.S.).).).).S.S.S.S.S.S.S.S.S.S.S.S.S.S.S.S.S.S.A.D.B.B.B.B.B.B.b.b.b.b.b.b.b.b.b.b.b.b.b.b.b.b.b.b.b.b.l.b.b.B.B.A.S.S.S.S.S.S.|.|.OXoXoXoXoX.X X X XOX X X X X.X.X.X.XXXoXoXoXoXoXXX.X.X.X.X.X.X.X.XOX X XOX}.|.|.'.).).).).).).).).).'.|.|.:X:X:XOXOX.XOX.XoXoXoXoXoXoXoXoXoXoXoXoXoXoXoXoXoXoXoXoXoXoXoXoXXX.XOX}.'.'.Z.m.k.( ) T S ( ( ( ) ^ ) ) T x N Z A A M x 9 x x x N Z Z N Z N Z L A A 9 9 6 M 9 6 9 6 9 9 9 8 9 6 8 9 6 9 x 0 x M N N A A Z N 2 9 T x v 6 8 2 2 6 6 2 > > 6 > > > 6 9 9 8 9 6 6 6 6 6 6 6 2 2 2 > > x x x v M M x 8 6 6 2 6 6 9 9 9 6 5 2 1 > > , > > , 1 , $ $ @ @ X X @ @ @ @ X @ $ , 4 4 , $ $ = = = = * $ $ # # # * * & # # # # t ; # # # # # # # # # # # # & & & & & & & & & & & & & & & & & & & & & & & & & & & & & & * * * * ",
"BXBXBXBXBXBXBXBXBXBXDXDXDXDXDXDXDXDXDXDXDXDXDXDXDXDXDXDXDXDXDXDXDXDXDXDXBXhXgXgXsX8X3X2X2X2X2X2X2X2X2X2X3X3X2X2X2X,X4X4X,X,X$X$X~.~.$XR.!.!.!.!.P.h.>.*.#.#.#.#.#.#.#.#.| #.:.>.t.U.~.!.e.>.o.O.O.~ o.+.$.O.O.[ E E P F R [ #.+.*.#.[ E D D B B u a D F P F V V B V V B B V V D V V B m u Y W ~ Y C C F C C V M M V C B B B B V V V B M N %.r.i.i.k.l.l.b.b.B.B.A.A._._._._.).).).).S.S.).).).).S.S.S.S.S.S.S.S.S.S.S.S.S.S.S.S.A.A.A.B.B.B.B.B.B.b.b.b.b.b.b.b.b.b.b.b.b.b.b.b.b.b.b.b.l.b.l.b.b.b.B.A.S.S.S.S.S.S.|.|.OXXXoXoXoX.X X X XOX|. X X X.X.X.X.X.X.X.X.X.X.X.XOXOX|.|.|.|.|.|.}.|.|.'.'.'.).).).).).).).).).).).).|.|.|.:X:X.XOXOXOX.X.XoXoXoXoXoXoXoXoXoXoXoXoXoXoXoXoXoXoXoXoXoXoXoXXX.XOX}.}.'.Z.C.0.( ( S S ( ( ( ) ^ ^ ) S x x x M A A N x x x x N A N L Z C v Q L T 9 9 8 9 8 9 0 9 9 9 9 8 9 6 x 9 9 N 0 0 N M N A A C A C > 9 A N x 9 9 6 6 6 6 2 2 > 5 8 > > 2 9 6 8 9 6 5 2 > > 6 6 6 6 2 > > 8 v Z C N M 8 6 6 2 2 6 6 9 9 9 6 5 > > > > > > , 1 5 1 , $ @ . @ @ X X X . . X # $ , , 4 4 4 4 , 3 3 < * * * * * * * * & # # o = ; # # # # # # # # # # # # & & & & & & & & & & & & & & & & & & & & & & & & & & & & & & * * * * ",
"BXBXBXBXBXBXBXBXBXBXBXBXDXDXDXDXDXDXDXDXDXDXDXDXDXDXDXDXDXDXDXDXJXJXDXBXhXgXgXsX8X3X2X2X2X2X2X2X2X2X2X2X4X4X4X,X,X,X,X,X-X-X$X$X~.~.~.!.L.R.R.L.L.:.:.#.=.$.=.=.*.,.:.>.>.h.U.R.U.U.@XE.e.e.O.~ O.o.+.O.=.O.+.W E E R F Y W +.+.+.[ R R D V M u p 7 B { Y F D V B V V B B B V V V V M u m Y ~ ~ T C J J M M B Y u M B V B B B B V V B M N ~ r.u.i.k.l.l.b.b.B.A.A._._._._._.).).).).).).).S.S.S.S.S.S.S.S.S.S.S.S.S.S.S.S.S.S.B.A.A.B.B.B.B.B.B.B.B.m.m.m.b.b.b.b.b.b.b.b.b.b.b.b.b.b.b.b.b.b.b.b.b.B.B.S.S.S.S.S.S.).|.|..XoXoXoXOXOXOXOXOX|.|.OXOX.X.X.X.X.X.X.XOXOXOX X}.|.|.|.|.'.S.S.S.S.S.S.S.S.).).).S.S.S.).).).).).).|.|.|.|.:X:X.XOXOX.X.XoXoXoXoXoXoXoXoXoXoXoXoXoXoXoXoXoXoXoXoXXXXXXXXX X}.}.'.'.Z.C.q.( @.n S @.( ( ) ) / ^ A b c x M A L C x v x x Z A M Q N A x T L Y 9 9 x 6 8 9 2 9 9 9 9 x 0 6 M 9 9 C 2 6 C x N A A N Y C 2 9 N N x 9 6 6 > > > 5 2 2 > > > > 2 2 2 9 9 2 2 2 1 1 1 2 6 6 6 2 > 6 x C C N N v 9 6 6 2 6 6 7 9 9 9 5 2 > > % % % > , 5 1 , $ $ @ @ @ X X X . . X # $ * = , 3 4 4 4 4 e w 3 < , , , * * * * & & & & * # # # # # # # # # # # # & & & & & & & & & & & & & & & & & & & & & & & & & & & * & & * * * * ",
"BXBXBXBXBXBXBXBXBXBXBXBXDXDXDXDXDXDXDXDXDXDXDXDXDXDXDXDXJXJXDXDXJXDXbXhXdXsX8X3X3X2X2X2X2X2X2X2X2X2X,X-X-X$X$X$X-X-X-X-X-X~.$X-X2X-X$X!.L.P.g.>.:.#.=.*.*.,.>.t.L.U.R.!.!.U.-X~.U.W.L.I.e.t.&.o.+.+.O.-.=.O.o.W E E R F F E o.+.o.[ R F D B u u u u D { R F F V B V V B B B B B V V M u M Y Q Q Y T M J B M M V V B M M M B B B V V B B V T r.u.u.k.l.l.l.b.b.B.B._._._._._.).).).).).).S.S.S.S.S.S.S.S.S.S.S.S.S.S.S.S.S.S.S.B.B.B.B.B.B.B.B.B.B.B.m.m.b.b.b.b.b.b.b.b.b.b.b.b.b.b.b.b.b.b.b.b.b.b.B.B.S.S.S.S.S.S.).|.|.OXoXoX.XOXOXOXOXOX}.}.OXOX.X.X.X.XOX X X|.}.|.|.|.|.|.'.S.S.S.S.S.S.D.D.A.S.S.S.S.S.S.S.S.).).).).).|.|.|.|.|.:X:XOXOXOXOX.X.X.X.X.XoXoXoXoXoXoXoXoXoXoXoXoXoXoXXXXXXXXXXX X}.}.'.'.Z.A.7.) ( S S ( @.( ( ) ^ ^ S N N x N N A C x L N N L M Z A M A N N L M 8 9 8 9 x 9 2 6 9 8 9 8 0 6 N 6 x M 2 8 x x N A N N A C 9 6 x M M 8 6 6 > > > 5 5 2 > > > > > 2 2 9 6 2 2 1 1 1 > > > > 2 2 > 2 9 x M M N N M 8 9 6 6 9 6 6 6 8 9 5 > > > % > > , 1 1 , $ , $ @ . X X X X X X @ $ = = = = $ = , 3 3 3 , , < < < = = * * * & & & & # # # # # # # # # # # # & & & & & & & & & & & & & & & & & & & & & & & & & & & & & & * * * * ",
"BXBXBXBXBXBXDXDXDXDXDXDXDXDXDXDXDXDXDXDXDXDXDXDXDXDXDXDXJXDXDXDXSXBXfXgXsX3X3X3X2X2X2X2X2X2X2X2X2X2X2X2X2X2X2X4X,X,X-X-X-X~.$X-X2X$X~.R.g.h.t.>.:.>.>.g.L.P.U.R.^.-X3X3X~.!.!.~.U.W.t.L.t.h.&.+.-.O.o.o.+.+.o.[ W E R F F R } o.[ E F F D B a u u V R { E P F V B V V B B B B B V B M u V L Q Y ~ C J m B M 8 M V B M M M B B B V V B B M J y.r.u.k.l.l.l.b.B.B.B.A._._._._.).).).).).).S.S.S.S.S.S.S.S.S.S.S.S.S.S.S.S.S.S.S.B.B.B.B.D.B.B.B.B.B.B.m.m.b.b.b.l.b.b.b.b.l.l.l.l.l.l.b.b.l.b.b.b.b.b.B.A.S.S.S.S.S.S.).|.:X.X.XXX.X.XOXOXOXOX|.}. XOXOXOXOXOX|.|.|.|.|.|.|.|.'.'.S.S.S.D.D.D.D.D.D.D.D.D.S.S.S.S.S.S.S.S.).).).).).'.|.|.|.:XOXOXOXOX.XOXOXOXOXOX.X.X.X.XoXoXoXoXoXoXoXoXoXXXXXXXXX.X X}.'.'.'.Z.V.8.) ( S S @.2.( ( ) ( b N ~ N 8 M N x x N 0 v A T Z A L N v M N L x 9 9 6 x 9 9 9 9 9 9 9 6 9 9 x 6 x 8 6 x 8 x M N N N C N x 9 9 8 x v 0 6 > > > 5 6 2 > 2 > > > > > 6 5 > > 1 1 1 > > > > 1 > > 9 8 x M N N V V M v M M M 8 9 8 9 > > > > > > > > > , , $ $ $ , $ X X @ X X X X @ $ = = = $ $ $ = , , = * $ & & & & * * & * & & & & # # # # # # # # # # & & & & & & & & & & & & & & & & & & & & & & & & & & & & * * * * * * = = ",
"BXBXBXBXBXBXDXDXDXDXDXDXDXDXDXDXDXDXDXDXDXDXDXDXDXDXDXJXDXDXDXbXvXgXsXsX3X3X3X3X3X2X2X2X2X2X2X2X2X2X2X2X4X,X,X-X-X$X-X-X-X$X-X-X$X~.R.I.h.t.t.h.P.U.P.!.$X$X$X$XsXsX8X3X!.U.!.W.L.U.L.U.h.g.-.O.+.~ W ~ +.+.+.} [ E R F F R [ [ { R D D H B u u u D [ { R F F D V V V B B B B B B B m u V Y T Y ~ T V M B M 8 8 M M M B B B B B B B V V M A 6.r.u.k.l.l.l.b.b.B.B._._._._._.).).).).).).).S.S.S.S.S.S.S.S.S.S.S.S.S.S.S.S.S.S.B.B.B.B.D.B.B.B.B.B.B.m.c.b.b.b.l.l.l.l.l.l.l.l.l.l.b.b.b.l.b.b.b.b.B.B.A.S.S.S.S.S.S.).|.:X.XoX.X.XOXOXOXOXOX|.}. XOXOXOX X|.|.|.|.|.'.'.'.'.S.S.S.S.S.D.D.D.D.D.D.D.D.D.B.D.B.B.S.S.S.S.S.S.).).).).'.|.|.|.:XOXOXOXOXOXOXOXOXOXOXOXOX.X.XoXoXoXoXoXoXoXoXXXXXXXXX.X X}.'.'.'.Z.c.5.) ( S S ( ( ( ( ) ( c N N ~ x M N x v A x v Z Z L Y Y A N Z C Z L v 8 6 x 0 6 N 9 9 9 9 2 x 0 8 0 N 2 6 M 8 x x M N N N N x 9 0 9 8 M 9 2 > > > 2 2 > > 2 > > > > > 2 5 > > > 1 1 1 > > > > > > 9 9 8 x M M M N Z M m 8 9 6 6 9 9 6 5 > > > 5 1 1 > > , $ $ $ $ $ $ # # $ $ @ + @ $ = = = = $ $ , , , , * * * * * * * * & * * * & & # # # # # # # # # # & & & & & & & & & & & & & & & & & & & & & & & & & & & & * * * * * * = = ",
"BXBXBXBXDXDXDXDXDXDXDXDXDXDXDXDXDXDXDXDXDXDXDXDXDXDXJXJXDXDXBXfXdXsX3X3X3X3X3X3X3X2X2X2X2X2X2X2X2X2X,X,X-X-X-X-X-X-X-X$X$X$X$X$X!.R.I.P.L.L.W.8XfX3XR.gXdX-X!.!.-X3X3X-XW.h.R.I.L.I.U.I.e.>.;.+.W W W [ o.o.+.} [ E E P F R [ W R F V V V B M u u F } [ E R F D V V V B B B B B B B B u B Y T Q Q Q A V B M u 8 8 u M M M B B B V V V V M C y.r.u.i.l.l.l.l.b.B.A._._._._._._._._._.).).S.S.S.S.S.S.S.S.S.S.S.S.S.S.S.S.S.S.B.B.B.B.B.B.B.B.B.B.B.b.b.l.l.l.l.l.l.l.i.i.i.i.i.l.l.l.b.l.l.b.b.M.B.B.B.A.A.S.S.S.S.S.S.|.OX.XoXoX.X.XOXOXOX:X|.|.OX:XOXOX|.|.|.'.|.'.'.'.'.'.).S.S.S.S.D.D.D.x.p.x.x.x.x.x.B.D.B.B.B.S.S.S.S.S.S.).).).|.|.|.|.:XOXOXOXOXOXOXOXOXOXOXOXOX.XoXoXoXoXoXoXoXoXoXoXXXXX.X X X'.'.'.Z.m.9.) ) ) S ( ( ) ( ( ) c S N 9 ~ M v 0 v v v M N M A Y L A N A A T T N x 9 8 > 0 x 6 9 8 9 > 9 6 9 6 x 0 6 N x x x v v N N M 9 0 > 6 8 M u 1 > > > 1 > 1 2 2 > > 5 > > > 5 > > 2 2 2 2 > > % @ % % > 9 V M M J Z M 8 9 9 6 2 > > 2 9 9 0 > > 5 1 1 > , , , , , , $ , $ $ $ , $ $ $ $ * * , = = = = = = , = = $ * = * * * & # # # & & & # # # # & & & & & & & & & & & & & & & & & & & & & & & & & & & & & & * * * * * * * * = = = = ",
"BXBXBXDXDXDXDXDXDXDXDXDXDXDXDXDXDXDXDXDXDXDXDXDXJXSXJXJXSXbXfXsXsX3X3X4X3X3X3X3X2X2X2X2X2X2X2X2X2X2X2X2X4X4X4X-X-X-X$X$X~.~.~.~.~.~.~.~.~.3XgXgXsX8X~.fXsX-X~.E.$X-X-X$X!.L.R.I.h.U.U.g.e.-.-.+.W W [ } o.o.+.[ [ E W Y F R [ R Y F V B B B M u M E [ o.+.[ P D V V V V V B B a a B B u M J T Q Q T Q J V M B u 8 8 M B M M m V C D V M B N 4.r.u.p.l.l.l.l.b.B.A.A._._._._._._._._.).).S.S.S.S.S.S.S.S.S.S.S.S.S.S.S.).S.Z.A.B.B.B.B.B.B.B.B.B.b.x.l.l.k.i.i.i.i.i.i.i.i.i.i.i.l.l.b.l.l.l.b.m.B.B.B.B.A.S.S.S.S.S.S.|.|.OXoXoX.X.XOXOXOX:X|.|.|.OXOXOX|.|.|.'.|.|.'.|.|.'.).S.S.S.S.S.D.D.D.x.x.p.p.p.p.p.x.B.D.B.B.B.B.S.S.S.S.).).).'.|.|.|.:XOXOX:XOXOXOXOXOXOXOXOX.XoXoXoXoXoXoXoXoXoXoXXXXX.X X X'.'.'.Z.m.2.( ) ^ S ) 2.) ) @.) S N N c v T N x v v v v M v N A A N N L A 9 v x x x 6 > 2 9 2 9 m m > 9 8 9 9 0 0 9 M x c x v x x A Z 6 2 > 0 9 u a 2 > % % > > 2 6 5 > > 6 > > > 6 > % > > > > @ @ % > @ % > 6 M V M 9 > 6 8 M 9 6 2 > > 2 6 9 > 6 6 > > > > > $ $ , , 1 , , , , $ $ $ $ $ $ * , , = = = = $ = , = = $ * * * * * * * * * * & & # # # # & & & & & & & & & & & & & & & & & & & & & & & & & & & & & & * * * * * * * * = = = = ",
"BXBXDXDXDXDXDXDXDXDXDXDXDXDXDXDXDXDXDXDXDXDXDXDXDXDXSXSXbXfXsXsX3X3X4X2X2X2X2X2X2X2X2X2X2X2X2X2X2X2X2X2X4X4X4X-X-X-X-X$X$X-X4X3X3X8XdXgX3XfXbXgX3XsX3X8X8X3X~.W.~.!.!.~.W.I.R.L.h.I.I.t.e.-.;.o.W W [ } +.o.o.W W R W R Y R [ R F V V B M M M u B [ [ +.#.} R F V V V V V B B u p B B m B J T Q Q T Q Q J M M a u M M V B M m m m B D J C C 4.k.u.k.l.l.l.l.b.B.B.B._.A._._._._._._.).).S.S.S.S.S.S.S.S.S.S.S.S.S.S.S.S.S.A.A.B.B.B.B.B.B.B.B.b.x.l.l.i.i.i.i.i.i.i.i.i.i.i.i.i.i.l.l.l.l.b.b.M.B.B.B.B.S.S.S.S.S.S.S.).|.OXoXoXoX.XOXOX:XOX|.|.|.|.OXOX|.|.|.'.'.'.'.|.|.|.|.).S.S.S.S.D.D.D.D.D.x.p.p.w.p.p.p.x.B.D.B.B.B.S.S.S.S.).).).).|.|.:X:XOXOXOXOXOXOXOXOXOXOXOX.XoXoXoXoXoXoXoXoXoXXX.X.X X}.'.'.`.Z.b.f.( ( ) S ) 3.) ) @.) ^ b S 9 9 A Y v v v v v v x v Z Z M v N N A 9 v N x 0 > 2 9 2 9 8 m 0 9 x 9 9 > > 8 x x 9 9 x x N M x 8 6 > 2 2 6 7 u 6 > @ @ > 6 7 5 > > 9 5 > > 5 > @ @ @ @ @ @ @ % > @ > > 2 9 M C N 9 9 9 9 6 2 > > > 2 6 9 5 9 9 5 > > > $ % % $ , , , $ $ $ $ $ $ + X + $ * = , , = = $ = = = = * * * * * * * * * * * & & & & # & & & & & & & & & & & & & & & & & * * & & & & & & & & & & & & * * * * = = = = = = = = ",
"BXBXDXDXDXDXDXDXDXDXDXDXDXDXDXDXDXDXDXDXDXDXDXDXDXBXbXbXfXdXsX8X3X4X2X4X2X-X,X,X2X2X2X2X2X2X2X2X2X2X2X2X2X4X-X-X-X$X-X2X3XsXgXhXhXhXvXvX3XsXgXgXsXgX8X~.3X8X@XR.~.W.W.~.R.L.I.h.g.g.h.e.;.&.;.o.W W W } o.o.+.W E R W R P R E F D V V M a M M M V E $.o.[ R Y F F F V V V M B p y a B a B J J T T T Q Q Y V B M B B M m M B V V B B B V B N @.k.u.k.l.l.l.l.b.B.B.B.B.A._._._._._._.S.S.S.S.S.S.S.S.S.S.S.S.S.S.S.S.S.S.Z.A.B.B.B.B.B.B.B.b.b.x.l.p.i.i.i.i.u.u.i.i.i.i.i.i.i.i.i.l.l.l.l.b.b.M.B.B.B.B.S.S.S.S.S.S.S.S.|.OXoXoXoX.XOXOX:XOX|.|.|.|.|.OX|.|.|.'.).).'.|.|.|.|.'.S.S.S.S.D.D.D.D.D.D.p.w.w.w.w.w.p.p.x.B.B.B.B.B.S.S.S.).).).'.|.|.OXOX:XOXOXOXOXOXOXOXOXOX.XoXoXoXoXoXoXoXoXXXXX.X.X X}.'.'.`._.b.( ( ( ) ) ) ( ) ( ( ^ @.b S x 9 L N N v v v v x x x N N M x v x 9 9 Z Z x > 2 6 9 2 0 6 9 x 8 8 x 2 2 6 x 9 8 9 9 9 x v N M 8 6 > > > > > a u 5 @ . % 2 7 5 > > 9 9 > > > % . . . . . % % % % @ % > > 6 > > 2 8 8 8 9 0 2 > > > 2 6 9 9 5 5 7 5 , , > % @ % $ $ $ $ @ @ @ @ @ $ X + $ * , , , * * $ $ = = = * * * * * * * * * * * & & & & & & & & & & & & & & & & & & & & & & * * & & & & & & & & & & & & * & * * = = = = = = = = ",
"BXBXBXBXDXDXDXDXDXDXDXDXDXDXDXDXDXDXDXDXDXDXJXDXVXBXBXfXdX8X8X2X2X2X2X2X2X2X2X2X2X2X2X4X2X4X2X4X3X3X4X-X-X-X-X-X3X3X8XsXfXBXVXVXbXvXvXvX8X8X8X8XgXsX-XW.~.$X$XI.E.E.W.I.g.g.g.g.t.e.h.e.-.>.-.o.W W W [ o.o.+.W R R R Y P R E F V B B a M a B B F E $.W F F F R Y Y C V V u a y y p a a B C J T Q Q T T J F B M M B M m B B m B B B B B m m %.r.u.k.l.l.b.b.B.B.B.B.B.B.A._._._._._.Z.Z.S.S.S.S.S.S.S.S.S.S.S.S.S.S.S.S.A.B.B.B.B.B.B.B.b.b.l.l.p.i.i.i.0.i.i.i.q.i.q.q.i.q.q.0.i.i.l.l.l.l.b.M.B.B.B.B.A.S.S.S.S.S.S.S.|.OX.XoXoXoXOX:XOX|.|.|.|.|.OXOXOX|.|.'.'.'.|.|.|.|.|.'.S.S.S.S.A.D.D.D.D.B.x.p.w.q.w.w.q.p.p.x.B.B.B.B.B.S.S.S.).).'.'.|.|.OX:X:X:X:X:XOXOXOXOXOX.X.XXXoXoXoXoXXXXX.X.X.X:X X{.'.'.`.Z.x.( ( ) ) ) ) ( ( ) ( @.( L S c N N 9 v x x v x x x x v v v x x 9 6 9 N N x > 2 9 8 2 2 0 > N x 9 x > 0 6 8 6 8 8 9 8 8 x M M 9 6 0 > > > % 5 8 7 > @ % 1 5 1 > > 7 9 > > 1 % @ . @ @ @ % % > > 6 2 > > > 6 > > 0 6 2 % @ % > > 6 6 5 5 5 5 5 5 5 1 , , > > % % $ $ $ $ $ $ $ $ $ @ $ $ * = , , * $ $ $ = = = = = = = * * * * * * * * * * * * * & & & & & & & & & & * * * * & & * * * * & & & & & & & & & * * * = = = = = = = = = = ",
"BXBXBXBXDXDXDXDXDXDXDXDXDXDXDXDXDXDXDXDXDXDXJXSXBXBXgXsX8X2X2X-X2X2X2X2X2X2X2X2X2X2X2X4X2X-X-X2X-X-X-X$X$X-X3XsXfXvXbXVXSXBXBXgXgXgXgXfX3X3X3X3X3X2X2X@X~.~.~.I.I.W.W.I.h.g.g.h.h.h.:.;.-.;.&.W R [ o.[ o.+.o.E Y Y P P Y Y R P V B B M M M B B F W [ F B B D P R R F V V u u p u u a a u B J W ~ Q T Y J C B B m 8 m C V M u m B B B C m m ~ r.u.k.l.l.b.b.b.B.B.B.B.B.B.A._._._._.A.Z.S.S.S.S.S.S.S.S.S.S.S.A.S.A.S.S.B.B.B.B.D.B.B.B.b.l.l.p.i.i.q.q.q.0.i.i.i.i.u.i.u.u.i.i.i.i.l.l.l.l.b.M.B.B.B.B.A.S.S.S.S.S.S.).|.OXoXoXoXoXOXOX|.|.|.|.|.|.OXOX|.|.|.'.'.|.|.OXOX|.|.'.S.S.S.S.S.S.D.D.D.D.x.D.p.w.q.q.w.q.q.p.p.x.B.B.B.B.S.S.S.).).'.'.'.|.|.:X:X:X:XOXOXOXOXOXOX.X.XXXoXXXoXoXXX.X.X.X.X}.}.'.'.`._.l.( ( ) ) ) ) ) ( ( ( @.( L Z c c A v 9 x x x v x x x v x 9 M x 9 6 9 x x N > > 6 x > 0 6 > N m x 2 0 0 0 9 6 8 8 8 8 x x x 8 9 6 M > > > @ @ 1 7 5 > > > > % @ % 5 > > > > > % @ % % % > > 1 5 6 2 > > 2 > > 6 > 2 0 2 > > > > 9 9 9 9 7 6 6 6 5 1 > , > > % % $ $ $ $ * * $ $ $ $ $ + & = , , = * $ $ = = = = = = = * * * * * * * * * * * * * & & & & & & & & & & & & & & & & * * * * & & & & & & & & & & * * = = = = = = = = = = ",
"DXDXDXDXDXDXDXDXDXDXDXDXDXDXDXDXDXDXDXDXDXDXDXBXgXdXsX3X2X-X2X2X2X2X2X2X2X2X2X2X2X2X2X4X4X-X-X-X-X4X4X3XsXgXvXbXSXVXbXvXvXfXgXfXdXdXdXsX2X2X2X2XdX8X-X!.U.I.I.h.g.I.U.L.g.t.h.g.h.t.-.-.-.-.O.W Y E +.+.+.#.[ P F P P Y R R Y F V B B B B B B B F P B a a a V V V F P Y C B y p u u a a u B J W W Q Y Y J C V V F B m M B m m m m B B V B C Q y.k.k.l.l.b.b.b.b.b.b.b.B.B.B.A.A._._.Z.A.A.Z.Z.Z.S.S.S.S.S.S.S.A.A.A.A.A.B.B.B.B.B.B.B.b.b.l.p.i.i.q.q.7.q.0.q.i.i.i.i.i.i.i.i.u.i.i.l.l.l.l.b.M.B.A.B.B.A.S.S.S.S.S.).|.:XoXoXoXoXoXOXOX|.|.|.|.|.|.|.OX|.|.|.|.|.|.OXOXOXOXOX|.S.S.S.S.S.S.A.D.A.D.D.D.x.p.w.q.q.q.q.q.p.p.p.x.B.B.B.S.S.S.S.).).).'.|.|.:X:X:XOXOXOXOXOXOX.X.X.X.XXXoXoXXX.X.X.X.X}.'.'.'.`._.k.( ( ( K ^ ) S ) ( ( ( ( L Z c x A v 9 x v v v x x x v x 9 N x x 9 6 x x 9 8 > 6 M > 0 6 > m N x > 9 6 6 0 8 9 8 8 8 x x x 8 8 8 0 0 6 > > % % 1 5 5 2 > > @ @ % @ 9 6 % > 1 > > > > > 1 2 6 6 6 2 > > 2 > > 0 8 2 > > > > 6 8 M M M M 9 9 7 9 5 5 1 > > > % % $ $ $ $ $ $ $ + @ $ + + & , , , , , = = = = = = = = = = * * * * * * * * & & & & & & & & & & & & & * * * & & & & & & * * & & * * * * * * * * = = = = = = = = = = = = ",
"DXDXDXDXDXDXDXDXDXDXDXDXDXDXKXDXHXDXDXDXSXSXDXBXdX8X3X2X-X-X2X-X,X2X2X2X2X2X2X2X2X2X2X,X-X-X-X2X3XsXdXgXgXvXBXBXbXBXfXfXfXfXgXfX8X8X8X8X-X2X-X-X2X2X0X$X~.W.W.I.g.g.L.I.t.h.h.t.>.-.e.;.=.=.O.W R R } $.$.#.[ F C F P R E Y F P F V V V B B B B B V a a a a B V F F V V V V u u p u a B B V F Y Q Q T Y J F B M B V C B u u B m m m B V V C J r.u.k.l.l.b.b.b.b.b.b.b.b.B.B.B.A.A.A.A.A.Z.Z.S.S.S.S.S.S.S.S.S.A.A.A.B.B.B.B.B.B.B.B.D.b.l.p.p.i.i.q.7.7.7.0.i.i.i.i.i.i.i.i.i.i.i.i.l.l.l.l.b.M.A.A.B.B.B.S.S.S.S.S.).|.:XoXoXoXoX.XOXOX|.|.|.|.|.|.|.|.|.|.|.|.|.OXOX.X.XOXOX|.'.S.S.S.A.S.A.A.A.A.A.B.D.x.p.w.q.q.q.q.p.p.p.p.x.B.B.B.S.S.S.S.).).).).|.|.:X:XOXOXOXOXOXOXOX.X.X.XXXXXXXXX.XOX:X:X}.'.'.`.`._.i.( ( ( S ( ( S ) ( @.( ( L S c b N 9 v x x x x x x x x x x 9 x x 9 6 8 x 9 2 2 6 m % 0 6 2 x N x 6 2 6 6 2 8 9 9 9 8 8 x x 9 6 6 x 6 6 > > 2 > > > 7 6 1 > % @ @ > > 6 > % > > 2 2 6 6 5 7 9 8 6 2 > > > 6 > > 6 > > 0 6 6 9 9 Z Z V V 8 8 u 8 7 5 5 > > > , $ $ $ $ $ $ $ + @ X $ X $ * , , , < , , , = = = = = = = = * * * * * * * * & & & & & & & & & & & & & * * * & & & & * & * * & & & * * * * * * * = = = = = = = = = = = = ",
"DXDXDXDXDXDXDXDXDXDXDXDXDXDXDXDXDXDXDXBXBXBXvXgXsX3X4X2X-X-X2X2X-X-X2X2X2X2X2X2X4X4X4X2X4X4X3XsXdXgXBXbXVXVXVXSXbXbXvXfXgXgXgXdX8X8X8X8X8X2X$X$X%X$X@X~.W.R.I.L.h.g.h.h.I.L.h.>.e.>.;.-.#.o.W E E W o.O.O.o.E F V F P E E P V P F F V V V B B B a B a a a B V D P P C V V V u u p p a B V B B C Y Q Q J F C V B M V V V B B m m m u M B V N S y.u.k.k.b.l.l.l.l.b.b.b.b.B.B.B.B.A.A.A.A.A.A.).).S.S.S.S.S.S.S.S.S.B.A.B.B.B.B.B.B.x.b.x.p.p.p.i.i.q.7.7.7.q.q.i.i.i.i.i.l.l.i.i.i.i.i.l.l.l.b.m.A.B.B.B.B.S.S.S.S.S.).|.:XoXoXoXoXOXOX|.|.|.|.|.|.|.|.|.|.|.|.|.|.OXOX.XoX.XOXOX|.S.D.D.S.S.S.S.S.S.S.A.B.D.x.p.q.q.q.q.q.p.p.p.p.x.B.B.B.S.S.S.).).).).).|.}.OXOXOXOXOXOXOXOX.XXXXX.X.X X.X.X X X X}.'.'.`.`.C.i.( ( ( ) ) / ) ) ( ) ( ( L T b N v 9 9 x x x x x 8 v v x 8 8 x 9 9 9 9 8 9 2 9 9 x % 2 6 2 8 M 8 9 2 6 6 6 9 9 9 9 8 8 8 m 8 2 2 8 7 6 6 > > > > 1 6 6 2 > > @ @ > > 6 9 > > 6 6 6 6 7 8 7 6 6 6 6 2 > 2 0 > > > 6 9 0 6 9 v M V M M 8 8 9 9 8 8 6 7 5 , 1 , $ $ $ $ @ @ @ @ @ X @ @ $ * , , < < < 3 , , = = = = = = = = * * * * & & & & & & & & & * * * * & & * * * * * * * * * * * & & & & & & * * * ; ; = = = = - - - - - = = = ",
"DXDXDXDXDXDXDXDXDXDXDXDXDXDXDXDXDXSXBXBXvXgXsXsX3X3X4X2X2X-X4X4X4X4X2X2X2X2X2X2X2X2X4X3X8XdXfXvXBXBXDXDXSXSXSXSXSXbXvXfXgXdXdXdX8X8X8X8X3X-X$X$X&X&X~.~.W.R.I.L.g.g.g.g.h.t.e.>.;.-.-.=.o.W W R R W } +.+.W Y P F F Y W E P C P Y P F V B B B B a B B a V D U P P P P F D V a u p p a B m u m V J R Y C V V F C V B B V B B m m u m m M V m V 4.r.k.l.l.b.l.l.b.b.l.b.b.b.B.B.B.B.A.A.A.A.B.B.).S.S.S.S.S.S.S.S.S.B.B.D.B.B.B.B.D.b.x.p.p.i.i.i.q.q.7.5.7.7.q.i.i.i.i.l.l.k.i.i.i.i.i.i.l.l.b.b.B.B.B.B.B.S.S.S.S.S.).|.:XoXoXoXoX.XOXOX|.|.|.|.|.|.|.|.|.).'.|.|.OXOXoXoX.XOX|.|.S.D.S.S.S.S.S.S.S.S.S.Z.B.D.x.l.i.q.q.q.q.p.p.p.p.x.B.B.B.S.S.S.).).).).'.|.}. X X X X X X.X.XXX.XOX}.}. X.X X X X}.'.'.`.`.C.i.( 2.) ^ S ) / ^ ) ( ( ( @.S S b v 9 9 8 8 8 x x 9 N x 8 9 8 M x 2 m m x 9 2 0 9 9 > 2 0 0 8 m 8 6 2 6 6 6 6 6 9 9 9 9 9 x 8 6 6 2 6 8 M > % > > % > 2 6 1 > @ @ > > 2 Y 6 6 7 1 2 7 u 8 7 6 6 6 6 6 6 0 6 > > > 2 6 6 M M M Z V M M x M M M M a 6 8 5 > , > % @ $ $ X @ @ @ @ @ @ $ $ * , < < , < < , = = = = = = = = = * * * * & & & & & * * & & * * * * & & * * * * & * * * * * * * & & * * & & * * ; ; ; ; = = - - - - = = = = ",
"SXSXSXSXDXDXDXDXDXDXDXDXSXSXJXJXDXBXBXBXgXsX8X3X3X4X4X4X4X4X4X4X4X4X4X4X4X4X2X2X4X3XsXgXvXDXSXSXSXSXDXDXbXbXbXbXbXvXfXgX9X9X8X8X8X8X8X8X-X$X$X@X@X~.E.Q.W.R.I.L.g.e.g.t.e.;.$.#.=.$.#.+.W W E R R R R R E [ E F F Y R [ W P C P Y Y P D V V V V B a a V F P P P P P P F D V M a p p u B u 9 u B V Y Y V V V F C V B B V B B m m u M m m B M m %.r.k.v.l.b.b.b.b.b.b.b.b.b.B.B.B.B.B.A.A.B.p.x.B.S.Z.S.S.S.S.S.A.A.A.B.B.B.B.B.B.b.x.p.p.i.i.i.q.0.q.7.5.5.7.q.i.i.l.i.l.l.l.i.i.i.i.i.i.l.l.l.b.b.B.B.B.B.S.S.S.S.S.).|.:XoX>XoXoXoXOXOX|.|.|.|.|.|.|.|.).'.|.|.|.OX.X.XoX.XOX|.'.S.S.S.S.).).S.S.S.S.S.S.Z.B.B.x.p.q.w.w.q.q.q.p.p.p.x.D.B.B.A.S.S.S.).).'.|.}.}.}.}.}.}.OX.XXX.XOX X}.}.}. X X.X}.'.'.'.`.`.C.u.( 3.^ T ^ ^ ( ^ ^ ( ( 3.^ ( L b b 9 9 x x x x x x x x 9 9 8 x 8 6 9 N N 9 0 > 2 8 > 2 6 9 m 8 9 > 6 6 6 6 6 6 9 9 8 9 9 8 9 6 6 > 8 8 M 6 > > > > > > > > > 2 > > > 9 M 8 9 6 2 6 6 8 8 9 7 6 9 9 9 9 6 9 > 2 2 > 0 9 Z M M M Z M M x M M M M a 9 u 6 > > > @ @ $ @ @ X @ X X @ @ $ , , < < < < < < = = = = = = = = = = = * * * & & & & & & & & & & & * & * * * * * * & & * * * * * * & & * * & & * * = = = ; - - - - - - - - - = ",
"SXSXSXSXDXDXDXDXDXDXDXDXJXJXSXDXBXBXvXgX8X3X3X3X2X-X4X4X4X4X4X4X4X4X4X4X2X3X3X3XsXgXBXSXJXJXDXSXSXSXDXBXBXBXvXvXvXvXfXdX9X8X8X8X8X8X8X8X$X$X~.~.~.E.E.Q.W.R.I.I.g.;.e.O.-.-.O.+.O.+.o.[ W E R Y Y P P Y R Y F Y R W [ [ W C V F P F F F D V V V B a B P I P P R R P P P F V M a p p u B u 7 p M V F F F C C V B M B B B B B m m m M m m V B m ~ r.k.k.l.l.l.l.l.l.l.b.b.b.b.B.B.B.B.B.B.B.p.p.B.Z.S.S.S.S.S.S.A.A.B.B.B.B.B.B.B.x.p.p.i.i.q.q.q.0.q.7.5.5.7.q.i.i.i.k.l.l.l.i.i.i.i.i.i.i.l.l.b.b.b.B.B.B.B.S.S.S.S.).|.OXoXiX>XoXoXoXOX|.|.|.|.|.|.|.|.|.'.|.|.|.|.OX.X.X.XOX|.S.S.S.S.'.'.).S.).S.S.S.S.S.A.B.B.x.p.i.q.w.w.w.q.p.p.p.x.B.B.A.A.Z.S.S.).).'.|.}.}.}.}.}..XXXXX.X X X}.}.}.}. X}.}.'.'.'.`.`.M.7.@.3.L n ^ ^ / ^ ( ^ @.4./ &.L b b 9 9 x x x x x N 9 x x 9 8 x 6 > x 8 x 6 9 > > x 6 0 6 x 8 8 8 % 6 6 6 6 9 9 8 8 8 6 9 9 6 2 2 6 M 6 6 M 8 > > > > > % > > > 2 2 6 6 8 V 6 2 7 9 6 6 6 8 8 8 v 8 8 8 9 8 2 0 0 > 2 9 M v 8 6 Z M M 8 8 9 9 8 8 9 8 6 5 1 , > % $ @ @ X @ X X @ $ $ , < < , < < , , = = = = = = = = = = = * * * & & & & & & & & & & & * & * * * * * * & & * * * * * * * & * * & & * * = = = = - - - - - - - - - = ",
"SXSXDXDXDXDXDXDXDXDXSXSXSXSXVXbXBXgXdX8X3X2X2X2X2X2X4X4X3X3X2X-X-X-X4X4X3XsXgXgXBXDXDXJXHXJXSXSXSXbXbXvXvXvXfXfXzXfXfX9X8X8X8X8X8X0X2X-X2X$XE.Q.E.E.W.R.Q.I.n.I.h.t.e.O.+.o.[ W W W W W E R P P Y P F F P V V R [ o.o.} W F V Y R F F F F D V B B a V I R P R [ E P P F F V M a u u a B u 7 u u B V F F F F V M M M M B B B M M m m m m B M m A y.u.k.k.l.l.l.l.l.l.x.l.b.b.B.B.A.A.B.B.B.l.b.B.Z.).).).S.Z.Z.A.A.B.B.B.B.B.B.x.l.p.i.i.q.q.q.q.i.q.7.7.5.5.7.i.i.k.l.l.l.l.k.i.i.i.i.i.i.i.l.l.b.b.B.B.B.B.S.S.S.S.).|.:XoX>XoXoXoXOX:X|.|.|.'.|.).|.|.'.|.|.|.|.|.OXOX.X.XOX|.S.S.S.'.|.|.|.'.).S.S.S.S.S.A.B.B.B.x.x.p.q.q.q.q.q.q.p.x.b.B.B.A.A.Z.S.).).'.'.|.'.'.}.}. X.XXX.X X X}.}.}. X X X}.{.'.'.'._.M.8.@.@.S b L ^ / S / / ( ) @.( / L c c 0 x x x x x N 9 x x 9 9 8 6 > x 9 9 9 9 > > 9 9 6 9 8 8 9 8 > 6 6 6 9 8 8 9 8 m 9 9 9 6 2 2 8 M 6 2 V M 6 > > 6 > > > > > 6 9 8 9 9 M 9 2 6 9 9 9 9 6 6 6 8 v N N N v v v x 6 6 x v v 8 8 v M M M 9 9 9 9 9 9 9 9 7 5 1 > , $ @ @ @ @ X X X $ , 4 4 < , , < < < = = = = = = = = = = * * * * * * * * * & & * * & & & & * * * * * * * * * * * * * * * * * * * * = = - - = = - - - - - - - - - ; ",
"SXSXDXDXDXDXDXDXDXDXSXSXDXbXBXfXdXsX3X3X3X3X3X2X2X-X4X4X3X3X2X-X-X-X3XsXgXBXSXDXDXDXJXJXJXSXVXbXvXvXvXvXvXfXvXfXfXfX9X8X0X0X0X0X8X5X-X%X$X@XE.Q.E.Q.T.T.I.Y.I.h.t.h.&.&.+.o.[ W E E E E R P F Y R R F V V V P W [ } o.[ W R E W W R F F F V V B B a V P R R E { E F C C V B M u u u a B a y u u m F R V V V V M m M M M B B M M M m m m M M N N 4.r.k.k.l.l.l.l.l.l.x.x.l.b.b.b.B.B.B.B.B.A.A.A.A.A.Z.Z.A.A.A.B.B.B.B.B.B.b.b.x.p.p.i.0.q.q.q.q.i.q.7.7.5.9.5.i.i.i.l.l.l.l.k.i.i.i.i.i.i.i.l.l.b.b.B.B.B.B.B.S.S.S.).|.|.oX>XoXoXoXOX:X|.|.'.'.).'.'.'.'.'.'.|.|.|.|.OXOXOX|.|.S.S.'.'.|.|.|.|.).S.S.S.S.S.A.B.B.A.B.b.l.p.q.5.9.7.q.0.p.x.x.B.V.V.A.A.S.).).'.'.'.'.}.}.}. X.X X X X X X X X X X}.{.'.'.'._.M.5.@.@.S b S L ^ / L / / @.3.4.T 4.b 0 0 x x x x x x x x x 9 9 8 6 6 6 9 9 8 9 6 0 2 6 9 9 8 8 6 2 6 6 6 2 6 8 6 6 6 m 8 9 9 6 > > 9 M 8 9 8 8 u 9 > 9 0 > > > 0 9 v M u 9 9 8 6 8 8 8 8 8 8 v 8 8 v N N N N N N N x x v v v 9 8 8 M M M 9 9 9 9 9 9 9 9 9 6 5 5 , > @ @ + @ + X X $ 4 y w < , , < < , = = = = = = = * * * * * * * * * * * * & & * * & & & & * * * * * * * * * * * * * * * * * * * * = = - - - = - - - - - - - = - ; ",
"DXDXDXDXDXDXDXDXDXSXSXSXSXBXgXsXsX8X3X3X3X3X3X2X-X-X4X4X2X2X3X3X8XdXhXbXSXDXJXJXJXJXJXDXSXVXbXvXvXvXvXvXvXfXfXdX9X8X8X0X0X8X5X5X5X-X$X$X!.!.E.E.Q.W.T.Y.I.I.g.t.t.e.+.&.+.o.[ W E E E E R P Y F V V V V C F W o.[ o.o.E F C F P F F F F F V B B B s V P R E [ E P V V V V B M a u a a B B y u u m F R V V V B M m M M M B B B B M M M M M M N N @.r.k.u.l.l.l.l.l.l.l.l.l.b.b.m.B.B.B.B.B.B.A.A.A.A.A.A.B.B.B.B.B.B.b.B.b.x.x.l.p.i.i.0.q.q.q.q.i.q.7.5.9.9.9.q.i.i.l.l.l.l.l.i.i.i.i.i.i.i.l.l.b.b.B.A.B.A.S.S.S.S.).|.|.oX>XoXoXoXOX:X|.|.|.'.'.'.).).'.'.|.|.|.|.|.OX|.OX|.S.S.'.|.|.|.|.|.}.'.).S.S.S.S.A.B.A.A.A.B.b.x.p.q.9.9.5.q.0.p.x.x.B.V.A.A.A.S.).).'.'.'.'.'.}.}. X X X X X X X X X}.}.{.'.'.'._.M.5.@.@.S n N A L %.L ^ / ( @.( 4.L @.c x x x x x x x x x x 9 9 9 6 9 2 9 9 2 V 9 2 2 6 9 9 8 8 6 2 9 2 6 2 6 9 6 6 > 8 9 9 6 2 > > 6 v M 8 6 6 9 8 9 6 2 2 0 6 8 M Z M v 9 0 8 9 8 8 8 8 8 8 8 8 8 v N N N N N N N Z Z v v v 8 8 8 8 8 8 8 9 9 9 9 9 9 9 8 9 6 6 1 > @ @ @ @ $ $ $ , 4 y w 4 < , < < < , - = = = = = = * * * * * * * * * & & # # & & & & & & * * * * * * * * * * * * * * * * * * * * = = - - = = - - - - - - - = - ; ",
"DXDXDXDXDXDXDXDXSXSXSXSXBXgXsX3X3X8X3X3X3X3X3X-X-X-X-X-X-X3X8XgXBXDXJXJXJXJXJXJXJXJXDXDXSXbXvXvXvXvXvXvXfXfXdX8X8X8X8X0X8X5X2X2X2X$X$X@XE.E.E.E.Q.R.Y.Y.I.g.h.t.t.;.O.O.+.o.[ W E E E E R Y R F F P Y R E R [ +.+.+.+.W F B B V V F V V V V B B B s V D P E [ R F V B B B M a a u u a B B y p u M B D F F V B m m m M M M B B B M M M M M M M N o.r.v.u.k.l.l.l.l.l.l.l.l.b.b.b.m.B.B.B.B.B.B.B.B.B.B.B.B.B.B.B.B.b.b.b.x.x.x.l.p.i.i.i.q.q.q.q.q.q.7.5.9.9.9.5.i.i.k.l.l.l.l.i.i.i.i.i.i.i.l.l.b.b.B.A.A.S.S.S.S.S.).|.:XoX>XoXoXoXOX:X|.|.|.|.'.).).).'.'.'.'.|.|.|.|.|.|.'.).).|.|.|.|.|.|.|.|.).S.S.S.S.A.B.A.A.A.B.B.b.x.p.q.7.9.9.7.0.p.x.x.B.A.A.A.Z.S.).).).'.'.'.}.}. X X X X X X X X X}.{.{.'.'.'._.M.8.@.@.S N N S S S / ^ / @.( ( ^ ^ @.^ 9 9 x x 9 x x 9 x x 9 9 8 9 9 0 9 9 6 8 9 2 9 9 6 8 m 9 6 6 > 2 6 2 2 6 6 6 6 6 6 0 0 2 > 2 6 9 M v 6 6 0 0 M > 2 8 v M Z V Z M v 9 2 6 9 8 8 8 9 9 9 6 6 x v N Z N N N N N C C N N v 8 8 9 8 8 8 9 9 9 9 6 9 9 9 8 8 8 6 2 > @ @ @ @ $ * , 4 4 4 4 4 < , < < < , - = = = = = = * * * * * * * & # # & # # & & & & & & * * * * * * * * * * * * * * * * * * * * = = - - = = - - - - - - - = - ; ",
"DXDXDXDXDXDXSXSXSXDXbXvXgXsX3X3X4X3X3X3X3X4X-X-X-X-X2X2X8XgXBXDXDXKXHXDXJXJXSXSXSXSXSXSXSXvXvXvXvXvXfXfXfXfX9X8X8X8X0X0X0X2X$X$X$X$X@X~.E.W.E.E.W.Y.I.Y.I.g.e.e.e.6.O.+.o.[ W W R R E R R R R E R R E W W W [ +.O.#.+.[ P M M V V V B B V V B B B B B V D I R U V B B B s a u u p p u a B y p u u m V F F V B M m m m m m M M M B B m m m m m m A y.v.i.k.l.l.l.l.l.l.l.l.l.b.b.b.B.B.B.B.B.B.B.B.B.B.B.B.B.B.c.b.x.x.x.x.l.l.p.i.i.i.q.i.q.q.i.q.q.7.5.9.9.9.9.u.l.l.l.l.l.p.i.i.i.i.i.i.i.l.l.x.b.A.A.S.S.S.S.S.S.).|.:XoXoXoXoXoXoX:X|.|.|.|.|.).).).).'.|.|.|.|.|.|.|.).).'.|.|.|.|.|.|.|.'.'.).).S.S.S.A.A.V.A.A.V.B.x.x.l.i.q.7.9.5.q.q.p.x.x.B.A.A.A.S.Z.).).'.'.'.}.}. X X X X X X}.}.{.}.{.{.'.'.'.`.M.8.@.( N N Z Z N N ^ ^ / / ( ( ( / ^ ^ b 9 9 N x x x 6 9 x 9 9 x 9 9 2 9 9 6 6 6 2 6 6 0 x N 9 6 6 > 2 2 2 2 2 2 6 9 6 2 2 6 2 > 2 6 2 8 v 9 9 9 6 9 9 2 6 8 M C N Y v 6 6 6 9 6 9 9 6 M 0 6 9 x M M Z C M M N M M C C N M 8 M 8 9 8 9 9 9 9 9 6 6 6 9 9 9 8 B 8 5 > % @ $ $ * , < < 4 4 4 4 < < < < < , , , , , = = = = = * * * * * & & & & # & # # * * * & * * * * = * * & & & * * * * * * * * = = = = - - - - = = = - - - - * = * ",
"DXDXDXDXDXDXDXDXbXvXfXgXsX3X4X3X4X3X3X2X2X-X-X-X4X3XsXfXbXDXDXDXDXDXDXJXJXSXSXSXSXbXbXbXvXvXvXvXvXfXfXgXfX9X9X8X8X8X0X8X0X2X$X$X$X$X@X~.E.W.W.R.Y.I.I.I.I.g.t.e.e.e.&.O.o.W W W E E R P F P E [ W F W R E [ } +.O.#.+.o.R a M F F B B B V V B B s B B B V P P D V B B B a p 7 7 p p 7 a B p p p p u B V V V B M m u u u u m M M B M m m m m m m N &.r.k.k.l.l.l.l.l.l.l.l.l.b.b.b.b.B.B.B.B.B.B.B.B.B.B.B.B.B.b.x.x.x.x.l.l.p.i.i.i.q.q.q.q.i.i.q.q.7.5.5.9.9.9.5.l.l.p.l.l.l.i.i.i.i.i.i.i.l.l.x.b.A.Z.S.S.S.S.S.S.).|.|.:X.XoXoXoXoX:X|.}.|.|.|.).).).).'.'.'.'.'.'.).'.).'.|.|.|.|.|.|.|.|.|.'.'.).).S.S.A.A.A.A.V.V.B.x.x.x.l.p.i.q.7.9.q.q.p.x.D.B.A.A.A.S.).'.'.'.'.}.}. X X X X X}.}.}.{.{.{.{.'.'.'._.m.5.@./ N Z Z Z N Z T ( L L / ( ^ ^ T ~ L 9 0 L x x x 9 9 x 9 9 x 9 2 2 9 9 2 2 6 6 6 6 6 8 M 9 9 6 > 2 2 2 2 2 2 2 > 9 6 6 6 2 0 0 2 > 6 8 8 8 M 6 9 9 6 9 8 M C Z A 8 6 6 6 6 2 6 6 M 6 0 6 8 v M N Z Z v v v M M N N M 8 6 M 8 8 8 9 6 6 6 9 9 9 7 9 8 8 9 B m 6 > % $ * , < < < < 4 3 4 4 3 < < < < , , , , , = = = = = = = = = = & & & & # # # & * * & & * * * * = * * * & & * * * * * * * * = = = = - - - - = = = - - - - * = * ",
"DXDXDXDXDXDXSXSXhXgXsX8X3X3X3X3X4X3X3X2X2X2X3X3XsXgXbXDXDXDXDXJXJXJXJXDXDXDXSXVXbXbXvXvXvXvXfXfXfXfXgXdXdX8X8X8X8X0X0X0X0X2X$X$X@X@X~.E.E.W.Y.I.I.I.I.n.n.g.t.t.e.e.O.o.[ W W W [ W R F D F R R R W F R W [ } +.O.#.+.+.[ V M P F B B V V B B B s B B B B D P V B B a a a p 7 7 y a 7 a B p p p y p M B B B B V M m u u u u u m M M m m M M m m c ~ r.k.i.l.l.l.l.l.l.l.l.l.l.b.b.b.B.B.B.B.B.B.B.B.B.B.B.B.b.b.b.x.x.l.l.p.i.i.i.0.q.q.0.q.q.q.0.q.q.7.5.5.5.9.9.u.p.i.l.l.p.i.i.i.i.i.i.i.j.l.x.b.A.Z.S.Z.S.S.S.S.S.).|.}.:X.XoXoXoXOX:X}.|.|.'.).).).).).).).).).S.S.'.).|.|.|.|.|.|.|.|.|.|.|.|.'.).S.S.S.S.Z.A.A.V.V.B.x.x.x.l.l.j.q.7.9.q.q.p.x.B.V.A.Z.S.Z.).'.'.'.}.}. X X X X}.}.{.'.'.{.{.{.'.'.'._.b.9.@.^ N b N N N N S / T S S T ^ / ^ Q Z b b Z 6 m x x x x 9 9 8 6 > 2 9 9 2 2 9 9 6 6 9 8 M x 8 0 > 2 2 2 2 2 2 2 2 > 9 8 9 6 9 9 6 > 6 8 x M x 8 9 8 x 9 v Z Z C Z 6 6 x 8 8 8 6 6 v 6 0 6 8 M v N N v 8 8 8 M M M M M 8 6 M 8 8 8 8 6 2 2 6 9 8 8 M M 8 6 M M 8 1 > , , , < < 3 3 < < 3 4 4 < < < < , , , , , = = = = - - < < < - = * # # # # & & & & & & * * * * = * * * * * * * * * * * * * = = = = - - - - = = - - - - - * = * ",
"DXDXDXDXDXDXSXbXgXsX3X3X3X3X3X3X4X2X4X2X3XsXgXhXBXDXJXJXDXJXJXSXDXSXSXDXVXDXSXbXBXvXvXvXfXfXfXfXfXgXgXsX8X8X8X0X0X8X0X0X0X2X$X$X@X~.E.E.E.T.I.I.I.I.I.g.g.g.h.t.e.-.~ W W W W W [ E R F F P F Y E E W E E [ o.+.#.+.+.o.W P V V V B V B M M B B a a s a a V V B B s a a a p 7 7 y B 7 B B p y y y y m M m M V V B m u u u u m m m m m m m m m m N ^ y.u.u.l.l.l.l.l.l.l.l.l.l.b.b.b.b.b.b.B.B.B.B.B.B.B.B.B.b.b.b.x.l.p.p.i.i.i.0.q.q.q.i.i.q.q.q.q.7.7.7.5.5.9.9.2.7.i.l.l.p.i.i.i.i.i.i.i.p.l.l.b.A.A.Z.A.S.S.S.S.S.).).|.|.:X.X.XOX:X:X}.|.|.'.).).S.S.S.).).S.S.S.S.).|.|.|.|.|.|.|.}.}.}.}.}.|.|.'.).S.S.S.Z.Z.Z.A.V.B.x.x.x.x.x.l.p.q.7.5.w.q.p.x.B.A.A.S.Z.).'.'.'.}.}. X X X X}.{.{.'.'.{.{.'.'.'.'._.l.9.( ^ b N N N N N S A ( S b S ) T L L Z N A x N m 9 N m 9 9 6 9 0 > > 9 8 2 2 9 9 6 6 6 9 M v Z 2 > > 0 2 2 2 2 2 > 2 2 6 8 M M M v 6 6 9 x M v M 9 9 8 8 v Z N C M > 6 6 6 9 8 6 6 2 v 0 6 x C v v x 8 9 9 8 v v x M M M M M 8 9 9 9 6 6 6 6 6 6 u M B M 6 8 M u 1 1 1 1 1 1 1 3 3 4 4 < 4 4 3 < < < , , , , , = = = - < < < < < < = * # # # # & # * & & & * * * * = * * * * * * * * * * * * * = = = = - - - - - - - - - - - = = * ",
"DXDXDXDXBXBXvXgXsX3X3X3X3X3X2X2X2X4X3X8XgXvXDXDXDXHXDXDXJXJXJXJXDXSXbXbXVXVXbXbXvXvXvXvXvXfXfXdXfXfXdX8X8X0X0X0X0X0X0X0X2X%X%X$X@XE.W.W.W.Y.I.I.I.I.n.g.g.g.r.t.6.O.W W W W W W [ W R F F R R E [ [ +.E W o.O.O.+.+.+.} W R B B B B B M M M a a a a a a a a s B B a a a a a 7 7 y B B B B u p u y p m m u u B B M m m m u u u m m m m m m m m m N A 4.r.u.k.l.l.l.l.l.l.l.l.l.l.b.b.b.b.b.b.b.b.B.B.B.B.B.B.b.b.x.l.l.i.i.i.i.0.q.q.q.q.i.i.i.0.q.q.7.7.q.7.5.5.9.9.9.q.i.i.i.i.i.i.u.u.i.i.i.l.l.b.B.A.A.A.A.A.B.S.).).).).'.}.:X:X:X:X}.}.|.|.|.).).S.S.S.S.S.S.S.S.).).|.}.}.|.|.|.|.}.}.}.}.}.|.|.|.'.).).S.S.).S.Z.A.V.B.b.x.x.x.x.l.p.q.7.5.q.q.p.x.B.A.A.Z.'.'.'.'.}.}.}. X X}.}.{.{.'.'.'.'.'.'.'.`._.l.9.( T b N N N N N N Z ^ S n n L L L S S Z L N N x 6 x m 9 9 > M 6 > > 8 m 2 6 9 9 6 9 9 6 Z v C 0 > > 2 2 2 2 2 6 2 6 2 6 8 8 M N M M 8 9 8 M M v 8 9 6 8 M Z Z C 9 2 0 6 6 9 9 > 0 8 M 8 6 M 9 M v 8 9 9 9 9 8 8 8 8 M M M M 8 9 7 6 7 6 6 2 2 6 8 M C M 9 8 M m 5 1 1 1 1 4 4 3 3 3 3 3 4 4 3 < < < , , , , , = = < < < < 3 < < < = * # & * * & & & & & & * * * * = * * * * * * * * * * * * * * * = = - - - - - - - - - - - = = * ",
"DXDXDXBXBXhXsX3X3X3X4X-X-X-X2X-X2X8XhXbXJXJXHXDXDXDXDXDXDXJXDXDXDXSXbXBXBXVXbXbXvXvXvXvXvXfXfXdXqX9X9X8X0X0X0X0X0X0X0X2X$X$X$X&X@XE.W.R.Y.T.Y.I.n.I.n.n.g.g.e.e.-.+.W W W W W [ [ W R F F F Y E o.o.+.W [ $.-.&.#.o.o.[ W R B B B M M M a a a a a a a a a a a s B a a a a a 7 7 y a V B B u u u p p u m M m u u m m m m u u u u u u m m m m m m m N %.r.r.u.k.l.l.l.l.l.l.l.l.l.l.b.b.b.b.b.B.B.B.B.B.B.B.B.b.l.l.p.p.i.i.i.0.q.q.q.q.q.u.0.0.0.q.q.7.7.q.7.5.5.5.5.9.5.7.i.i.i.i.u.u.u.i.i.i.l.l.b.B.B.A.A.A.B.B.B.S.S.).).).|.}.:X:X:X}.}.|.|.'.).S.S.S.S.A.D.A.S.).).'.|.}.}.}.}.}.}.}.}.}.}.}.}.|.|.'.'.'.).).).).Z.A.A.B.b.x.x.x.x.x.l.p.q.7.5.q.i.x.D.V.A.Z.).'.'.'.}.}.}.}.}.}.}.{.'.'.'.'.'.'.'.`.'.C.k.9.( L N N N N S S N N S S S S S S S L N N A Y N 9 6 x x m 9 > A 6 > > V m 2 6 6 9 6 8 9 9 N v M 9 > > > 2 2 2 6 6 6 6 6 8 8 6 6 8 M V V M 8 8 8 v x 8 9 8 v M Z N 6 0 2 6 6 9 6 > 2 6 8 8 9 8 8 M v 8 9 9 9 9 8 8 8 v x m M M 8 9 9 9 9 6 6 7 6 6 8 M V N m 8 m u 5 2 5 5 4 < 4 < < < < 3 4 4 3 < < < , , , , , = = < < < < < < = < = * # & * * # # & & & & * * * * = * * * * * * * * * * = = * * * = = - - - - - - - - - - - = = * ",
"DXDXBXBXgXsX3X4X2X2X2X-X-X4X3XsXgXvXJXHXHXDXJXJXDXDXDXDXDXDXDXDXSXSXbXBXBXbXbXvXvXvXvXvXvXfXfXdXqX9X9X8X0X0X0X0X0X0X5X$X%X$X@X@X~.E.W.T.Y.Y.I.I.I.I.n.g.t.h.y.t.O.~ W W W W [ o.o.W Y V V F Y E o.o.+.W o.=.-.$.+.o.o.[ W R M B B M M M a a a a a a a a a a a s B a u u u B y y u u a B u u u u p p 9 y u m u u u M M M M M u u m m m m m m m m m m J y.r.u.k.k.l.l.l.l.l.l.l.l.l.l.x.b.b.b.b.b.b.b.B.B.b.b.x.l.l.p.i.i.0.0.0.0.q.q.q.0.q.q.q.q.q.q.7.q.7.7.5.5.5.5.5.5.5.5.7.i.i.u.u.u.i.i.i.l.l.x.m.B.B.B.B.B.B.B.B.A.S.).).|.}.:X:X:X}.|.|.'.).S.S.S.S.A.D.D.S.S.'.'.|.}.OXOX}.}.}.}.}.}.}.}. X:X:X}.}.'.'.'.).).).S.A.A.B.b.x.x.x.x.x.x.l.i.q.7.5.q.p.x.B.V.A.S.'.'.'.}.}.}.}.}.}.}.}.'.'.'.'.'.'.'.'.'._.j.3.( S N b N N S A N c b S L L S n n L b b ~ N x x 9 x 6 x x 2 C 6 > 6 V 8 6 9 6 9 6 8 9 8 M x x 9 0 > > 2 2 2 6 6 6 6 6 9 9 6 2 0 9 M V N x 8 v 8 v x 8 8 x M Z 8 6 0 2 6 6 6 6 > > 2 0 8 8 9 8 M v 8 9 9 9 9 8 8 8 8 9 9 m M 8 8 M a 9 9 9 9 9 6 9 v M N M x m m 5 2 5 4 7 w w w e w w 4 4 4 3 < < , , , , , , = = = - < < - = = < = * & * & & & & * * * * * * * * = * * * & * * * & * * * * * * * * * - - - - = - - - - - - = = * ",
"BXBXhXgXsX3X4X2X2X2X-X-X4X3XgXBXSXJXDXDXJXJXJXJXDXJXDXJXDXSXSXDXSXVXBXBXvXvXvXvXvXvXvXzXfXfXfXfX9X9X9X0X0X0X0X0X0X2X,X%X$X@X@X@X~.E.R.R.Y.I.I.I.Y.I.g.h.r.g.e.6.O.~ W Q W [ [ o.+.[ P V D F R W o.+.+.W [ O.O.+.+.+.o.[ E R M B M M a M a a a a a a a a a a a s B a u 7 p a p B B p u B u u a u p 9 7 7 p u m u u m M M M M u u m m m m m m m m m m B &.r.r.k.k.k.l.l.l.l.l.l.l.l.l.l.x.b.b.b.b.b.B.B.b.b.l.l.l.p.i.i.0.0.0.0.0.q.q.0.0.q.q.q.7.7.7.7.q.7.7.5.5.5.5.5.5.9.9.5.7.q.u.i.i.i.i.i.l.l.l.b.m.B.B.B.B.B.B.B.B.A.).).|.}.:X:X:X:X}.|.'.S.A.A.A.B.A.A.S.S.).'.|.}. X.X.X.XOX.XOXOX}.}.}. X X X:X X}.|.'.'.).).S.A.A.V.b.x.x.l.l.x.x.l.l.p.q.7.7.w.x.D.B.A.Z.).'.'.'.}.}.}.}. X}.}.'.'.'.'.'.'.'.'.'.C.j.3./ S b x N N S N x x b S L L S b S v S L Q x x x x x 0 0 x 6 x 9 9 9 8 8 6 9 6 9 6 x 8 8 8 v 8 8 6 2 > > 2 2 6 6 6 6 6 6 6 6 2 > 0 8 C L C M 9 9 8 v 8 8 v v N 9 6 0 6 6 6 6 6 > > > > 9 M 6 x M v 8 9 6 9 9 8 6 6 6 0 6 9 8 M M M u 9 9 8 8 8 8 9 8 v M M N N m 6 2 1 5 4 w w 4 w 4 4 3 3 4 3 < < , , , , , , = = = = = = = = = < = * & * * * & & * * * * * * * * * * & & * * * * & & * * * * * * * * - - - - * * * * = = = * * * ",
"BXhXgXsX3X3X4X4X4X4X4X3XsXfXDXDXHXHXDXDXDXJXDXJXJXJXJXSXSXbXVXVXSXbXvXvXvXvXvXvXvXvXvXfXfXfX9X9X9X8X8X0X0X0X5X5X2X2X$X$X&X&X@X~.E.Q.R.T.Y.I.I.I.I.I.g.h.r.g.e.&.+.~ W W W o.[ +.+.W F V F Y R [ +.O.+.W [ O.O.O.O.O.+.[ E Y V M M M a a a M a a a u a a a a a s B B a 7 u B B M u y B a u u B u 9 9 9 9 8 u M M M M M B M M M u m u m u u u m m m m N / r.u.u.i.i.k.l.l.l.l.l.l.l.l.l.l.l.b.m.m.m.m.c.b.x.l.l.p.i.i.i.0.0.0.0.0.i.i.i.i.i.i.q.7.7.7.7.7.7.7.5.5.5.5.5.5.5.5.5.5.7.7.u.i.i.i.i.i.p.l.b.m.B.B.B.B.B.B.B.B.A.S.).).|.|.:X:X:X:X'.S.A.A.V.D.B.A.S.S.).'.'.}.OX.X.X.X.XXXXX.XOXOXOXOX X X X X:X:X:X'.'.'.)._._.A.A.V.b.x.l.l.l.l.l.l.j.i.q.q.q.l.x.D.A.Z.).'.'.}.}.}.}.}.}.}.}.{.'.'.'.'.'.'.'.`.M.r.3./ S c c N N N M c x b b b L b b S v L Q L Z x x M x 6 2 9 9 8 8 6 8 9 9 6 6 6 9 6 M 8 9 9 8 8 m 9 2 > 1 2 2 6 6 6 6 6 6 6 6 5 > 2 6 M C C V v x 9 6 6 v M V V 9 6 0 6 2 9 6 2 > > > % 6 v > 6 8 8 8 9 M 8 9 6 6 6 0 0 6 9 8 M M 8 6 6 9 8 8 8 8 8 8 8 8 m M M u 9 5 1 5 4 4 4 4 4 4 4 < < 4 4 < < , , , , , , = = = = = = = = = - - * & & * * & & * * * * * & * * * * * & * * & & & & * * * * = * * * = = = = * * = = = = = * * * ",
"gXgXsX3X4X4X-X-X4X3XdXgXbXDXDXDXHXHXDXDXDXJXDXJXJXJXJXDXSXbXbXbXbXbXvXvXvXvXvXvXvXvXfXfXfX9X9X9X8X0X0X8X0X5X5X2X2X,X$X&X&X#X[.E.E.Q.R.Y.I.I.I.I.n.I.v.h.y.y.-.O.o.o.W W ~ o.o.+.+.W P P Y R W o.+.O.+.W o.O.$.O.O.+.o.W E R C M a M a a a a a a u u a y a a s s B B a 7 u D D u 7 7 B a u u V p 9 9 8 8 u u M B B V V V M M M u m u m u m m m m m m m A y.r.u.u.u.k.l.l.l.l.l.l.l.l.l.l.l.l.c.m.m.b.b.l.l.l.p.i.i.q.0.q.q.q.0.0.i.i.i.i.i.i.q.7.7.7.7.7.7.7.5.5.5.5.5.5.5.5.5.5.5.5.5.7.q.q.i.i.i.i.l.l.b.b.b.x.b.b.B.B.B.A.).).).'.|.:X:X|.S.A.A.B.D.V.A.A.Z.).).'.|.}.OX.X.X.X.XXXXXXX.XOXOXOX X X X.X.X.X:X'.'.'.).`._.A.A.B.b.x.l.j.i.j.j.j.l.l.p.q.q.p.x.D.V.Z.).'.'.'.}.}.}.}.}.}.}.{.'.'.'.'.'.'.`.`.M.7.@.^ S x c N N N v x c x N c T N b b S N L x ~ v x M x 9 6 9 8 x 8 6 9 8 9 6 6 6 9 6 M 9 9 m 6 8 M M 2 2 2 2 2 2 5 6 6 6 6 6 6 6 6 2 0 9 v Z 8 N Z M 9 0 x M N Z C M 8 6 > 6 8 9 6 > > > N 2 8 > 0 8 8 8 8 8 9 8 M v 9 6 9 M M 8 8 9 6 9 M M 8 9 9 9 9 9 9 x m 8 8 m y 5 1 4 4 4 4 4 < < < < 4 < < , , , , , , * = = = = = = = = = = = * & & * * & & * * * * * & * & & & & * * * & & & & * * * * * * * * = = = = * * * * * * * * * & ",
"gXsX3X4X4X4X3X3XdXhXSXSXHXHXHXHXDXHXDXDXDXDXDXJXJXDXDXDXSXbXBXbXbXbXvXvXvXvXvXvXvXfXfXfXfXfXdX9X0X0X0X0X0X0X5X2X2X%X%X&X@X~.E.E.E.Q.R.Y.I.I.I.n.v.v.g.t.e.-.O.o.o.o.~ ~ o.o.o.+.o.E R R W W W o.o.O.+.[ o.O.&.$.O.o.~ W E E P V M M M M M M a a a u a u a s s a B B a u u B B u 7 7 B a u u V p 8 u 8 u u B B V V V B M M M M u u u u u m m m m u M m N @.r.r.u.u.u.k.k.k.l.l.l.l.l.l.l.l.l.x.b.b.b.l.l.l.p.i.i.q.q.q.0.0.0.u.u.i.i.i.i.i.i.u.7.q.7.7.7.7.8.5.5.5.5.5.5.5.5.5.5.5.5.5.5.5.5.7.0.i.i.l.l.x.x.x.x.x.b.b.B.B.A.A.).).'.'.}.'.S.A.D.A.A.D.A.S.S.).'.'.|.}.OX.X.X.X.X.X.XXXXXXX.X.X.X.X.X.X.XOX.X:X}.'.'.`._._.A.A.B.b.x.l.i.0.0.i.j.j.j.j.i.i.p.x.D.V.Z.).'.'.'.}.}.}.}.}.}.}.}.'.'.'.'.'.'.'._.M.8.%.^ Z b N N N M x x x x x c A Z N Z v N N N L N x M M x 9 9 8 x x 6 9 9 9 9 9 8 8 9 8 8 9 M 2 m 8 V 9 6 2 2 2 2 2 5 6 6 6 6 6 6 6 6 6 0 0 2 M M N M v 8 8 8 M N M M M Z M N 8 2 9 2 > 0 > 6 9 v 2 0 8 8 9 9 8 x M M M M M x v v M v 8 M 8 9 6 6 9 9 9 9 8 8 8 6 6 u u 7 5 1 1 4 3 3 3 , , , 4 < < , , , , , = * = = = = = = = = = = = = * = ; ; * * * * * * * * * * & & & & * * & & & & * * & & * * * * = = = = * * * * * * * * * & ",
"3X4X4X4X3XsXgXhXDXJXHXHXHXHXHXHXDXDXDXDXDXJXJXSXDXDXDXSXVXbXbXbXbXbXvXfXvXvXvXfXfXfXfXdXfXfX9X8X0X8X0X0X0X5X2X2X2X%X%X@X~.E.E.E.E.W.R.Y.n.n.n.n.v.g.g.h.e.&.O.+.o.o.~ ~ o.o.o.o.W R R W W W W [ [ +.+.o.o.+.&.$.O.o.W W E E Y V B M M a a a a a a p a a a s a a a a a a M u u M u p B m u u B p 9 u u m M V V V V B M M M M u u u u u u m m m m u m m m o.y.r.r.u.u.u.k.k.l.l.l.l.l.l.l.l.l.l.x.x.l.l.l.p.p.i.q.q.q.0.0.0.0.i.i.q.i.i.i.i.i.u.7.q.7.7.7.7.8.5.5.5.5.5.5.5.5.5.5.5.5.5.5.5.5.7.7.q.u.i.l.l.l.l.l.l.l.x.b.B.B.A.A.S.).).).).A.B.B.A.A.S.S.S.).'.'.|.}.}.OX.X.X.X.X.X.XXXXX.X.X.X.X.X.X.X.X.X:X:X:X'.'.`._._.A.A.B.b.x.k.i.0.q.0.i.i.i.p.i.p.p.x.D.V.Z.Z.'.'.'.}.}.}.}.}.}.}.}.'.'.'.'.'.'.`.C.z.5.( A Z N Z N N m x c x x c N b S S c b c v N A x 8 x M x 8 9 9 8 M 9 9 8 9 9 8 8 9 8 9 9 8 m 8 6 m M V 9 2 2 2 2 5 2 5 6 6 2 2 6 6 6 6 6 6 6 > 2 9 8 x 8 9 8 x M M M 8 9 M C C v 6 8 9 > 0 9 6 8 6 0 6 8 6 9 8 M M M M v x x v 8 8 9 9 8 8 8 8 v 8 8 8 8 8 8 9 6 6 8 u p y 4 1 4 3 3 , , , , < < < , , , , , = * = = = = = = = = = = = = ; ; ; ; * * * * * * * * * * & & & & * * * & & & * * * & * * * * = = = = * * * * * * * * * & ",
"4X2X3X8XsXgXBXDXLXLXLXHXHXHXHXHXDXDXDXDXJXJXJXSXSXSXSXBXbXbXbXbXvXvXvXvXfXfXfXfXfX9X9XfX9X9X9X0X0X0X0X0X0X2X2X2X%X%X%X@XE.E.E.E.Q.T.R.I.n.n.I.I.n.g.h.e.6.O.O.o.o.o.~ ~ o.o.o.[ W Y R W W W W [ ~ +.+.o.o.+.O.O.+.[ W W W ! R Y V B M a a u a u a a a a a a u u M u V B V a u B M u M m m u M 8 9 u M M B V V V B M M M M M u u u u u u u u u u m m m m N 6.r.r.u.u.u.u.k.l.l.l.l.l.l.l.l.l.l.l.l.l.l.l.i.i.q.0.q.q.7.0.0.0.i.i.i.i.u.0.u.u.u.7.q.7.7.7.7.7.5.5.5.5.5.5.5.5.5.5.5.5.5.5.5.5.5.5.7.0.i.i.j.l.l.l.l.l.x.b.b.B.B.A.Z._._._.A.B.D.D.A.A.S.S.).'.'.}.}.}. X:X:X.X.X.X.X.XXXXX.XXX.X.X.X.X:X:X:X:X:X:X}.'.)._._._.C.B.b.l.j.i.q.7.8.0.i.i.p.p.p.l.x.x.V.A.Z.'.'.'.}.}.}.}.}.}.}.}.'.'.'.'.'.'.`.C.k.4./ A N A C N M x x x x 9 c Z v Z C v x x v Z C v 8 9 x x 8 9 9 9 N 8 6 M 9 9 x 9 9 8 9 9 8 9 M 2 8 8 V 8 6 6 > 2 2 2 2 6 6 6 6 6 6 6 6 6 6 6 > > > % 6 9 8 6 8 V M M C 2 8 m V V 9 8 2 6 > > > 2 M 6 2 0 8 8 8 x M M M M M x 8 v 8 8 8 9 9 8 x v m u u 8 u 8 7 6 6 7 p a y 4 4 4 3 3 , , , < 3 < < , , , , = * * * = = = = = = = = = = = * * * * * * * * * * * * * & & & & & & & * * & & * * * * * * = * = = = = * * * * * * * & * & ",
"4X3XgXBXBXDXKXKXLXKXHXHXHXHXHXHXDXDXDXJXJXJXSXSXSXVXbXbXbXbXbXbXvXvXvXfXfXfXfXfX9X9X9X9X9X9X0X0X0X0X0X0X0X2X%X%X%X%X&X@XE.E.E.Q.R.Y.T.I.n.n.I.I.v.g.r.6.&.O.+.o.~ o.~ ~ o.o.o.W R Y R ! W W o.+.o.o.+.o.o.+.+.o.o.W W W W R R R Y V M a u u u u a u a a a a u a M a B V V M u M B m M M m u m m M u u M V C V V M u M M M M u 8 8 8 u u u u u u m m m m m &.y.r.u.u.u.u.i.k.l.l.l.l.l.l.l.l.l.l.l.l.l.p.i.q.q.q.q.q.7.0.0.0.i.i.i.i.u.0.u.q.u.7.q.7.7.7.7.8.5.5.5.5.5.5.5.5.5.5.5.5.5.5.5.5.5.5.5.7.u.i.i.p.l.l.l.l.x.x.x.b.B.B.A.A.A.A.A.B.D.A.A.S.S.S.'.'.}.}.}.}. X X:X.X.X.X.X.XXXXX.X.X.X.X.X.X.XOX:X:X:X:X}.'.)._._._.C.A.b.l.i.i.q.9.9.8.0.i.p.p.p.l.x.x.V.A.S.'.'.'.}.}.{.}.}.}.}.}.'.'.'.'.'.'.`.M.k.3./ A N N N A N x c x x 9 c Z N N N N v c x A N N x 9 9 x 8 9 6 6 8 8 9 C 9 v 9 6 9 9 8 8 8 6 8 9 8 8 9 V 8 6 M 6 > 2 2 > 6 M M 6 2 2 2 6 2 > 6 2 > > 2 > 6 2 6 8 V 2 2 9 m J Y m A Z 6 6 2 > > > > x 2 > 8 8 8 8 8 8 M M v x 8 v M v 9 6 6 6 9 8 8 8 8 8 8 8 7 6 5 5 5 7 4 4 4 4 4 3 , , < < 3 3 < , , , , * * * = = = = = = = = = = = = * * * * * * * * * * * * * & & & & & & & * * & & * * * * * * * * = = = = * * * = * * * & * & ",
"gXgXJXKXKXHXKXKXKXKXKXKXHXDXHXHXDXDXDXJXSXSXSXSXVXVXVXbXbXBXvXvXvXvXvXfXfXfXfXfX9X9X9X9X9X9X0X0X0X0X0X0X0X2X%X$X%X&X~.E.[.E.Q.W.T.I.Y.I.I.I.n.n.g.h.6.-.&.O.+.o.~ o.~ o.o.o.o.E Y R R W W o.O.+.o.o.+.o.o.+.+.~ W W W W W ! R R R F B a u u a a M M a a a 7 u a B B a V F B M B B B M m M u u M M M M V V V V M m u M M M M u 8 8 8 8 8 u u u u m m m m x ~ y.r.r.u.u.i.i.k.k.l.l.l.l.l.l.l.l.l.l.l.i.i.i.0.0.8.7.q.7.0.0.i.u.u.i.i.i.0.q.7.7.7.7.7.7.7.7.7.5.5.7.7.8.8.7.7.7.8.8.5.5.5.5.5.5.5.5.5.5.q.i.p.p.l.l.l.l.x.b.b.x.B.B.B.B.B.B.B.V.A.A.Z.S.).'.'.}.}.}.}. X X:X.X.X.X.XXXXXXXXX.XXXXXXX.XOX:XOX:X}.'.'.)._.A.B.m.b.b.l.i.q.7.9.9.9.7.0.i.p.p.j.x.x.x.B.A.S.).'.'.'.{.{.{.}.}.}.}.'.'.'.'.'.`._.M.u.@./ Z M A A N x M x x x 9 x Z N N v N N x x Z N N v 9 9 9 9 6 6 6 9 x 9 M x v 9 6 9 9 8 8 9 2 6 9 9 M 8 M M M 9 8 7 2 2 6 6 > 6 M 8 6 6 6 6 > 6 2 > @ > M 8 6 2 6 9 8 6 2 9 8 V W Y M N 9 0 2 2 > > 2 M 6 6 6 6 6 8 M M N C A A M M M M M M M M M m 8 8 8 8 9 9 6 5 5 5 5 4 4 4 4 4 , , , < < 3 3 < , , , , * * * = = = = = = = = = = = = = = * * = = = * * * * * * & & & & & & & * * & & * * * * * * * = = = = = * * = * * * * * & & ",
"DXDXKXHXKXHXKXKXKXKXKXKXKXDXHXHXDXDXDXJXSXSXSXSXVXVXVXbXbXBXvXvXvXvXvXfXfXfXfXfX9X9X9X9X9X9X0X0X0X0X0X0X2X2X%X$X&X~.E.@X@X~.Q.T.Y.I.Y.I.I.I.n.g.h.6.-.&.&.O.%.o.~ ~ ~ o.+.o.W R Y R R W o.O.O.o.W o.+.o.o.+.+.~ W W W W W R R R R P V B u u a a M M a s a 7 u a M V u V F B M B B B M M M u M m m B V V C V B M M u M M M M u 8 8 8 8 u u u u u m m m m m Y 4.y.r.r.u.u.u.k.k.k.l.l.l.l.l.l.l.l.l.l.p.i.0.q.8.7.7.q.7.0.0.i.u.u.i.i.0.0.q.7.7.7.7.7.7.7.7.7.5.5.7.7.7.7.7.7.7.8.8.5.5.5.5.5.5.5.5.5.5.5.q.i.i.p.p.p.l.l.l.x.b.x.b.b.b.B.B.B.V.A.A.S.S.'.'.'.}.}. X}. X X X:X.X.X.XXXXXXXXXXXXXXX.X.X:X:X}.'.).)._.A.b.b.l.l.p.i.i.q.7.9.9.2.9.7.0.i.p.p.j.x.x.x.V.A.S.).'.'.'.{.{.{.}.}.}.}.'.'.'.'.`.`._.m.r.@.^ S x N N N N x c x x 9 c Z N v v v x v v x N N v 9 9 9 9 6 0 6 9 8 8 v 8 9 M 2 6 9 8 8 6 6 9 8 8 6 8 x M M 8 8 9 9 6 6 2 6 2 6 6 7 9 8 6 6 > 6 > > % 2 m 9 6 9 8 M 6 9 6 9 M m v 9 C N 9 6 0 2 6 6 9 A M M M M M C C Y Q +.+.W Y A C M 8 8 v v 8 8 9 9 9 9 7 6 7 7 7 7 7 w 4 4 4 3 3 , < < 3 3 < , , , = * * * = = = = = = = = = = = = = = * * = = = * * * * * * & & & & & & & * * & & * * * * * * * = = = = = * * = = * * * * & & ",
"HXHXHXKXHXKXKXKXKXKXHXHXHXJXDXDXJXJXJXDXSXSXSXVXVXbXbXbXvXvXvXvXvXvXvXfXfXfXfX9X9X9X9X9X9X0X0X0X0X0X0X2X2X$X$X%X@X~.~.@X@XE.W.R.Y.I.Y.I.I.g.g.t.e.6.;.&.O.+.o.o.o.W o.+.+.o.Q Y Y W R W o.O.O.o.~ o.+.+.+.+.o.~ ~ ~ W W W W R R R R F V M M M M M M M M M u a M M B M V F B M B B M M M M M m u M V F C V V M M M M M V V M u u 8 8 u u p p u u u u m m m N O.y.r.r.u.u.i.i.k.l.k.l.l.l.l.l.l.l.l.l.j.i.q.7.5.7.7.7.q.0.u.u.u.u.u.u.u.q.7.7.7.7.7.8.8.7.7.7.7.7.7.7.7.7.5.5.7.5.5.5.5.5.5.5.5.5.5.5.5.5.5.7.q.0.i.i.i.i.p.l.l.x.x.x.b.b.x.B.V.V.A.Z.Z.'.'.}.}. X X X}.}.}.:X.XXXoXXX.X.X.XOX}.'.'.'.).).'.).B.b.A.B.l.i.i.i.u.7.5.9.9.2.2.2.9.w.0.i.i.p.j.x.x.B.V.Z.).'.'.'.'.'.}.}.}.}.{.'.'.'.'.'.`.`.C.b.8.( L A N N N N N N x x x 9 x N N v v v x x v x N N M 8 6 8 8 6 0 6 8 8 x x 8 6 N 6 2 9 8 8 > 9 6 9 V m 8 9 x v M 8 8 8 9 6 0 6 2 2 0 6 9 x 9 6 6 6 2 > % > 6 6 6 6 9 M M 8 9 9 m C 8 9 9 x 8 Z 8 2 8 9 0 9 9 0 0 9 x M A T ~ O.O.%.Q L A M 8 8 8 9 9 9 9 9 9 7 6 5 7 7 7 7 7 4 4 4 4 4 1 , < < 3 < < , , = = * = = = = = = = = = = = = = = = = = = = = = = = * * * & & * * * * * * & & & & * * & & * * * * = = = = * * * * * * * & & & ",
"HXHXHXKXHXHXKXKXKXKXHXHXHXHXDXDXJXJXJXSXSXSXSXVXVXbXbXbXvXvXvXvXvXvXvXfXfXfX9X9X9X9X9X9X0X0X0X0X0X0X2X$X$X$X$X@X@X@X@X@XE.W.R.Y.Y.I.I.n.g.g.h.e.;.-.&.O.+.o.o.o.o.W o.+.+.~ T Y T ~ R Q o.+.o.o.+.O.O.O.+.+.o.~ W W W W W W R W R R R Y V M M M M M M M M u u M M B B B V B M B B M M M M C 6 u V F C V V M M M M V M V V M u 8 p 8 u u p p u u u u m m m x Q 4.r.r.u.u.i.i.i.l.l.k.l.l.l.l.l.l.l.l.j.i.q.5.9.7.7.7.7.0.u.u.u.u.q.7.7.7.7.7.7.7.7.5.8.7.7.7.7.7.7.7.7.7.5.5.5.5.8.5.5.5.5.5.5.5.5.5.5.5.5.5.5.q.q.i.0.q.i.p.p.l.p.p.l.x.x.B.B.V.Z.Z.S.'.'.'.}. X X X}.}.}.}.:X:X.XOX}.}.|.'.).).).Z.Z.A.b.x.l.l.p.p.q.7.i.q.7.5.9.2.2.2.2.2.9.7.0.i.i.p.l.x.x.V.A.Z.'.'.'.'.'.'.}.}.}.}.{.'.'.'.'.'.`.`.C.k.4./ S b C N m N N N b c x x x N N v b v x x x v b N M 8 9 8 x 9 9 9 8 9 N N x 0 M M 2 9 8 8 > > 9 6 x M m 8 8 x M M x 2 2 9 9 6 6 6 6 0 6 6 9 M M 9 6 6 > % > 6 6 2 2 6 8 M u 2 6 M v 8 9 9 x 8 C 8 9 9 6 9 2 9 9 0 2 6 9 x N N Z L Y A Z M m 8 9 6 6 9 9 7 7 7 6 6 7 5 5 5 4 4 4 4 4 4 4 1 < 4 < < , , , = = = = = = = = = = = = = = = - - = = = = = = = = = * * * * & * * * * * * & & & & * * * & * * * * = = = = * * * * * * * & & & ",
"LXLXLXHXHXHXHXHXHXHXHXHXDXHXDXJXJXJXSXSXSXVXVXVXbXbXbXbXvXvXvXvXvXvXfXfXfX9X9X9X9X9X9X0X0X0X0X0X5X2X$X$X$X$X%X$X@X&X@XE.W.T.Y.I.I.I.I.g.g.g.t.;.-.&.&.&.o.o.~ ~ o.o.o.o.W W Q Q Q o.R o.+.o.o.+.+.O.O.O.+.+.o.W Q W W o.W W R E R W W R J M M M B B B M u a a M a u u u M V V V B B B M M F 9 B F P F B M m m M M M Y M u u 8 9 8 9 8 8 9 9 p u u u m m m 8 Z @.r.r.u.u.i.i.i.k.l.k.k.l.l.l.l.l.l.j.i.i.q.5.9.7.7.7.7.7.7.7.7.7.7.7.7.7.7.7.5.5.8.7.7.7.7.7.7.7.7.7.7.7.7.7.7.7.7.7.7.7.7.7.7.7.7.7.7.7.7.5.7.7.q.q.q.q.q.q.q.p.p.l.x.x.D.D.V.V.S.S.'.'.'.}.}. X X X X X}.|.'.'.|.'.).).S.A.A.B.B.b.b.x.x.l.p.i.i.7.9.f.f.( ( ( ( ) ) f.2.2.9.7.0.i.p.l.x.x.B.A.Z.).'.'.'.'.'.'.}.}.}.}.'.'.'.'.'.'.`.`.m.u.2.^ S x N N N N m x x x b v v b v v N v x x x v b N M 8 9 9 8 x x 9 8 8 C N x 2 8 A 9 9 9 9 6 > 6 6 6 M M 8 8 8 8 x 8 9 6 2 > 2 2 > 0 8 V C V M M M M 8 6 > > > 5 6 6 6 6 9 m M M M x v 8 9 9 x 6 M 8 9 9 8 2 9 9 0 0 9 c x v x M C A Z v x m m 9 6 6 7 7 7 7 9 7 7 7 5 5 4 5 5 4 4 4 4 4 4 < 4 < , , , , = = = = = = = = = = = = = = = - - = = = = = = = = = * * * * * * * * * * & * * * * * * * * * * * * = = = = * * * * * * * * & & ",
"LXLXLXHXHXHXHXHXHXHXHXDXDXHXDXJXJXJXSXSXSXVXVXVXbXbXbXvXvXvXvXvXvXvXfXfX9X9X9X9X9X9X0X0X0X0X0X0X2X$X$X%X$X%X%X&X@X~.E.W.W.T.Y.I.I.n.I.g.g.h.e.&.&.&.&.&.o.o.~ ~ o.+.~ Q T Q W W W o.o.O.+.o.o.%.+.+.O.O.+.+.o.W W W W o.W E R R R R W W R V B B B B V B a u a a u u u u m V F V B B B M M B F R Y P C B m u m m M V B M 8 8 7 7 7 9 9 9 9 9 p u u u m m m 8 M ~ r.r.r.u.i.i.i.i.k.l.k.k.k.k.k.k.l.j.i.i.q.5.9.5.7.q.7.7.7.8.5.5.7.7.7.7.7.7.5.7.7.7.7.7.7.7.7.7.7.7.7.r.7.7.7.7.7.8.7.7.7.7.7.q.q.q.q.q.q.7.7.7.q.q.q.q.q.q.p.p.x.x.b.B.D.D.D.S.S.S.'.'.|.|.}.}. X X X X:X|.'.).).).S.S.B.B.b.x.l.p.p.i.p.q.9.9.K K ) ) ( ) ) ) ) K ) f.2.2.9.q.0.i.p.l.x.x.V.Z.Z.`.'.'.'.'.'.'.}.}.}.'.'.'.'.'.'.`.`.C.b.5.@.) Z N x N N m m x x c b N b x x v b N x v v x v b m 8 9 9 9 x x x x x C N 8 0 6 C V 6 6 6 6 2 > 8 2 M C 8 8 8 8 8 8 8 9 6 0 0 6 0 6 v M 8 7 6 6 6 2 > > > > > 2 6 6 6 7 9 9 9 m C 8 8 v 8 M 6 9 x v 9 8 v 9 0 2 9 9 x M Z L Q ~ T A M 8 8 8 8 9 9 6 6 6 6 7 8 7 7 7 4 7 4 4 4 4 4 4 4 4 4 4 < < , , , , = = = = = = = = = = = = = = = - = = = = = = = = = = * * * * * * * * * * & * * * * * * * * * * * * = = = = * * * * * * * & & & ",
"LXLXHXHXHXKXHXHXHXHXDXDXDXHXJXJXSXSXSXSXSXbXbXbXbXbXbXvXvXvXvXvXvXzXfXfX9X9X9X9X9X9X0X0X0X0X5X,X%X$X$X$X$X%X%X@XE.E.W.W.W.T.Y.I.I.T.T.I.n.e.&.-.;.;.-.O.o.o.o.o.o.o.W Y T W Q W W o.+.O.+.o.o.%.o.+.O.O.+.o.o.W Q W ~ ~ W T Y Y R R R W W F V V B B V B M u m u u u u u m B R V B B M M M M R R R C C M u 8 M M B V M u 8 7 7 7 7 7 7 7 9 9 y p u u m m m 8 x A 6.r.r.u.i.i.i.i.k.k.k.k.k.k.l.l.l.l.i.i.q.5.9.5.7.7.q.7.7.7.5.7.5.5.7.7.7.7.7.7.7.7.7.7.r.r.u.u.u.u.u.u.7.u.u.7.7.7.7.7.q.q.u.u.q.q.i.i.i.q.q.q.q.i.p.p.p.x.x.B.B.B.B.B.D.D.S.S.).).'.|.|.|.|.|.}.}.'.).'.).Z.B.D.x.x.D.p.D.x.p.7.q.5.9.5.l.p.5.K ) ( f.2.2.f.f.( ) ( 2.2.9.9.q.q.i.p.l.x.B.A.Z.Z.'.'.'.'.'.}.'.'.'.'.'.'.'.'.'.'.`._.C.b.4.( L b v x m m x x m x v v N v x x v v N x N N x x x x 8 8 x x 8 M v v M N M 8 6 0 M M 6 6 9 8 6 6 > 6 6 8 8 8 9 9 9 8 8 9 6 6 6 6 0 6 M M 9 6 6 6 2 > > > > > > > 1 2 6 6 7 9 9 M M C Y T Q N M M v x x x x v v N N N Z L A A Y T T Y Z v v m 8 9 6 7 6 6 6 7 p p 7 5 7 4 4 4 4 4 4 4 4 4 4 4 4 < , , , , = = = = = = = * = = = = = = = = = = = = = = = = = = = = = * * * * = = * * * * * * * * * * * * * * = = = = * * = * * & & & & & ",
"LXLXHXHXKXKXKXKXHXKXDXDXDXHXJXJXSXSXSXSXSXbXbXbXbXvXvXvXvXvXnXnXvXvXfX9X9X9X0X0X0X0X0X0X0X5X,X,X$X$X$X$X$X%X%X@XE.W.W.W.W.T.Y.I.I.Y.I.g.e.-.-.6.;.-.O.+.o.o.o.o.o.~ W Q W W W o.+.O.+.o.o.+.%.o.o.O.&.O.+.o.o.W W W W W W R Y Y Y Y R W W Y V V V V V V B m m M u u u B B V Y V B B M M M M Y R Y C V M M M M M B M u 8 9 7 7 7 6 7 7 7 7 7 9 p u u m m m m x x @.y.r.u.u.i.i.i.i.i.j.j.j.j.k.l.l.l.i.i.q.5.9.5.7.7.q.7.7.7.5.5.5.5.5.5.7.7.7.7.7.7.7.7.7.7.r.r.u.u.u.u.u.u.u.r.q.q.7.7.u.i.u.i.q.i.i.i.i.i.i.p.p.p.x.x.B.B.B.D.B.B.B.B.D.D.S.S.).).).'.'.'.'.).).S.S.B.A.B.x.x.x.x.x.x.p.p.p.q.l.V.l.2.7.b.m.i.) ( f.f.2.2.f.f.f.2.2.2.9.9.5.q.q.i.p.l.c.V.Z.Z.Z.'.'.'.'.'.'.'.'.'.'.'.'.'.'.'.`.`.C.M.k.3.^ S x x m x x x m m v v N b v x x b v c N N N c c v M 8 8 M x 9 x N N N x 8 8 x 6 9 6 M 9 6 6 8 > 6 6 9 8 8 8 9 9 9 9 9 9 9 9 6 0 2 6 v M 8 9 9 7 6 > > > > > > > > > > > 6 6 8 N C Y T ~ o.L C N M M M v v 9 x N Z Z v v N A ~ ~ Y L T L C V M 8 6 6 6 6 7 7 p u 7 7 7 4 4 4 4 4 4 4 4 4 4 4 4 < < , , < = = = = = = = = = = = = = = = = = = = = = = = = = = = = = * * * * * * * * * * * * * * * * * * * * = = = = * * = * * & & & & & ",
"HXHXHXHXLXKXKXKXHXHXDXDXDXHXJXJXSXSXSXSXSXbXbXbXbXvXvXvXvXvXnXvXzXfXqX9X9X9X0X0X0X0X0X0X5X,X,X$X$X%X%X$X$X%X$X~.E.W.W.W.R.R.Y.I.I.I.n.e.-.;.6.6.-.O.+.+.o.o.o.o.~ ~ W Q W W ~ +.O.O.o.o.o.+.+.o.o.+.&.O.O.o.o.~ ~ ~ W W W R Y Y Y Y R W R J F V V V V C V M m m u u V B m V V B V V M 8 u C L Y Y C V N M M M M M u 8 9 7 7 7 7 7 7 7 7 7 7 p p p u m m u m x x A 4.r.r.u.i.i.i.i.i.j.j.j.j.k.l.l.l.j.i.q.5.9.5.8.q.q.7.7.5.5.5.7.7.5.5.5.5.5.5.5.5.5.5.7.7.7.7.7.7.u.r.u.u.u.u.i.i.i.u.u.u.i.i.i.i.i.i.p.p.p.p.p.p.B.B.B.D.D.D.D.D.B.B.D.S.S.S.S.S.S.S.S.S.S.S.B.D.x.p.p.p.p.p.p.x.N.p.p.q.q.j.).{._.q.l.M.m.i.( 2.2.2.2.2.2.2.9.9.9.9.9.5.q.q.q.p.j.x.B.Z.Z.Z.Z.'.'.'.'.'.'.'.'.'.'.'.'.'.'.G.`.Z.M.b.r.@.S c x v m N N N N N N N N b v v v b v x N N N 9 x x 8 N N 8 x x x N N N x 9 9 N v 0 6 6 R > 6 > 8 6 6 6 8 8 8 9 9 9 9 9 9 6 6 6 8 8 9 8 x 8 8 8 8 8 6 > > > > > > > > > > > 2 2 2 2 9 x N Z A A Y R W W W W v v N N N x x N Z A T / Q A 8 8 8 8 8 8 9 9 9 7 7 p y 7 7 7 5 4 4 4 4 4 4 4 4 4 4 4 3 < < < < = = = = = = = = = = = = = = = = = = = = = = = = = = = = = * * * * * * * * = = = = = = = = * * * * = = = = * * * * & & & & & & ",
"HXHXHXHXLXKXKXKXHXHXDXDXDXHXJXJXSXSXSXbXbXbXbXbXvXvXvXvXvXvXnXvXqXqX9X9X9X0X0X0X5X5X0X0X5X,X%X$X$X$X$X$X%X$X&XE.W.W.W.W.R.Y.I.I.I.I.h.-.6.e.e.&.O.+.+.+.o.o.~ ~ W W ~ W Q W o.+.+.+.O.O.O.+.+.o.o.O.&.O.O.o.o.~ ~ ~ W W W R Y A Y Y R R R F F V V V V V V B M m M M D m u F M M B B M u M Y L Y Y C Z M M M M 8 8 8 9 7 7 7 7 7 7 7 7 7 7 7 y p p u u u u u 8 m N @.r.y.r.u.i.i.i.i.j.j.j.j.k.l.l.l.l.j.q.5.9.5.5.7.7.7.7.5.5.5.5.5.5.5.5.5.5.5.5.5.5.5.5.5.5.5.5.5.7.7.7.7.u.u.i.i.i.i.i.u.i.i.i.i.i.p.p.p.p.p.x.B.B.B.D.D.D.D.D.D.B.B.S.S.S.S.S.S.B.B.B.B.D.D.x.p.p.p.w.w.w.w.A.F.G.A.x.N.N.c.{.XX{.m.m.M.l.i.2.2.2.2.2.2.2.2.9.7.5.9.9.7.q.q.q.p.j.x.V.Z.Z.Z.Z.'.'.'.'.'.'.'.'.'.'.'.'.'.Z.Z.Z.C.m.b.5.( S c b x m N N N N N N N N b v v v v v N x N N c x x x x M 8 8 N M M M N N x 8 x N 8 6 6 C 9 > 6 6 8 6 9 8 8 8 8 9 9 9 9 9 9 9 9 9 6 6 6 8 v M u M M 9 6 2 6 2 1 2 6 6 6 2 6 6 6 9 8 8 8 8 v C A Y R T Q Q W L Z x 9 v Z Z N N A A Z A L A M m 8 9 6 7 7 7 7 7 7 7 7 5 5 4 4 4 4 4 4 4 4 4 4 4 4 4 < , < < = = = = = = = = = = = = = = = = = = = = = = = = = = = = = * * * * * * * * = = = = = = = = = * * * * * * * * * * * & & & & & & ",
"LXHXLXLXLXKXHXHXHXHXDXDXHXJXJXHXSXSXSXbXbXbXbXbXnXvXvXvXvXnXvXvXqX9X9X9X9X0X0X5X5X5X5X5X5X,X@X$X$X$X$X$X$X&X#XE.W.W.W.W.T.Y.I.g.Y.r.-.;.e.e.e.O.~ W W W W Q W Q Q W ~ ~ W ~ +.+.+.O.O.&.O.O.+.+.o.O.&.&.O.~ ~ ~ ~ ~ W Q T R Y Y Y Y Y Y P C C C V V V V V B M M B M D M u F m B B M M M V R C Y Y C V M V B M u 8 7 9 9 7 7 7 7 7 7 7 7 7 7 y p u u u u u u m m c ~ y.y.r.r.u.7.i.i.j.k.j.l.l.l.l.l.l.l.i.7.9.5.5.q.7.7.7.5.5.5.5.5.5.5.9.9.9.9.9.9.9.9.4.5.5.5.5.5.5.7.7.5.7.q.u.u.u.u.u.i.u.i.q.q.i.i.p.p.p.p.x.B.B.B.B.D.D.D.D.D.D.B.S.S.D.D.B.B.D.p.p.p.p.p.w.p.w.w.p.p.x.S.F.|. X'.D.x.j.A.XXXX{.b.M.k.l.i.) 2.9.f.f.2.9.5.q.q.q.5.5.q.q.q.p.p.l.x.V.A.Z.Z.Z.'.'.'.'.'.'.'.'.'.'.'.'.G.Z.Z.C.m.m.k.3.) b c x x M N C C N N N N N v b v v v N v x N N x c x x x M x x N N v v Z N x x x x x 8 9 8 M 9 6 2 6 M 8 6 6 8 8 9 9 9 9 9 9 8 9 6 2 2 2 6 m M m m 8 8 9 6 6 2 2 2 6 6 9 6 9 6 6 9 8 v v 8 8 M M C C Y W M M 8 9 8 M M C A M N N M M M C C C M u 9 6 6 6 6 7 7 7 7 4 5 5 4 4 4 4 4 4 4 4 4 4 4 4 3 < , < , = = = = = = = = = = = = = - - = = = - - - = = = = = * * * = = = = = = = = = = = = * * * * * * * * * * * * * * * & & & & & & & ",
"LXHXHXLXLXKXHXHXHXHXDXDXHXJXHXHXSXSXbXbXbXbXbXbXvXvXvXvXvXnXzXzXqX9X9X0X0X0X0X5X5X5X5X5X5X,X@X$X$X%X$X$X&X&X@XE.W.W.W.T.Y.Y.I.g.g.;.;.e.6.e.O.O.~ W W Q Q W Q W Q W W Q o.O.O.&.&.&.-.&.O.O.+.o./ +.&.&.O.~ ~ ~ W ~ W Q Y Y Q Q Y Y Y L C C C C V V V V B B M M B M V B B M p D V 9 9 V L R C Y Y C V M B B M u 7 7 7 9 7 7 7 7 7 7 7 7 7 7 y p u p u u u u m m x A @.5.r.r.5.5.7.u.i.k.j.l.l.l.l.l.l.l.l.0.5.5.5.q.q.q.7.5.9.9.9.9.9.9.9.3.9.9.4.4.4.4.4.4.9.5.5.5.5.5.5.5.5.5.5.5.7.7.7.7.7.7.q.q.q.q.i.i.p.p.p.p.D.B.B.B.B.D.D.D.D.B.B.B.D.p.p.p.p.p.p.p.p.p.q.b.w.p.x.x.D.F.>XXX X XF.N.x.`.}.XX{.x.q.l.l.2.( 2.9.2.2.9.5.q.i.i.q.q.q.i.p.p.p.l.x.D.V.Z.Z.Z.).'.'.'.'.'.'.'.'.'.'.'.'.G.Z.Z.C.M.b.u.( S b b b N N N A C N N N N x x v v v v b x x v N v x x x N A A M 8 Z v v N N x 9 9 9 x x 8 6 8 8 6 2 2 > 2 8 M 6 9 8 m 8 9 8 8 8 9 6 6 2 > 6 8 8 m m 9 8 M 8 2 2 8 6 > > > 8 9 6 2 2 6 8 8 M v M M C C C Z Y Z x 9 9 8 M N V M N N M M M M M V M 9 6 6 6 6 6 7 7 7 7 4 4 5 5 5 4 4 4 4 4 4 4 4 4 4 3 4 4 < = = = = = = = = = = = = = = = - = = = = - - = = = = = * * * = = = = * = = = = = = = * * * * * * * * * * * * * * * & & & & & & & ",
"HXHXLXDXLXHXHXHXHXDXDXDXHXJXHXHXSXSXbXbXbXbXbXbXvXvXnXnXnXnXzXfX9X9X9X0X0X0X0X5X5X2X5X,X,X,X@X$X$X%X$X$X&X&X@XE.W.W.W.Y.I.Y.n.g.6.;.6.e.6.-.~ +.~ Q Q Q W T W W Q W ~ o.O.&.&.&.-.;.&.&.O.O.+.o.~ o.O.&.O.o.~ ~ ~ W Q T L Y Q Q Y Y Y L C C C C C C V V B B M M B V M D V p u B M u u M Z Y C L L V V V B M u 8 7 9 7 7 7 7 7 7 7 7 7 7 7 7 p p u p u u u u u m x N ^ y.r.r.7.5.5.u.i.k.j.l.l.l.l.x.x.x.l.j.0.5.5.q.q.u.q.5.9.3.2.2.2.2.@.@.( ^ ) ) ) ) ) ) @.3.3.4.5.5.5.5.5.5.5.5.5.5.5.5.5.5.7.7.w.q.q.q.q.w.w.p.p.p.x.p.D.D.p.p.D.p.p.p.w.w.w.w.w.w.p.p.p.p.b.p.B.p.D.D.A.F.iX>XXX>X XN.V.'.{.}.'.j.f.K ) K 2.2.9.9.9.q.p.l.l.p.p.i.i.i.p.p.l.x.x.D.A.A.Z.Z.'.'.'.'.'.'.'.'.'.'.'.'.`.G.Z.C.m.b.j.5.) b c b N N N N N N N N N N v x b b v x x x x x x N c c 9 8 x M x 2 x N N N N x 9 0 0 9 x v 8 6 M 6 2 2 6 6 6 2 M 8 9 9 M V V M m 8 9 6 6 2 2 8 M m m V V 8 m M 8 6 9 M M C 8 M 8 9 6 6 6 9 8 8 M N C C Z N Y Z x 8 9 6 8 N N M M M M M M x 8 8 8 8 6 2 2 7 7 7 4 4 4 4 4 5 5 5 4 4 4 4 4 4 4 4 4 4 3 4 w 4 = = = = = = = = = = = = = = = = = = = = - = = = = = = * * * = = = = * * = = - - - - = = * = * * * * * * * * * * * & & & & & & & ",
"HXHXLXDXHXHXHXHXHXHXDXDXHXJXJXJXSXSXbXvXbXbXvXvXvXvXnXnXzXzXfXqX9X9X9X0X0X0X0X5X5X2X,X,X,X,X&X$X$X&X$X$X$X&X#XQ.W.W.W.Y.Y.T.n.h.4.6.6.6.6.%./ ~ Q Y Y Y Y Y Y Y Q o.O.&.&.&.&.-.;.-.&.&.O.O.+.~ ~ o.O.O.O.o.~ ~ ~ Q Q T T T Y Y Y Y Y L C C C C C C V V B B M M B V M V V u B M u 7 9 M C Y Z Z Z Z V V B u 9 9 9 7 7 7 7 7 7 9 7 7 7 7 7 y p p p y p p u u u 8 x x N 4.r.r.r.5.5.u.i.k.k.l.l.l.l.x.x.b.x.l.i.q.5.q.q.q.q.5.9.9.2.( ) K K K K K K K K K S S ) @.3.5.5.4.3.9.9.5.5.9.5.5.9.9.5.5.7.7.w.w.w.w.w.w.q.w.q.p.p.p.p.p.p.w.w.w.w.w.w.w.w.p.p.x.D.x.B.x.B.x.D.D.D.D.F. X>X>X>X>X Xc.F.'.'.{.'.j.2.K ) ) 2.2.9.9.q.p.l.B.b.x.p.p.p.p.x.l.x.x.c.D.A.Z.F.F.'.'.'.'.'.'.'.'.'.'.'.'.`.G.Z.C.m.k.j.3.S b b N N N N N N M m x c x N N N N x x x x x x c b x x 8 8 9 9 9 6 9 N Z M N v c 9 9 9 x x x 8 M 9 2 > 6 2 2 > 9 9 8 8 8 8 8 8 8 8 9 8 6 6 2 6 9 9 8 M V V M M m m m 8 9 9 m M V V M m 8 9 6 9 v M C C Z C x N 8 8 8 9 8 M C M N M M 8 8 8 6 9 9 9 6 6 7 7 7 7 4 5 4 5 4 5 5 5 4 4 4 4 4 4 4 4 4 4 3 3 4 4 w < = = = = = = = = = = = = = = = = = = = = = = = = = * * * = = = = = * = = - - - - = = = = * * * * & & & & & & & & & & & & & & ",
"HXHXHXHXHXHXHXHXHXHXHXHXDXDXDXJXSXSXbXvXvXnXvXvXnXnXnXnXzXzXqX9X9X9X0X0X0X0X5X5X5X<X,X$X%X$X&X&X&X&X%X$X%X&X@XQ.W.W.T.T.Y.Y.g.e.6.e.e.;.O.o.~ Q T Y Y L T A Y ~ o.O.-.&.&.&.&.-.;.;.-.&.O.O.+./ ~ +.O.O.+.~ ~ ~ o.Q W T T T Y Y Y Y Y C C C P Y A C V N B M M B B V B V B M B u 9 6 9 M L L L Z N M B V B 8 6 7 7 7 7 7 7 7 7 7 7 7 7 7 7 7 p p y 9 y y p p u u u m m A 6.r.r.8.7.u.i.j.k.k.j.l.l.l.b.b.b.x.j.0.q.q.q.0.q.7.5.9.2.2.) K K K K K K K K K S S ) @.3.5.8.4.3.3.5.0.0.5.9.9.9.5.9.5.7.7.7.7.7.7.7.w.q.q.w.w.w.w.w.w.w.w.q.w.q.w.w.w.p.D.x.B.A.D.S.'.'.V.D.D.D.D.F. X>X>X>X>XF.F.'.F.G.`.`.0.9.( K ( 9.9.9.w.p.x.B.A.B.B.x.x.x.x.x.x.x.x.D.D.A.Z.F.F.'.'.'.'.'.'.'.'.'.'.'.`.G.Z.Z.C.b.j.8.T b b N N N N N N N b N N v v N N N N x c x x c c v v x 9 9 9 6 9 9 9 9 N N v N v x 9 9 9 8 9 8 M C M 8 6 6 8 6 > 2 6 6 6 9 6 6 6 9 8 9 2 6 6 6 2 6 9 8 m M M M m m M M m M m m 8 M C A C A M x 9 6 9 8 x A C C N v 8 9 9 9 M C Z A v v 9 8 8 6 6 7 6 9 9 9 9 7 7 7 5 4 4 4 5 5 5 4 4 4 4 4 4 4 4 4 4 4 3 < 3 e < < , , , = = = = - - = = = = = = = = = = = = = = = * * * = = = = ; ; ; - - - - - = = = * * * * * & & & & & & & & & & & & & & ",
"HXHXLXHXHXHXHXHXHXHXHXHXDXDXDXJXSXbXbXvXvXnXvXvXnXvXzXzXzXfXqX9X9X0X0X0X0X5X5X5X5X<X$X$X$X$X%X%X&X&X$X$X&X@X[.W.W.T.T.T.I.n.g.6.e.e.e.-.o.~ Q Y Y Y Y L L R o.O.&.-.-.&.&.&.&.-.;.-.&.@.O.O.+.o.~ +.&.O.+.~ ~ ~ o.W W T T T Y Y Y Y Y F C C P Y C V N M M B B M B V V V B B B u 7 6 9 Z L L L Z N M M B M 8 7 6 7 7 7 7 7 7 7 7 7 7 7 7 7 7 p 8 9 9 y y y p 8 8 8 u m N &.y.r.r.r.u.i.j.k.k.j.l.l.x.b.c.c.b.l.j.0.q.q.0.i.q.7.5.9.9.2.( ) ) K K K K K K K S ) ( 2.5.8.4.3.3.u.k.i.0.5.2.9.9.9.9.5.9.9.9.9.5.5.q.q.q.7.7.q.q.q.q.q.q.w.7.w.p.x.x.x.D.D.D.x.D..XoX>X'.D.D.D.S.H. X>X>X>X>X X}.G.A.G.V.`.5.9.f.( 2.9.5.q.w.D.A.Z.S.A.B.b.D.x.x.x.x.x.D.D.D.A.S.F.'.'.'.'.'.'.'.'.'.'.'.`.G.Z.Z.A.C.z.7.3.S b N N N N N N N N N N N N N N v x c x v v x x N N x x 9 6 6 9 9 9 8 x N N x N v x 9 9 9 8 6 9 x 2 M m C 9 6 M 2 8 8 8 8 9 6 6 8 9 M m 2 2 6 V 2 2 M 9 x m 8 m m m m m M M M m 8 8 M C C L N 8 6 x 8 9 6 6 9 8 9 9 6 6 2 6 8 N Y Y N M 8 8 8 9 9 6 6 9 9 9 9 8 8 y 4 4 5 5 3 3 5 4 4 4 4 4 4 4 4 4 4 4 4 4 < 3 4 < < , < = = = = - - = = = = = = = = = = = = = = = * * * = = = = ; ; - - - - - - = = = * * & & & & & & & & & & & & # # # & & ",
"LXLXLXDXHXHXHXHXDXDXHXHXHXJXDXJXSXbXbXvXvXnXvXvXvXzXzXfXzXfXqX9X9X0X0X0X5X5X5X5X5X<X,X$X$X%X$X$X$X$X$X@XE.E.E.R.W.W.Y.Y.n.g.g.6.e.e.6.@.~ Q Y Y Y L L L Y o.&.-.-.-.&.&.&.&.&.-.;.-.&.@.O.O.+.o.~ O.&.O.+.o.~ ~ ~ W o.T T T Y Y Y Y Y Y Y C C C V M M M B V V B B B C B M V B 8 9 6 9 C Y L L N v M M M M u 9 5 5 5 7 7 7 7 y y 7 7 7 7 p p p 7 9 9 9 9 y y 8 8 8 8 8 x Q 6.r.r.r.u.i.i.k.k.l.l.l.x.b.m.c.c.x.x.j.q.0.i.i.i.q.7.5.9.9.2.2.( ) ) ) ) K ) ) K L ( @.4.r.8.3.3.k.b.b.u.9.9.9.9.9.5.7.9.9.9.9.5.q.q.p.q.q.q.q.q.q.q.q.q.p.x.V.Z.'.'.S.D.D.D.D.Z..X.XiX>X XS.D.F.H.>X>X>X>X>X XF.V.A.G.G.Z.7.2.2.9.9.7.q.p.D.S.S.).).S.B.D.B.B.D.D.D.D.D.D.A.A.Z.F.'.'.'.'.'.'.'.'.'.'.G.G.Z.Z.A.V.V.k.8.^ b b N N N N N N b N N N N N N N N N x 9 9 x v N N v x 9 9 6 6 6 6 9 x v N v x N v v 9 9 9 6 2 6 8 m 9 V 6 8 A M M 6 6 6 6 8 V C V C C A Y C 2 M m 6 9 m 8 9 8 8 8 8 8 8 8 9 6 6 6 6 9 8 m N M 9 2 x 8 9 6 2 2 > 2 6 8 8 6 2 6 M C C M 6 6 0 0 6 2 5 6 7 9 9 9 8 u p y 4 4 5 5 5 5 4 4 4 4 4 4 4 4 4 4 4 4 4 3 < 4 4 < < < = = = = = = = = = = = = = = = = = = = = = * * * = = = = ; ; * * - - - - = = = * * & & & & & & & & & & & & # # # # # ",
"LXLXLXHXHXHXHXHXDXDXHXHXHXDXDXJXSXbXbXbXbXbXvXnXvXzXqXqXqXqXqX9X9X0X0X5X5X5X5X5X5X,X,X%X%X%X$X$X%X$X@X~.E.E.Q.R.W.T.T.n.g.n.e.6.e.6.-.+.W T Y Y L L L Y o.&.&.&.&.-.&.&.&.&.&.-.;.-.&.@.O.O.+.o./ O.&.O.+.o.~ ~ W W o.T R T Y Y Y Y Y Y Y C C V V M M M B B V B B V V B B B B u 8 7 9 C Y L L N M m M a u u 9 5 5 5 5 7 y y y y 7 7 7 7 p p p 7 9 9 9 9 y y 8 8 8 8 8 8 N &.y.r.r.u.u.i.k.k.l.l.l.x.b.c.m.m.c.m.x.i.0.i.p.p.i.q.7.5.5.9.2.2.2.( ( ) ) ) ) K T ^ @.9.r.7.8.9.l.k.b.x.0.9.9.5.7.i.i.q.9.9.9.q.i.x.x.x.l.j.q.q.q.q.q.j.V.G.'.'.}.XX}.A.A.D.D.F..XoXiXiXXXF.D.F.H. X>X>X>X>X>XF.N.N.q.m.8.f.f.9.7.q.w.p.D.S.).).).).S.A.D.A.V.B.D.D.D.V.A.A.S.S.F.'.'.'.'.'.'.'.'.'.G.G.Z.Z.Z.V.V.c.j.3.n b Z N Z N N N N b N N N N N N N N v c 6 9 x N v x x x 9 9 6 6 6 6 9 M N x v x b M v 9 9 9 6 > > 6 9 m 8 8 8 8 M V m m m m m m 8 m V J T Y Y V m 8 9 9 6 8 8 9 9 6 6 9 8 8 8 8 9 6 2 2 2 6 6 9 8 2 6 9 8 8 9 6 2 > > 2 0 2 2 6 8 Z A C 9 9 6 0 6 6 2 5 6 6 6 9 8 u p y 7 4 5 5 5 4 4 4 4 4 4 4 4 4 4 4 4 < 3 w < 4 < < < < - = = = = = = = = = = = = = = = = = = = = * * * = = = = ; ; ; * - - - - = = = * * * * & & & & & & & & & & # # # # # ",
"LXHXHXHXHXLXHXHXHXHXHXHXJXJXJXSXSXbXSXSXbXbXvXvXzXfXqXqX9X9X9X9X0X0X5X5X5X5X2X2X,X,X,X,X,X,X$X,X,X$X#X[.[.E.W.T.T.Y.I.n.g.n.-.6.e.;.&.~ Q Y Y Y Y Y Y Q O.-.&.&.&.&.&.&.&.&.&.;.;.-.&.O.O.@.%.~ / O.O.O.O.o.~ ~ W ~ W ! R R Y Y Y A C C C C V V B M B B V B B V V V V B B B B M 8 7 9 C Y L Z N v M u 8 9 8 7 5 5 5 5 7 u u 7 7 7 7 7 8 7 7 8 7 7 7 7 7 9 9 y y 8 8 9 8 8 Y y.r.r.r.u.u.j.k.j.l.l.x.c.c.c.c.V.V.B.l.l.l.j.l.i.i.q.7.5.5.9.2.2.2.( ( ) ) ) K ) ^ ^ 3.7.5.8.9.j.M.z.b.l.q.5.7.j.c.b.0.8.8.5.x.m.Z.Z.Z.Z.Z.A.c.j.c.j.m.`.'.XX>X>XiX>X{.F.G.A. X>X>XiXiXiXiXF.F.H.H.>X>X>X>XXXS.D.x.9.f.3.f.9.q.i.w.p.D.S.'.'.'.'.'.S.S.A.S.A.V.V.V.V.A.A.Z.Z.G.F.'.'.'.'.F.'.'.'.F.F.Z.Z.Z.A.M.m.k.8.S c S N Z N N N N N N N N N N N N N N v 9 9 x x v x x x x 9 9 0 6 6 0 6 N N 8 v v N N N 9 9 6 0 2 > 2 6 8 9 8 M 2 9 M M M M M v v 8 M N Z Y W W Y N v 8 9 6 7 9 9 9 6 6 6 9 9 8 8 9 6 2 2 2 2 2 6 9 6 6 9 8 m x 8 6 > > > 2 > 2 6 v M N V 8 9 6 6 9 6 2 > 2 6 7 9 u u a p y 4 4 4 4 4 4 4 4 4 4 4 4 4 4 4 4 4 4 w 4 3 3 < < , < - - - = - = = = = = = = = = = = ; ; ; ; ; ; ; ; ; ; ; * * * * = = = = * * * & & & & & & & & & & & & # # # # # # # ",
"HXHXHXHXLXLXHXHXHXHXHXHXJXJXSXbXSXSXSXSXbXbXnXvXzXfXqX9X0X0X0X0X0X0X5X5X5X5X2X2X,X,X,X,X,X$X$X&X&X&X&X#X@XE.R.Y.Y.T.n.I.g.h.&.e.;.&.+.~ T Y Y L Y Y T o.&.-.&.&.&.&.&.-.-.-.O.&.-.&.O.O.O.%.o.~ / O.O.O.O.o.~ ~ o.o.o.W R R Y Y C V V V V V V B B B V V V V V V V V V B M M M M 8 7 7 C ! L Z N v x u 8 8 7 5 5 7 7 4 7 7 u 7 7 7 7 8 7 7 7 8 7 7 7 7 7 9 9 y y 8 8 8 9 u u o.y.8.8.r.u.u.j.j.j.l.l.x.c.c.V.V.A.V.c.l.l.l.p.p.i.u.7.5.5.9.9.2.2.2.2.( ) ) ) ( ( ^ ( 8.9.5.9.0.b.c.c.x.N.9.0.m.`.m.A.j.q.5.m.C.'.{.'.'.'.'.`.x.x.x.Z.'.{.XX>X>XiXpXiX{.C.G. X>X>XiXiXiXiX|.F.F.|. X>X>X>X XF.A.D.q.f.( 9.q.p.p.p.D.A.'.'.}.}.}.|.'.S.S.S.A.V.V.A.A.A.Z.Z.F.'.'.'.'.'.'.F.'.'.'.F.G.Z.Z.Z.A.m.b.k.@.N c S Z Z N Z N N N N N N N N N N N v N v v N x x x x x x x 9 6 6 6 0 9 v v 8 v v N Z N 9 9 6 6 0 2 > 2 2 M 8 M C 6 6 8 M M 8 8 8 C v 8 8 v C L A C M 9 8 8 8 8 9 6 9 9 6 6 2 5 6 7 6 6 6 6 2 2 6 2 9 8 8 8 8 M x 6 6 2 > > 0 6 6 N 8 8 M v 9 9 6 9 6 2 2 6 6 9 8 u u p p y 4 4 4 4 4 4 4 4 4 4 4 4 4 4 4 4 w w 4 4 4 < < , , < < - - - - = = = = = = = = = = ; ; ; ; ; = = = ; ; ; ; * * * * = = = = * * * & & & & & & & & & & & & # # # # # # # ",
"HXHXHXHXHXHXHXHXHXHXHXHXJXSXSXSXSXSXvXSXbXbXvXvXzXfXqX9X0X0X0X0X5X5X2X2X5X5X5X5X<X<X,X,X,X,X$X&X@X@X@X[.E.Q.T.T.I.g.I.n.g.e.&.e.6.&.%.W Q Y Y L Y Y Q O.-.&.&.&.&.-.-.&.-.4.&.&.&.@.O.O.%.%./ ^ / O.O.+.%.o.~ ~ ~ ~ W R Y Y C C V V V B V V V B M M V C C V V V V B B B M M u u 8 8 9 L ! L Z N M m u m u 7 7 7 7 7 7 7 7 7 7 y 8 p p 8 p p p 7 7 7 7 7 y y p p p p 8 8 u 6 V ;.y.8.7.r.u.i.j.l.l.l.x.c.c.B.V.A.A.V.c.l.l.i.j.i.i.q.7.5.5.9.9.2.2.2.2.f.( ^ @.( / ) 3.5.9.3.7.z.m.c.c.k.8.N.C.'.`.C.'.q.0.Z.'.{.{.XXXXXXXXXXA.x.Z.'. XXX>X>XiXiXpXpX>XG.G.XX>X>XiXiXiXiXXXF.|.F. X>X>X>X|.|.F.D.x.f.9.p.p.p.p.B.S.).'.|.}.}.}.}.'.'.S.S.S.D.V.A.A.S.Z.F.'.'.'.'.'.'.'.G.'.'.F.F.G.Z.Z.A.V.b.z.5.^ b x N C N N C S N N N N N N N N N x c N N N N x x v x x x x x 9 9 6 9 8 x x v v v N Z Z 8 8 6 2 0 6 > 1 6 2 9 8 8 C 8 8 M M M N 8 C A N 9 9 9 8 M C Z M 6 6 8 M 8 9 8 8 9 6 6 6 6 7 9 9 6 6 6 6 9 2 8 8 8 8 m M M 8 9 9 6 6 6 9 9 x 6 6 v M 8 9 6 9 6 6 6 7 8 u u u p p p y 4 4 4 4 4 4 4 4 4 4 4 4 4 4 4 w 4 4 4 3 < < < < , < < < < < < < < - < = = = = = = ; ; ; = = = = = = = ; ; * * * * = = = = * * * & & & & & & & & & # # # # # # # # : : ",
"HXHXHXHXHXHXHXHXHXHXHXHXJXSXbXSXSXSXSXvXbXbXvXvXzXfXqX9X0X0X0X5X5X2X2X2X,X,X,X,X,X<X,X<X,X$X$X$X#X~.E.Q.Q.Q.T.I.I.n.n.n.g.e.-.6.-.O.o.W T Y L L Y Y ~ &.-.-.&.&.&.-.-.O.O.4.-.&.@.O.%.%.%./ ~ ~ / +.+.+.O.%.~ W W T R Y F F C V V M M M V V B M m M V F F V V V V B V B M M 8 8 8 8 8 L ! Y Z N M 8 8 m u 7 7 7 7 y y 7 4 7 7 y p p p 8 p p p 7 7 7 7 7 y y y y 7 7 p 8 7 8 8 ~ 4.6.8.r.u.u.i.j.j.l.l.x.c.V.A.A.A.V.V.b.l.j.j.i.i.u.7.5.5.5.9.9.9.2.2.2.( ) ( ) ( ) ( 4.4.3.8.z.m.c.c.z.N.x.C.`.'.`.{.c.x.`.`.{.XXXXXXXXXXiX}.D.'.}.XX>XiXiXiXpXiXpXpXXXF.>XiXiXiXiXiXiX>XA.|.F.}.XX>X>XS.F.A.D.p.w.p.D.D.d.D.S.).).'.|.}.}.}.}.}.'.'.).S.A.V.A.Z.S.G.F.'.'.'.'.'.'.'.F.'.'.F.G.Z.Z.Z.V.m.k.k.@.Z N N N N N N C A N N N N N N N v x N b b N N x x x x v x x x x 8 9 6 8 x v 8 v v v N Z Z 9 8 6 0 2 0 2 2 2 6 6 7 7 8 M M M v 8 8 M M Z Z M 9 6 6 8 8 M M M 9 6 9 u M 8 8 8 8 M M u 8 9 9 9 9 8 9 6 9 9 8 8 8 m N N 8 9 9 x 8 6 9 N 9 6 6 8 M v 8 9 6 6 6 6 9 8 m M u p y y y 4 4 4 4 4 4 4 4 4 4 4 4 4 4 4 4 4 4 4 < < < < < < < < < < < < < < - - = = = = = = - - = = = = = = = = ; ; * * * * = = = = * * * & & & & & # # # # # # : : # # # # : : ",
"HXHXHXHXHXHXHXLXHXHXHXHXSXbXbXSXSXSXbXbXbXbXvXvXzXqX9X8X0X0X5X5X5X2X2X,X,X,X,X,X,X,X5X,X%X%X%X#X[.E.Q.W.W.W.Y.I.v.n.n.n.g.e.-.-.&.O.+.~ T Y Y Y Y Y o.&.;.;.;.&.-.;.;.&.O.4.&.&.O.%./ %.%.o./ / o.%.+.%.+.o.o.W T Y Y C F F C C V B B V V V B M M B V F C B F V V M M M M V 8 9 9 8 8 C Q Q Z N M x 8 m m 8 7 7 7 y 7 7 7 7 7 u u p p p 8 8 8 7 7 7 7 7 7 7 7 7 y y 8 8 7 8 9 8 O.y.r.r.7.7.0.j.j.l.l.x.c.A.A.Z.Z.A.V.c.l.l.i.i.i.i.q.7.7.5.5.5.5.9.9.2.f.( ( K K S S @.4.@.5.l.b.c.z.x.N.x.C.C.`.`.G.m.m.`.{.XX{.>X>X>X>XiXiX'.'. X>X>XiXiXpXpXpXpXpXiX'.>X>XiXiXiXiXiXiXN.A.F.F. XXX'.A.D.x.p.p.d.D.D.B.B.S.).).|.}.}. X X X X}.}.'.'.S.A.Z.S.Z.S.F.F.'.'.'.'.'.'.'.G.`.`.G.Z.Z.Z.C.m.m.k.4.^ b x N N C N N C A N N N N N N N v v N N N N N v x x x x x x x x x 9 6 9 8 N 8 v v N N Z V 9 8 6 0 0 0 2 2 2 5 6 6 9 7 M M x x 8 8 M v M Z Z 8 6 2 6 6 8 M M 8 6 6 7 9 8 u u a M M M M 8 8 8 9 9 9 6 9 9 9 8 8 m M V M 8 8 M v 8 8 M 8 8 9 8 v v x 9 9 8 9 6 7 8 M B a p y y 7 4 4 4 4 4 4 4 4 4 4 4 4 4 4 4 4 4 4 4 < < < < < < < < < < < < < < < < = = = = = = - - - - - = = = = = ; ; * = * * = = = = * = * & & & & & # # : : # # # # # # : # : : ",
"HXHXHXHXHXHXHXLXHXHXHXHXSXbXSXSXSXbXbXbXbXvXvXzXfXqX8X0X0X0X5X5X5X5X2X2X,X,X,X,X5X5X2X,X%X%X&X#X~.E.E.E.E.Y.I.I.I.I.I.n.g.e.-.-.&.O.+.~ T Y Y Y Y Y o.-.;.;.;.-.-.;.;.-.@.-.&.&.O.o.~ / ~ ~ %.%.O.%.o.o.o.W Q Y J C V V V V B V C R R C V V B V V V B B V V Y V M M M C C M M 8 8 8 8 Z Y W C Z M x 8 m m 8 7 7 y 7 7 7 7 7 7 u u p p p 8 8 8 7 7 7 7 7 7 7 7 7 7 7 8 8 8 p 8 9 T 4.r.8.r.r.u.j.j.j.l.l.b.V.A.A.Z.A.V.V.b.l.i.i.i.i.q.q.7.7.5.5.5.5.9.9.2.2.f.) S S S K ) ) 2.u.z.z.z.j.N.x.C.C.`.`.G.m.C.`.{.>X>X>X>X>X>XpX>XXX}.XX>XiXiXpXpXpXpXpXpXpX{. X>X>XiXiXiXiX>XD.D.x.S.|.F.D.D.p.p.p.d.D.D.D.B.).).|.}.OXOX.XOXOXOXOX}.}.|.'.S.S.S.S.S.S.F.F.'.'.'.'.'.'.F.G.`.`.G.Z.Z.C.C.m.b.u./ S v m M N C N N C A N v N N N N N N N N Z Z Z N N N N b x x x x x x 9 9 9 9 C N 9 v N N Z V 6 8 6 0 6 0 6 6 > > 2 6 9 9 9 8 8 M M M v M M M M 8 9 0 6 6 9 8 u 8 9 6 2 > 2 9 B V a 9 8 u u m 8 9 9 9 9 9 9 9 8 8 8 8 M V M 8 M v 8 8 v 8 9 9 9 x v x 9 9 m u 9 6 9 m B M u 7 y 4 4 4 4 4 4 4 4 4 4 4 4 4 4 4 4 4 4 4 4 4 < 3 3 3 3 < < < < < < < < < < = = = = = = - - - = = = = = = = ; ; = = * * = = = = * = * & & & # # # # # : + + + + : : : : o o ",
"HXHXHXHXHXHXHXLXHXHXHXSXSXSXSXSXSXbXbXbXbXnXvXfXqXqX8X0X0X0X5X5X5X5X5X5X5X5X5X5X5X5X5X,X%X%X&X#X[.[.~.E.W.W.I.g.g.n.n.g.h.6.&.&.&.O.%.~ T Y Y Y Y Y o.-.6.e.e.;.-.4.4.-.&.O.&.&.O.%.~ o.o.%.%.O.+.o.o.~ Q Q T Y Y C V V F Y Y Y C M M V V B V V V V M M M V R N M M M C Y M B M M M 8 v C W Y C N m 8 M M 8 7 7 9 7 7 7 7 7 y u u u 8 8 8 8 8 7 7 7 7 7 7 7 7 7 7 7 y y p 8 8 9 8 / r.8.r.7.7.u.j.j.k.l.b.c.V.C.C.C.A.A.c.l.p.i.i.i.i.q.q.q.7.7.7.5.5.5.9.9.2.2.%.J S S S ) 2.8.k.k.j.j.N.k.C.C.`.`.G.m.G.`.{.>X>X>XiXiXiXpXiXiX X>X>XiXiXpXpXpXpXpXpXpX>X X>X>XiXiXiXiXiXD.x.D.d.s.w.w.w.w.w.p.d.D.S.'.'.'.|.}.OX.X.X.X.X.X.XOX}.}.|.'.'.F.F.F.F.F.F.F.'.'.'.'.'.'.'.F.`.`.Z.Z.V.V.m.b.k.4.S N N M N N N M N C A N N N N N N N N N N C C C C N N N N v v v v v v 8 9 9 9 Z v 8 v N Z C V 6 8 6 0 6 6 6 6 2 > 1 2 9 9 9 v M 8 8 M M 8 8 8 8 9 8 9 6 6 6 6 8 9 9 7 2 > 2 6 6 u V V M V V M 8 9 6 9 6 6 6 6 6 6 9 m V M 8 8 v M 8 8 8 9 9 9 8 8 M M 8 8 M M u 9 6 9 M M u 7 y 4 4 4 4 4 4 4 4 4 4 4 4 4 4 4 4 4 4 4 4 4 4 4 4 4 4 3 3 3 3 3 < < < < < = = * & & & & & ; ; ; ; = = = = = ; = = = * = = = = * * * & & & & # # # : : : : : : : : : : o o ",
"HXHXHXHXHXHXHXLXHXHXHXSXSXSXSXbXbXbXbXvXnXvXzXqXqX9X0X0X0X5X5X5X5X5X5X5X5X0X0X5X5X5X2X,X%X%X&X#X#X#X@X@XE.T.g.g.g.g.g.h.e.4.&.&.&.O.+./ Q Y Y Y Y Y o.-.e.e.e.;.;.4.;.-.&.@.-.-.@./ Q o.O.%.%.o.o.~ ~ Q Y Q W W Q Y J C V C F F V B V B M V V V B B V V M V Y M M V V V Y R M M M u 8 8 C W R C N x 8 M M 8 7 9 7 7 7 7 7 7 7 y 8 8 8 8 8 8 8 7 7 7 7 7 7 7 7 7 7 7 y y p p 8 9 8 v &.8.8.r.7.0.u.j.j.l.l.b.m.C.C.C.A.A.V.b.l.l.i.i.i.0.i.q.u.7.w.7.7.7.7.9.2.2.5.@.K S ) ) 2.3.j.k.j.N.j.k.C.C.`.`.G.m.`.{.{.>XiXiXiXiXpXpXpXiXXX>XiXiXiXpXpXuXpXpXpXpX>X{. X>X>X>X>X>X'.D.D.D.s.w.w.w.s.d.d.d.D.D.S.'.|.}. X X.X.X.X.X.X.X.XOX}.}.|.'.'.'.'.'.F.F.F.F.'.'.'.'.'.'.'.G.`.Z.Z.A.V.m.m.z.r.^ N N M M M M N M N C A N N N N N N N N N N C A A A A A A Z N N v x x 8 8 8 8 v v 8 v v N Z C N 6 8 6 0 6 6 6 6 6 5 > 2 6 9 7 8 8 8 8 8 8 M v 8 9 8 9 8 9 6 6 6 6 9 9 7 6 2 > 1 1 6 8 8 a M V M M 8 6 9 9 7 6 6 6 6 6 9 M C m 9 x M M v 8 9 9 9 8 x M M v M V M m u 9 9 8 u 7 7 7 4 4 4 4 4 4 4 4 4 4 4 4 < < 4 4 4 < 4 1 3 4 4 4 4 4 3 3 3 3 3 < < < < - = * & & & & & & & & & & & & & & & & & & * * * * * * * * * & & & & # : # # # : : : : : : : : o o ",
"HXHXHXHXHXHXHXHXHXHXJXSXSXSXSXbXbXbXbXvXnXzXzXqX9X9X0X0X0X0X5X5X,X,X2X2X5X5X0X5X5X5X5X,X$X&X#X#X#X#X[.[.Q.I.g.v.g.h.h.e.6.&.&.&.&.O.O.%.~ T Y Y L Y ~ &.e.6.6.4.4.4.;.&.O.O.-.&.O.~ T / +.+.o.~ Q Y Y Y Y Y R R R Y J C V V C C V V V B B V C V M M V V M M Y M M C C V Y W V M M 8 8 8 Z W W L C M M M m 9 u 7 7 7 7 7 7 7 7 7 8 8 8 8 p p p p y 7 7 7 7 7 7 7 7 7 7 7 p p 8 9 8 6 S 6.8.7.7.7.0.u.j.j.l.z.b.m.A.C.C.A.A.B.x.l.i.i.i.i.i.i.i.i.q.q.7.7.7.5.a.9.2.9.9.( K ( 2.2.7.k.b.k.u.7.M.m.M.M.M.b.C.{.{.>X>X1XiXiXiXpXpXAX>X>XiXiXiXpXpXpXpXpXpXpX>X}.'.XX>X>X>XD.D.D.D.s.s.w.w.s.d.D.D.D.D.S.S.'.}.:XOX.X.X.X.X.X.X.X X}.}.}.'.'.'.'.'.F.F.F.F.F.'.'.'.'.'.'.F.G.G.G.Z.A.V.c.z.k.3.b N M M M N N N N N Z A N N N N N N S N v v A A A Z C A A C Z N M x 9 9 x v M N v x x x N Z Z N 9 9 9 6 6 6 6 6 9 9 2 2 2 9 6 9 8 6 8 9 6 M M 8 9 9 7 9 9 9 9 7 6 6 8 8 6 5 1 > > > 6 6 7 8 a M M M 8 8 8 9 7 6 6 6 2 6 M C M 8 m M V M m 8 9 9 8 8 M M V N V M M m 8 9 8 9 9 7 7 4 4 4 4 4 4 4 4 4 4 4 < < 4 4 4 < 3 3 < 3 4 4 4 4 4 q 3 3 3 3 < < - = = = * * & & # & & & & & & & & & & & & & & & & & & * * = * ; & & & & & # : : : : : o o + + o o o o ",
"HXHXHXHXHXHXHXHXHXHXJXSXSXSXSXSXbXbXvXvXnXzXfXqX9X9X0X0X0X5X5X5X2X2X5X5X5X5X5X5X5X5X<X%X&X&X#X@X[.[.E.E.W.n.n.n.g.h.e.y.4.&.&.&.&.&.O.O.~ Q Y Y L L Q O.;.6.6.4.4.4.-.O.O.@.@.O.o.T L Q o.o.o.W Y N N C Y Y Y J F F Y R R P B M B V V V V V V C C V M M M M C M M V V V C W C M 8 8 8 9 M W ~ L A V M v x M 8 8 7 7 7 7 7 7 7 7 7 7 7 8 p p p p y 7 7 7 7 7 7 7 7 7 7 y p p 8 8 8 6 x ^ 8.8.7.7.7.0.u.j.j.l.z.m.C.C.C.A.A.A.c.l.j.j.j.i.i.i.i.i.i.w.q.q.w.7.7.9.a.9.2.9.( ) f.3.9.0.k.j.5.8.l.C.M.M.b.z.M.{.{.>X=X1XiXiXuXpXAXAX>X>XiXiXiXiXpXpXpXpXpXpXXXV.'.XX>X Xq.D.D.d.s.s.s.s.s.d.D.D.D.S.S.S.|.}.:XOX.X.X.X.X.X.X.X.X X}.}.}.'.'.'.'.'.F.F.F.'.'.'.'.'.'.'.'.F.G.G.Z.A.V.m.b.k.8.^ x N A M M M N N N N Z C N N N N N N S N b v Z C Z Z N Z N N N N M v x x x x x M N v x x N Z Z N 8 9 x M v 6 6 6 8 8 6 6 2 6 6 9 8 6 6 6 9 6 m m 8 9 7 6 6 9 8 8 6 2 9 8 7 5 5 2 1 > 1 2 5 6 6 7 8 M M 8 8 9 7 7 6 6 2 2 8 M M m M M M M M 8 9 8 8 8 m V A C V M M v x 8 9 9 7 7 7 4 3 3 4 4 4 4 4 4 3 4 < < < 4 4 4 4 4 w w w w 4 4 4 3 3 3 < < < - = = = = * * * & & & & & & & & & & & & & & & & & & & & * * = = ; & & & & & # : : : : : o o + + o o o o ",
"HXHXHXHXHXHXHXHXHXHXSXSXSXSXSXSXbXbXvXvXnXzXqXqX9X9X0X0X5X5X0X5X5X5X0X5X5X<X<X<X5X5X,X$X&X&X#X[.~.E.Q.W.Y.v.I.g.h.e.y.6.4.&.&.&.&.-.&.O./ ^ T T T Y Q ~ O.6.e.;.;.;.-.&.O.O.+.%./ Q T W o.o.~ W C M M V C C C C V F Y Y V B B V V V V B B B M V V V M M Z V Y Z M M M M V Y Y 8 9 8 8 9 x A W T Y C M m 8 M 8 u 9 7 9 9 7 7 7 7 7 7 9 8 p 8 p p p p 7 7 7 7 7 7 7 7 y y p p 8 8 8 9 8 v &.4.8.r.7.0.u.u.j.k.l.b.m.C.C.C.C.A.m.x.l.l.l.j.p.i.i.i.i.i.w.q.q.w.w.w.9.9.9.9.2.f.f.2.5.8.5.2.9.8.0.m.M.b.z.l.j.'.{.{.iXiXpXpXiXiXpXAX>X>X>XiXiXiXiXpXpXpXpXpX XV.Z.G.A.D.w.p.w.w.w.s.s.d.d.d.D.D.B.S.S.).|.OXOX.X.X.XXX.X.X.X.X.X}.}.}. X}.'.'.'.'.'.'.'.'.'.'.'.'.'.'.'.F.G.G.Z.Z.V.m.b.j.( N x N C V M N N N N N Z C N N N N N N N N N N N N N N v v x v v v x x x v v 9 x M N v x x N C C N x 8 x 8 8 8 8 9 8 9 2 2 6 2 6 6 m 7 6 6 9 2 8 m 8 7 8 u 8 9 6 6 7 5 5 9 9 6 2 1 1 > > > > > 5 5 6 6 9 6 6 9 9 7 6 6 2 2 6 8 a M M M M M M 8 8 8 8 8 u V Y Y Y Q T C M v 9 6 9 7 7 4 3 3 3 4 4 4 4 4 4 4 4 < < 4 4 4 4 4 w w 4 3 3 3 3 3 3 3 3 < - = * * = = ; ; & & & & & & & & & & & & & & & & & & & & & * * = = ; & & & & & & # : : : : : : + + : : o o ",
"HXHXHXLXHXHXHXHXJXJXSXbXbXbXbXbXbXvXnXzXzXzXqXqX9X9X0X0X5X5X0X0X0X0X0X5X5X,X%X%X<X,X$X&X@X@X[.[.E.Q.Q.Y.I.I.n.g.e.e.e.6.;.&.&.&.&.-.&.@.@.^ T T Y T Q W +.6.e.;.-.4.-.@.%.o./ / / / ~ ~ o.W W Y V N Z C C V C F F F C V B B B V V V V M M M M M M V C C C C Y Z N M M M V M C M 8 a 8 8 x M C W W C V M m m M a 7 9 9 9 7 7 7 7 7 7 9 8 8 8 p p p p 7 7 7 7 7 7 7 7 7 y y y 8 8 8 8 8 8 A 4.6.r.7.7.0.0.u.j.l.z.b.C.C.C.C.C.A.b.l.l.l.l.l.l.p.i.i.i.i.q.u.q.w.7.5.9.9.9.9.9.2.( f.3.3.( 9.0.5.i.m.b.l.j.0.'.{.{.{.{.iX>X>X>XiXpXXXXX>XiX>XiXiXiXiXiXiXiXV.F.S.S.S.D.a.a.a.a.w.s.d.d.d.D.D.S.S.S.S.S.'.OXOX.X.X.XXXXX.X.X.X X X}.}.}.}.'.'.'.'.'.'.'.'.'.'.'.'.'.'.'.G.G.G.Z.C.V.m.l.8.S N N N V Z N N N N N N Z C A N N N N N N N N A N N N N v x x N N v 8 9 x v 9 9 v N N v x x N C Z N M x x 8 9 6 0 2 6 6 2 2 6 2 2 6 m 9 9 6 2 6 6 8 8 8 9 7 9 9 9 6 6 6 6 9 7 5 2 1 1 2 > > > > > > > 5 6 5 5 6 9 9 6 6 2 2 6 9 8 8 8 N V V M 8 8 8 8 8 x V J Y J A A A A Z v 9 5 5 5 5 3 3 3 4 4 4 4 4 4 4 4 < < 4 4 3 3 3 < 3 3 3 < < < < < < < - = * * * * ; ; ; & & & & & & & & & & & & & & & & & & & & & * * = = ; & & & & & & # # : : : : : + + : : o o ",
"HXHXHXHXHXHXHXHXJXSXSXSXSXbXbXvXbXnXnXzXzXzXfXqXqX9X0X0X0X5X0X5X0X0X0X0X5X<X%X%X%X%X%X&X#X#X[.].E.Q.W.I.n.I.v.h.e.e.e.6.;.-.&.&.&.&.&.&.@./ ^ T Y T W W o.-.6.-.&.;.-.O.%./ ^ / o.%.o.o.o.W W A B M V V C V V F F D V M B V B V B B M M a a M M M V C C V V F C V B M M M u V M M M a 8 8 8 V W o.C V M M M N M 8 8 9 9 9 9 9 7 7 7 7 7 y y y y p p p y 7 7 7 7 y y y 7 7 7 y y 7 7 8 9 9 T y.6.r.7.7.0.u.j.k.l.x.b.m.C.C.C.C.m.x.l.l.l.l.p.i.i.i.i.i.i.i.u.u.w.7.7.5.9.9.9.9.2.2.2.f.( 2.7.q.q.q.5.5.q.q.C.{.{.{.{.{.{.>X>XiXiXZ.}.XXXX>XiXiX>X>X>X>X'.Z.S.S.S.D.p.w.w.w.s.s.s.d.D.D.D.).D.D.S.S.).|.:X.X.X X X.X.X.X.X X X X X}.}.}.'.'.'.'.'.'.'.'.'.'.'.'.'.'.'.G.G.`.C.M.m.b.r.( c b N N C C Z N M N N N N A A M N N N C N x x A N N N N v x x v v v 8 8 x x 9 9 v v v x x v N Z Z N M x x 8 9 6 6 2 2 6 2 2 6 2 2 6 m 6 6 6 6 6 6 6 9 9 9 6 6 5 6 6 2 5 7 7 7 5 2 1 1 1 1 > > > > > > 5 6 5 6 6 7 7 7 6 2 2 2 6 9 7 9 M C V M m m m 8 8 m V C C C V V C Y L V u 5 > 5 5 , 4 4 4 4 4 4 1 < 1 1 < < < < 4 < < < < < < < , , < < < - - = = * * * * * * * & & & & & & & & & & & & & & & & & & & & * * = = ; ; & & & & & # # # # # : : + + : : o o ",
"HXHXHXHXHXHXHXHXJXSXSXbXbXbXbXvXvXnXnXzXzXqXfXqXqX9X0X0X0X5X0X0X0X0X0X5X5X<X%X%X%X%X&X&X#X#X[.E.Q.W.T.I.n.v.g.h.y.6.6.4.;.-.-.&.&.&.&.&.@.%./ T T T Q ~ o.O.-.&.&.-.&.O.%.%.o.o.o.%.o.+.+.W W C B M V B V V V V V B M M M M B B M M M M M M M B Z V C V V V C C V B M M M M C M M M u 8 9 8 V R W Y Y M M N M M M 8 9 9 9 7 9 9 7 7 8 7 7 7 y y p p p y 7 7 7 7 y y y 7 7 7 7 7 7 7 7 9 9 x %.r.8.7.7.0.u.j.j.l.x.x.m.m.C.C.C.M.b.l.l.l.l.i.i.i.i.i.i.i.i.i.u.u.7.7.5.9.9.9.9.9.9.2.2.2.9.5.q.q.q.8.q.q.0.j.`.`.C.'.{.{.'.XX{.A.x.`.}.XX}.XXXXXXXX'.p.p.D.D.D.D.w.w.w.s.w.s.d.d.D.D.D.S.).S.S.S.).|.|.OX.X.X X X.X.X.X X X X X X}.}.}.'.'.'.'.'.'.'.'.'.'.'.'.'.'.'.G.Z.Z.C.M.b.k.@.S N N N N A C C V M N N N N N A N N N x A m 8 N N N N v v x x x 8 9 9 x 8 8 c 9 9 x x 9 9 x N N N N N M M x 8 8 9 6 6 2 6 2 2 2 2 2 2 8 6 6 6 9 9 6 2 9 2 M 8 1 2 > 1 2 5 7 7 7 5 1 2 1 1 1 > > > > > > 5 6 6 6 6 7 7 7 6 2 2 2 6 6 9 9 M M M m 8 m M x 8 M V C C V V V V V C C C a 5 1 5 4 4 4 4 4 4 4 1 1 1 < < < < 4 4 4 < < < < < < , , < < - = = = = = * * * * * * & & & & & & & & & & & & & & & & & & & & * * * = ; ; & & & & & # # # # # : : # # : : o o ",
"HXHXHXHXHXHXHXHXJXSXbXbXbXbXbXvXnXnXnXzXzXfXfXqXqX9X0X0X0X0X0X0X5X5X5X5X5X,X%X$X%X%X&X&X#X[.[.E.Q.W.I.I.n.g.h.e.6.6.6.;.-.-.-.&.&.&.&.&.&.@.%.~ Q Q Q Q ~ o.&.&.O.O.O.O.%.%.%.%.%.%.+.O.O.W W C B V V B B B B B B M M M M a M M a a a M M M Z M Z Z V Z M V C C V M M M M M V M M M u 9 9 8 M V Y T T Z M N M M M M 8 8 8 8 8 8 8 8 7 7 7 7 7 8 p 8 p p y 7 7 7 7 7 7 7 7 7 7 7 y 7 7 7 9 8 N &.5.r.8.7.0.j.j.k.l.l.m.m.C.C.C.C.m.x.l.l.p.i.i.i.i.i.i.i.i.i.u.u.u.7.5.5.9.9.9.a.a.9.2.2.9.9.7.5.q.q.7.9.q.l.j.C.C.C.m.j.x.c.x.x.c.x.q.f.q.x.c.x.V.B.w.a.w.w.w.w.w.w.w.d.s.s.d.D.D.D.S.S.).S.S.).'.|.OX.X.X.X X X.X.X X X X X X}.}.}.}.}.}.}.'.}.}.'.}.}.'.'.'.'.'.F.G.Z.C.M.M.z.r.T c v N N Z A A A A C N N N N N N A N N M C x 9 N x N N N N N N N M 8 9 8 9 6 9 9 9 x v 9 9 N C v v Z M M M M 8 8 9 6 6 2 6 2 2 2 2 2 2 8 6 6 9 8 8 x 8 8 9 6 M > > 6 6 7 6 5 7 7 5 1 2 5 1 1 > > > > 1 > 5 6 7 9 9 9 9 9 6 6 6 2 2 6 9 8 M 8 8 8 8 M M M M C C C V V M M M M M M M M 9 5 5 4 4 4 4 4 4 4 < 1 1 1 < < < 4 4 4 4 3 3 3 3 < , , < < < = = = = * * & * * * * & & & & & & & & & & & & & & & & & & & & * * * * & & & ; ; & & & & & # # # # # # # # : : ",
"HXHXHXHXHXHXHXHXJXSXbXbXbXbXvXvXnXnXnXfXqXfXfXqXqX9X0X0X0X0X0X0X5X5X5X5X<X,X%X$X%X&X&X&X#X#X[.E.W.T.I.n.g.h.h.e.6.4.4.;.-.-.&.&.&.&.&.&.&.@.@./ ~ Q Q Q ~ o.%.%.O.@.O.%.%.%.@.O.%.o.O.O.O.~ W L V V M M M M M a a a M M M a a a u u a a M B V Z M M V V V V C V B M a M M M V M M M a a M M 9 8 C Y T A N N M M M M a u 8 8 8 8 8 8 8 8 7 7 7 8 8 8 p p y 7 7 7 7 7 7 7 7 7 7 7 y 7 y 7 9 8 9 A 4.8.7.7.7.u.j.j.k.l.z.m.C.C.C.C.C.c.l.l.p.i.i.i.i.i.i.i.i.i.i.i.u.7.7.5.5.5.a.a.9.a.9.2.9.9.9.9.9.5.9.2.9.q.i.x.q.0.q.5.0.x.D.V.x.x.0.9.w.p.x.x.D.w.w.w.w.p.w.w.s.s.s.s.d.d.d.d.D.S.S.S.S.).).).|.|.OX.X.X.X.X.X X X X X}. X X}.}.}.}.}.}.}.}.}.}.}.}.}.'.'.'.'.'.F.G.Z.A.M.b.k.%.Z x v M N Z C A A A C C N N N x x A C A N N x x N x 9 Z A A N M x 8 9 9 0 6 9 9 9 x v N v M L A v v Z M x M N x 8 9 9 6 2 6 6 2 2 2 2 2 m 6 6 9 8 x m m V 6 a 9 V 9 9 6 7 6 2 7 7 5 2 1 5 1 1 > > > > > 2 6 7 8 8 9 9 7 7 7 6 2 2 2 6 9 8 M u 8 m M V N M N C C C N N M 8 M m u 8 M M a 7 4 4 4 4 4 < 1 1 , , < < < < < 4 4 4 4 4 3 3 3 3 < < < < < = = = = * * * * * * * & & & & & & & & & & & & & & & & & & & & * * * * & & & ; ; & & & & & # # # # # # # # : : ",
"HXHXHXHXHXJXJXHXJXSXbXbXbXbXvXvXnXvXzXqXqXqXqXqXqX9X9X0X0X0X0X5X5X5X5X5X<X%X%X%X$X&X&X&X&X@X~.E.W.T.I.n.g.h.h.e.6.;.;.-.-.-.&.&.&.&.-.-.&.&.&.@./ ^ Q Q Q ~ ~ %.+.O.O.%.%.%.O.+.%.%.O.O.o.~ W ! C C M M u M B u u a a M a a a u u u u a M B V V V V V C C V V M B M M B V B F V B M a u 8 8 9 8 N Y Y Y C N N N M M M u u 8 8 8 8 8 7 7 y y y y p y p 7 7 7 7 7 7 7 7 7 7 7 y y y y 7 7 7 8 8 8 L 6.r.8.7.0.j.j.j.k.l.b.m.C.A.A.V.c.l.j.j.i.i.i.i.i.i.i.i.i.i.i.u.q.7.7.7.w.w.5.9.9.9.9.a.9.9.9.9.9.2.2.a.9.q.q.p.q.9.9.a.w.x.B.A.B.q.9.a.a.a.w.p.p.p.p.s.p.s.d.d.d.d.d.d.d.d.D.S.S.S.).).).'.|.|. XOX.X.X.X X X X X X X}.}.}.}. X X}.}.}.}.}.}.}.}.}.}.}.}.'.'.F.F.G.Z.C.b.b.4.Z N N N N N Z A A A A A C N N N x x Z Z Z Z N M x x x 8 N N N N x 9 9 6 6 0 6 8 8 8 x M N M C T L M v N M 8 8 M M 8 9 9 6 6 6 6 6 2 6 2 2 x 6 9 9 8 m M M C 8 M 9 9 u 8 9 6 6 6 7 8 6 6 1 5 2 > 1 1 1 1 2 5 7 8 8 9 6 2 1 7 9 9 6 1 2 6 7 9 u a M M B B B M V C C V B B M 9 8 8 9 9 M M a u 7 4 4 4 1 1 < < < < < < < 3 4 4 4 4 4 3 4 3 3 3 3 3 < < < - - = = = * * * * * * * & & & & & & & & & & & & & & & & & * * * * * * * * & & & & & & & & & & # # # # # # # # ",
"HXHXHXHXHXJXHXHXJXSXbXbXbXbXbXvXnXnXzXfXqXqXqXqXqX9X9X9X0X0X0X5X5X5X5X<X,X%X%X%X$X&X&X&X@X~.E.Q.T.I.I.n.g.h.e.e.6.4.;.;.-.-.&.-.4.4.4.4.4.&.&.@.%.~ Q Q Q Q Q ~ o.O.O.O.@.O.o./ o.O.O.O.~ W Q Y C V M a u a a u u a a M a a a u u u u u M B V F Y Y C V V V M a u M V F C V P V V M 8 7 6 6 9 8 M C A A A N N N M M M M u 8 8 8 7 7 7 7 y y y y y y y 7 7 6 7 7 7 7 7 7 7 7 y y y y y y 7 7 8 8 x ^ r.8.7.7.u.j.j.j.l.l.b.m.C.C.V.m.x.l.j.i.i.i.i.i.i.i.i.i.i.i.i.u.i.u.u.w.w.7.7.5.9.9.a.a.a.a.a.a.2.2.9.a.a.a.a.a.a.a.a.w.w.w.w.a.a.f.a.a.w.w.w.w.w.w.s.s.d.d.d.d.d.d.d.D.S.).).S.).|.|.|.|.OXOXOXOX.X.X.X X}.}.}.}.}.}.}. X}.}. X}.}.}.}.}.}.}.}.}.}.}.}.'.'.F.G.Z.A.M.M.r.^ S C C C N C C A A A A A C N N N M x v N Z N v N M x x N M 9 8 N N x 9 9 6 9 8 x x 8 x N N N C T L N v N M 8 8 N Z 9 6 9 6 6 6 6 2 6 8 2 2 8 6 6 9 8 m M x A W 9 u 9 9 8 8 6 6 9 u u 8 7 6 5 2 > 1 1 1 1 2 6 7 8 8 7 2 > > 1 6 u u 6 2 2 6 6 u M M M M M M B V V C V B M M 7 9 9 9 6 a M a u 7 4 5 5 4 4 4 4 4 w w y y y 4 4 3 3 3 3 3 3 3 3 < < < < - - - = = = * * * * * * * & & & & & & & & & & & & & & & & & * * * * * * * * & & & & & & & & & & # # # # # # # # ",
"HXHXHXHXHXJXJXJXSXSXbXvXvXvXvXvXnXnXzXfXqXqXqXqXqXqX9X9X9X0X0X5X5X5X5X<X,X%X%X%X$X&X&X&X@X~.E.T.Y.I.n.g.h.r.e.y.6.6.4.4.;.-.-.;.4.6.4.4.3.&.&.&.O.~ ~ Q Q T T T Q / O.%./ / O.O.O.O.O.o.W ! Q ! L C B M a u p u a a a a a a a u u u u a M B V V a a M V Z M a a M V Y R Y Y W V u 8 u u 8 7 7 6 9 M V C C V V V M M M m u 8 8 8 8 8 9 7 7 7 y y y y y 7 7 7 7 7 7 7 7 7 7 7 7 7 7 7 8 8 p 8 8 8 8 Z O.4.8.7.r.u.j.j.j.l.x.b.m.C.V.V.c.l.l.i.i.i.i.i.i.i.i.i.i.i.i.i.i.i.i.i.u.7.7.7.5.5.w.5.a.a.a.a.a.a.a.a.a.a.a.a.a.a.a.w.w.a.a.w.w.a.a.a.w.w.w.s.s.s.s.s.d.d.d.d.d.d.d.S.S.).).S.).|.).'.|.OXOXOXOXOX.X X}.}.}.}.}.}.}.}. X}. X X X X X}.}.}. X X}.}.}.}.'.'.F.G.Z.m.M.z.@.N C C C C C C C A A A A A C C N N N M x Z Z N v v v x x v x M 8 8 9 8 9 9 9 8 x x x 8 x N Z N N L L N M N M v v 8 8 M M 6 6 6 6 6 6 9 M 6 2 6 9 6 6 9 M M C C R B u u 9 8 8 0 6 8 M M u 9 6 6 6 > 1 > 1 1 2 6 7 p 8 7 6 > > > 1 9 M u 6 6 6 7 8 M B M M M M B V V C V B M m 8 6 9 8 9 9 a a a y 7 4 7 w 4 w w w 4 w w w 4 4 3 3 3 3 3 < < < < , , < < < - - = = = * * * * * * * # & & & & & & & & * * & & * * * * * * * * & & & & & & & & & & & & & & & & # # # # # # ",
"HXHXHXHXHXJXJXJXSXSXbXvXvXnXvXvXzXzXzXfXqXqXqXqXqXqX9X9X0X0X0X5X,X,X,X%X%X%X%X%X%X&X&X#X~.E.W.Y.I.I.n.h.r.e.y.e.e.e.6.4.;.4.4.6.6.6.6.4.3.&.&.&.&.%.~ Q T T Y Y L Q / O.O.%.%.%.+.O.O.~ ! ! ! Q P C B M M u p u u u u u a a u u a a u a M M V V V B B M M M u u M M B B B V P a u 8 7 9 9 9 9 9 7 9 M B C V V V M M M M u u 8 8 8 9 8 8 7 7 p y y y y 7 6 7 7 7 7 7 7 7 7 7 7 7 7 7 8 8 p p 8 8 m N Z &.6.r.r.r.u.u.j.l.l.l.c.m.V.V.c.x.l.p.i.i.i.i.i.i.i.i.i.i.i.i.i.i.i.i.i.w.w.w.7.7.w.w.a.a.a.a.a.a.a.a.a.a.a.a.w.w.w.w.w.w.w.w.w.w.w.w.w.s.s.s.s.d.d.d.d.d.d.d.d.d.d.S.S.S.S.S.S.S.).|.OXOXOXOXOXOX X}.}.'.}.}.}.}.}.}. X X X X X X X X}.}. X X}.}.}.}.'.'.F.Z.C.b.z.5.N Z C C C V C C C A A A Z Z C N N N N N v N N N M M v x x v M 8 9 9 9 6 9 9 9 x x x x 8 x N Z N N C A N N N v M M 9 9 u M u 9 6 6 6 7 7 m 9 9 6 8 6 6 9 8 M C R C J V 8 8 9 8 9 0 8 M u u 9 5 5 6 2 1 1 1 1 1 6 p p 8 7 6 1 > > 1 6 8 u 8 a 8 7 8 M B B M M M M B V C V B M M u 7 8 8 M 8 u a a 8 7 7 7 y y w w 4 4 4 3 3 3 3 < < , < , , , , = = = < < < - < = = = * * * * * & * & & & & & & & & & * * & & * * * * * * * * & & & & & & & & & & & & & & & & # # # # # # ",
"HXHXHXHXHXJXJXJXSXSXbXvXvXvXvXvXzXzXzXzXfXqXqXqXqXqX9X9X9X0X5X5X<X<X<X%X%X$X$X%X&X&X&X@X~.E.T.Y.I.n.g.h.e.e.e.e.e.e.6.4.4.6.6.y.6.6.6.4.4.&.&.&.O.O.~ Q T T Y L L Y Q o.+.+.+.+.+.+.+.o.W W E ! Y C B M a p y p p p p u u a a a a a a a M M B B V B B M M M M a M M a M M B M u u 8 7 9 7 7 7 7 7 7 7 u B V V V V B M M M u 8 8 9 9 8 8 7 7 7 7 y 7 7 7 7 7 7 7 7 7 7 7 7 7 7 7 y y y p 8 8 8 8 u M M Y 6.r.r.r.7.u.j.j.k.l.x.c.m.V.V.x.l.l.p.i.i.i.i.i.i.i.i.i.i.i.i.i.i.i.i.u.w.w.q.w.w.w.w.w.w.a.a.a.a.w.w.w.w.w.w.w.w.w.w.w.d.d.w.s.s.s.s.s.d.d.d.d.d.d.d.d.d.d.d.d.d.D.S.S.S.S.S.S.).OXOXOX.X.XOXOX}.}.|.|.|.}.}.}. X X X X|. X X X X X X X X X}.}.}.}.'.'.G.C.b.l.r.^ N A C C V V V V C C A C Z N N C N N N N N N N N N N M x N v x 9 x 9 9 9 9 8 x m M M M M M N C N N N N N N N M M M 8 9 8 a M M 8 6 6 6 7 8 8 9 6 9 6 6 9 8 m V Y Y R Y B M 8 9 8 9 u u 8 u 8 6 6 6 2 1 1 2 6 6 7 u u u 9 5 1 1 1 2 5 7 u M M u 7 8 u u M B m M M M B B B B M M M u M M M M u u u u 7 7 7 y y w w w w 4 < < < < 3 3 , < , , , = = , , < < < < = = = = * * * * * * * * & & & & & & & & * * * * * * * * * * * * * * * * * * * * & & & * & & & & & & & & # # ",
"HXHXHXHXHXHXJXSXSXbXbXvXvXvXvXzXzXzXzXfXfXqXqXqXqXqX9X0X0X0X5X5X<X<X<X%X%X$X%X%X&X&X#X[.E.R.T.Y.I.n.g.h.r.e.e.e.e.e.6.6.6.6.y.y.y.6.6.4.4.4.&.&.@.@./ Q T Y L Y Y L A T ~ +.O.O.O.+.+.o.~ W ! ! Y C V M M a p p p a a a a B V a a a a a M M M M B B B M M a a a M M M B B M a u 8 8 9 7 7 4 7 7 7 7 7 7 7 u B V C V V V B M u 8 8 8 9 7 7 7 7 7 7 7 7 7 7 7 7 7 7 7 7 7 7 7 7 7 y 7 p p 8 p 8 8 8 u M M ~ 4.r.r.r.r.u.i.j.k.l.x.c.m.V.V.b.l.l.i.i.i.i.i.i.i.i.i.i.i.u.i.i.i.i.u.w.w.w.w.w.w.w.w.w.w.w.w.w.w.w.w.w.w.w.w.w.w.d.d.d.d.s.d.d.d.d.d.d.d.d.d.d.d.d.d.d.d.d.d.d.D.S.S.S.S.S.S.).|.OXOXOXOXOXOX}.}.|.|.|.|.}.}. X X X X X X X X X.X.X.XXX X}.}.'.'.'.'.G.m.z.u.3.L N C C C V V V N A A A C N N N N N N N M N N N N N M v x N v x 9 M 8 8 x m m m M N N N N N C A A v x N N Z N N M v 8 8 8 8 M B B 8 6 5 6 6 9 9 6 6 6 6 8 m m M M R F R o.C M 8 9 M 9 6 8 8 u 9 6 6 6 > 2 6 6 9 u u Y V 7 6 7 7 7 6 7 8 u M u 8 8 9 9 8 m M u u m M M M M M M M M M B M 8 B M u u 8 7 7 7 y 4 w 4 4 4 4 4 < < 3 < < < < < < < , = , , < < < - - = = = * * * * * * * * & & & & & & & & * * & & * * * = * * * * * * * * * * * * & & & & & & & & & & & & # # ",
"HXHXHXHXHXHXJXSXbXbXvXvXnXvXzXzXzXzXzXfXfXqXqXqXqX9X9X9X0X5X5X<X<X<X,X%X%X$X%X&X&X&X[.E.Q.T.T.Y.I.n.g.h.e.e.e.e.6.e.e.y.y.y.6.6.6.y.4.;.;.;.;.&.@.@./ Q T T Y Y Y Y A A T ~ O.O.O.O.+.+.o.~ W E R Y C B M a u 7 9 a B D D V a a M M M M M M M M M a a a a a u u a a M M a u a u u u 9 9 7 y y 7 7 7 7 5 7 p a B V V C C V B M m u p 8 9 7 y 7 7 7 7 7 7 7 7 7 7 7 7 7 7 7 7 7 7 y 7 y y 8 8 p p y 8 u M v %.r.6.8.7.0.u.i.j.l.l.x.b.m.m.c.x.l.l.l.i.i.i.i.i.i.i.i.i.i.i.i.i.i.i.q.w.w.w.w.w.w.w.w.w.w.w.w.w.w.w.w.s.d.d.w.d.d.d.d.d.s.d.d.d.d.d.d.d.d.d.d.d.d.d.d.d.d.d.d.d.D.D.S.S.).).).|.OXOX X XOXOX}.}.|.|.|.|.}.}. X X X X X X.X.X.X.XXXXXXXXX}.}.'.'.'.G.C.M.k.4.@.S A C C C C V N C A A C N N N N N N N N M N N N N N M M N x M M x N M M M N N N N N N N N N A L L N v N Z Z Z N M x 8 9 9 8 8 M M M 9 7 8 u M m 8 8 6 9 m M m m V M Y W C R C M 9 M 8 7 8 8 a 8 7 7 6 2 6 6 9 8 M M Y V 7 6 8 9 7 7 9 u M a 8 8 8 7 7 8 u M u u u M M M M M M M M M M M M 7 M M u u 7 7 7 7 4 4 4 4 4 4 4 < 4 3 3 3 3 < , 3 3 3 3 3 < < < < - - = = = * * * * * * * & * * * * & & & & * * * * * * * * * * * * * * * * * * * * & & & & & & & & & & & & # # ",
"HXHXHXHXHXHXSXbXbXbXvXnXvXzXzXzXzXzXzXzXfXqXqXqXqX9X9X9X0X5X5X<X<X,X,X%X%X$X%X&X#X@XE.Q.R.T.T.I.I.g.g.h.e.e.e.6.6.6.y.e.e.y.6.4.4.4.;.&.-.-.;.&.@.@./ Q T T Y L Y L A C A T o.O.O.O.+.+.o.[ ~ W ! P P V M M a a B B B B B B B B M M M M a a a a u u u u a a u u 8 a M 8 9 8 a u 8 8 8 9 y s s y 7 7 7 7 7 p u u M B V V V V B m u u m m p y 7 7 7 7 7 7 7 7 7 7 7 7 7 7 7 7 7 7 y y y 7 7 7 p y y y 8 8 8 Z -.6.8.8.7.0.j.j.j.l.l.x.b.m.V.c.b.l.l.k.i.i.i.i.i.i.i.i.i.i.i.i.i.u.u.w.q.7.7.w.w.w.p.p.p.w.w.w.w.w.w.s.d.d.p.d.d.d.d.d.d.d.d.d.d.d.d.d.d.d.d.d.d.d.d.d.d.d.d.d.d.D.D.S.).).).|.OXOX X X X X}.}.|.|.|.|.}.}. X X X X X X.XXXXXXXXXXXXXXX}.}.'.`.G.G.M.m.k.3./ A C C C C C V N N A A C N N N N N N N N M N N N N M v M Z x N N x N N M M N N N N N N N N N Z A C C N N A Z C C M 8 9 9 6 9 9 9 9 9 7 6 6 7 8 M M M m 8 M M m 8 8 M M V Y R R P V a M u 7 8 7 7 9 8 9 6 7 9 8 u M V M u 7 8 8 p 8 p p u u u 8 8 u 7 7 8 u M u 8 u M M B B B B B M M u 8 8 8 9 8 u u 7 7 7 7 4 4 4 4 4 4 4 4 3 3 3 3 3 , , < 3 3 3 3 3 < < < < - = = = * * * * * * * & * * * * * * & & * * * * * * * * * & & & & & & & & & & * & & & & & & & & & & & & # # ",
"HXHXHXHXHXJXSXbXbXbXvXvXvXvXzXzXzXzXzXfXqXqXqX9X9X9X9X0X0X0X5X<X<X,X,X%X%X%X$X&X@XE.Q.W.W.T.T.I.n.v.g.h.e.e.y.6.6.e.e.y.e.6.;.-.-.-.-.-.-.-.&.@.O.%./ ~ Q R Y Y L A C Z V Y W O.O.O.O.O.o.o.W W ! Y R V M V V M B M a B V V V V M a M a a M M a u u u u M u u 7 8 u u 8 7 u a p u u y 9 y u u 7 7 7 7 7 7 p u a M M M B M M M M u M M m u 8 7 7 7 7 7 7 7 7 7 7 7 7 7 7 7 7 7 7 7 7 7 7 y y y y 7 7 8 p a M Y &.6.8.8.7.j.u.j.j.l.l.b.c.m.m.b.l.k.k.i.i.k.u.u.u.u.i.i.i.u.u.u.u.q.q.7.q.7.w.w.w.p.w.p.p.w.w.w.w.d.d.d.d.d.d.d.d.d.d.p.d.d.d.d.d.d.d.d.d.d.d.d.d.d.d.d.d.d.d.D.D.S.S.).).).'.}.}.}.}.}.}.}.|.|.|.'.}. X X X X.X.X.X.X.XXXXXXXoXXXXX X}.}.'.`.G.C.M.k.8.@.^ A C C C C C V N N C Z Z Z N N N N N N N N N N N N N N N C v N N N Z N x x M N N N M N N N N N Z N A N N Y C A A M 9 9 9 9 6 6 6 6 6 7 7 6 6 9 m 8 M N M V M M 8 9 8 9 8 V C Y R J M M M 8 8 6 6 7 9 8 8 8 M M M M C M u u m u u u u u u u 8 8 8 8 8 7 9 u M 8 8 8 a M M V V V B M M u 8 9 8 9 8 u u 8 7 7 4 7 4 4 4 4 4 4 w 3 3 3 3 < < < 3 3 < 3 < < < < < < < - - - = * * * * * * * * * * * * * * & * * * * * * * * * * * * & * * * & & & & & & & & & & & & & & & & & & ",
"HXHXHXHXJXSXSXbXbXbXvXvXvXvXzXzXzXzXzXfXtXtXtX9X9X9X9X9X0X0X5X<X<X,X,X%X%X%X&X#X[.E.Q.W.T.T.Y.I.n.g.g.h.h.e.e.e.e.e.e.e.e.6.;.&.-.-.&.-.-.&.@.O.O.%.o.~ W R Y L C V M M B F R o.O.O.O.O.o.~ W E ! R R C C L V M a a M V V V V V B M a a u u a a u u u u u u u 7 7 8 u u u M a a u 9 9 7 7 7 7 7 7 7 7 7 p p a M M M M M M M m m u m u u u 7 7 7 7 7 7 7 7 7 7 7 7 7 7 7 7 7 7 7 7 7 y y 7 7 y y 7 7 u u u u M Y 4.8.8.8.u.u.j.j.l.l.x.c.m.m.b.l.k.k.k.i.j.i.u.u.i.i.i.i.u.u.u.u.i.i.q.q.7.w.w.w.w.w.w.w.w.w.w.w.d.d.d.d.d.d.d.d.d.d.d.d.d.d.d.d.d.d.d.d.d.d.d.d.d.d.d.d.d.D.D.S.S.S.S.).).'.|.|.}.}.}.}.|.|.|.|.'.}. X}. X.X.X.X.X.X.XXXXXXXXXXXXX X}.}.'.`.C.M.b.7.3.@.^ A C C C C C C C N Z Z A A A A N N N N N N N N N N N N N A M N N Z N v x 8 x N C N N M N N N N Z N N v N L A A A M 9 7 6 9 7 7 7 7 7 7 9 7 6 9 8 6 9 M V Y Y V m 8 9 6 6 9 M V Y C M M B F 8 7 6 7 9 8 8 M M M M V F C V B M M u u 8 8 u u 8 8 u 8 8 8 8 M M M M M M M M V V V B B M u 8 9 9 9 8 u u a u 7 5 y y 4 4 4 4 4 w 4 3 3 3 < < < 3 3 3 < , , < < < < < - - - = * * * * * * * * * * & * * * * * * * * * * * * & & & & & & & & & & & & & & & & & & & & & & & & & & ",
"HXHXHXJXSXSXbXvXbXbXbXnXvXvXzXzXzXzXzXqXtXtXqX9X9X9X7X9X0X0X5X<X,X,X,X%X%X%X&X#X[.E.Q.W.T.Y.I.n.n.g.g.h.h.h.e.e.e.e.e.e.6.;.-.&.-.-.-.-.-.-.&.O.O.O.%./ Q T Y L L C V Z V C P R o.O.+.+.o.~ W E W W R Y C P L V M u a B V V V V V M a a u u a a u u u u u u u u u a V D V a u u u 7 7 7 7 7 7 7 9 7 9 7 8 u a M M M M M M M M M M M u u u p 7 7 7 7 7 7 7 7 7 7 5 5 7 7 7 7 7 7 7 7 y y 7 7 y p 8 8 u u u u 8 M ^ 3.8.8.7.u.u.u.j.l.x.b.m.m.b.l.l.l.j.j.j.j.i.i.i.i.i.u.u.u.u.u.i.i.i.q.w.q.w.w.w.w.w.w.w.w.w.w.d.d.d.d.d.d.d.d.d.d.d.d.d.d.d.d.d.d.d.d.d.d.d.d.d.d.d.D.D.D.B.S.S.S.).).'.'.|.|.|.|.'.'.'.'.|.|.'.}.}. X X X.X.XXXXXXXXXXXXXXXXXXX X}.'.'.G.C.m.j.5.3.@.^ A C C C C C C A A A A A A L A A N N N N N N N N Z Z N N A N Z Z Z N x x x v Z A A Z N M N N Z Z Z v v N N A C C M 7 6 6 9 7 7 7 7 7 7 8 u 8 8 8 9 9 m V Y Y C A J C V M M M B V V B m M F B 8 7 u 8 9 9 u M M M M V Y Y V M M 8 8 8 8 u u u u u 8 8 u a M M M M M M M V V V V V B M u 8 9 9 8 u u a M B a 7 5 4 4 4 4 4 4 4 4 3 3 3 3 < < 3 3 3 < , , < < < < < < - - = = = = = = ; ; * * * * * & & * = * * * & & * * & & & & & & & & & & & & & & & & & & & & & & & & & & ",
"HXHXHXSXSXbXbXbXbXbXbXnXnXvXzXzXzXzXfXqXtXtX9X9X9X9X9X9X0X0X5X<X,X,X,X%X%X%X#X[.E.E.Q.T.Y.I.I.n.n.g.g.g.h.h.e.e.e.e.6.6.4.;.-.-.;.;.;.;.-.-.-.&.O.O.O.%.W T Y R ! W Y C C V V C W +.+.+.o.~ W E W ~ R R ! Y C M a 8 a M B V V V B M M u p u u u u a M a u u a B a a a a a 7 7 7 7 7 7 7 7 4 7 7 9 7 7 7 8 M M M M M M M M M M M M m u u u p 7 7 7 7 7 7 4 7 7 7 5 5 7 7 7 7 7 7 7 7 y y y 7 y 8 8 8 u u u u u x v ^ 6.r.r.r.u.u.j.l.l.b.b.b.b.l.l.l.k.k.j.j.i.i.i.i.i.u.u.u.u.u.i.i.u.i.q.q.q.7.w.w.w.w.w.w.w.w.w.s.d.d.d.d.d.d.d.d.d.p.p.d.d.d.d.d.d.d.d.d.d.d.d.d.D.D.B.D.A.S.S.S.).).).'.|.|.'.'.'.'.'.'.|.|.'.}.}. X X X.X.X.XXXXXXXXXXXXXXXXX X}.'.`.C.m.k.7.4.3.( ^ S A C C C C C A A A L L A L L A A Z N N N N Z Z Z C Z N A N Z Z Z N x x x v N A A C N v M N Z C A x v N N A N Z N 6 6 6 5 5 7 7 7 7 7 9 M M 8 8 8 8 M M V N V C C C N M M 8 9 9 M C M u u V 9 6 M M 9 8 M M Z Z v v Z V V M M 8 8 8 8 u u u u u u 8 u M M V V V M M M M V V V V B M M M 8 8 8 u 8 u u u a a p y 4 4 4 4 4 4 4 4 4 3 < , < , , , , , , - - < < < < - - = = = = = = ; ; * * * * * & * * * * * * * * * * & & & & & & & & & & & & & & & & & & & & & & & & & & ",
"HXHXHXSXSXbXbXbXvXvXvXnXnXvXzXvXzXzXfXqXtXtX9X9X9X9X9X9X0X6X1X5X<X<X,X%X$X&X#X[.E.Q.Q.T.Y.I.n.n.n.g.g.h.h.r.e.e.e.e.6.6.;.;.-.-.-.-.-.-.-.&.-.&.&.O.O.%.~ Q T T W R C V B V V C R +.+.o.[ W ~ ~ W [ E W R F V V M u B a a V D V B M a u 7 u a M B B B M u a a M a a u u u 7 7 7 7 7 7 7 5 5 7 7 7 9 7 7 8 M M M M M M M M M M M M u 8 8 8 8 7 7 7 8 7 7 7 7 4 4 5 4 7 7 7 7 7 7 7 7 y y y y 8 8 8 8 u u u u 8 8 8 A %.y.k.r.r.u.j.k.l.b.b.m.b.x.l.l.l.j.j.j.j.k.i.i.i.i.u.u.u.u.i.i.i.i.q.q.q.q.7.w.w.w.w.w.w.w.w.w.s.w.p.p.d.d.p.p.p.p.d.d.d.d.d.d.d.d.d.d.d.d.d.d.D.B.S.A.A.S.S.S.).).'.'.'.'.'.).'.'.'.'.'.|.}.}.}. X X X.X.XXXXXXXXXXXXXXXXX X}.'.'.G.M.z.r.4.3.3./ ^ T J J C C C C A A A A A A A L A A Z N N N Z Z C C C N N C Z Z C Z N v x x v N C A A Z N N N Z C A x b v N C M M V 9 6 6 6 7 7 9 9 9 7 9 B V u 8 u 8 8 m B M V C F F V M M M x 8 m V M M u V u 7 u M 9 8 M M B V M 8 M M B M M u 8 8 8 u u u u u u u M M B V C C V M M M N V C C V M M M m m 8 8 8 u m u u a B s w 4 4 w w 4 4 4 w 4 3 3 3 , = , < , , - - - < < < - - - - - - ; ; ; & * * & * * * & & * * * * & & * * & & & & & & & & & & & & # # # # & & & & & & & & & & ",
"HXHXHXSXSXSXbXbXvXvXvXnXnXvXzXvXzXfXqXqXtX9X9X9X9X9X9X0X0X5X1X<X<X<X,X%X&X&X[.[.E.Q.W.T.Y.I.n.n.g.h.r.h.h.h.h.e.e.6.6.;.;.;.;.-.-.-.-.&.&.&.&.&.&.&.O.O.o.~ Q T Y M M B B B V F R o.o.o.[ [ [ [ W W W ! R C V C V M V a a D F V B M a M a 8 u F F V u 8 u a a a a a a a u 7 7 7 7 7 7 7 5 5 7 9 u 8 6 6 8 M M M M M M M M M M M M u 8 8 7 8 7 7 7 u 7 6 5 7 7 7 4 4 7 7 7 7 7 7 7 7 y y y y 8 8 8 8 u u u u u u 8 v A @.r.r.r.u.u.k.k.l.b.b.b.z.x.x.x.k.k.j.k.k.k.i.i.i.u.u.u.u.i.i.i.i.i.i.i.q.w.w.w.w.w.w.w.w.w.w.w.w.p.p.p.p.p.w.p.p.p.p.p.p.p.p.p.p.d.D.D.D.d.D.B.B.A.A.A.A.S.S.).).'.'.'.).'.'.'.'.'.'.|.|.}.}. X X X.X.XXXXXXXXXXXXXXXXXXX}.}.'.`.C.b.j.8.5.3.&./ ^ ^ T Y J F A A A A A A A A A A A A Z N N N Z Z Z C C N N Z Z Z Z C N N v v v N Z L L A A C Z Z Z A v b N A A N M N 8 6 7 u u 7 9 9 9 9 8 B V M M M 9 6 8 B m V J F J J C M M C Y V 6 M V m M B u u 8 9 M M M M M M u M M M M M M u u 8 u u u u u u u M M B V V C V V M M V V V C C C M m M m m m m M M M B a p s U g p y y y w 4 4 4 4 3 3 = = = = = , < - < < - < - - - - - - - ; & & * * & * * * & & * * * * & & * * & & & & & & & & & & & & # # # # & & & & & & & & & & ",
"HXHXJXSXSXSXbXbXvXvXvXvXvXvXzXzXzXzXqXqXtX9X9X9X9X0X0X0X6X5X1X<X<X<X,X&X&X@X[.E.E.Q.W.T.Y.I.n.n.g.h.h.h.h.h.h.e.e.6.4.4.;.;.;.-.-.-.-.&.&.&.&.&.&.&.O.O.+.o.~ T C C V a a B V F R } o.o.o.o.o.o.o.W W ! R C V C C M F B B F P F B M M u u B V V V B u 7 8 u u u a a a u y 7 7 7 7 7 7 7 7 7 7 9 8 9 7 8 M M M M M M M M M M M m u 8 u u 8 8 8 7 8 u 7 7 5 7 7 7 4 7 7 7 7 7 7 7 7 7 7 y y 7 p 8 8 8 8 8 u u u u a M M L &.y.r.r.u.u.k.l.l.b.m.b.b.x.x.l.k.k.k.k.k.k.i.i.u.u.u.u.u.u.u.i.i.i.i.i.i.i.w.w.w.w.w.w.w.w.w.w.w.w.w.w.w.w.w.w.p.p.p.p.p.p.p.x.B.B.B.B.D.D.B.A.A.A.A.A.S.S.).).'.'.'.'.'.'.|.|.'.'.'.'.}.}. X.XXX XXXXXXXXXXXXXXXXXXX X}.'.'.`.C.k.7.8.5.3.&.( ^ ^ Q T Y Y Y Y A A A A A L Y T A A Z N M N Z Z Z Z C Z N Z C Z Z C Z M v v v v Z Y T Y T L A A C N N N N A Y N x v M 6 5 7 7 5 7 8 8 8 u B V B M 8 7 6 7 M 8 B F J F J C V N m m N 8 8 M B M B M 8 9 8 a a M M V M a M M M M M M u u 8 u u u u u u M B V V V V B V C V V C C C V C V M M M M M M m M M B D a y y y G D h s d y w 3 3 4 3 3 = = = , , , < < < < - - - - - - - - - ; & & * * * * * * & & & & & & & & & & & & & & & & & & & & & & # # # # & & & & & & & & & & ",
"HXHXJXSXSXSXbXbXvXvXvXvXvXzXzXzXzXfXqXqX9X9X9X9X9X0X0X0X0X6X<X<X<X,X%X&X&X@XE.Q.Q.Q.W.T.Y.I.I.n.v.g.g.h.h.e.e.y.e.6.4.4.4.;.;.-.-.-.-.&.&.@.&.&.O.O.O.+.%.~ o.W W Y V M M B V F E } } } o.+.+.+.o.W W ! R C V C C V F V V P I P V M M a u 7 u a B a u u u u 7 7 9 u y 7 7 7 7 7 7 7 7 7 7 u a 7 7 9 u V B M u M M M M M M M M m u 8 u u 8 u u 7 7 u u 7 5 7 4 7 4 4 7 7 7 7 7 7 7 7 7 7 7 7 p 8 8 8 8 8 u u u u u u M N Q 6.r.k.u.u.k.k.l.b.b.b.b.b.b.l.k.k.k.k.k.k.i.i.u.u.u.u.u.u.u.i.i.i.i.i.i.i.i.i.w.w.w.w.w.w.w.w.w.w.w.w.w.w.w.w.p.p.p.x.x.x.B.B.B.B.B.B.D.D.A.A.A.A.A.Z.A.S.).).'.'.'.'.'.'.|.|.'.'.'.'.}.}..X.XXXXXXXXXXXXXXXXXXXXXXX}.'.'.`.G.m.0.8.8.5.3.&.( / ~ ~ Q R Y Y Y Y A A L A Y Y L A A Z N M M N N Z Z C Z N N A Z C A Z M v v v M Z A T ~ Q Q T L A N Z N N A Y M 8 8 Z 8 9 6 7 7 7 9 9 m M M M M M 9 9 6 7 u 9 M V J J F V V M x 8 8 M M 8 V V V V 8 6 9 8 a M V V M 8 a M B M M M M a 8 u u u u a M V V C F C C C C C C C C Y Y C V M M B B M M M M M M B B a u 7 y 4 w w w p s p w 4 w w 3 3 3 3 3 3 3 < < < < - - - - - - - - - ; ; & * * * * * * & & & & & & & & & & & & & & & & & & & & & & # # # # & & & & & & & & & & ",
"HXHXJXJXSXSXbXbXbXbXvXvXnXvXzXzXzXqXfXqX9X9X9X0X0X0X6X6X0X1X<X<X<X,X%X@X#X[.E.Q.Q.Q.W.T.Y.I.I.n.n.g.g.h.r.e.e.e.6.;.;.;.e.6.;.-.-.&.&.O.+.+.+.o.o.o.~ o.[ W [ E E P V B M B V I [ } } } o.o.o.o.[ W E ! R P C C V V F C F P Y P V M M a a 9 8 u u u u u a u u u u u u u u u 7 7 7 7 7 7 7 M M 9 7 u M V M 8 M M V M M M M M M M u u u 8 u u u 7 7 8 u 7 7 7 7 7 7 7 7 7 7 7 7 7 7 7 7 7 7 7 7 7 7 7 8 8 8 u u u a M M C Y / 4.r.r.u.j.j.k.x.b.b.b.b.b.b.l.l.l.l.l.j.j.i.i.i.u.u.u.u.u.u.i.i.i.i.i.i.i.i.i.i.i.q.q.q.i.i.p.w.q.p.w.p.p.p.p.x.x.b.B.B.B.B.B.B.B.B.B.B.A.A.A.A.A.Z.S.).'.'.'.'.'.'.F.'.'.'.'.'.'.'.}. X.X.XXXXXXXXXoXoXoXoXXXXX.X}.'.'.G.C.k.8.5.5.5.3.&./ ^ o.o.~ W R Y Y Y A L L L L L L A A Z N N v v v N Z C Z N N A C C A Z N v v v N Z Z Y %.+.o./ ~ Q Z v N Z L L v x 8 M M M 9 7 6 6 9 7 B B 8 a Z M u 8 7 8 8 8 u B F Y C V B M M 8 9 u u u B V V B a 7 7 u u M L C M 8 8 M C V B V B a u u u a a a B V V C C Y R R Y Y Y Y Y T Y Y C V V N N N N N C C M B M a u y w 4 3 3 4 y y y w e y y s e w w 4 4 4 3 < < < < < - - - - - - - - & & * * * & & & & & & & & & & & & & & & & & & & & & & & & & & & & & & & & & & & & & & & ",
"HXHXHXJXSXSXbXbXbXbXvXvXnXvXzXvXzXqXqXqX9X9X9X0X0X0X6X0X1X<X,X<X,X,X&X@X#XE.E.Q.Q.Q.T.Y.I.n.g.g.g.g.g.h.r.e.e.e.6.;.;.;.6.;.-.O.O.+.o.W W Q T R Y L L Y R Y R Y P F V V B V P [ } } } } [ [ [ [ W W E R Y P C V V V V C C F P P V B M M a u 8 u u u u u M V D F V V V V V B B M M M M a M V a 6 6 u B B M M M M V M M M M M M M a a u 8 u u u u 7 7 u 7 7 7 7 7 7 7 7 7 7 7 7 7 7 7 7 7 7 7 7 7 7 7 p p p u u a a M M C A L / 4.r.r.u.j.k.l.z.b.b.b.b.b.l.l.l.l.l.l.j.j.i.i.u.u.u.u.u.u.i.i.i.i.i.i.i.p.p.p.p.i.i.p.p.p.p.p.p.p.p.p.x.l.p.x.b.b.b.b.x.x.B.B.B.B.B.B.V.V.A.A.A.Z.S.).'.'.'.'.'.'.F.'.'.'.}.}.|.|.}. X.X.XXXXXXXXXoXoXoXoXXXXX X}.'.`.Z.c.u.8.8.5.5.3.&./ ^ o.%.o.W W R Y Y Y L L L L L Y L A A Z N N v v N Z C Z N N Y A A A A N v v v v N N A ~ O.o./ ~ Q A C L Z L A M x x m M M M 6 7 9 8 8 M 8 9 M C V M 8 7 8 8 8 u u u B F C V M B V M 8 8 u u M M M V M 7 8 a M R Y M M M C W Y Y F C M a M M a u 7 u M V C C Y R Q W W W T Q W W Q Y Y A C N N N C A A V B B M p y y w 4 4 4 4 4 4 4 4 4 3 < 3 3 3 3 3 3 3 < < < < < - - - - - - - - & & * * * & & & & & & & * * & & & & & & & & & & & & & & & & & & & & & & & & & & & & & & ",
"HXHXJXSXSXSXbXbXbXbXvXnXnXvXzXvXfXqXqX9X9X9X9X0X6X0X0X1X<X,X%X,X,X%X&X@X[.E.Q.Q.Q.W.T.I.I.n.g.g.g.g.g.h.r.e.e.6.;.;.;.;.;.-.O.+.+.o.~ W Q W T T Y Y Y Y Y R P Y Y F V V V Y [ } +.#.+.o.} [ W [ W W E R L C V M V V V V V V V C C V M M M a 8 u u u u 8 7 8 u u u u u u u u u 7 7 p 7 7 8 a a 8 9 M V B B B V B M V V M M M M M a a u u u 8 8 u u 7 u 7 7 7 7 7 7 7 7 7 7 7 7 7 y y 7 7 7 7 y y 7 7 7 7 8 u a a a M M A T T ^ @.4.7.r.k.j.k.z.b.b.b.b.b.b.l.l.l.l.l.l.j.j.j.j.i.u.u.u.u.u.u.i.i.i.i.i.i.i.p.p.p.p.p.p.p.p.p.l.l.x.x.x.l.l.x.x.x.b.b.D.D.B.B.B.B.V.V.V.V.A.A.A.A.S.).).'.'.'.'.'.'.'.|.}.}.}.}.}. X X.X XXXXXXXXXoXoXoXoXXXXX X}.'.G.C.j.7.8.8.5.5.3.@.T T o.%.+.o.W W R Y Y Y L Y T T T Q T Y A Z M N M N N C A A N T A A L A N x v v v N N Z L ~ o.~ W C x v C Z L A M v x 8 u a M 9 u a a V u 9 8 Z V B M 8 9 8 8 8 8 p 7 8 B V V V M M M M M M a M M M V B u u a V P Y V B V C W C C B B F F B u u u u u u a V C C C Y R Q Q Q o.o.Q R Y A C N N N N A Y Y C V B M p p y y w w w w w 4 4 4 4 4 3 3 3 < < < 3 3 3 < < < < - - - - - - - ; & & * * * * * & & & * & * * & & & & & & & & & & & & & & & & & & & & & & & & & & & & & & ",
"HXHXJXSXSXSXbXbXbXbXvXnXnXvXzXvXfXqXqX9X9X9X9X0X6X0X1X<X<X,X%X%X%X&X&X[.E.E.Q.W.W.T.Y.I.I.I.n.g.g.g.g.h.r.e.e.6.;.;.;.;.-.O.+.~ W T Y Y J Y Y C C C C L Y E P R R P F F R R E E [ E E E E E E W W W E R C V M M V V V B B V V V V V B M M M u 8 u u u u u u 8 7 u p u u u u u 7 7 p 7 u M a 8 7 8 C F Y F C V M M V V M M M M M M a u u u 7 7 u u 7 8 7 7 7 7 7 7 7 7 7 7 7 7 7 y y 7 7 y 7 y y 7 7 7 7 8 u a M a M M C T ^ ^ ^ @.4.r.k.j.k.l.z.b.b.b.b.b.l.l.l.l.l.l.l.k.j.j.j.j.i.i.u.i.i.i.i.i.i.i.i.i.p.p.p.p.p.l.l.l.l.l.l.x.x.x.l.x.x.x.x.b.b.D.D.B.B.B.B.V.V.V.V.B.A.A.S.S.).).'.'.'.'.'.'.'.}.}.}.}. X X X.XXXXXXXXXXXXXXXXXXXXXXXXX X}.F.Z.x.7.8.8.8.5.4.3./ S A ~ %.%.+.o.W W T T T T T Y Y T Q Q T Y C N N N N N Z A A N T L A L A M x v v v v v N N L W / W A N C T Z A A M N x 8 8 8 8 M M M V V u 8 M M M M a u 8 8 8 8 8 7 7 8 8 M V V M M M M M a a a M M a a B M a M C C V M B C Y V M M B F F V u 7 7 7 u M V V C C V V C Y T Q o.~ T A V M M N N N C J T Y J C B M a p p y y y e w w w 4 4 4 4 3 3 3 3 3 3 3 3 3 3 < < < - - - - - - - ; & & * * * * * & & & * & * * & & & & & & & & & & & & & & & & & & & & & & & & & & & & & & ",
"JXHXHXSXSXJXbXbXbXbXvXnXnXvXfXzXzXzXtX9X9X9X9X0X0X0X1X<X<X,X%X%X&X@X#X[.E.Q.W.W.T.T.Y.I.I.I.n.n.g.g.g.h.e.e.e.6.;.;.;.&.O.+.~ W Y Y Y J J J C V C A Y R E W E E E R R R R R P I P P P P P P Y Y Y Y Y F V M M M V V B B M M B V V V B M M M a u 8 u a M M a a a u a u u u u 8 7 7 p 8 a B a 9 7 8 F F R R C Z Z C C C M M M M M M u u u u 7 7 p p 7 7 7 7 7 7 7 7 7 7 7 7 7 7 7 y y y y y y y y p p 8 8 8 u a a u u M C T ^ ^ ^ ^ @.4.r.j.j.k.l.b.b.b.b.b.l.l.l.x.x.x.l.l.k.k.j.j.i.i.i.u.u.u.u.i.i.i.i.p.p.l.l.p.p.l.l.l.x.x.x.l.x.x.x.b.b.b.b.x.x.B.B.B.B.B.B.B.B.B.B.V.A.A.S.S.).'.'.'.'.'.'.'.'.}.}. X}. X X X.X XXXXXXXXXXXXXXXXXXXXX X}.'.G.m.0.8.8.8.8.4.4.@./ S S Q o.+.+.o.~ W Q Q T Q Q Y L T Q Q T Y A A Z N N N S A A A A T L T L M x v v v v M M v A L L A M N L T T A C N M v 8 x u 8 M M B C V a 8 M M a M M u 8 8 8 8 7 9 p 8 7 8 M B B B u u u a u M M M u a V B a M V C V B V V C V M M M V C B u u 9 u u V V V V C C C C L Y W ~ ~ R C N M v M C N A Y T T Y C B M u p a d p p y y w w w w 4 4 4 3 3 3 3 3 3 3 3 < < < < < - - - - - - - - - = = * & * & & & * & & & & & * & & & & & & & & & & & & & & # # # & & & & & & & & & & ",
"SXJXJXJXSXJXbXbXvXbXvXnXnXvXfXzXzXzX9X9X9X9X9X6X0X5X<X<X,X%X&X&X@X#XE.E.Q.Q.Q.W.W.T.Y.I.I.I.n.n.g.g.g.h.e.e.6.;.;.;.&.O.o.W R Y Y Y T Q R J C Y W W W [ o.+.+.} } [ E F F R I F V V V V V B V V V V V B M M a M V V B M a M V V V V B M M M a u 8 u a M M a M M M M a u u u u 7 7 p 8 u B M u 8 M C C Y Y Y M C Y A C M M M m M M u u 8 8 7 p 7 7 7 7 7 7 7 7 7 7 7 7 7 7 7 7 y y y u u y y y y 8 p 8 8 8 u a a u u M C A ^ ^ ^ ^ / &.6.r.k.j.k.l.b.b.b.b.l.l.l.x.x.x.x.l.l.k.k.j.j.i.i.i.u.i.u.i.i.i.l.p.p.l.l.p.p.l.l.l.l.b.b.x.x.b.b.b.b.B.B.b.b.b.b.b.b.b.b.B.B.B.B.B.A.A.A.S.).'.'.'.'.'.'.'.}.}.}. X X X X X.XXXXXXXXXXXXXXXXXXXXX X}.'.`.C.x.0.7.7.8.5.4.4.@.^ S Z A ~ o.+.+.o.~ ~ W Q ~ ~ Q T Q Q T Y L L A Z Z N S A A A A A L T T L N v v v v v N M N Z Z C L C L Q Q Q Y C N M v x x M u M M B V B a a a a 8 u u u u 8 8 8 8 p p 8 8 8 8 M B B u u u a u M a M M a M M u a B V F V C V V V M M M M M u u a M M a M B V V C Y Q T Y Y W ~ Q Y C N M x m A A A A Y Y Y C M M a a a s s p y y w w w w 4 4 4 3 3 3 3 3 3 3 3 < < < < < - - - - - - - - - = = * * * & & & & & & & & & * * & & & & & & & & & & & & & # # # & & & & & & & & & & ",
"JXJXHXSXSXJXbXbXvXvXvXnXnXzXfXfXzXtXqX9X9X9X0X0X5X5X<X,X%X&X&X@X#XE.E.Q.W.Q.Q.Q.Q.T.Y.I.I.I.n.g.g.g.h.r.e.e.6.;.4.;.O.~ T Y L L Y T W o.o.W W +.O.O.O.O.&.O.+.o.[ E Y D D Y I F V V V M M M M M M M B M a a a M V V M M M M V V V V V B M M a u u u M M M M M M M M B M u u u 8 8 8 8 u M M M M V M C C C C M L Y Y V M M M M M M u 8 9 7 p u 8 7 7 7 7 y y 7 7 7 7 y y y y 7 p u p a u u 8 8 8 u u u u u u a a u u M V A T ^ ^ ^ ^ / &.4.r.j.j.k.l.b.b.b.b.b.b.x.x.l.x.b.x.l.k.k.j.j.i.i.i.u.u.i.i.i.i.p.l.l.l.l.l.l.l.p.l.l.x.x.b.b.b.b.b.b.b.b.x.b.b.b.b.b.B.B.B.B.B.B.A.A.A.S.).'.'.'.'.'.'.'.'.}. X.X.X X X.X.XXXXXXXXXXXXXXXXXXXXX X'.'.Z.m.j.0.0.7.8.5.4.3.@.^ S N S T o.O.O.+.o.o.~ ~ ~ ~ / o./ / ~ Q Q Q T L A C C Z C A A A L T Q L Z v v v v N N N M Z Z Z L L ~ o./ ~ T A N M v x x M M u M V B V a 8 8 8 8 u u u u u u p 8 u p 8 8 8 8 8 M M a a u u u B a a M a M M a 8 M M C J C V V M M B B M a u a a a a u a a 8 8 M V C A C A W W R C Z N M v M C T Y A A A A C V B B B B s s s y y w w w w w w 4 4 4 3 3 3 3 3 3 3 3 < < < - - - - - - - - - - - - = = * * * * * * * * = * * * * * & & & & & & & & & & # # # & & & & & & & & & & ",
"JXJXJXJXJXJXbXbXbXvXvXvXnXzXfXfXzXtXqX9X9X9X6X5X5X<X,X%X&X&X@X#X[.E.Q.Q.W.Q.Q.Q.W.T.I.I.I.I.n.g.g.h.h.e.e.6.;.;.;.&./ Q Y Y A A R Q o.+.O.O.&.O.O.O.O.&.&.$.+.W R P P P P F F F V B B B B B B B B B B M a a a M B B B M M M V V V B B M M M a u u u M a M M M M M B M a a u u u 8 8 8 8 a V C C V M V C C M C Y Y A Z M M M M M M u 8 9 7 p u 8 8 7 7 7 y y 7 7 y y y y y y y u p p a u u 8 8 8 u u u u u u a a u u M N C A ^ ^ ^ ^ ~ / &.4.7.k.k.k.l.z.b.b.b.b.x.x.x.l.b.b.l.l.l.j.j.i.i.i.i.i.i.i.i.i.p.p.p.p.l.l.l.l.p.p.l.l.x.x.x.x.x.x.b.b.b.b.b.B.B.B.B.B.B.B.B.B.B.A.A.A.S.).'.'.'.'.'.'.'.'.}. X.X.X.X.X.XXXXXXXXXXXXXXXXXXXXX X}.'.F.V.x.N.j.0.8.5.5.3.&.( L N N C J ~ O.O.O.+.o.o.o.~ ~ %.O.O.O.O.O.+.+./ Q L A A C C A A A A A T L N M M M M N N N N N Z C A ~ o.%.+.o.Q L C M v x x M M B B B M B u 9 8 9 9 u u u u u u p p p p 8 8 8 8 8 u a a u u u u M M M M a a M a 8 a M V Y Y F C B M B B a u u a a u 8 u a a m M M V C A Y R T Q R C Z Z M N N N Y J A A C C V V V B V V V s s y y w w w w w w 4 4 4 3 3 3 3 3 3 3 < < < < - - - - - - - - - - - - = = * * * * * * * * = * * * * * & & & & & & & & & & # # # & & & & & & & & & & ",
"JXJXJXJXSXJXbXbXnXbXvXzXzXtXtXtXtXqX9X9X9X0X0X5X5X<X,X$X&X@X#X[.[.E.Q.Q.Q.Q.Q.Q.W.T.I.I.I.I.I.v.g.h.e.e.e.6.-.&.&.%.Q Y A Y L Q ~ +.O.&.O.-.-.&.&.&.O.O.O.O.o.W Y Y Y R Y F F F C V V B B B B B B B M a u u a M B B B M M B V V V B M M M M a u u a M M M M M M B B a u u u u u 8 8 8 8 M C C M M M B C C V J Y Y C V M M M B B M M u 8 7 8 u y y 7 y y y y p p y y 7 7 8 8 8 8 u u u u u u u u u u u u u u B a a m M N C J ^ / ^ ^ / ^ ( 3.8.r.k.k.z.z.z.l.l.l.l.l.l.x.l.l.l.l.l.l.k.k.k.i.i.i.i.i.i.i.i.i.l.l.p.l.l.l.p.p.p.p.x.l.x.x.x.x.b.b.x.B.B.B.B.B.B.B.B.B.B.B.B.B.A.A.S.).'.'.'.'.'.'.'.'.}. X.X.X.X.XXXXXXXXXXXXXXXoXXXXX X}.'.`.C.x.j.j.j.0.8.5.4.4.&./ L S N C C Y o.O.O.O.+.+.+.o.o.%.O.O.@.@.O.O.O.O./ T L A A A Z A A S S A A Z N N Z N N N N N Z A Y T %.%.O.O./ ~ Q Q R C C A V C J C V M M u 8 8 9 9 u u u u u p u 8 p p p p u p p u u m u u u u M M M M u M M u 8 M M M C Y R Y Y Y C V M a a a u 8 u u u u a M M B V C R W W W Y V V V Z Z C N A A C C Z N Z C C V V V V s s y y w w w w w w w w 4 q 3 3 3 q q q q 3 3 < < < < - - - - - - - - - = = * * * * * * * * * * * * * * * & & & & & & & & & & & & # # # # # # # # # # ",
"JXJXSXbXJXJXbXbXvXbXvXzXzXtXtXtXtXqX9X7X9X0X0X5X<X<X,X&X@X#X[.[.E.Q.Q.Q.].Q.Q.Q.T.Y.I.I.Y.Y.I.n.h.h.e.y.e.6.&.&.%.Q Y L Y Q W +.O.&.-.&.-.=.&.&.O.O.O.O.O.O.W W Y R R Y Y R Y F F C C V V B B B B B M a u a M M M M B M B B V V V V M M M M a a u a M M M M M M B M u u u u u u 8 8 8 u M C C M M M B V C C C C A C N M M N V V B M u 8 u 8 y 7 7 7 7 y y y 7 7 y y y 7 8 8 8 8 u u u u u u u u u u u u u u B a a m m M C J ^ / / ^ / / / @.3.8.r.k.k.z.z.l.l.l.l.l.l.l.l.l.l.l.l.l.l.l.l.k.i.i.i.i.i.i.i.i.p.p.p.l.l.l.p.p.l.l.l.l.x.x.x.b.B.B.B.B.B.B.B.B.B.B.B.B.B.A.A.B.A.Z.S.'.'.'.|.'.'.'.'.}.}. X.X.X.X.XXXXXXXXXXXXXoXoXXX X}.}.'.G.m.x.j.j.u.0.7.5.4.4.&./ L S S C C A W O.O.O.%.+.%.%.o.%.%.O.@.@.O.O.%.%.O.o.^ T A A A L L L A S A A A S Z Z C Z Z Z Y T Q ~ / %.O.O.%./ ~ Q R Y Y Y V V V V V V V V M M 8 8 u u u u u p u 8 p p p p u p p u m m u u u u M M M M 8 M M 8 8 M M C P C Y R [ W W R C V V V B a a a a a a a M B V V Y W W W L C C C V C C C A C C C V Z V A F V V V V s s y y w w e e w w w w 4 q 3 3 3 q q q q 3 3 < < < < - - - - - - - - - = = * * * * * * * * * * * * * * * & & & & & & & & & & & & # # # # # # # # # # ",
"HXJXSXJXJXJXbXbXbXbXnXzXzXzXtXzXtX9X9X7X0X0X5X<X<X,X%X&X#X[.[.E.E.Q.Q.[.].E.Q.Q.T.T.Y.I.I.I.n.v.g.h.e.e.6.;.&.O.~ Q Y Y T W O.&.&.&.&.&.&.&.&.&.O.O.O.O.O.[ R R R R R Y R R R R Y P F C C V V V V B B M M M V V B B B B V V V V F V V M M B M a a M M M M M B B B M u u u a a u 8 8 8 8 M C C M M M B V V V V V C V M M M V V V V B M u u 8 y 7 7 7 7 7 y 7 y y y y p p p p 8 u u u u u a u 8 u u u u u u u B B M M M m N A Q ^ / / / / / ( @.4.r.k.k.z.z.z.z.z.l.l.z.b.l.l.l.l.x.x.x.l.l.k.k.i.i.i.i.i.i.i.p.p.p.l.l.l.x.x.x.x.x.x.b.b.B.B.B.B.B.B.B.B.B.B.B.B.B.A.A.A.S.A.A.).).'.'.}.}.}.}.}.}.}..X.X.X.X.XXXXXXXXXXXoXoXoXXX X}.'.'.`.C.x.j.N.j.u.0.7.5.5.4.&./ T S Z A A N T %.&.O.O.+.@.%.+.%.O.@.@.@.@.O.o.O.@.O.%.^ L A S A T ^ Q L L T L A A A A A A A L T Q ~ / +.O.O.O.O./ ~ ~ o.o.~ W J V V F F Y F C V M M m u u u u u u u p u u u u u u u a a u u u M M B B M m M M 8 8 M M C L C C R W [ W W R P C C V B a a a a a a M V V C Y W o.W Y L C C A A A A A A A C C C A Y Y C V V V s a p y y y y e e w w w 4 q q 3 3 q q q q 3 3 < < < < - - - = = = - - - - - - = - - - - - - - * * = = = * * & & & & & & & & & & & # # # # # # # # # # ",
"JXJXSXJXJXJXbXbXbXbXnXzXzXzXtXzXtXqX9X9X0X0X5X<X,X,X%X@X#X[.~.E.E.Q.E.].].E.Q.W.T.Y.I.I.I.n.g.g.h.r.e.e.4.-.&.+.W Q Y Q W +.&.&.&.&.&.&.&.&.&.&.O.O.O.O.+.W Y Y R Y Y E E E E R Y P P F F C V V V B B a M B V V B B B B V V V C F F V B M M M a a a a M B B B B B M u u u a a u u u 8 a M C Y M M M B B M M M M V N M M M V V C V V B M 8 7 y 7 7 7 7 y y 7 y y y y p p p p u u u u u u u a u u u u u u u u B B M M M m m A T ^ / / / / / / ( @.4.r.k.k.k.z.z.z.l.l.z.b.x.x.l.l.x.x.x.x.l.l.k.i.i.i.i.i.i.i.p.p.p.l.l.x.x.x.b.b.b.b.b.b.B.B.B.B.B.B.B.B.B.B.B.B.A.A.A.A.S.).).).).'.'.}.}.}.}.}.}. X.X.XXX.XXXXXXXXXoXXXoXoXoXXX}.'.'.'.G.c.j.N.N.j.0.0.7.5.5.4.&./ T S S A A C J ~ @.&.O.O.O.O.O.O.O.@.@.@.@.O.%.@.&.O.@.%.^ L Z N A T ~ ~ T T T L L L A A L A A A L T o.+.O.O.O.O.%./ O.-.-.O.W V M M B V V C C C C V M a u 8 8 7 u p p u u u u u u u a a u u u M M M B M m M M 8 v Z V Z Z L Y R ! W [ W R C V B B a a a a a a a M B V C Y E W o.W Y C A A L Y Y Y Y Y Y L A L Y Y C V V V s a p y y y y e e w w w 4 q q 3 3 q q q q 3 3 < < < < - - - = = = - - - - - - - - - - - - - - * * = = = * * & & & & & & & & & & & # # # # # # # # # # ",
"JXJXJXSXSXJXbXbXbXbXnXzXzXzXtXzXtXqX9X9X0X0X5X<X,X%X&X@X@X@X~.~.E.E.~.E.].E.Q.W.T.Y.Y.Y.I.v.h.r.r.r.e.y.4.-.O.o.W T Q ~ +.&.;.&.&.O.O.&.&.O.&.=.O.O.O.O.[ E Y Y R Y R W W W E R P F F F F F C C V V M a a V C V B B M M M V V C F F V V M M M a u a M B V V V B B M u 8 u u a a u u u a M V Y V M M M M M M M M M M M M M V V C C V M u 8 7 y 7 7 y y u y y y y 7 y y y u u u u u u u u u m m m u u u u u m M M M M M m N C T ~ / / / / / / ( @.@.6.r.k.k.z.z.z.l.b.b.b.b.b.b.b.b.b.b.b.b.l.l.l.l.i.i.i.i.i.l.l.l.l.x.x.b.b.b.b.b.b.B.B.B.B.B.B.B.B.B.B.B.B.A.S.A.A.Z.Z.S.).).).'.'.}.}. X XOXOX X X.X.X.X.XXXXXXXXXoXoXoXoXXXXX{.'.'.G.C.x.N.j.N.j.u.0.8.5.5.4.3./ T L A A A A A T o.-.&.@.O.O.@.O.O.O.@.O.O.O.O.@.@.@.&.@.%./ T S S L Q ~ ~ Q T T L L A A L T Y L Y L Q / %.O.O.&./ %.&.e.e.O.R M V M M M M V V C Y Y F B u 8 8 8 8 p u u u u u u u u a a a u u u m B M M M M M M M V C V M V Y Y R W W W Y C V B B B M M a a a a M B V V Y R W [ W T Y L L Y Y T T T T Y Y F P Y P L C V V a p p y y y y e e e w w w w q 3 3 q q q q q q < < < < < < < - - - - - - - - - - = - - - - - - - = - - * * * & * & & & & & & # # # # # # # # # # # # # ",
"SXJXJXSXSXJXbXbXbXbXnXzXzXzXtXzXtXqX9X9X0X5X<X<X,X%X&X#X@X~.~.~.E.E.E.E.E.E.W.W.T.Y.I.I.I.v.h.r.r.e.y.6.;.&.+.~ W Y Q O.-.-.6.-.&.&.&.&.O.O.=.O.O.O.O.o.W E R R R R R W W E R P F F C C F C C C V V M a a V F V V B Z Z V V V C F F V V B M M a a a B V P F V V B B u 7 u u a a a a a M M V Y V M M M M M M M M M M M M M B V V V B u 8 9 8 p 7 7 p p a p p p u u u p p p u M a u u u u u m M m u u m m u M M M B M M m N C T ^ / / / / %.%.( ( @.@.5.r.k.k.l.l.l.b.b.b.x.x.b.b.b.b.b.b.b.b.b.l.l.l.l.i.i.p.l.l.b.b.B.V.B.B.b.b.b.b.B.B.B.B.A.A.A.A.A.A.S.S.).).S.S.S.S.).).).).'.}.}.}.}.}.OXOX X X X X X X.X.X.XXXXXXXoXXXXX X'.'.`.A.x.N.j.j.j.j.0.0.7.5.4.4.&./ L T T A A A J J W &.-.-.@.@.O.@.@.O.@.@.O.@.&.O.O.-.&.&.&.@.%.T S S L T ~ ~ Q T L A A A A A L A A A Z L Q o.O.O./ ;.;.;.&.+.R M V M M M M M M M C W o.Y u u u u u u u u u u u u u u a a a a m m M B B M M M V B V V V C R C C Y Y Y Y Y L C F F F C V V B M M B B V V V Y R W W T T T Y Y T T T Q Q T Y J C C P L L C V V a a p y y y y e e e w w w w q q 3 q q q q q q < < < < < < < - - - - - - - - - - = - - - - - - - - - - = * * & * & & & & & & # # # # # # # # # # # # # ",
"JXJXJXSXSXJXbXbXbXbXnXzXzXzXtXtXtXqX7X9X0X<X<X,X%X&X@X#X@X@X@X[.[.E.E.E.E.Q.Q.Q.Q.T.I.I.n.g.h.h.r.e.y.6.-.O.o.W Q Q o.&.;.&.;.-.&.&.&.&.&.&.O.O.O.O.O.Q Y R R R R R W W E R Y F F F F F F F C C V V M a a V F V V M V V V V V C F P V V B M M M M B V F Y Y F C V B u 8 u u a M M M M B N V Y V M M M M M M M m m M M M M M B V V M 8 8 8 8 y y u p a a a a a a a a a a M M M M a u a a m M M M m m m m M M B B B B M N m N A ~ / / / %.( %.@.@.( @.3.8.u.k.k.k.l.b.b.b.x.x.b.b.b.b.b.b.b.b.b.b.l.l.l.l.l.l.b.b.c.m.V.A.A.A.B.B.B.B.B.B.B.A.Z.Z.Z.Z.S.S.).).).).).).).).).).'.'.}.:X}.}.}.}.OXOX}.}.}. X X X X X X X.X.XXXXX X}.'.'.`.c.j.j.j.N.N.j.u.0.7.5.4.4.&./ ^ ^ Q A A A J A Y O.;.-.&.&.O.%.%.O.@.@.@.&.-.&.&.;.4.;.;.&.&.%.T A A L T ^ ^ ^ T L Y A A A C C C C N A Q O.O.O.O.y.;.&.&.-.Y M V N V V V V B M M F W o.Y M u m m u a a u u u u a a a M M M M B B B V M M V V V C V V C E Y E [ W W R Y L C C F F F F F V V V V V V B V Y R R Y Y Y Y T T T Q Q Q Q W R Y Y P P P P F V C a a d d d p y e e e w w w w w w w w w w q q q q < < < < < < < < < - - - - - - - - - - - - - - - - - - = * * * * * & & & & & # # # # # # # # # # # # # ",
"JXJXJXSXSXJXbXbXbXbXnXzXzXtXtXzXtXqX7X9X5X<X,X%X&X&X#X[.@X@X@X@X[.E.E.E.E.Q.W.W.Q.T.I.n.v.g.g.h.h.e.y.6.-.O.~ Q W o.&.&.&.O.&.&.&.&.-.-.-.-.&.&.O.O.+.R Y R W W W W W W R Y F C F F F F F F C C V V M a M C P C V B V C V V C C F F V B B M M M M B V P Y Y P C V B M u u u a M M B B V V V Y V M M M M M M M m m M M M M M M B M u p 8 8 7 y u p a B B a B B a a a a M M M M M a u a u M M M M m m M M M M B B B B M M N N A ^ ^ / %.%.%.%.@.@.@.@.2.4.7.k.k.z.l.b.b.b.l.x.b.b.b.b.b.b.b.b.b.b.b.b.l.l.l.l.b.m.B.A.A.A.A.A.A.A.B.B.A.A.A.A.Z.Z.Z.S.).).).).).).).).).).).).).'.}.}.}.}.}.}.}.}.}.}.}.}.}.}. X X}. X X XXX X}.'.'.`.A.j.N.N.N.N.N.N.0.0.7.5.4.4.&./ ^ ^ ~ T A Y T J C W -.;.-.-.@.@.%.@.O.O.O.@.&.;.;.-.4.6.4.;.-.&.@.^ A A L T ^ ^ T T Y L A C Z Z Z Z Z T / O.o.O.&.y.O.;.e.e.Y M V M m u u u M M V V C F F C B B B M a a u u u u a a a M M M M B V V V M M V V V C C Y P C Y R E [ o.o.W R C B B B B V C C C V V V V V V Y Y Y Y Y L L T T Q Q Q ~ ~ W W W R Y P P P F D V a a s d d d y e e e w w w w w w w w w w q q q q < < < < < < < < < - - - - - - - - - - - - - - - - - - = * * & * * & & & & & # # # # # # # # # # # # # ",
"JXJXJXJXJXJXbXbXbXbXnXzXzXtXzXqXqXqX9X0X<X<X,X%X&X&X#X[.[.@X[.[.[.[.].E.Q.Q.W.W.T.Y.I.n.g.g.h.h.r.y.e.6.-.%.~ Q ~ O.&.&.&.&.&.&.&.-.-.-.-.&.&.&.&.O.o.R Y Q W o.[ W W R R F F C C F F F F F F F C V M a M C Y C V M C C C V C C F V V B B M M M M B V V V V V V V B B a u u a M B B V C C V A C V V V V M M M M M M B M B M B B M u u 7 8 8 u a M B B a a B B a a a a a B B M M M u M M m M B B M M M M M M M M B M M M N N Z L ^ ^ / %.%.%.@.@.@.@.@.3.9.r.k.k.l.z.b.b.b.b.b.b.b.b.b.b.b.b.b.b.b.b.b.l.l.b.b.B.A.A.A.A.A.A.A.A.A.A.A.B.B.A.Z.Z._.).S.).).).).).'.'.'.'.'.'.'.|.}.:X X X X X}.}.}.}.}.}.}.}.}.}.}.}.}. X}.}.'.'.`.C.x.0.0.N.N.N.N.N.N.0.7.8.6.4.@./ ^ ^ ^ Q J J T A C T O.6.6.-.-.O.O.O.O.O.O.O.-.4.4.-.4.6.6.;.;.-.&.%.~ A Y Q Q Q Q L A A A A Z Z C C L T ^ O./ &.e.e.-.;.;.e.o.M M V M a M M M M M M B B B B B B B M a u u u u a a a M M M M B B C F V B B V V V C J Y Y C Y R R W W W W R R C C P L C F P F F D D V V D R R Y Y Y Y Y Q ~ ~ W ~ ~ ~ ~ W E E Y P F F V V s a p p d d d y e e e e w w w w w w w w 3 q q q q < < < < < < < < < - - - - - - - - - - - - - - = = = = = * = * * & & & & & & # # # & & & & & & & & # # ",
"JXJXJXJXJXJXbXbXbXbXnXzXzXtXqXqXtXqX9X5X<X,X%X&X&X&X#X[.[.[.[.[.[.[.[.E.Q.Q.T.T.Y.I.I.n.g.g.h.h.r.y.6.4.&.%.~ Q ~ O.&.&.&.&.&.&.&.-.&.&.&.&.&.&.&.O.W T Q W W W R Y F Y Y F F C F F F F F P P F C V B M M C Y C V M C C C C C C V V V M M M M M M M M M a a a a a a a a a u a M B V C C C V C C C C C C C V M M M M B B B M B B M u u 7 7 u a B V V B a a V V a a M a a B M M M M M B B B M B B B B B B M M M M B B M M M N Z L T ^ / / %.%.@.@.@.@.@.@.3.5.u.k.k.l.z.b.b.b.b.b.b.b.b.b.b.b.b.b.b.b.b.b.l.b.m.B.A.A.A.A.A.A.A.A.A.A.A.B.B.A.Z.Z.).).S.S.S.).).).'.'.'.'.'.|.}.:X:X.X.X.X.XOXOX X}.}.}.}.}.}.}.}.}.}. X X}.'.'.`.C.c.j.N.N.N.N.N.N.N.N.u.7.8.6.4.@./ ^ ^ ^ ~ T A A A A Y o.-.6.6.;.-.O.O.O.&.&.-.;.6.6.6.6.6.;.-.-.-.&.@.@.^ Q Q Q T T L A A A A A A C C L T ^ %.o.O.&.;.&.-.;.;.&.! Z C M a a M M M M M B B B B M M M M u p a a a a B B M M B B B V C V V V V V V V C J Y Y R R R R W W ! R R Y P C P P P F F C F F D V F E Y E Q R Y Y T ~ / ~ ~ ~ ~ ~ W W R R P F D V V s s p p p p d i y e r e e w w w w w w w w q q q q q < < < < < < < < < - - - - - - - - - - - - - - = = = = = * = * * & & & & & & # # # & & & & & & & & # # ",
"JXHXHXJXJXJXbXbXbXbXnXnXzXtXzXqXqX9X0X5X<X,X%X&X&X&X#X#X#X@X#X[.[.[.[.E.Q.W.T.T.I.I.n.g.g.g.h.r.y.e.4.;.&.%.~ Q ~ O.&.-.&.&.&.&.-.-.-.&.&.O.O.O.O.o.W W W W T Y Y Y Y Y Y F F C F F F F P P P P F C V V B F Y J C M C C C F C V V V V M M M B V V B M M a a a a a a a a a a M M B V C C C V C C C C C C C C V Z M M M M M M M M B u 8 8 u a M V V V V a a V V a M M M M B M M B B B B B B B B B B B B B B B B B B B N M N N N A L ^ ^ / ( %.@.@.@.@.2.2.3.3.5.u.k.k.z.b.z.z.z.z.b.b.b.b.b.b.b.b.b.b.b.b.b.b.m.A.A.A.A.A.A.A.A.A.A.A.B.B.B.A.Z.).).).S.S.S.).).).|.|.}.}.}.:X:X.X.X.X.X.X.XOXOX X X}.}.}.}.}.}.}.}.}. X X}.'.'.G.V.j.0.j.j.N.j.N.N.N.j.u.7.8.6.4.@.o./ ~ ~ ^ Q J A T Y C T O.e.6.4.;.-.&.-.-.-.-.4.y.y.6.e.6.;.-.-.&.&.&.&.@.%.~ ~ Q T T L A A A A A C C L T ~ %.W Q ~ o.&.&.-.-.6.O.L C a a a M M M M M B M B M M m M m a u a M M B B B V V V V V V V B V V V V V V C F Y Y Y Y +.W Y V Y C Y Y P C L P P F F C F F F F R [ [ [ E Y T T T o.%.~ ~ ~ ~ Q W ! P U D V s s s s d d p p p d i y r r e e e e e e w w w w w w w q q q q q q < 3 < < < < < < - - - - - - - - - - = = = * * * * * * & & & & & & & # # # & & & & & & & & # # ",
"HXHXHXJXJXJXbXbXbXbXnXzXzXtXqXqX9X9X5X<X,X%X%X&X&X&X#X#X#X#X#X[.[.[.[.Q.Q.W.T.Y.I.n.v.g.g.g.r.t.y.6.4.-.&.%.~ Q ~ O.&.-.&.&.&.&.-.-.-.&.&.O.O.O.+.W T W ~ W R R R R R R R Y F C F F F F P F C P P P Y F C F Y Y C B C Y Y C C V V V V M B B V V V V B M a a a a a a a a a a M M B V C C C Z V C C V V C A C V Z M 8 u u u M M M M u p p u M B V D V B a a B V B M M M M B M M B B B V V V B B B B B B B B B B B B M N M M N N A L ^ ^ / ( %.@.@.@.@.2.2.3.3.3.8.u.k.z.b.z.z.z.z.b.b.b.b.b.b.b.b.b.b.b.b.b.b.m.A.A.A.A.A.A.A.A.A.A.A.B.B.B.A.Z.).).).S.S.S.).).'.|.:X:X:X:X.X.X.X.X.X.X.X.XOXOX X}.}.}.}.}.}.}.}.}.}. X}.'.'.`.m.x.N.N.j.j.N.j.j.N.N.j.u.7.8.6.4.@.%./ ~ ^ ~ ~ T A Y Y A Y o.;.e.y.6.;.-.-.;.;.;.6.y.y.6.6.4.4.;.;.&.&.&.&.-.&.O.%.^ Q T L A A A A C C Z L T ~ %.&.%.+.&.O.&.&.-.;.;.o.Y M a a a M M M M B M M M M M M u u u M M B B V V C F P P F C V B B V V V V V C F Y Y R R C R W [ C C Y Y P C P P P F F F F F F F E [ o.[ R Y T T Q / / ~ ^ ~ W W E R P D V s s d s s d d d d i i i i r r e e e e e e w w w w w q w q q q q q q < < < < < < < < - - - - - - - - - - = = = * * * * * * & & & & & & & # # # & & & & & & & & # # ",
"JXHXHXJXJXJXbXbXbXvXnXzXzXtXqXqX9X0X5X<X,X%X%X&X&X&X@X@X#X#X#X[.].E.Q.Q.W.T.Y.Y.I.n.v.g.g.h.r.e.e.4.;.-.@.O.~ ~ ~ +.&.-.-.-.-.-.-.-.-.&.&.O.+.+.o.W W ~ o.~ Q R R R R R R Y F C C C F F F P P R R R R Y F F Y Y C V L Y Y F F C V V V B B V C C F V B M a u u u p p u u u a a M V V C C C A A A N N Z C A C C Z M M u u M M M m u u u u M B V D V V B M M M B M M M M M M M B B V V V V V V V V V V V V V V V V M N N N N N N A L ^ ^ / ( %.@.@.@.&.2.3.3.3.3.3.8.k.z.b.z.z.z.b.b.b.b.b.b.b.b.b.b.b.b.b.b.b.B.A.A.A.A.A.A.A.B.B.A.A.A.B.B.A.A.).).).).).).).).).'.|.}.:X.X.XXXXX.X.X.X.X.X:XOX X}.}.}.}.}.}.}.}.}. X}.'.'.`.C.x.N.N.j.j.j.j.j.j.N.N.0.u.7.8.8.4.@.@.o./ ~ ~ ~ Q T J J A Y ~ &.y.r.e.6.;.;.6.6.6.e.e.6.6.6.4.-.4.4.;.&.-.-.;.-.&.@.%.~ Q T T L L T Z N Z L ~ O.-.-.o.~ &.O.;.-.6.e.e.e.&.Y 9 C V V V V V B B B B B B M M a M B B V V C C F R E Y J V V M M V V V V V F Y F Y R R R R R R R Y C V Y W o.W Y F F F F F F Y [ [ [ R Y Y Y T ~ / ~ ^ ^ / ~ W E Y P V g s s s d d d d d d d d i i i r r e e e e e e e w w w w w q q q q q q < < < < < < < - - < - - - - - - - - = * * * * * & * & & & & & & & & # # # & & & & & & & & # # ",
"JXHXHXJXJXJXbXbXbXvXnXvXzXtXqXqX9X0X<X<X,X%X%X,X,X,X%X&X&X#X#X[.E.Q.Q.T.T.T.Y.I.I.n.v.g.h.h.e.y.6.4.-.&.&.O.~ ~ Q +.&.-.;.;.-.-.-.-.-.-.&.O.O.o.o.W W ~ o.W W T R R R R Y P C C V C C C P R [ } [ E Y F V F Y Y C C L Y Y C C C C V V V V C F V V V B M u u u u p p u u u a a M V V C C C A A A N N C C A C V Z B B M M M M m u u u u M B V D V V B B B M M B B B B M M B B V V V V V V V V C V V V V V V V V V M M N N N N N A L ^ ^ / / @.@.@.@.&.3.3.3.3.3.3.9.8.k.z.b.z.b.b.b.b.b.b.b.b.b.b.b.b.b.b.b.b.m.B.A.A.B.B.B.B.B.B.B.B.B.B.B.B.A.Z.).).).).).).).).).'.|.}.:X.X.X.X.X.X.X.XOX X}.}.}.'.}.}.}.}.}.}.}.}.}.'.G.A.x.N.N.j.j.j.j.j.j.j.j.j.u.0.7.8.5.4.@.@.%.o./ ~ ~ ~ Q T J J Y T %.e.h.r.y.6.6.6.e.y.e.y.6.e.e.6.4.6.e.e.6.6.4.4.-.&.&.%.o.~ ^ ~ ~ ~ T Z N C Q o.O.-.;.%.o.&.&.;.&.;.h.e.e.;.O.Y M 9 B M M M B B B B M B M M M B V V V V V C C P Y P F V B M M V V V V C F F C C Y R W W W E R C C V Y C Y W o.[ W R Y F F Y R R R J J Y T Q ^ ^ ~ ^ ^ %.%.~ E Y P V g h g g s d d d d d d d i i i r r e e e e e e e w w w w w q q q q q q < < < < < < < - - < - - - - - - - - = * * * * * & * * & & & & & & & # # # & & & & & & & & # # ",
"JXHXHXJXJXbXbXbXbXvXnXnXzXtXqX9X9X5X<X<X%X%X,X,X,X,X%X&X&X@X#XE.Q.Q.W.T.T.Y.I.I.I.v.g.h.h.e.y.6.4.;.-.-.&.O.~ ~ ~ %.-.;.;.;.;.;.;.;.-.&.&.O.O.o.W W W W W W R Y Y R R R P C V V V C C F P [ o.[ E Y C V V F Y Y C C Y Y Y F F C F F V V V F F C V B s a u 7 7 7 p y u 9 u a M M M V C Y Y L A C C C A L A C V Z B V B M M M M u u u M B V D V V B B B B M M B V V V V M V V V V V V V V C C C C C C V V V V C C V V N N N N N A T ^ / / %.@.@.&.&.&.3.3.3.3.3.3.4.9.8.k.z.b.b.b.z.z.z.b.b.b.b.b.b.b.b.l.l.b.m.B.B.B.B.B.B.B.B.B.B.B.B.B.B.B.A.A.).).).).).).).).).).'.'.}.:X X X X X X}.}.}.}.|.'.'.'.'.'.'.'.}.}.{.'.`.A.x.j.N.j.j.j.j.j.j.j.j.j.j.u.7.7.5.4.3.@.@.%.%./ ~ / ^ ~ Q T A T A ~ 4.r.r.e.6.e.y.y.e.e.e.y.y.e.6.6.e.y.y.e.y.e.6.4.;.-.O.%./ / ~ ^ ^ Q A C L W +.&.-.6.O.o.&.-.6.&.-.t.t.e.e.e.e.O.C V V V B M M B B B B B B V V V F F V V V V B V F F V V M M B V V V F Y Y R W W O.W W W W W W R Y Y C Y W o.o.o.W R F F Y R R J F F J Y Q ~ ^ ~ ~ / O.O.o.W R P V s h h h k f f f d f f d d i d i i i y e r e e e e e e w w w w w w q q q q q q q 3 3 < < < < - - - - - - - - = * = = = * * * * * & & & & & & & & & & & & & & & & # # ",
"JXHXHXJXJXbXbXbXbXnXnXnXzXtXqX9X0X5X<X,X%X%X,X%X%X&X&X@X@X#X[.E.Q.W.T.T.Y.Y.I.I.I.g.g.h.h.e.y.6.4.;.-.-.&.O./ Q ~ %.-.;.4.4.;.;.;.;.-.&.O.O.O.+.W W W W W E Y Y Y Y Y Y F V V V V V V P E } W P V V V V C F F P C C Y Y Y F F C F F C V V V V V V B a a u u 7 y p u u 9 u a M M M M Y W T A C V C A L L L A V M M M V M B M M u u M V V D V V B B B B M a M B V V V V V V V V V V V V V C C C C C C V V V V C C V V N N C N N A T ~ / %.@.@.&.@.&.3.3.4.3.3.3.3.3.3.4.7.u.z.b.b.z.z.z.z.l.l.b.b.l.l.l.l.l.b.b.m.B.B.B.B.B.B.B.B.B.B.B.B.B.B.A.A.Z.Z.).).).).).).).).).'.'.'.'.'.'.'.}.|.|.}.}.}.'.'.'.'.'.'.'.}.{.'.`.C.D.x.N.j.j.j.j.j.j.j.k.j.j.j.0.7.8.4.4.&.@.@.%.%./ / / ~ ^ ~ Q T Y A Q &.y.r.r.e.y.e.e.e.t.r.e.e.6.4.6.e.6.e.y.y.e.e.6.4.-.@.O./ ^ ^ ^ ^ W L A L ~ O.&.-.4.O.+.-.;.6.&.&.;.e.h.g.g.W.I.e.O.R R Y F V B V V V V C V V V F P F V V B M V P F V V M M B V V F Y Y Y R W W O.o.o.o.o.O.O.o.o.Y W o.W R R R R R Y F F J J J C C Y T Q ~ ~ ~ ~ %.O.O.o.W R P V D h g g g f f f f f f d d i i i i i y e r e e e e e e w w w w w w q q q q q q q 3 3 < < < < < - - - - - - - * * = = = * * * * * & & & & & & & & & & & & & & & & # # ",
"JXHXHXJXJXJXbXbXbXnXnXvXzXqX9X9X0X0X<X<X,X,X,X,X$X&X&X&X@X[.E.E.E.W.T.T.Y.Y.I.n.v.g.g.h.h.e.6.;.4.;.-.-.-.&./ ~ W ~ &.;.;.6.;.-.;.;.;.&.&.O.O.+.W W W W W W Y F P P P P F C V V V V V P W W R V M B V C C C A A A J Y J Y Y C C J F F F V V V V V B a a p y y p p p p 7 7 8 V M M M Q Q ! C V V A Y T Y Y Y C M M M M M B M M u a B V F F D V B B B B M M B B B V V V V C C V C V V C C C C C V C C V V V V C C V V C C C C C A T ~ / @.@.@.&.&.3.3.3.3.3.3.3.3.3.3.3.9.7.k.l.z.l.l.l.z.z.z.z.z.b.l.l.l.l.l.b.b.M.B.B.B.B.B.A.A.B.A.A.B.B.A.A._._._.).).).S.).).).).).).).).).).).'.'.'.'.'.'.'.'.'.'.'.'.'.'.'.'.'.Z.V.c.k.j.j.j.j.j.j.j.j.j.j.j.N.7.7.8.4.3.3.@.@.%.%./ / / / / ^ ^ T L A L %.6.g.h.e.e.y.y.r.r.r.r.e.6.4.e.6.4.e.e.t.e.6.4.&.&.@./ ^ T T Q ^ W T Q Q / O.-.-.;.O.@.-.y.e.e.e.;.e.e.e.I.I.I.R.W.t.e.O.R W W F C F F F C V V P P P F V V B V F F V V B M B V C Y Y R R W W R +.+.o.o.W W O.+.W W o.+.O.o.W W W R R F F J J J F J Y T Q ~ ^ @.@.&.4.g.e.&.~ ! P D D h g h k f f f f f d d i i i i i i r r e e e r r r w w w w q w q q q q q 3 3 3 3 < < - - - - - - - - - - - - - - * * * & & & & & & & & & & & & & & & & & & & & & ",
"JXHXHXJXJXbXbXbXnXnXnXzXtXqX9X9X9X0X<X<X,X,X<X,X%X&X&X@X@X~.E.E.Q.W.T.Y.I.I.n.v.g.g.g.h.e.e.6.6.4.4.;.;.-.&./ ~ ~ ~ +.-.e.y.e.6.;.;.-.&.O.O.+.o.W W W W W W R P P P P P F F V V V V V P E Y V V M V C J C C C C A J Y J Y Y C C J F F C V V V V V B a a p y y p p p p u 8 u L V Z C o.R Y C V A Y T T Y Y R L M M N M M B M M M M B F F F D V B B B B M B B B V V V V C C C C C C C C C C C C C C C C C C C V C V V C C C C C J Q / / @.( @.( &.3.3.3.3.3.3.3.3.3.3.4.4.8.7.k.l.z.l.l.l.z.z.z.z.l.l.l.l.l.l.b.b.b.M.B.B.B.A.A.A.A.A.A.A.A.A.A._._._.Z.Z.A.A.Z.).S.).).).).).).).).).).'.'.'.'.'.'.'.'.'.'.'.'.'.`.Z.V.c.x.k.j.j.j.j.j.j.j.j.j.j.j.j.7.7.8.5.3.3.@.@.%.%.%./ / / / / ^ ^ T L L ^ 6.h.g.r.e.r.r.e.e.e.y.y.y.4.6.6.6.6.-.&.&.&.&.@.@./ ^ T T Q ^ ^ ^ ^ W W / O.-.;.-.O.@.&.;.y.e.e.6.e.h.h.g.I.e.I.I.g.e.;.-.+.R C F Y J F C V C Y Y P F V V V C C C V V B M B V C R R R W W E F E R ! W W +.o.W W O.O.=.&.O.o.W W W E E R J J J J Y T Q ~ / / 6.6.;.g.Y.I.e.&.o.W I D D h g g g f f f d d d i i i i i i r r e e e r r e w w w w q q q q q q q 3 3 3 3 < < - - - - - - - - - - - - - - = * * & * & & & & & & & & & & & & & & & & & & & ",
"JXHXHXJXJXbXbXnXvXnXnXfXqX9XqX9X9X0X5X<X<X<X<X<X%X&X&X#X@XE.E.Q.W.T.T.Y.I.I.g.g.g.h.h.r.e.6.6.6.6.6.6.;.;.&.~ ~ ~ W ~ &.e.e.e.6.;.;.&.O.O.O.+.W W W R R E R R Y P P P P C C V V V V F P C V V M M V J Y Y C C C A J Y Y Y Y Y C J F F C V V V B B B a a p u p p a p p p u M R C C ! W Y C V C Y T Q Q T T W Y V Z Z V V B B M M M V F P F F V B B B M V B V V V C C C C C C A A C C C C C C C C C C A A C C C C C C C C C C C J Q o.%.@.@.@.@.&.3.3.3.3.3.3.3.3.5.5.5.5.5.8.7.k.l.l.l.l.z.z.z.z.z.l.l.l.l.l.l.b.b.b.m.B.A.A.A.A.A.A.A.A.A.A._._._._.Z.A.Z.A.A.Z.S.).).).).).).).).).S.).).).).).'.'.'.'.'.'.'.`.Z.V.c.x.x.j.j.j.j.j.j.j.k.k.j.j.j.j.7.7.8.5.3.3.&.@.@.@.@.@./ / / / ^ ^ T L S L &.h.g.h.e.r.r.e.e.e.y.y.6.&.;.4.6.6.6.6.;.&.O.@./ ^ T T Q ^ ~ / ~ ~ ~ ~ / &.&.;.&.&.O.&.e.y.6.;.e.e.t.h.;.g.e.e.e.t.h.e.6.+.C M C J Y Y F C F R R Y F V V V V V C Y C V B V V Y R Q Q O.&.+.~ W C Y R ! R o.&.;.>.;.;.-.-.O.o.[ [ [ [ [ W W Y Y T Q ~ ~ @.r.v.6.h.T.[.[.Y.r.&.+.E I F G h g g g f f d d d d d i i i i i i i e e r r r e e e w w w w w q q q q q q q 3 < < - - - - - - - - - - - - - - = = * * * * * * & & & & & & & & & & & & & & & ",
"JXHXHXJXJXbXbXvXnXnXzXqX9X9XqX9X9X0X5X<X<X<X<X,X&X@X#X#X[.E.E.Q.W.T.T.Y.I.n.g.g.h.h.r.e.e.e.6.6.e.e.6.;.;.&./ ~ o.W W O.;.6.6.4.;.-.O.O.O.O.+.W R R R R R Y Y Y P F C F C V V B B C F C V V Z M V C Y R J C C C A Y Y Y Y Y F F F F C V V V B B B a a a p p p p p p p u u V R Y R R P P C C L ! W W Q Q Q W Y C V C C C V B M M M V F F F F V B B B M V V V C C C C C C Y Y Y J A C C C C C C C A A A A A C C C C C C C C C C A Q / %.@.@.@.&.3.3.3.3.3.3.3.3.3.5.5.5.5.8.5.8.r.k.l.z.z.l.l.z.z.l.l.l.l.l.l.l.b.b.b.m.M.A.A.A.A.A.A.A.A.A.A._._._._.Z.A.A.A.Z.Z.Z.Z.S.).).).).).S.S.S.S.Z.Z.Z.Z.Z.'.'.'.'.'.`.Z.V.c.x.x.x.j.j.j.j.j.j.j.k.j.j.j.j.0.7.7.8.5.4.3.3.@.@.@.@.@.%./ / / ^ ^ ^ L L L @.r.g.g.r.e.e.r.r.h.h.r.y.4.e.r.y.6.;.y.e.4.@./ ~ Q T T Q ~ / / / / / / / &.&.4.&.&.&.O.-.4.e.6.;.;.e.e.g.t.g.I.Y.g.n.e.O.W J C C C C J P C F R E R P V V B V V V F F V V C C R R Q ~ O.g.;.;.O.o.W E W [ -.e.e.t.e.e.e.;.-.O.o.o.o.o.+.+.o./ ~ ~ / %.O.g.I.h.v.I.%X%X%X#XT.h.-.o.[ E U G g g g g f d d d d d i i i i i i i e e r r r r r r w w w w w q q q q q q q 3 < < - < - < - - - - - - - - - - = = * * * * * * & & & & & & & & & & & & & & & ",
"HXHXJXSXbXbXbXnXnXvXzXqX9XqXqXqX9X9X0X5X5X<X<X%X&X@X#X#X~.E.E.Q.T.T.T.I.I.L.g.g.g.h.e.e.e.e.e.y.e.6.;.;.;.-.O.+.o.~ W +.&.-.;.;.;.&.O.O.O.O.+.W R R R Y P R R R R P C V V V V V V V C V V V V V V F R R Y C C C A Y Y R Y Y F C C C V V V V B a a a a a a p p a p u p 8 a C ! Y Y L C L L C Y W W ~ Q Q W ! Y L L L Y Y C M M M B F F F F C V V V B V V C C C C F C C C Y R Y J J A J C V V A J A A L A A C C C C C A C C C C Y ~ o.%.@.@.@.&.3.3.3.3.3.9.9.5.5.5.5.5.5.5.8.8.8.r.k.l.l.l.l.z.l.z.l.l.l.l.l.l.l.b.b.m.M.M.M.B.B.B.A.A.A.A.A.A.A.A.A._._.A.A.A.A.A.A._.).)._.Z.Z.Z.Z.Z.Z.Z.Z.Z.Z.`.`.'.'.'.G.Z.V.m.x.x.x.x.k.j.j.j.j.j.j.k.j.j.j.u.7.7.8.8.5.4.3.3.@.@.@.@.@.%.%./ / / / ^ ^ L L ^ 6.v.v.g.y.r.y.h.g.v.g.r.y.h.y.y.6.-.4.6.;.@.^ ~ Q T T Q ~ / / ~ / / ~ &.@.&.4.&.&.&.-.-.6.e.e.t.e.e.e.h.e.g.I.t.g.h.-.+.W Y F C C C F P F P R E R P V M M V V V F J V V F Y R R R W h.I.h.g.e.&.O.o.Y W +.t.h.t.e.e.e.e.;.&.O.+.%.O.O.O.%.o./ O./ &.v.[.n.v.Y.Q.6X1XeX7X<XQ.t.O.o.W E F H g h g g g d d d d d d i i i i i i r r r r r r e t w w w w q q q q q q q q < < - < < < - - - - - - - - - - = = * * * * * * & & & & & & & & & & & & & & & ",
"JXJXJXJXbXbXvXnXnXzXqXqXqXqXqXqX9X9X0X5X5X<X,X%X&X#X#X[.~.E.E.Q.T.T.Y.I.I.I.g.g.g.h.e.e.e.e.e.y.e.6.;.;.6.6.-.O.+.o.W ~ / O.&.;.-.&.O.O.O.O.o.W R R Y P F P P F P E V V V V V V V V V V C V C C C Y R R Y J C C C Y Y R Y Y F V V V V V V V B a a a s a a a a a a a u u M P R Y ! C C L L C Y W o.~ Q Q W ! R Y Y Y Y Y C M M M V Y Y Y F C F V B V C C C C C C C C C C Y Y Y Y Y Y Y Y C C J Y Y Y Y L A A A C A A A A A C C Y Q / %.@.@.&.3.3.3.3.9.5.5.5.5.5.5.5.5.5.8.8.8.8.8.u.k.k.l.l.l.l.z.k.k.k.l.l.l.l.l.b.b.b.b.b.b.b.m.B.A.A.A.A.A.A.A.A.A.A.A.A.A.A.A.A.Z._.A.A.A.A.A.A.Z.A.Z.Z.Z.Z.Z.).Z.`.Z.A.A.m.c.x.x.x.k.j.j.j.j.j.j.j.j.j.j.j.u.7.7.7.8.5.4.3.3.&.@.@.@.@.@.@.@./ / / ^ ^ L L L &.g.n.g.g.r.r.g.v.n.g.h.h.h.e.6.4.&.-.&.O.O./ ~ T L Q / / ~ ^ / @.@./ &.&.&.;.&.&.-.4.-.;.6.e.e.6.;.e.-.-.;.e.e.e.-.o.R P V V V C C C P P P Y R R P V B M V V V C F C F J R W R R W h.I.g.n.Y.e.&.+.W R o.e.t.g.g.h.h.e.>.;.O.O.O.O.O.O.@.&.%.@.6.I.=XT.T.T.T.[.6X7XyXxXeX<XQ.e.o.W +.R F D D h g h g g d d d d i d d i i i i i i r r r r r t t w w q q q q q q q 3 < < - - < < - < - - - - - - - - = = = * * * * * & & & & & & & & & & & & & & & ",
"HXJXJXJXbXbXnXnXzXfXqXqXqXqXqXqX9X9X0X0X5X1X<X%X&X#X#X[.~.E.E.Q.T.T.Y.I.I.n.g.g.h.r.e.e.e.e.e.y.6.-.;.6.e.y.6.&.O.+.o.Q Q ~ O.&.O.O.&.&.O.O.o.W W R Y P F F F F P P E F B B V B V V V V V V V V C Y R E R Y J A C A Y Y Y Y F V V V V V V V B a a a s s a a B B B B B B V Y ! W ! C V L L C Y W o.o.~ Q W W W W ! Y A C V M M V Y R R Y F F F C V C C C C C C C C C F Y Y R Q Q Q T T Y J J Y Y Y Y Y Y Y J J J J J A A A A C Y Q / %.@.&.3.3.3.3.9.5.5.5.5.5.8.5.5.8.8.8.8.8.8.8.7.r.k.l.l.k.l.z.z.k.k.l.l.l.l.l.l.l.b.b.b.b.b.b.b.b.B.B.B.B.B.A.A.A.A.A.m.V.A.A.A.C.A.A.A.V.V.A.A.Z.Z.Z.Z.Z.Z.Z.Z.Z.Z.A.V.c.c.c.x.x.x.j.j.j.j.j.j.j.j.j.j.j.j.0.7.7.7.8.5.4.3.3.3.@.@.@.@.@.@.@.@./ / / ^ ^ L L @.g.n.g.g.h.h.g.n.I.v.g.g.g.y.4.&.O.O.O.%.%.~ Q T T ~ / ~ ^ ^ &.@.@.@.&.&.&.&.&.&.4.6.;.-.6.e.;.-.-.-.-.;.;.-.&.O.W C F F C C C C C C P P R R R Y P C V V C F C V F J Y Y R W ! W W e.h.I.W.R.I.e.O.W Y o.=.t.I.g.g.g.h.e.e.;.;.-.&.&.&.&.;.e.g.T.%X[.].<X1X=X<X7X7XcXcXeX6X<XY.;.o.[ o.{ G g g h h h g g g g f d d d f f i i i i i i i r r r r t t w t w q q q q q q q q 3 < < < < < - - - - - - - = = * * * * * * & & & & & & & & & & & & & & & ",
"HXJXJXJXbXnXnXzXzXqXqXqXqXqXqXqX9X9X0X0X5X<X<X%X&X#X#X[.~.E.E.Q.T.T.Y.I.I.L.g.g.h.e.e.e.e.e.y.e.;.&.;.e.e.e.e.-.&.+.o.Q Y Q W ~ +.O.O.&.O.O.o.W R R P F F F F F F C P P C B B B V V V V V V V V C C Y W Q Y Y J C V A Y Y J C V V V V B V B a a a a s B a B B B V B B B F Y ! ! Q Z Z Y R Y Q ~ o.o./ W T W W W W Y A V M M M C R W W Y F F F C C C C C C C C C C Y Y R Q W o.o.W W W T Y Y T R Y Y Y Y Y Y Y Y J J A A J A A Y Q / %.@.3.3.3.3.9.9.5.5.5.5.5.8.8.8.8.8.8.8.8.8.8.7.7.r.j.j.k.l.z.l.k.k.l.l.l.l.l.k.l.l.l.l.l.l.l.b.b.b.m.m.b.b.m.m.M.m.m.c.m.V.V.V.A.C.V.m.V.V.V.V.A.A.C.C.Z.Z.Z.Z.Z.V.V.c.x.x.c.x.x.x.j.j.j.j.j.j.j.j.j.j.j.j.u.0.7.7.8.8.4.3.3.3.@.@.@.@.@.@.@.@.@./ / ^ ^ L L %.6.v.v.v.g.g.v.n.I.n.v.g.v.r.4.@.%.%.%.%.~ T T T T ~ ~ Q ^ / &./ &.&.&.-.&.&.&.4.6.6.6.-.6.e.&.O.O.O.+.O.&.+.W Y Y C F F F F C C C C P P Y R R Y P F C V F F F V F F J Y R W E [ o.;.h.g.[.[.&XL.-.W Y o.O.e.I.I.I.I.g.g.t.e.e.e.e.6.e.g.I.T.Q.Q.[.1XwXyXxXwXeXtXeXmXcXeX6X7X&XI.-.Y o.} { G h h h h h h g g g g g d f f f d i i i i i i r r r t t w t w q q q q q q q q 3 < < < < < - - - - - - - = = * * * * * * & & & & & & & & & & & & & & & ",
"JXJXJXJXbXbXvXnXzXzXfXfXqXqXqXqX9X9X0X5X5X<X,X&X@X#X[.[.E.Q.Q.W.T.Y.Y.I.n.n.g.g.h.e.e.e.e.e.e.;.-.;.y.e.e.e.;.&.O.o.o.Q L Y Y Y Q ~ +.O.O.+.o.W W R P F F F F F F F D F F D a B V V V V V C C L C C Y W W Y R Y V M V Y Y F C V V B B B B a a a a a B B V V V V V V B V J W ! Y Q Z C Y Q L Q W ~ o.W Q R W ~ W W Y A C V M V T W o.W R Y F C C C C C C V V C Y Y R W W ~ o.+.O.o.W W Q Q W W Q R Y Y Y Y Y L L Y Y Y Y A A A A Q / @.@.3.3.3.3.9.9.5.5.8.8.8.8.8.8.8.8.7.7.7.7.7.7.7.7.7.u.k.k.l.l.k.k.l.k.k.k.k.k.l.l.l.l.l.l.l.l.b.b.b.b.b.b.b.b.b.b.b.b.b.b.b.b.b.m.m.m.m.m.m.m.m.m.V.V.V.V.V.V.V.m.V.c.c.c.c.c.x.x.k.k.j.j.j.j.j.j.j.j.k.u.u.r.7.7.8.5.4.3.3.3.&.@.@.@.@.@.@.@.@.%./ / ^ T L ^ &.g.n.v.v.v.n.I.Y.I.n.g.v.e.-.O./ / / ~ Q Y T T Q W Q L / @.&./ -.&.&.4.&.&.&.4.6.6.6.-.;.&.o.W W W W [ E R Y Y F F F P F F F F F F F F Y R R Y Y F C F F F C C C F Y Y Y Y ! o.O.;.t.t.E.E.%XI.;.o.W o.&.g.Y.Y.Y.Y.T.T.v.n.I.Y.I.v.n.Y.[.#X#X1X1XyXmXMXxXxXxXyXyXMXMXxXeXwX0XE.e.[ R [ { U G G h g g g g g g g g f f d d d d i i i i i i e e e t t w w w w q q q q q q q 3 3 < < < < - - - - - - - - = = * * * * & & & & & & & & & & & & & & & ",
"JXJXJXJXbXbXvXnXvXzXfXqXqXqXqXqX9X9X0X5X5X<X,X&X@X#X[.[.E.Q.W.T.Y.Y.I.I.n.n.g.h.h.e.e.e.e.e.6.;.;.e.e.e.6.-.&.O.+.W ~ Q Y Y Y L Y R W W o.o.W W W R P C F P P P P P V V D I B V V V V V V C C P R Y R W W C R Y C M V C F V V V V V V B B a a a a a B V D D D D D V B B F R R Y Y C Y Y ! L Q Q W ~ T T T W o.W R R Y L A C Y W o.o.W R R Y C C C F Y C C C Y Y Y Q W W o.+.O.O.+.o.Q T W o.W W R R R Y Y Y Y Y Y Y Y Y L A A Y Q / @.@.3.3.3.3.9.5.8.8.8.8.8.8.8.8.7.7.7.7.7.7.7.7.7.7.7.u.j.k.k.k.k.k.l.k.k.k.l.l.l.l.k.k.l.l.l.l.l.l.x.x.x.x.x.l.x.x.x.x.b.b.b.b.b.b.b.b.b.b.b.b.b.b.m.m.m.m.m.m.m.c.B.B.c.m.c.c.z.x.l.l.j.j.j.j.j.j.j.j.k.u.u.r.7.7.8.5.5.3.3.3.3.&.@.@.@.@.@.@.@.@.%./ ^ ^ L L %.y.n.n.v.v.v.I.Y.Y.I.g.g.e.O./ ^ / ~ T T T T T Q Q L ^ @.&.&.@.4.&.&.-.&.&.&.4.6.6.e.6.&.W Y J Y R Y Y J J Y Y Y Y P P F F F F F F C F Y R R Y Y Y J Y J J C C C Y Y Y R Y R o.O.-.;.e.g.I.T.h.-.o.W W &.g.W.Q.Q.E.].[.Y.T.Q.].[.[.[.#X<X6XwXcXyXCXFXZXCXMXMXxXxXMXCXCXcXtXeX&XI.;.[ R { { ] G G h g g g g g g g f f d d d d i i i i i i e e e t t w w w w q q q q q q q 3 3 < < < < - - - - - - - - = = * * * * & & & & & & & * & & & & & & & ",
"HXJXJXJXbXbXnXnXvXzXzXzXtXtXqXqX9X9X0X5X5X<X,X&X@X@X[.E.Q.W.T.Y.Y.I.I.n.n.v.g.h.h.e.e.e.e.e.4.;.6.e.e.e.;.O.~ o.o.~ +.~ W Q Y L C A R T W W W W E R F F F F F P P P F V V P D V V D V V C C P R R W W W W C R R J V M V V V V V B V V V B B V B a a V V F F F F D V B B F R R ! Q L Q ! L C Y T W W Y T W ~ ~ ! Y T W W T R W o.o.o.W R R R Y F F Y Y Y Y Y R R Y Y Q W o.+.o.+.o.~ W o.+.+.o.W Q T T Y Y Y Y Y Y Y Y Y L A A A Q ~ @.&.3.3.5.9.9.5.8.8.8.8.8.8.7.7.7.7.7.7.0.0.0.7.u.u.u.u.j.u.j.k.k.k.l.l.k.k.l.l.k.k.k.l.l.l.l.l.l.l.l.l.x.x.l.l.l.l.l.l.l.l.x.x.b.b.b.x.x.x.b.b.b.b.b.c.b.m.c.c.m.m.D.D.c.c.c.c.z.x.l.j.j.j.j.j.j.j.j.j.j.j.u.u.7.7.8.5.4.4.4.3.3.3.&.&.&.@.@.@.@.@.@./ ~ ^ ^ L ~ 6.n.n.v.v.n.I.Y.T.I.n.g.-./ ^ ^ ^ Q L T T Q T Q Q ^ / &.&.&.&.-.-.&.&.&.-.4.4.6.6.6.6.O.Y C A R R Y Y Y J Y J Y Y P P F F F F F F C F Y R Y Y R R Y Y Y Y Y C Y Y Y Y R Y R [ O.;.e.e.Y.g.t.6.O.+.W W &.g.W.E.[.#X#X=X].[.#X%X6X7X6X6XwXtXmXZXmXCXFXZXCXCXCXMXcXCXCXCXCXcXcXeX&XL.:.| { { ] U U G g g g g g g g g f d d d d d d i i i i r r e e e r t w w w w w q q q q q q q q 3 q - < - - - - - - - - = = * * & * & & & * * * & & & & & & & ",
"HXJXJXJXJXbXvXnXzXzXzXzXtXqXqXqX9X0X0X5X1X<X%X&X@X[.~.E.Q.T.Y.I.I.I.n.n.n.v.g.h.h.e.e.e.e.e.6.4.e.e.e.&.+.~ o.&.&.+.&.O.o.~ Q L C C A L Y Q W W E R F C F F F F U P P F V V D F F D V D C P Y R R W W W ! Y R R Y V M B V V B B B B B B V V D V B B V F J J R F D V B B C Y Y ! Q Q ~ ! L Z L L R W Y R Q ~ W R R Q W ~ ~ W o.+.+.o.W E R W R Y Y Y Y Y Y R W W Y Y Y R W W W W W ~ +.O.O.+.o.W W W T R Y Y Y Y Y R Y Y L L A A T ^ %.&.3.4.5.5.5.5.8.8.8.8.8.8.7.7.7.7.7.7.u.r.0.0.u.u.u.u.j.u.j.j.j.k.k.k.k.k.l.l.k.k.l.l.l.l.l.l.l.l.l.l.l.l.l.l.l.l.l.l.l.l.l.l.x.l.x.x.x.x.x.x.c.c.c.c.b.b.c.c.m.m.D.V.c.c.c.c.z.x.l.j.k.j.j.j.j.j.j.j.j.j.j.u.7.7.8.5.4.4.4.4.3.3.3.3.&.&.&.@.@.@.@.%./ ~ ^ T ^ -.n.n.v.v.I.I.Y.Y.I.v.h.O.~ Q ^ T L T T Q Q T T T ^ @.4.4.4.4.-.&.&.&.&.4.4.4.6.6.4.-.o.Y C J Y R Y F F F F J Y Y P P F F F F F F F Y R R Y Y R R R R R Y Y Y Y Y Y Y R Y R W +.&.>.>.I.t.-.O.o.+.W W &.g.Y.W.E.#X#X=X#X=X<X1X7XwXwXeXtXxXmXZXxXmXCXZXCXCXCXCXMXCXFXZXCXMXMXnX8XE.L.:.| ] G G U G G h g g g g g g f d d d d d d i i i i r r e e e r t w w w w w q q q q q q q q 3 3 < < - - - - - - - - = = * * & * & & & * & * & & & & & & & ",
"HXJXJXJXbXbXvXnXnXzXzXzXqXqXqXqX9X0X0X5X<X<X%X&X@X[.E.Q.W.T.T.Y.I.I.n.n.v.v.g.h.h.e.e.e.e.e.6.6.6.-.%.%./ o.O.&.&.&.&.&.O.+.~ W Y A C C Y W W W W R P C F F F P F P P F F B D F D D V V C P Y R R W W W R Y R Y F V B M B B B B B B B B V D F F V V V F J R J F V V V V A R T Q Q W ~ T L A L L Y T T T W W W W Q ~ o.o.+.+.O.O.O.+.[ W E W W R Y Y Y Y Y R W W W W W T W W o.+.+.O.O.O.O.+.o.o.W Q Q T Y Y Y Y T T L L L Y T T T ~ %.@.3.4.5.5.5.8.8.8.8.8.7.7.7.7.7.7.7.7.7.j.0.j.j.j.j.j.j.j.j.j.j.k.k.k.k.k.k.k.k.k.k.k.l.l.l.l.l.l.l.l.l.l.l.l.l.l.l.l.l.l.l.l.b.z.b.b.x.x.x.z.c.c.b.b.b.m.m.m.m.c.m.V.V.m.c.x.z.k.k.k.j.k.k.j.j.j.j.j.j.j.j.r.7.7.8.5.4.4.5.5.4.3.4.3.3.3.&.&.@.@.@.@./ ^ ~ Q ^ @.v.I.g.I.I.I.Y.Y.I.v.r.O.Q Q Q Y Y T T T Y T Q W / &.-.4.6.6.4.-.&.&.&.4.4.-.6.6.4.-.o.Y F J R R R F F F F J Y F F F F F F F F F J R R R R R R R R R R R Y Y Y Y Y Y R Y T W +.O.+.&.O.&.%.-.-.%.~ Q 4.n.W.<XI.#X%X1X#X*X6XwXeXyXyXxXcXmXCXZXmXmXCXZXCXmXCXCXCXFXFXFXCXMXMXMXnX3XW.t.} D h G G U G G h g g g g g g d d d f d d i i i i r r e e e r r r r w w w w w q q q q q q 3 3 < < < < - - - - - - = = * * & * & & & * * & & & & & & & & ",
"HXJXJXJXbXbXvXnXnXzXzXzXqXqXqXqX9X0X5X<X<X,X%X&X@X~.E.Q.R.T.T.Y.I.I.n.n.v.v.g.h.h.r.e.e.e.e.6.;.-.O.o.+.O.&.-.&.&.-.-.-.&.O.O.+.~ W Y A J Q W E R R P C F F F F F F P F P V V V V F F V F P R R R E E R R Y Y F F V B M B B B B B B B B V D U U F V V F J Y F V V V V C L Y Q Q Q ~ Q L L L Y Y Y R T W W W ~ ~ o.o.o.+.O.&.&.O.O.O.o.W W o.o.R Y Y Y Y Y R W o.+.O.O.O.O.-.;.e.e.;.-.O.O.O.O.+.~ W T T Y Y Y Y T T L L Y T T T T ^ / @.3.5.5.5.5.8.8.8.8.7.7.7.7.7.7.7.7.7.0.j.0.j.j.j.j.j.j.j.j.j.j.j.k.k.k.k.k.k.k.k.k.k.l.l.l.l.l.l.l.l.l.l.l.l.l.l.l.l.l.l.l.l.z.z.b.b.x.x.b.z.c.c.c.c.b.b.m.m.m.c.m.m.m.m.c.x.x.k.k.k.j.k.k.j.j.j.j.j.j.j.j.r.7.7.8.4.4.4.5.5.4.3.4.4.3.3.&.&.&.@.@.@.%./ ~ ^ ^ %.h.I.n.I.I.I.Y.Y.I.n.e./ Q Q T Y Y Y T L Y Q ~ o.O.4.4.6.6.6.4.-.&.&.&.3.4.;.6.6.;.-.O.W J Y R R R R F F Y R Y F F F F F F F F F Y W W R R R R R R R R R Y Y Y R T Q W T T W o.+.+.O.+.O.e.6.-.%.Q o.&.I.Q.].].[.=X1X%X1X7XwXtXyXxXxXmXMXCXZXmXCXCXZXCXMXCXCXZXZXFXCXCXMXMXMXbXfX3XU.:.{ g h G G G G G h g g g g f d d d f d d i i i i r i e e e r r e r w w w w w q q q q q q 3 3 < < - < - - - - - - = = * * & * & & & * * & & & & & & & & ",
"HXJXJXJXbXbXvXnXnXzXzXfXqXqXqXqX7X0X5X<X<X,X%X&X@X[.Q.Q.R.T.T.Y.I.I.I.n.n.v.g.g.h.h.e.e.e.6.-.&.O.%.+.O.&.-.;.6.;.-.-.-.&.&.&.O.+.o.~ W W ~ W E R R P F F F F F F F F F F P V V V D F F F F P R R R R R Y F C C C V B B B B s s B B B B V F P P P F F F Y F D V V V V C Y W Q Q W Q Y L Y Y Y Y T T W T Q ~ +.+.O.+.+.O.&.;.&.O.O.O.O.o.o.+.+.W Y Y Y Y Y R W +.O.-.;.-.;.e.e.e.e.6.-.&.&.O.O.+.~ W W T Y Y Y R T T L L Q Q Q Q ^ ^ / @.3.9.9.5.5.8.8.8.7.7.7.7.7.7.7.7.7.7.0.0.u.j.j.j.j.j.j.j.j.j.j.j.k.k.k.k.k.j.j.k.k.k.k.k.l.l.l.l.l.l.l.l.l.l.l.z.l.l.l.l.l.l.x.x.x.x.b.c.c.c.c.c.c.c.m.m.m.m.m.m.m.m.m.m.c.x.x.x.k.k.k.k.k.k.j.j.k.j.j.j.j.j.7.7.8.8.8.5.5.5.4.4.4.4.3.3.3.3.&.@.@.@.@./ ^ ^ ^ ^ r.Y.I.I.I.Y.I.I.I.v.4.~ Q Q Q T Y Y Y Y T ~ O.&.4.e.6.6.6.6.4.4.;.&.&.4.4.6.r.6.;.-.&.o.W W Y R W W R R R Y F F F F F F J A A Y T W W Q R R E E R R R R R Y T T W W W W T W o.O.e.;.I.g.t.6.O.+.o.+.h.I.Q.W.#X#X1X7X*X6X7XwXtXyXxXcXmXMXCXCXmXCXCXZXCXMXCXZXZXCXCXCXFXZXVXZXVXnXdX&XP.*.D g G G G U G G h g g g g g g g g d d d d d d i i i i e r r r r r r t w w w w q q q q q q 3 3 < < < < - - - - - - - - = = ; ; ; * * * & & & & & & & ",
"HXJXJXJXbXbXvXnXnXzXzXqXqXqXqX9X9X0X5X<X<X,X$X&X#XE.Q.W.R.T.T.Y.I.I.n.n.n.v.g.g.h.h.e.e.e.6.&.+./ o.&.;.4.;.;.;.-.;.;.-.-.&.&.&.O.O.+.+.+.+.o.W W R P F F F D D F F D D F I F F D V F F C C C F P C C P P C V C V V B M B B s s B B B B V F P P P P P P F V V V V V V C Y Q Q Q Q Q Q Y Y T Y T T T W Q W o.O.O.O.O.O.&.-.-.&.&.&.&.O.+.o.+.+.W R Y Y F Y R W o.+.O.-.&.-.-.e.e.-.-.&.&.O.+.+.o.W W W T T T W W Q Q Y T Q ~ ~ ~ ~ ^ / @.3.4.9.5.5.8.8.8.7.7.7.7.7.7.7.7.7.7.0.0.u.j.j.j.j.j.j.j.j.j.j.j.k.k.j.k.k.j.j.j.j.k.k.k.k.k.k.k.l.l.l.l.l.l.l.l.l.l.l.l.l.l.x.x.x.x.c.c.c.c.c.c.c.c.m.m.m.m.m.c.c.c.c.c.x.x.x.x.x.x.k.x.k.k.j.j.k.j.j.j.j.0.7.7.8.8.8.5.4.4.4.4.4.4.4.3.3.3.&.&.@.@.@./ ^ ^ ^ ^ e.Y.Y.I.I.I.I.I.I.g.-.W Q Q T Q Q T T T Q +.&.4.y.r.6.y.6.4.4.4.6.4.4.4.4.6.r.6.;.;.&.O.o.o.W Q W [ W R Y Y F C F F F F A A Y Y T ~ W W R R E ! R R R R R Y Y R W W W W W W o.+.&.O.e.e.e.O.o.%.O.h.I.T.T.].[.=X6XeX1X7XwXwXtXyXxXcXmXMXCXCXmXMXZXZXCXMXCXCXCXCXCXCXFXGXFXZXJXbX8X8X~.L.} H H G G G U G G h g g g g g g g d d d d d d i i i i e r r r r r r t w w w w q q q q q q 3 3 < < < < - - - - - - - - = = ; ; ; * * * & & & & & & & ",
"HXJXJXJXbXbXvXnXnXzXzXfXqXqX9X9X9X0X5X<X,X%X&X@X#XE.Q.W.T.T.Y.I.I.I.I.n.n.v.g.h.h.h.e.e.6.6.&.o.o.O.;.6.e.6.-.-.-.-.-.-.&.&.&.&.&.&.O.O.O.O.+.W W R P F F F F F F D D V V P P P F V V F F D V F C V V F P V V C V V B B B B B B B B B B V F Y Y Y Y Y P C C V C C C V Y R Q Q Q Q Q Q Q T Q Q T T T Q ~ o.+.O.O.O.O.&.-.;.;.-.;.;.-.&.O.O.O.+.W R R Y C C Y W o.+.O.-.-.-.&.&.&.&.O.O.O.+.o.~ W Q W T T Q Q W ~ ~ Q Q ~ ~ ~ ~ ~ ^ ^ / @.3.4.5.8.8.8.8.8.7.7.7.7.7.7.0.0.j.0.j.j.j.j.j.j.j.j.j.j.j.j.j.j.k.k.k.j.j.j.j.j.j.j.j.j.j.j.k.k.j.l.x.x.l.z.z.z.z.l.l.l.l.l.z.z.z.z.c.b.m.m.m.m.m.m.m.m.m.c.c.c.c.c.c.c.x.x.x.x.x.x.x.x.k.k.k.j.j.j.j.j.j.7.7.7.8.8.4.5.4.4.4.5.4.4.4.4.3.3.&.&.&.@.@.%./ ^ ^ ^ 4.I.T.Y.Y.I.I.I.I.g.&.Q Q Q Q Q ~ Q Q ~ %.&.6.e.r.y.6.6.6.4.4.6.6.6.6.4.4.6.r.6.4.;.-.O.o.~ W Q W ~ W E Y Y F F Y Y Y Y Y Y R T W W W W T T W W Q W Q W W Q R R Q W ~ o.~ ~ o.o./ %.O.O.o.O.%.&.I.T.Q.].%X*X6X6X7XyXeXyXyXeXyXyXxXcXMXMXCXCXmXCXZXGXZXCXCXCXCXCXCXZXGXGXGXGXHXVXbX8XdXW.e.[ G G G G G U G h h g g g g g g f s d f f f i i i i i i r r r r r t w w w w q q q q q q q 3 3 3 < < - - - - - - - - = ; ; ; ; * * * * * & & & & & ",
"HXJXJXJXbXbXvXnXnXvXzXqXqX9X9X9X0X0X5X<X,X%X&X@X[.E.Q.W.T.T.Y.I.I.I.I.n.n.v.g.h.h.e.e.e.6.;.O.+.O.;.6.e.6.;.-.&.&.&.&.&.&.&.&.&.&.&.O.O.O.+.o.[ W R P F F F F F F F D V D D F P P F V V D F F F C B B C F V V V V B B B B B B B B B B B V F Y Y Y Y Y P F C V V V V V Y T Q Q Q Q Q Q Q T Q Q Q T W W ~ ~ o.o.+.O.&.-.;.e.e.6.e.e.;.-.$.$.$.O.o.W ! Y Y F Y W W +.O.&.-.-.-.-.-.-.&.O.O.+.o.~ Q W T T R T T Q Q Q Q ~ ~ ^ ~ / / / ^ / @.2.3.5.8.8.8.7.7.8.8.7.7.7.7.0.0.j.j.j.j.j.j.j.j.j.j.j.j.j.j.k.k.k.k.x.x.k.k.j.j.j.j.j.j.j.j.j.j.j.j.x.x.l.l.z.z.z.z.x.x.l.l.x.z.z.z.c.c.c.c.c.c.c.m.c.c.c.c.c.x.z.z.c.z.x.x.x.x.x.x.x.x.k.k.k.j.j.j.j.N.j.0.7.8.8.8.4.5.4.4.4.5.4.4.4.4.3.3.&.&.&.@.@.@./ ^ ^ ^ &.n.T.T.T.Y.I.I.n.n.O.Q Q ~ Q Q Q Q ~ O.-.y.h.g.h.y.6.6.6.4.4.6.r.r.y.6.4.6.e.6.6.4.;.O.~ Q Y Y T W W W R Y R R Y Y T T Q Q W W W W W W W W W W W W W W ~ W W W Q W o.o.+.+.%.+.o.%.O.O.~ / %.h.#X*X6X6X1X6X6X6XtXmXxXmXmXxXmXmXcXmXMXCXCXmXmXZXGXGXFXZXCXCXCXCXCXZXGXGXHXHXGXJXbXzXfX$XI.:.{ H G G G U U j h g g g g g g f s d f f f i i i i i i r r r r r t w w w w q q q q q q q 3 3 3 < < - - - - - - - - = ; ; ; ; * * * * * & & & & & ",
"HXJXJXJXJXbXnXvXnXvXfXqXqX9X9X9X0X0X5X<X,X%X&X@X[.E.Q.R.T.T.Y.I.I.I.I.I.n.v.g.h.h.e.e.e.6.&./ O.&.;.6.6.;.-.&.&.&.&.&.&.&.-.-.&.&.&.O.O.O.+.o.[ W W Y P P P P P F F D D D V D F P F F F D D F F V B M V V V V V B B B B B B B B B B B B D F Y R R Y Y P C C V V C C L ! Q Q Q Q Q Q Q Q Q Q Q Q W W Q W W o.o.+.&.-.6.e.e.t.e.e.e.6.;.=.-.-.&.O.o.W ! R R R E W ~ o.O.O.-.-.&.&.&.O.O.+./ ~ W Q Q Q Q T T T Q ~ ~ ~ / / / / / o.%./ ^ %.@.3.5.8.8.8.8.8.7.7.7.7.0.0.j.j.j.j.j.j.j.j.j.j.j.j.j.j.k.k.k.k.l.l.x.x.z.x.x.k.j.k.j.j.j.j.j.j.j.j.j.k.k.k.z.z.z.z.z.z.x.x.x.x.z.z.c.c.c.c.x.x.c.c.c.c.z.z.x.x.z.z.z.z.x.x.x.k.k.x.k.k.k.k.k.k.k.j.j.N.j.j.j.7.7.8.8.4.8.8.5.4.4.4.4.4.4.3.3.3.&.&.@.@.@.~ ^ ^ @.v.T.T.T.Y.Y.I.n.n.6./ ^ ^ Q Q T ~ @.6.e.h.g.g.h.h.r.e.6.6.6.e.h.r.e.y.6.6.6.e.y.4.;.&.%.~ Y Y R W W W W ! W W W W ~ ~ o.o.o.o.o.o.o.~ ~ W W W T T W W o.o.o.~ ~ ~ o.+.+.+.+.%.o.%.@.O.%.-.e.T.tXyXyXyXeXeXwX6XtXMXxXMXmXcXmXmXmXMXMXCXMXmXCXZXGXGXGXZXZXFXFXZXZXFXGXGXHXGXGXFXJXVXlX8X-XL.$.G G G G G U G h h g g g g g g g g g f f f f d d i i i i r r r r r r t t w w w w q q q q q q q q < < < - - - - - - - - = ; = = = ; * & & & & & ",
"HXJXJXSXJXbXnXnXnXzXfXqXqX9X9X9X0X5X<X,X%X&X@X#X[.E.Q.R.T.T.Y.I.I.I.I.I.n.v.g.h.h.e.e.6.;.&.~ O.-.4.6.4.;.&.&.&.&.&.&.&.&.-.-.-.&.&.O.O.O.+.o.o.[ W Y P P P P P F F F D D D D V F P P F F V D F V B M B B V V V B B B B B B B B B B B B D F Y R R P C C C V C L R W W W Q W Q Q Q Q Q Q Q Q Q W ~ W Q W Q ~ o.O.&.;.e.e.t.h.h.e.e.e.;.-.;.;.-.$.o.W W R R E R R W W o.+.O.O.+.+.+.o.~ W W Q Q T Q Q T T Q ~ / o.o.~ ~ ~ / / / o.%./ / ( @.3.5.8.8.8.8.8.7.7.7.7.0.0.j.j.j.j.j.j.j.j.j.j.j.j.j.j.k.k.k.k.l.l.z.x.z.z.x.x.x.x.k.k.k.x.j.j.j.j.j.j.j.k.j.z.x.x.x.z.x.x.x.x.z.z.c.c.c.x.x.x.x.x.x.x.z.z.x.x.z.z.z.x.z.x.k.k.k.k.k.k.k.k.k.k.k.j.j.j.j.j.j.j.8.8.8.8.5.5.5.4.4.4.4.4.4.4.3.3.3.&.&.@.@./ ^ ^ %.g.T.T.T.T.Y.Y.Y.I.v.O.^ ^ Q Q ~ O.e.g.g.v.g.g.g.g.h.e.e.6.6.r.h.h.r.e.6.4.6.r.e.6.4.-.&.O.~ T W Q W W W W o.o.~ o.o.o.o.+.+.+.+.o.o.o.o.~ W W W W W W o.o.+.o.o.o.+.%.%.o./ ~ / %.@.O.4.I.Q.#XxXcXmXmXmXxXyXeXtXmXxXMXMXmXmXmXmXMXCXMXmXMXZXZXZXGXFXZXFXFXGXFXZXFXGXGXHXGXGXGXHXJXnXlX8XW.t.} G H G G G G G h g g g g g g g g g f f f f d d i i i i r r r r r r t t w w w w q q q q q q q q < < < - - - - - - - - = ; ; = = ; * & & & & & ",
"HXHXJXJXJXbXbXvXnXnXzXqXqX9X9X9X0X5X<X,X%X&X#X[.~.E.W.T.T.T.Y.I.I.I.I.n.n.g.g.h.e.e.e.6.;.&.W O.-.;.4.;.;.-.-.&.&.&.&.&.&.&.-.&.&.O.O.+.+.o.[ o.[ W R P P P P P P F F F D D D V V P P F F V F F F V V V B V V V B B B B s s B B B B B B V F Y Y P P L C L L Y W W ~ ~ W Q W W W T T T T W W W ~ ~ ~ W W W ~ o.O.;.e.e.h.h.g.h.t.e.;.-.;.;.>.;.&.O.+.W W W W W ! T Q W ~ o.~ ~ ~ ~ W Q Q Q Q Q Q T Q T T T / &.r.y.^ ^ ^ / %.%.%.%./ / / @.3.5.5.8.8.8.8.7.7.7.7.7.7.u.0.0.j.j.j.j.j.j.j.j.j.k.k.k.k.k.k.x.z.z.z.z.z.z.x.x.x.j.x.x.x.j.j.k.j.j.j.j.j.j.j.k.k.k.x.x.x.x.x.z.z.x.x.c.c.x.x.c.c.c.c.z.z.z.z.z.z.z.x.z.k.x.x.x.x.k.k.x.x.x.x.k.j.j.j.j.j.j.7.8.8.8.8.5.5.8.5.5.5.5.5.5.4.3.3.3.3.&.@.@./ ^ ^ / r.T.T.Q.T.T.Y.T.Y.I.g.&.Q ~ ~ %.e.g.I.n.n.n.n.v.v.g.h.e.6.6.r.h.g.h.r.e.6.e.h.e.y.6.4.;.-.&.-.O.+.+.o.o.O.&.O.O.O.+.+.%.O.O.O.O.%.+.+.+.o.~ W Q W W ~ o.%.O.O.O.%.O.O.O.%.%./ o.%.&.y.Q.Q.=X1X1XeXwXeXeXrXeXxXtX6XmXCXMXcXmXmXMXMXMXMXMXMXZXZXZXZXFXZXFXFXFXFXFXGXGXGXHXGXGXGXHXHXbXnX9X-XU.:.] G G h h G D h h h h h g g g g g f f f f f d i i i i i r r r r r r r w w w w q w q q q q q q < < < - - - - - - - - - - ; = = ; * * * * * * ",
"HXHXHXJXSXJXbXvXnXnXzXtXqXqX9X9X0X<X,X%X&X@X#X[.~.E.W.T.T.T.Y.I.I.I.I.n.n.g.h.h.e.e.6.6.-.O.~ O.-.4.6.4.;.;.-.-.-.&.&.&.&.&.&.&.O.O.+.o.[ W W o.[ W R Y P P P P P P F F F D D V V F P F F V V F F F P F V V V B B B B s s s a s B B B B D F Y P F Y [ o.W W W W W W W W Q T R R R R T T W W o.o.~ ~ W ~ ~ o.O.-.e.e.h.g.g.g.g.h.t.e.;.;.e.e.;.-.&.O.+.W W W W W W W Q Q W Q Q Q Q Q W Q Q Q Q Q T Q W ~ @.4.g.n.g./ ^ / %.%.%.%.%.%.@.( ( 3.5.5.8.8.8.8.7.7.7.7.7.7.u.0.u.u.j.j.j.j.j.j.j.j.k.k.k.k.k.k.z.x.c.c.c.x.c.z.x.z.x.x.x.x.x.x.k.j.k.k.x.x.j.j.j.j.j.k.x.x.x.x.l.l.x.x.x.x.x.x.x.x.x.x.z.z.z.z.z.z.x.x.k.k.x.x.x.x.z.z.x.x.x.x.k.k.j.j.j.j.j.7.8.8.8.8.5.5.8.5.5.8.8.4.5.5.4.4.3.3.3.&.@./ ^ ^ / 6.T.].].T.Y.T.T.T.T.I.g.-.O.-.r.v.n.n.n.I.Y.Y.Y.n.g.h.6.6.e.h.g.g.g.r.r.r.r.h.h.e.e.6.4.;.;.;.;.-.&.&.&.;.6.;.-.&.&.O.O.O.O.O.O.O.O.O.+.o.~ W W ~ ~ ~ / +.O.O.@.@.@.O.@.&.-.&.g.n.Q.Y.Y.Q.rXmXwX=XwX*XwXwXyXmXMXrXxXxXxXyXmXMXMXMXMXMXCXCXZXGXGXZXFXFXFXFXFXFXFXGXGXGXHXHXHXGXHXHXbXnXlXdX$XL.#.G G G G G h h h h h h g g g g f f f f f f f i i i i i r r r r r r r w w w w q w q q q q q q < < < - - - - - - - - - - ; ; = ; * * * * * * ",
"HXHXHXHXJXJXbXbXbXnXzXtXqXqX9X9X0X<X,X%X&X@X#X[.~.E.Q.T.T.Y.Y.I.I.I.I.n.v.g.h.e.e.6.6.6.-.+.o.O.-.6.6.4.;.;.-.-.-.&.&.&.O.O.O.O.+.o.W W W R R W [ W R Y P P P P P P F F F D V V V V F F F F D F F F F F F D V V B B B s s s s s B B B V F F Y E W o.o.o.~ W W W W W Q ! T Y R R R T T Q W ~ o.o.~ ~ ~ ~ o.o.O.6.t.h.g.I.I.I.n.g.h.e.;.>.e.e.e.;.;.-.O.+.o.[ [ W ~ W W W W W Q Q Q W W W W W W W ~ / O.&.r.n.Y.Y.k.@./ / %.%.@.@.@.@.@.@.( 3.5.8.8.8.7.7.7.7.0.0.j.j.j.j.j.j.j.j.j.j.k.k.k.k.z.z.z.z.z.z.x.c.c.c.c.c.c.c.x.x.x.z.x.x.x.x.k.k.x.x.x.x.j.j.j.j.j.j.l.j.l.l.x.x.x.x.l.l.x.x.z.z.x.x.x.x.z.x.c.x.z.x.k.x.x.x.z.z.z.z.x.x.x.x.k.k.j.j.j.j.j.8.8.8.8.8.8.8.8.5.5.r.7.5.4.4.4.4.4.3.3.&.@./ / ^ ^ 3.I.].[.T.T.T.T.T.T.T.T.n.g.n.I.I.I.n.I.Y.Q.Q.T.n.v.g.r.6.6.r.g.v.g.h.r.r.r.h.h.h.r.y.6.4.4.4.;.-.-.&.-.-.;.e.6.;.-.&.O.O.O.O.O.O.O.O.+.o.o.~ ~ / / o.O.O.&.&.&.&.&.&.&.&.;.4.r.Q.].@X=X].1XmXeX7XeX7X6XeXxXMXZXyXMXmXxXyXxXMXMXMXMXMXCXZXZXGXGXFXZXFXFXFXFXFXGXFXGXGXGXHXHXGXHXHXMXxXlXlX8X!.t.{ G G G G G h h h h h h g g g g f g f f f f i f i i i r r r r r r r r r w w w w w w w q q q < 3 < z z - - z - - - - - - - - ; = * * * * * ",
"HXHXHXHXJXJXbXbXbXnXzXqXqXqXqX9X0X<X<X%X&X@X#X[.~.E.Q.T.T.Y.I.I.I.I.I.n.g.g.h.e.6.6.6.6.-./ O.O.-.;.6.4.;.;.-.-.-.&.&.O.O.O.O.+.o.W R R R Y R W [ W R R P P P P P P P F F F D D V V V F F F D D F F F F D F D V B B s a a a a a M B B V F P Y R W W W W W ! Y Y Y ! ! ! Q Q W Q T T Q W W ~ ~ ~ ~ ~ ~ W o.+.-.e.g.n.I.I.I.Y.I.n.g.e.e.e.t.t.e.e.e.;.;.O.+.o.o.o.o.~ W W W W W W Q Q W W W ~ ~ / O.&.4.r.n.Q.Q.T.r.@.@./ / %.@.@.@.@.@.@.@.3.5.5.8.8.7.7.j.0.0.0.j.j.j.j.j.j.j.j.j.k.k.k.k.k.l.z.z.z.z.x.x.c.c.c.c.c.c.c.c.c.x.x.x.z.l.x.x.x.x.x.x.x.j.j.k.j.j.j.l.j.j.j.l.l.x.x.x.x.x.x.x.x.z.x.x.x.z.z.z.z.x.x.x.x.x.x.z.z.z.z.k.x.z.l.k.k.k.k.j.j.j.8.8.8.8.8.8.8.8.5.5.r.r.4.3.4.4.4.4.3.3.&.@./ / ^ / &.n.[.[.Q.T.T.Q.T.T.T.T.T.n.I.I.I.I.Y.T.Q.Q.Q.T.Y.n.v.g.r.6.6.g.v.g.h.r.r.r.h.h.h.r.e.6.6.6.6.6.;.;.-.&.O.&.6.e.e.6.-.O.O.O.%.%.%.+.+.+.o.o.~ / o.%.%.O.&.&.&.&.&.&.&.&.&.@.O.4.g.].&X1XwXmXyX1X7X*X6XwXyXcXMXmXyXFXFXCXMXmXmXMXMXMXMXCXZXGXGXGXFXZXFXFXFXFXFXFXGXGXGXGXGXGXGXHXGXMXxXlXzX8X$XU.:.I h h G h h h h h h h g g g g g g f f f f f f i i i r r r r r r r r r w w w w w w w q q q 3 3 < z z - - z - - - - - - - - ; = * * * * * ",
"HXHXHXHXJXJXbXbXbXnXzXqXqXqXqX9X0X5X<X,X&X@X[.[.E.Q.W.T.Y.Y.I.I.I.I.I.n.g.g.h.e.e.e.e.6.-./ O.&.-.6.6.;.;.;.;.-.&.&.&.&.O.+.o.W E R R Y F F R W [ W E R P P P P P P P F F D D V V V V P P F D D F F F F F H H V V B a a a a a a s B V V F P Y R E E W E R Y Y Y R R ! W ! ! Q R R ! Q W W ~ W W W ~ ~ ~ +.&.e.g.L.I.I.I.Y.T.Y.I.g.t.e.e.h.g.h.h.h.g.e.;.&.O.O.+.+.%.o.o./ / / / / / %.@.O.O.@.&.4.r.v.I.T.].].T.g.@.@./ / %.%.@.@.&.&.@.@.3.5.5.8.7.7.7.7.0.j.j.j.j.j.j.j.j.j.j.j.j.k.k.x.x.x.x.x.x.x.x.x.c.c.c.c.m.m.c.c.c.x.x.x.x.z.x.l.x.x.x.j.j.j.j.j.j.j.j.j.j.j.j.j.j.k.k.k.k.x.x.x.x.x.x.x.x.x.x.z.z.z.x.z.x.z.z.z.x.x.x.l.z.z.l.z.l.k.k.k.j.0.7.7.7.8.7.8.8.8.5.5.M.Y.5.4.4.4.4.4.4.3.3.@.( / ^ / @.g.[.[.].T.Q.Q.T.T.T.T.T.I.I.Y.I.Y.T.].].Q.Q.T.T.Y.I.v.g.r.6.r.v.v.g.r.r.r.h.h.h.r.r.e.6.4.e.e.6.6.;.-.&.&.6.e.e.6.-.&.&.@.o.o.o.o.o.o.o.~ ~ o.O.O.@.@.@.&.&.&.-.&.@.@.@.O./ @.-.g.[.=X#XtXwX1XyX#X7XeXyXcXmXCXxXFXFXFXCXxXmXMXMXMXMXCXFXGXGXGXGXFXFXFXFXFXFXFXZXFXGXGXGXGXGXGXGXVXxXlXlXfXfX-XL.$.U D h D D G G G G h g g g g g g f f f f f f i i i i i r r r r r r r t t w w w q q q q q q q 3 < < < < - - < - - - - - - - - = = = * * ",
"HXHXHXJXJXJXbXbXbXnXzXtXqXqXqX9X5X5X<X,X&X@X[.[.E.Q.W.T.T.Y.I.I.I.I.I.n.g.h.e.e.y.y.e.e.-./ &.&.-.6.6.6.;.;.;.-.;.;.-.&.+.W E R R R R Y Y Y Y R W [ W E P P P P P P F F D D V V V V V P F P F D C F F F H H V V V B B B B V V V B V F F F P Y Y R R R R R R R R R R W ! R R R R R Q W W W ~ ~ W ~ ~ o.+.&.e.h.n.I.I.I.Y.T.T.T.I.g.t.e.h.g.g.g.v.I.I.g.t.e.;.&.+.%.%.o.o.o.o.%.%.%.O.O.@.@.4.r.v.Y.T.T.T.].#X[.Q.v.&.@.@.( %.@.@.&.&.&.@.@.3.5.8.7.7.7.7.7.7.j.j.j.j.j.j.j.j.j.j.j.j.k.k.x.x.x.x.z.z.x.x.x.c.c.c.c.m.m.m.m.c.c.x.x.x.x.z.l.x.x.x.j.j.j.j.j.j.j.j.j.j.j.j.j.j.k.k.j.j.x.x.x.x.x.x.x.x.x.x.z.z.z.x.z.x.z.z.l.x.x.x.z.z.z.z.z.l.k.k.k.j.0.7.7.7.8.7.7.8.8.5.7.T.Y.8.4.5.4.6.4.4.4.3.&.@./ / / @.g.].[.].].].].].Q.Q.Q.T.Y.Y.Y.I.T.Q.].].].Q.T.T.Y.Y.I.n.g.6.6.h.v.g.h.r.r.h.h.h.r.e.e.e.e.e.6.6.e.e.e.e.e.e.h.y.4.6.6.6.-.%.o.o.o.o.o.o.~ ~ o.%.O.@.@.@.&.&.4.&.@.&.@.%./ / @.%.&.h.T.1XxXeXyXMX7XtXtXyXcXMXCXxXFXFXFXCXyXmXMXMXMXCXCXFXGXGXGXGXFXGXFXZXZXFXFXZXFXGXGXGXHXGXLXLXZXxXlXlXfXfX8X!.t.| h D D G G G G G h g g g g g g f f f f f f i i i i i r r r r r r r t t w w w q q q q q q q 3 < < < < - - < - - - - - - - - = = = * * ",
"HXJXHXJXJXJXJXbXbXnXzXtXqXqXqX9X5X5X<X,X&X@X[.[.E.Q.W.T.Y.Y.I.I.I.n.n.g.g.h.e.e.y.e.e.e.-.o.O.&.-.6.6.6.6.;.;.-.;.-.&.+.W R Y Y Y Y R R R Y Y Y E [ [ E R P P P P P F V V V V B V V V V V D P F F F D D H H H V H V V H H H F H D D P P P P P P Y Y Y R R E E E E E W E ! ! ! R R ! W W W W W W ~ o.O.-.e.h.g.n.I.n.I.T.Q.E.T.I.g.t.e.h.g.n.n.I.I.I.I.I.g.g.e.6.4.;.-.&.O.O.O.O.&.-.-.4.e.v.T.Q.].].].].#X*X=X].T.4.@.@.( %.@.&.3.&.&.@.@.3.5.8.7.7.7.j.j.j.j.j.j.j.j.j.j.j.j.j.j.k.k.l.z.z.x.x.x.x.c.c.c.c.m.m.m.V.V.V.m.m.c.c.c.c.x.x.x.x.z.z.x.x.x.x.x.j.j.j.k.x.j.j.j.j.x.x.j.j.x.x.x.x.x.x.x.x.z.z.z.z.z.x.z.z.x.z.x.z.z.z.c.c.z.z.b.z.z.l.k.j.0.8.7.7.7.7.7.7.8.8.5.z.z.4.5.5.8.8.5.4.4.3.3.@.( / / @.r.].[.[.[.].].].].].Q.Q.T.Y.T.T.T.].].].Q.Q.T.T.Y.Y.Y.Y.v.y.4.y.g.g.h.r.r.h.g.g.h.r.e.e.e.e.;.;.4.e.e.e.e.;.-.;.6.t.h.e.6.@.O.O.O.+.o.~ ~ ~ o.%.O.O.6.6.4.4.4.&.@.&.@.%./ ^ / O.@.-.h.=XtXyXmXmXyXyXxXcXMXCXFXxXFXGXCXCXyXmXCXMXMXMXCXFXGXGXGXGXZXGXZXZXZXFXGXFXFXGXHXGXGXLXLXLXJXnXlXlXfXfXsX-XU.:.U h D G G G G G h h g g g g g f f f f f f i i i i i r r r r r r r t t w w w w w q q q q q q < < < < z - < < - - - - - - - - - - = = ",
"HXJXHXJXJXJXJXbXbXnXzXtXqXqXqX9X0X5X<X,X&X@X[.[.E.Q.R.T.Y.Y.I.I.n.v.g.g.h.r.e.y.y.e.e.e.-.o.O.&.;.;.6.6.6.;.;.-.-.&.+.W R Y Y Y Y Y Y R W Y P C R [ [ E R R P P P P D V V V V B B B V V V V D F F V D D H H H H H V H H H V V V F F P I P P P P P P Y R E E E E W W W E ! ! ! R R ! W W W W ~ o.+.O.-.e.h.g.g.g.g.I.Y.T.E.E.Y.n.g.t.e.g.g.n.n.I.I.I.I.I.I.Y.I.n.v.g.g.h.h.h.t.h.g.g.v.n.Y.T.T.Q.Q.].#X=X*X6X=X#X].y.@.@.%.@.@.&.3.&.3.&.@.2.3.8.7.7.7.j.j.j.j.j.j.j.j.j.j.j.j.j.j.k.k.k.z.z.x.x.x.x.c.c.c.c.m.m.m.V.V.V.m.m.m.c.c.c.c.x.x.x.z.z.x.x.x.x.x.j.j.j.x.x.j.j.j.j.x.x.j.k.x.x.x.x.x.x.z.z.z.z.z.z.z.x.z.z.x.x.x.z.z.z.c.c.c.c.b.z.z.l.k.j.0.7.7.7.7.7.7.7.8.8.8.z.b.8.4.5.8.8.8.4.4.4.3.&.@./ / %.r.].[.=X[.].].].].].].].T.T.T.T.T.].[.].].Q.Q.T.T.Y.Y.T.I.r.6.4.r.r.r.r.r.g.g.g.g.r.e.h.h.e.4.-.&.&.O.;.6.;.y.h.g.g.g.g.h.e.-.&.&.&.O.o.~ ~ o.O.O.O.n.n.v.g.g.v.g.r.;.&.%.~ ^ @.;.;.&.n.].tXcXyXyXwXxXmXCXCXFXxXFXGXCXmXyXmXmXMXMXMXCXFXGXGXGXFXCXFXZXZXZXFXGXFXFXGXGXGXHXHXLXLXJXnXlXlXfXfXdXdX$XL.} G D D G G G G h h g g g g g f f f f f f i i i i r r r r r r r r t t w w w w w q q q q q q < 3 < < 3 z < < - - - - - - - = - - = = ",
"HXJXHXHXJXJXJXbXbXvXzXtXqXqX9X9X0X5X<X=X&X#X[.[.E.Q.W.T.Y.Y.I.I.n.g.g.h.e.e.e.e.y.e.e.e.-.o.O.-.-.&.;.6.e.;.;.;.-.O.o.Q Y Y Y Y Y Y Y R W Y P F Y W [ E E R R R P P F D V V V B B B B B V V D H V V V V H H H V V V H H V V D F F F P P P P I R R P P P P R R R R E E E W W W E ! W W W [ W o.O.O.-.6.h.g.g.g.L.I.Y.T.T.Q.W.I.g.t.t.h.g.n.n.n.I.I.T.T.T.T.].].T.Y.T.T.T.Y.T.T.Q.].].].Q.Q.].].Q.Q.[.=X=X=X1X=X=X#Xk.@.@.%.@.3.4.3.4.3.@.@.@.3.5.7.7.j.j.j.j.j.j.j.j.j.j.j.j.j.j.k.k.k.k.z.z.x.x.x.c.c.c.c.c.m.m.m.V.V.V.V.V.V.m.c.c.c.c.x.x.x.x.z.z.z.x.z.j.j.j.x.x.x.k.x.k.x.x.x.x.z.z.l.l.x.x.z.z.z.z.z.z.x.z.z.z.x.x.z.c.c.c.c.c.c.b.b.z.z.l.k.j.7.8.7.7.7.7.7.8.8.8.8.M.k.8.5.8.8.7.8.4.4.4.3.3.@.( / ( r.].=X=X=X[.[.[.].[.[.].Q.T.Q.Q.Q.].#X[.[.[.].].Q.T.Y.Y.I.g.y.6.y.e.r.r.g.g.g.g.g.g.h.g.g.h.e.6.;.-.-.&.-.;.e.g.v.g.n.n.n.h.e.6.6.6.&.+.~ Q / %.O.O.r.].Q.T.].I.[.Y.g.4.%.o.&.-.-.&.-.v.[.tXcXmXcXwXxXcXMXCXFXCXmXMXmXyXcXcXmXMXMXCXZXFXGXGXGXFXCXCXCXCXFXGXGXGXHXGXGXLXLXHXLXHXZXnXlXlXlXdXdXsX3X!.h.| D D D G G G h g g g g g g f f f f f d i i i r r r r i r r r r t t t w w w q q q q q q q q 3 < 3 3 < < - - - - - - - - - - - - - ",
"HXJXHXHXJXJXJXbXbXbXzXtXtXqX9X9X0X5X<X=X&X#X[.[.E.Q.T.T.Y.I.I.I.n.g.g.h.e.e.e.e.e.e.e.e.;.o.+.&.-.;.&.6.6.;.-.-.&.+.W Y Y Y Y Y Y Y Y R E E V P R W [ E E R R R R R P P V B B s s s B B V B B B B B B B V V B B B B V H V H D D D D F F F P I E { R D V V V H C F R E W W W W W W W W o.+.[ [ +.&.;.e.g.I.n.n.Y.Y.T.T.W.W.T.I.g.t.t.h.g.g.I.Y.T.T.Q.].W.W.[.[.E.].[.].].Q.].[.[.#X[.[.[.].].].].[.=X1X*X=X=X=X1X[.v.@.@.@.@.3.3.4.r.3.@.( @.3.5.7.7.j.j.j.j.j.j.j.j.j.j.j.j.j.j.k.k.k.k.z.z.x.x.x.x.c.c.c.c.m.m.m.V.V.V.V.V.V.m.c.c.c.c.c.x.x.x.x.z.z.x.z.j.j.j.x.x.x.k.x.k.k.x.x.x.z.z.l.l.x.x.z.z.z.z.z.z.x.z.z.z.x.x.z.c.c.c.c.c.c.b.b.x.l.l.k.j.7.8.7.7.7.7.7.8.8.8.u.1X`.7.8.8.7.r.8.5.5.4.3.&.@.( ( ( r.].=X=X=X=X#X[.[.[.[.[.].].].].].[.#X#X%X#X[.[.].Q.T.Y.I.v.h.r.e.r.r.r.g.v.n.n.n.n.n.n.n.n.g.e.r.g.t.;.-.;.e.h.v.n.n.v.v.g.h.t.t.e.e.&.%.~ ~ +.O.O.r.1X#X7X=X%X1XT.h.;.O.%.&.6.y.6.-.g.].wXcXmXcXwXyXxXmXMXGXGXCXmXcXxXMXMXMXCXCXCXZXGXGXGXGXGXCXMXCXCXFXFXGXGXGXGXGXGXGXHXGXHXVXnXlXlXfX9X8XdXdX3XU.:.{ G D G G G h g g g g g g f f f f f f i i i i i i r i r r r r t t t w w w q q q q q q q 3 3 3 3 3 < < - - - - - - - - - - - - - ",
"HXHXHXHXJXJXJXbXbXbXnXyXtXqX9X9X0X5X<X%X&X#X[.[.E.Q.T.T.Y.Y.I.I.n.g.g.h.e.e.e.e.e.e.e.e.4.+.o.O.-.6.-.-.;.-.-.&.O.W Q Y Y Y Y Y Y Y Y P Y W P P R W W W E E R R R R R I F V V B s s V V V V s s B B B B B B B a a B V H D H V V V V V D F P I E E U V s B B B B V D P Y R R R R R W [ +.+.o.[ O.-.e.g.I.I.I.T.T.T.T.T.Q.W.Y.n.h.t.h.g.g.I.T.].].].@X%X@X#X&X&X[.].].].].].[.[.#X*X*X=X#X[.].].[.=X1XwX1X=X=X1X1X[.n.&.@.@.&.3.3.4.r.&.@.( @.3.5.7.7.7.j.j.j.j.j.j.j.j.j.j.j.j.k.k.k.z.z.z.z.c.c.x.x.c.c.c.c.m.V.V.V.V.V.V.V.m.m.m.m.m.c.c.c.c.x.c.x.x.z.z.z.j.j.x.x.k.k.k.k.k.k.x.x.z.z.l.l.x.x.x.z.z.z.z.z.z.z.z.z.x.x.z.c.c.c.m.b.m.b.b.x.l.l.k.j.j.7.7.j.j.j.7.8.8.5.k._.T.8.5.5.8.7.r.8.5.4.3.&.@.( ( ( 6.T.1X1X=X=X=X=X=X[.[.[.[.[.[.[.].#X=X=X=X=X#X[.].].Q.Y.I.n.v.g.r.r.g.g.v.n.n.I.I.I.I.I.I.I.n.h.g.g.g.g.g.e.6.e.h.v.v.g.h.h.r.h.g.r.e.;.O.~ ~ %.O.O.6.=X1XmX1X1X#Xn.r.-.@.@.@.4.6.6.-.r.T.wXcXmXcXwXyXxXmXCXGXGXGXCXMXMXMXMXCXCXCXCXZXGXGXGXGXGXZXmXcXCXCXFXGXGXGXGXHXGXGXGXGXGXMXcXzXzX9X9X9XfXfXfX@Xh.#.I G G G G G h h g g g g g g g f f d i i i i i i i i r r r r t t t w w w q q q q q q q 3 3 < < < - < < < < - - - - - - - - = - ",
"HXHXHXHXJXJXJXbXbXbXbXzXtXqXqX9X5X5X<X%X&X#X[.[.E.Q.T.Y.Y.Y.I.I.I.g.g.h.e.e.e.e.e.e.e.e.6.O./ O.-.;.6.-.-.&.&.O.o.W W R R Y Y Y Y Y Y Y Y R W R R E W W E E R R R R R I I P P D V V B V V V B B B B B B B B B a a B H D D D V V V V V V F P I I F D V V V H H H V D V F P Y Y Y Y R W [ o.o.+.&.e.h.I.I.Y.W.E.W.W.T.T.T.T.I.g.h.h.g.g.n.Y.].&X@X@X&X*X%X%X&X&X%X#X#X#X#X#X#X=X*X1X*X=X=X[.[.[.=X=X1X1X1X*X=X1X1X[.M.3.@.@.&.3.4.4.4.3.@.@.@.3.5.7.7.7.j.j.j.j.j.j.j.j.j.j.j.j.k.k.k.z.z.z.z.c.c.x.x.c.c.c.c.m.V.V.V.V.V.V.V.m.m.m.m.m.c.c.c.c.x.c.x.x.z.z.z.x.z.x.x.j.j.k.j.k.j.k.k.x.x.l.l.x.x.x.x.x.x.z.z.z.z.z.z.x.x.c.c.c.c.m.b.m.b.b.x.l.l.k.j.j.7.7.j.j.j.7.8.8.8.7.l.k.7.8.7.r.r.r.8.5.4.3.&.@.( %.( 4.T.1X1X1X1X=X=X=X=X[.#X#X=X=X#X[.#X=X=X=X=X=X#X[.[.Q.Y.I.I.I.I.g.h.g.n.n.I.I.I.Y.Y.Y.Y.Y.Y.I.n.g.g.g.g.v.h.y.4.6.y.e.h.h.t.r.t.t.e.e.;.O./ ~ o.O.O.4.I.#XyX1X[.n.g.e.&.@.&.&.6.h.h.-.6.Y.tXcXmXcXwXyXxXmXCXGXGXGXFXCXCXmXMXMXMXCXCXZXGXGXGXGXGXFXcXxXMXCXZXGXGXGXGXHXGXGXGXGXGXMXcXzXzX9X9XeXzXzXfX0XR.e.{ G H U G h h h g g g g g g g f f f i i i i i i i i r r r r t t t w w w q q q q q q q q 3 < < < - < < < < < < - - - - - - = = ",
"HXHXHXHXJXJXJXbXbXbXbXnXyXtXqX7X0X5X<X=X&X#X[.].E.Q.W.T.Y.I.I.I.n.v.g.h.e.e.e.e.e.e.e.e.6.&./ o.O.&.;.-.&.&.O.O.o.W W ! R R R R Y Y R R R R W R R E E E W E R R R R R P P F F F H V V V V V H H V V B B B B s B V V D D D D D D V V D D F P P P D V V V V D F F F F F F Y Y Y Y R R R W [ +.=.>.t.L.Y.Y.T.E.].Q.Q.Q.T.T.Y.I.g.h.g.g.n.Y.W.&X&X#X#X=X5X=X=X*X=X=X=X%X%X=X%X#X=X<X1X*X=X#X[.[.=X=X1X1X1X1X1X=X1X=X].Y.4.&.3.3.3.3.3.&.&.@.( @.5.8.7.7.7.j.j.j.j.j.j.j.j.k.j.j.k.k.k.x.z.z.x.x.x.x.z.z.c.c.c.m.m.V.V.V.V.V.V.V.V.V.m.m.m.c.c.x.x.x.x.x.x.z.z.z.j.j.x.k.j.j.j.j.j.j.j.j.l.l.l.l.l.l.k.k.x.x.x.x.x.x.z.z.x.x.z.c.c.c.m.m.m.m.c.z.l.l.k.j.j.7.7.r.k.r.7.7.8.8.8.u.u.7.7.7.r.r.r.7.8.5.4.3.@.@.%.@.4.T.1XwX1X1X=X*X=X[.[.#X=X=X=X=X#X#X#X=X=X=X<X*X#X[.Q.Y.I.Y.Y.Y.n.v.v.I.I.I.I.n.T.Y.Y.T.T.T.T.Y.I.n.g.h.e.e.4.-.-.-.;.6.y.y.e.r.r.e.4.4.&./ ~ %.O.@.&.n.[.[.T.n.h.6.&.@.@.&.6.h.g.h.&.e.].uXmXMXmXyXxXcXMXCXGXGXGXFXCXMXmXMXMXMXCXCXFXGXGXGXGXGXGXcXxXcXCXZXFXFXGXGXGXGXGXGXGXHXbXcXzXlXeX9XeXzXzXzXfX5XU.:.{ G U G G h j g g g g g k k f f d d i i i i i i i r r r r r r t t w w q q q q q q 3 3 3 3 3 3 < < - - - < < < - - - - - - - ",
"HXHXHXHXJXJXJXbXbXbXbXzXtXtXtX7X0X5X5X=X&X#X[.].E.Q.W.T.I.I.I.I.n.v.g.h.r.e.e.e.e.e.e.e.e.;.O.o.%.O.&.-.&.&.O.+.o.W W W R Y R R Y Y R R R R R R E E E E W E R Y R R R F D H H H V V V V V V V D V V V B B B s H F F D V D D D D F F F F F P P F F D H V V V F P Y Y Y Y R R R R R R E R [ +.;.e.h.I.Y.T.W.E.E.Q.Q.W.T.T.Y.I.g.h.g.I.Y.E.@X@X@X#X%X<X6X<X*X6X6X1X<X%X%X<X*X%X%X*X<X*X=X#X[.=X=X*X=X1X1X1XwXrX1X].[.Y.6.3.3.3.3.3.3.&.@.( ( 3.5.7.7.7.j.j.j.j.j.j.j.j.j.k.j.j.k.k.x.x.z.z.z.x.x.x.z.c.m.m.c.m.V.V.V.V.V.V.V.V.V.V.m.m.m.m.c.c.x.x.x.x.x.z.z.z.j.j.x.x.j.j.j.j.j.j.j.j.x.x.l.l.l.l.j.j.k.k.x.x.x.x.x.z.x.x.x.c.c.c.m.m.m.m.c.z.l.l.k.j.j.j.j.r.k.r.7.7.8.8.8.7.u.7.0.7.r.r.r.r.8.5.4.3.&.@.%.@.4.T.=XwX1X1X1X=X=X[.[.#X=X=X=X=X=X#X[.#X*X6X6X*X#X[.Q.Y.Y.Y.Y.Y.I.I.I.I.I.I.n.n.Y.Y.T.T.T.T.Q.].Q.g.y.4.-.-.-.&.-.&.O.O.&.-.4.y.e.e.e.e.&./ ~ %.O.O.&.h.v.v.r.6.4.4.4.4.4.6.e.h.g.h.4.g.].wXmXMXmXyXxXcXMXCXGXGXGXFXCXMXmXmXmXMXCXCXFXGXGXGXGXGXGXcXxXcXCXZXFXFXFXGXGXGXGXGXGXHXbXcXxXlXeXeXeXzXzXzXlX8X!.h.} U G G G G j g g g g g k k k f d d i i i i i r r r r r r r r t r w w q q q q q q 3 3 3 3 < 3 < - - - - < < < - - - - - - - ",
"HXHXHXHXJXJXJXbXbXbXbXzXtXtXtX7X0X6X5X*X%X#X[.[.E.Q.T.Y.I.I.I.I.n.v.g.h.h.e.e.e.e.e.e.e.e.6.&./ ~ %.O.&.&.&.O.+.o.W W W W Y R R R R R I R P P P R R E E W W R Y Y R F F F D V V V V V V V B V V V V H V V H V D F F D V D D F U P P U P P I I P U P F F V V F Y R R R R R R W W W W W W o.$.>.t.L.Y.Y.W.E.E.Q.W.W.T.T.Q.W.Y.v.g.g.Y.].[.@X].#X&X&X<X6X<X1X7X7X6X6X<X<X1X1X*X=X*X*X*X=X#X=X=X1X=X=X1X1X1XwXrX1X].#XT.6.4.3.3.3.3.3.&.@.( ( 3.8.7.7.7.j.j.j.j.j.j.j.j.k.k.k.k.x.x.z.x.z.z.x.x.x.x.c.m.m.m.m.V.C.C.V.V.V.V.V.V.V.V.V.V.V.V.m.c.c.c.c.x.x.z.z.z.j.j.k.k.j.j.j.j.j.j.j.j.x.x.l.l.l.l.k.k.k.k.j.j.x.x.k.z.x.x.x.c.c.c.m.m.m.m.c.z.l.k.j.j.j.j.j.j.j.j.j.7.8.8.8.8.7.u.u.u.r.r.r.r.r.8.6.4.3.@.( @.4.T.1XrXwX1X1X1X=X#X#X=X=X*X=X=X=X%X%X=X6X7X6X*X#X[.].T.T.T.T.Y.I.I.I.I.n.n.I.Y.Y.T.Q.Q.Q.T.T.Q.I.e.-.&.&.-.-.-.-.-.&.&.&.&.-.-.4.e.e.4.O./ / %.@.O.&.6.6.6.4.4.&.&.&.4.6.r.g.h.r.h.6.Y.<XyXmXmXmXyXxXcXmXFXGXGXGXFXCXMXmXmXmXMXCXFXGXGXGXGXGXGXFXcXxXcXCXZXFXFXFXGXGXGXGXGXGXFXbXbXcXzXeXeXtXtXzXzXzXlX;XR.:.{ G ] G G j h j g g g g g k k f f d d i i i r r r r r r r r t t w w q q q q q q 3 3 3 < < < - - - - - - - - - - - - - - - ",
"HXJXHXJXJXJXbXbXbXbXnXzXtXtXtX7X0X6X5X*X%X#X[.[.E.Q.T.Y.I.I.I.I.n.v.g.h.r.e.e.e.e.e.e.e.e.e.;.+.~ ~ o.O.&.&.O.+.o.W W W W R R R R R R I P P P P P R E E E E R R R Y F F D V V V V V V B B s B B H B B V H F D D H H H D D D F U P U P P P I I P P P P F V V F Y E W [ W W W [ [ W W [ [ O.-.e.g.I.Y.T.E.E.E.Q.W.T.T.Q.Q.W.T.n.g.I.Q.#X#X].@X#X#X#X=X<X=X<X6X6X6X6X<X<X6X6X1X1X<X*X*X=X=X=X=X1X1X=X=XwXwXwX1X=X=X=XT.r.4.4.3.3.3.&.&.@.( @.3.8.r.r.r.j.j.j.j.j.j.k.k.k.k.k.k.x.x.z.z.z.z.x.x.c.c.c.c.m.m.m.V.V.V.V.V.V.V.V.V.V.V.V.V.V.V.m.c.c.c.c.x.x.z.z.z.j.j.j.j.j.j.j.j.j.j.j.j.j.j.l.l.l.l.k.k.k.k.j.j.k.x.k.x.x.x.x.c.c.c.b.m.m.m.c.z.l.j.j.j.j.j.j.j.j.j.j.u.7.8.8.8.8.r.u.u.u.r.r.r.r.r.5.4.3.@.( @.4.T.1XrXwXwX1X1X=X=X=X=X=X*X=X=X*X*X*X1X1X6X1X=X#X#X].T.T.T.T.T.Y.I.I.I.n.n.n.I.I.Y.Y.T.T.Y.I.g.e.-.@.-.4.y.4.-.;.;.4.4.6.4.;.&.&.;.4.&.+./ o.%.@.O.&.4.4.-.-.-.&.&.&.r.v.Y.v.r.6.r.n.[.wXxXmXMXmXyXxXcXmXCXGXGXGXGXCXMXmXmXmXMXCXFXGXGXGXGXGXGXCXcXxXcXCXCXFXFXFXGXGXGXGXGXGXFXbXbXcXxXeXtXtXtXtXtXzX9X8X%XL.$.I ] G G h h j g g g g g k k f f d d i i i r r r r r r r r t t w w q q q q 3 q 3 3 3 < < < - - - - - - - - - - - - - = - ",
"HXJXJXJXJXJXbXbXbXbXnXzXtXtXqX9X0X6X5X<X=X#X[.].E.Q.W.T.Y.I.I.I.n.v.g.h.r.e.e.e.e.e.e.e.y.e.6.&.o.W ~ o.O.O.O.+.o.W W W W W ! W W W E R P P F P P R E E E E E E R Y F F D H V V V V V B B B B F F V B D P P F V V V V V H F F F F F P P I I R R I P P P F F F P E o.+.} [ [ [ [ [ W [ +.O.e.e.g.I.I.T.E.E.E.Q.W.Q.Q.Q.Q.Q.Q.Y.n.I.[.&X].].@X#X[.@X=X*X=X*X6X7X6X6X1X1X1X6X6X1X1X1X*X=X=X=X1X1X1X=X=X1XwX1X1X1X1X1X`.k.4.4.3.&.&.&.&.&.( @.4.8.7.7.7.j.j.j.j.j.k.k.k.k.k.k.k.x.z.z.z.z.z.x.z.c.c.c.c.m.m.m.m.V.V.V.V.V.V.V.V.V.V.V.V.m.m.V.m.c.c.c.x.x.x.x.j.j.j.k.j.j.j.j.j.j.j.j.j.j.j.j.j.j.j.j.j.j.j.j.j.k.j.k.x.z.z.x.z.c.c.c.c.b.c.z.x.l.j.j.N.j.j.j.j.j.j.j.u.7.8.8.8.7.r.u.u.j.u.r.u.u.r.5.4.3.3.@.@.3.T.1XrXwXwX1X1X=X=X=X=X=X*X=X*X1X6X6X7X7X1X=X=X#X[.].T.T.T.T.T.Y.I.I.I.Y.I.I.Y.I.Y.T.T.T.I.g.y.&.O.&.e.h.h.e.4.6.y.e.6.r.y.4.-.&.&.&.O.+.%.%.O.O.@.@.&.&.&.&.&.4.4.r.v.T.n.n.h.r.M.Q.7XwXxXMXMXmXyXyXxXmXCXGXGXGXFXMXmXmXmXMXMXFXGXGXGXGXGXGXFXCXxXxXcXMXZXZXZXFXGXGXGXGXGXGXZXcXMXcXzXeXtXtXtXtXtXzXlXdX0X!.t.} I G G h g j g g g g g g k f f d d f f i i i i i r r r r r r w w q q q q q q 3 3 3 < < < - < - - - - - - - - - - = = = ",
"JXJXJXJXJXJXbXbXbXbXzXzXtXtXqX9X0X6X5X<X=X&X@X].E.Q.W.T.Y.I.I.I.n.v.g.h.h.r.e.e.e.e.e.y.e.e.6.-.O.o.W W o.o.o.~ W W W W W W W W W E R R R P P F P P R E W W R R R R F F D D H V H V V V V V H I I D V P R P F V V V V V H H F F F F P P I I R R R R R R R Y Y Y R [ o.[ [ o.o.o.o.[ o.+.-.e.e.g.I.T.W.W.W.W.Q.Q.W.W.Q.Q.].].Q.I.T.#X#X].].].].[.#X=X*X*X<X6XwX7X6X6X1X7XwX6X1X1X1X1X1X1X1X1X1X1X=X=X=X1X1X1X1X1X1X].v.4.4.4.&.&.&.@.@.@.3.4.8.7.7.7.j.j.j.j.j.k.k.k.k.k.k.k.x.x.z.z.z.z.x.z.c.c.z.z.c.c.c.m.V.m.V.V.V.V.V.V.V.V.V.V.m.V.m.m.c.c.x.x.x.x.z.j.j.j.j.j.j.N.j.j.j.j.j.j.j.j.j.j.j.j.j.j.j.j.j.j.k.j.x.x.z.z.x.z.c.c.c.c.b.c.z.l.k.j.j.N.j.j.j.j.j.j.j.u.7.8.8.7.r.u.j.j.k.k.u.j.k.r.8.4.4.3.@.@.3.T.1XrXwX1X1X=X=X=X=X=X=X=X*X1X7X6X7XeXeX1X=X%X[.[.].Q.T.T.T.T.Y.I.I.Y.T.T.T.T.T.Q.W.].W.I.g.4.O.O.6.I.T.n.g.r.r.r.h.h.h.h.r.y.4.-.&.O.O.%.%.O.O.O.&.&.&.&.&.4.6.k.Y.].T.T.Y.Y.].[.<XyXeXcXMXMXmXxXxXcXMXFXGXGXFXCXmXcXcXcXmXMXFXGXGXGXGXGXFXCXcXxXyXxXMXCXZXZXFXFXGXGXGXGXGXZXbXMXcXtXeXeXtXeXtXtXzXlX9X8X%XI.:.{ U G h g j j g g g g g k f f f f f f i i i i i r r r r r r w w q q q q q q 3 3 3 < 3 < < < - - - - - - - - - - - ; ; ",
"JXJXJXJXJXJXbXbXbXvXzXyXtXtXtXqX0X0X6X<X=X%X@X].E.Q.W.T.Y.Y.I.I.n.g.g.h.h.h.e.e.e.e.e.e.e.6.6.;.&.O.o.W W o.o.~ ~ ~ W W W W W W W E R P R R P P F P P E W W R R R R F F D D H V H V H H V H P R E P F R R P F D D F F U F F F F F F P P P I R E E E E E W W W E E [ o.} [ o.o.o.o.[ o.O.;.e.t.I.Y.T.W.W.W.W.E.Q.Q.Q.].].].[.].Q.Q.&X#X].].].].[.#X&X*X*X<X7XwXwXwXwXwX7XwX6X1X1X1X1X6X1X1X1X1X1X1X=X=X1XwXwXwXwX1X[.v.4.4.4.&.&.@.@.@.&.3.8.8.r.7.7.j.j.j.j.k.k.k.k.k.k.k.k.k.k.z.z.z.z.z.z.z.z.c.c.c.c.c.c.m.m.m.m.V.V.V.V.V.V.V.V.V.V.V.m.m.c.x.x.x.x.x.j.j.j.j.j.j.N.j.j.j.j.j.j.j.j.j.j.j.j.j.j.j.j.j.j.j.k.x.x.z.z.x.z.c.c.b.b.b.c.z.l.k.j.j.j.j.j.k.j.k.k.j.u.u.7.8.7.u.u.j.j.k.k.j.j.k.r.r.5.4.3.&.@.4.T.1XwXwX6X1X=X=X=X=X*X*X*X1X6XwX7X7XtXtX7X=X#X#X[.].Q.T.T.T.T.Y.Y.Y.T.T.Q.Q.Q.Q.Q.E.].T.I.e.&.O.-.e.g.I.I.n.g.h.r.h.h.h.g.g.r.6.-.&.O.O.+.O.O.O.&.&.4.6.6.6.6.h.v.T.].T.].].1X1X1XwXcXtXxXMXmXmXcXcXMXCXFXGXGXFXMXcXcXxXcXmXMXFXGXGXGXGXGXFXCXcXxXyXxXMXCXZXZXFXFXGXGXGXGXGXCXMXCXMXzXeXtXeXtXzXzXzXlXlXdX8X@Xh.#.U U h h j j g h h h g g k f f f f f f i i r i r i r r r r t w w q q q q q q q q q 3 3 < < - - - - - - - - - - - ; ; ",
"JXJXJXJXJXJXbXbXbXbXzXyXtXtXtX9X0X0X6X<X=X%X#X[.E.Q.W.T.Y.Y.I.I.n.g.g.h.h.h.r.e.e.e.y.e.6.6.;.;.&.&.&.O.O.O.O.+.o.W W W W W W W E R P P R R R P C C P P R R E E R R F F D D H H H H H F F P R [ [ E R E R P P F F R R I P F F F F F P P P I R E E { E E W W [ W [ o.+.+.+.+.o.+.+.o.+.&.:.e.h.I.T.T.T.W.W.Q.Q.E.].].].[.@X[.[.].[.%X@X].E.E.].[.#X&X*X*X1X7XwXwXwXwXwX7X7X6X1X1X1XwXwX6XwXwXwXwXrXwXwXrXwXwXwXwX1X=XY.4.4.4.&.&.@.@.@.3.5.8.7.r.7.j.j.0.j.k.k.k.k.k.k.k.k.k.k.k.z.z.z.z.z.z.x.x.c.c.c.c.c.c.m.m.m.V.V.V.V.V.V.V.V.V.V.V.V.V.m.c.c.x.x.x.x.j.j.j.j.j.j.j.j.j.j.j.j.j.j.j.j.j.j.j.j.j.j.j.j.j.j.j.x.z.z.z.x.c.c.c.b.b.b.b.z.l.k.j.j.j.j.j.k.j.k.k.j.j.u.7.7.r.u.k.j.j.j.k.j.j.k.u.r.8.4.4.3.@.4.].6XwXwX1X1X=X=X=X=X*X*X*X6X7XwX7XeXyXyX7X=X#X#X[.].Q.T.T.T.T.Y.Y.Y.T.Q.Q.Q.Q.Q.Q.Q.Q.Y.g.4.O.O.4.y.g.I.T.W.I.I.v.g.I.g.n.v.h.4.-.O.O.O.+.O.O.O.&.;.r.v.n.n.n.v.v.v.h.M.T.#XrXrX1XtXmXtXyXmXmXcXcXcXMXCXFXGXFXZXmXcXxXxXxXcXMXFXGXGXGXGXGXFXCXcXyXyXxXMXCXZXZXFXFXGXGXGXGXZXCXCXCXMXzXeXeXeXzXzXzXzXzXlX9X9X5XU.>.{ U h h h j j h h h g g k f f f f f d i i r i i i r r r r t w w q q q q q q q q q 3 3 < < - - - - - - - - - - - ; ; ",
"JXJXJXJXJXJXbXbXbXvXzXzXtXqXtX9X9X0X5X5X%X&X#X[.[.Q.W.T.Y.Y.I.I.n.g.g.g.h.h.r.e.e.e.y.e.6.6.;.;.-.-.-.-.-.-.&.O.o.W W W W W R R R Y P P R R P P F F F F F P Y Y R Y P F F F F F F P P R R [ } } } [ E R R Y P P P [ E R P F F F F F U U P Y R R W W E R R R W W [ | +.+.+.#.+.+.o.+.$.-.e.t.g.I.Y.T.T.W.W.W.Q.].].[.[.#X#X[.#X*X=X&X#X].].].].[.@X%X*X*X1XwXwXwXwXwXwXwX6X1X1X1XwXrXrXwXwXwXwXwXwXwXrXrXwXwXwXwXwX=XT.4.3.3.&.@.@.@.3.4.8.7.r.7.7.j.j.j.j.k.k.k.k.l.l.z.z.z.k.k.z.z.z.z.z.z.z.z.x.x.c.c.c.c.m.m.m.m.V.V.V.V.V.V.V.V.V.V.V.V.V.m.c.z.z.x.x.x.x.l.l.j.j.j.j.j.j.j.j.j.j.j.j.j.j.j.j.j.j.j.j.j.j.j.k.l.z.z.x.c.c.c.c.c.c.z.x.x.k.j.N.N.j.j.k.k.k.k.j.j.0.7.7.7.j.j.j.j.k.k.k.k.k.u.r.8.6.4.3.@.6.].6XwX1X1X1X=X=X=X*X*X1X6X7XwXeXwXeXyXtX6X=X%X#X#X].Q.T.T.T.Y.Y.Y.T.T.T.T.T.T.Q.Q.T.T.I.g.;.@.%.6.e.h.g.I.Y.Q.Q.T.I.I.n.v.g.e.-.O.O.O.%.%.O.;.&.6.6.T.[.=X].].].].T.v.r.h.T.=X1X1XeXmXyXuXxXmXmXmXmXMXMXFXGXFXZXmXcXxXxXxXcXMXCXFXFXFXFXFXFXMXcXxXxXxXMXZXFXFXZXGXGXGXHXHXZXCXZXMXmXeXeXeXeXtXxXxXzXeXlX9X8XdX-XU.:.{ g h h h j j h h h g g f f f f d d d i i i r r r r r r t t w q q w q q q q q < < 3 < z - - z - - - - - - - - - = ",
"FXJXJXJXJXJXbXbXbXbXzXzXtXqXtX9X9X0X6X5X%X&X#X#X[.Q.W.T.Y.Y.I.I.n.g.g.g.g.h.h.r.e.e.y.y.e.6.4.;.-.-.-.-.-.-.&.O.+.o.W W W W W R R R P P Y Y P P Y P P F F F F F P P P F Y Y Y Y Y R E [ } +.#.+.} [ E R Y Y P F P [ R P P P F F F F P P Y R R R E E R Y P R E E E [ } +.+.#.+.o.o.+.-.>.e.t.g.I.U.T.T.W.E.E.E.].@X&X#X#X#X#X=X1X6X=X#X].].Q.].].@X%X*X<X6X7XwXwXwXwXwXwXwXwXwXwXrXrXrXwXwXwXwXwXwXwXwXwXrXrXrXrXwX1XT.4.3.3.&.&.@.3.5.7.r.r.k.r.u.7.j.b.b.j.k.k.k.k.k.z.z.z.k.k.z.z.z.z.z.z.z.z.x.x.c.c.c.c.m.m.m.m.V.V.V.V.V.V.V.V.V.V.V.V.V.m.c.z.z.x.x.x.x.l.l.j.j.j.j.j.j.j.j.j.j.j.j.j.j.j.j.j.j.j.j.j.j.j.j.l.z.z.x.x.c.c.c.c.c.c.x.x.k.j.N.N.j.j.k.k.k.k.k.j.j.7.7.7.j.j.j.j.k.k.k.k.k.k.r.7.8.4.&.@.y.].wX6X1X1X1X=X=X=X=X*X6XwXwXeXeXwXeXyXtX6X*X=X#X#X].].T.T.T.Y.Y.Y.T.T.T.T.T.T.Q.Q.Q.T.I.g.y.@.o.e.v.e.e.e.v.I.I.I.g.h.r.y.4.-.-.-.O.O.O.O.&.&.&.4.r.].<X7XwXwXrXwXwX=XT.k.v.Y.].=XwXyXyXeXyXmXmXcXmXMXMXFXFXFXZXmXcXxXxXxXcXmXCXFXFXFXFXFXFXMXcXxXxXxXMXZXFXFXZXFXFXFXFXJXCXZXFXMXcXeXeXeXeXtXxXxXzXeXlX9X8XfX8X!.t.$.G G h h j j h h h g g f f f f f f i i i i r r r r r r t t w q q w q q q q q 3 < 3 < z - - - - - - - - - - - - = ",
"FXJXJXJXJXbXbXbXvXvXzXzXtXqXtX9X7X0X5X<X=X&X#X#X[.E.Q.T.T.Y.I.I.n.g.g.g.g.h.h.h.e.e.e.e.e.6.;.;.;.;.;.-.-.-.&.&.O.o.W W W W W W ! R E R R R R R R R P F F F F F P P Y Y R R R R R W [ } +.#.+.} [ E R R Y R P F P R F P P P P P P P P P R R R R [ E R Y P Y R E E [ } +.+.+.+.o.o.O.-.>.e.h.L.I.T.T.T.W.E.].[.#X&X%X%X%X=X*X1X1X5X=X&X].Q.T.].].[.%X*X<X6XwXwXwXwXwXwXwXwXwXwXwXrXrXrXrXwXwXwXwXwXwXwXwXrXrXrXrX1X1XT.4.&.&.&.&.3.5.8.r.k.k.k.k.u.u.k.M.C.M.j.k.k.k.l.l.l.l.l.k.z.z.z.z.z.z.z.z.x.x.c.c.c.c.c.c.m.m.V.V.V.V.V.V.V.V.V.V.V.V.V.m.c.z.z.x.x.x.x.l.l.l.j.j.j.j.j.j.j.j.N.j.j.j.j.j.j.j.j.j.j.j.j.j.j.l.l.l.z.x.c.c.c.c.c.z.x.x.k.j.j.N.j.k.k.k.k.k.k.j.j.7.7.7.j.j.j.j.k.k.k.k.k.k.k.r.8.5.3.@.y.].wX1X1X=X=X=X=X=X=X*X7XeXeXtXeXwXeXxXtX6X1X*X=X%X[.].T.T.Q.T.T.T.T.T.T.T.T.Q.Q.].Q.Q.I.h.r.4.O.4.I.T.I.e.y.e.y.e.6.4.;.-.&.-.;.6.&.O.@.&.&.&.&.6.v.<XyXmXMXMXMXMXFXrX=X].n.v.Y.[.wXyXmXyXyXcXmXmXMXMXMXFXFXFXZXmXcXxXxXxXcXmXCXFXFXFXFXFXFXmXxXxXxXcXMXZXFXFXFXZXCXZXFXbXMXZXFXMXcXeXeXeXeXtXxXxXzXeXeX9X9XzXzX2XR.>.] G h h j j j j j h g g f f f f f d d i i i i r r r r r r w w w w w w q w q q q q 3 3 z - - z z - - - - - - - - ",
"FXJXJXJXJXJXbXbXvXvXzXzXtXqXtX9X7X0X6X1X=X%X#X#X[.E.Q.T.T.Y.I.I.n.g.g.g.g.h.h.h.e.e.e.e.e.e.6.;.-.-.-.-.&.&.-.&.O.+.~ W W W W W E E E R R R R R E E Y F F P F F P P Y R R R E E W [ } o.o.} [ [ E R R R R R I P P R P R R Y Y P I I R R R R R E [ E R Y P Y R E E [ } +.#.+.o.o.+.=.;.e.e.g.g.I.T.T.W.E.].@X#X&X&X&X%X#X*X1X7X6X6X=X#X].Q.T.T.].[.%X*X1X6XwXwXwXwXwXwXwXwXwXwXwXrXrXrXrXwXwXwXwXwXwXwXwXrXrXrXrX1X1X].3.&.&.3.3.4.8.7.r.k.k.k.k.j.k.k.l.b.M.M.k.j.k.k.l.l.z.l.l.z.z.z.z.z.z.z.z.x.x.c.c.c.c.c.c.m.m.V.V.V.V.V.V.V.V.V.V.V.V.m.m.c.z.z.x.x.x.x.l.l.l.l.j.j.j.j.j.j.j.N.N.N.j.j.j.j.j.j.j.j.j.j.j.j.k.l.l.z.x.z.c.c.c.c.z.x.x.k.j.j.j.j.k.k.k.k.k.k.j.j.7.7.7.j.j.k.k.k.k.k.k.k.k.k.r.r.8.&.@.r.].1X1X1X=X=X=X=X=X*X<X7XwXwXeXeX7XeXxXyX7X1X1X=X=X[.].Q.Q.Q.Q.T.T.T.T.T.T.Q.Q.].].].Q.I.r.e.r.-.&.g.I.Y.g.e.e.e.6.6.4.-.-.-.;.4.4.&.&.-.-.-.O.-.6.Y.wXMXFXMXMXMXMXuXyXyXwX=XY.n.T.eXmXZXMXxXyXxXmXMXMXMXFXFXFXCXmXcXxXxXxXxXcXCXFXGXFXFXFXMXcXxXeXxXcXmXMXZXZXFXCXMXMXCXcXMXZXZXMXcXeXeXeXeXtXxXxXxXeXeX9XeXzXnX9X-XL.#.U h h j j j j j h h g f f f f f d d i i i i r r r r r r w w w w w w q q q q q q 3 3 z - - z z - - - - - - - - ",
"CXCXCXCXJXbXbXbXvXnXzXzXtXtXqX9X0X0X6X<X%X%X#X#X[.Q.Q.T.T.Y.I.I.n.g.g.g.g.h.h.h.r.e.e.y.e.e.6.;.;.;.-.-.-.-.-.-.&.O.o.W W W W W W W W ! R R R E E E R R R R Y Y P R R R R R E W [ } o.o.o.[ [ W E E E E E R R Y R R E W W R R R R R R R R R E W [ E R R Y R R R E [ } +.#.+.} [ +.=.;.e.t.g.I.I.T.W.E.].@X&X&X&X#X#X=X*X;X6X7X6X*X=X#X].Q.T.Q.].[.%X*X1X6XwXwXwXwXwXwXwXrXrXwXwXwXwXwXwXwXwXwXwXrXrXrXrXrXrXrXrXrXwX].4.&.3.4.4.5.8.k.k.k.k.j.j.k.k.k.j.l.m.M.l.j.k.k.k.l.l.l.l.z.z.z.z.z.z.z.z.x.x.z.z.c.c.c.c.m.m.V.V.V.V.V.V.V.V.V.V.V.V.m.c.c.z.z.x.x.l.l.l.l.l.l.l.j.j.j.j.j.j.j.j.j.j.j.j.j.j.j.j.j.j.j.j.j.j.l.l.x.x.c.c.c.c.c.z.z.k.j.N.N.j.k.l.k.k.l.k.k.k.j.j.7.r.j.k.k.k.k.k.l.z.z.z.k.u.7.8.3.@.r.].1X1X1X=X=X*X*X=X=X*X6X7XeXtXeX6XwXtXtXwX6X1X*X%X[.].].].].Q.T.T.T.T.Q.Q.Q.Q.].[.#X@XY.e.g.T.h.&.-.e.g.g.g.g.g.g.4.6.y.e.e.6.&.O.&.4.4.-.%.@.;.6.wXMXZXxXuXyXNXMXZXNXNXNXNX=XY.v.6XmXCXCXmXxXxXcXmXMXCXFXFXFXCXmXxXxXxXxXxXcXCXGXFXGXGXFXMXcXtXeXxXxXmXMXFXZXZXMXbXMXMXMXMXFXFXMXxXeXeXeXeXyXxXxXzXeXeXeXeXzXzXzXfX!.>.{ G h j j j j j j h g g g f f f f f d d i d r r r r r r r r t t w w q q q q q q 3 3 z z z z z - - - - - - - - ",
"CXCXCXCXJXbXbXbXvXnXzXtXtXtXqX9X0X0X6X<X%X%X#X#X[.Q.Q.T.T.Y.I.I.n.v.g.g.g.g.h.h.h.e.e.e.e.e.6.;.;.;.;.-.-.-.-.-.&.O.+.o.W W W W W W W W E E E W W W W W W E R Y R R R R R E [ [ } o.o.o.[ [ [ W W W W W E R R R E E W W [ W R R R R R R R E [ [ E E R R Y R R R E [ } +.#.o.[ o.O.-.>.t.g.L.I.I.T.T.W.].@X&X&X%X=X=X=X<X;X;X*X*X=X%X@X].Q.T.Q.].[.%X*X1X6XwXwXwXwXwXwXwXrXwXwXwXwXwXwXwXwXwXwXwXrXrXrXrXwXwXwXwXwXwX[.r.4.4.4.8.8.8.k.k.k.k.j.j.k.k.k.k.k.k.b.b.l.j.k.k.l.l.l.l.z.z.z.l.z.z.z.z.x.x.z.z.c.c.c.c.m.m.V.V.V.V.V.V.V.V.V.V.V.V.m.c.c.x.z.x.x.x.l.l.l.l.l.l.l.j.j.j.j.j.j.j.j.j.j.j.j.j.j.j.j.j.j.j.j.j.l.l.x.z.c.c.c.c.z.x.x.k.j.j.j.j.k.l.k.k.l.l.k.k.j.j.r.u.j.k.k.k.l.l.l.z.z.z.k.k.r.8.3.&.h.[.1X6X1X1X*X*X*X=X*X<X6XwXtXxXtX7X6XwXeX7X1X<X=X%X#X#X[.].].Q.Q.T.Q.Q.].].].].[.#X#X#XT.t.r.Q.I.6.O.&.;.y.r.r.r.h.h.r.e.e.-.&.O.&.6.r.y.4.O.O.6.n.wXwXyXMXNXNXAXZXZXZXNXNXNXuX].v.1XcXCXCXMXmXxXxXcXMXZXGXFXFXMXcXcXxXxXxXcXcXmXMXFXFXFXFXMXcXeXeXzXxXmXMXCXFXCXMXbXMXMXMXCXFXZXmXxXeXeXeXeXyXxXxXzXeXeXeXzXzXzXnXzX$XL.*.U G j j j j j j h g g g f f f f f d d i i r r r r r r r r w t w w q q q q q q 3 3 z z z z z z - - - - - - - ",
"JXCXCXCXJXbXbXbXnXnXzXtXtXtX9X9X0X0X5X<X%X&X#X#X[.E.Q.W.T.Y.I.I.I.n.n.n.v.g.g.h.h.h.e.e.e.e.6.4.;.;.;.-.-.-.-.-.&.&.O.o.~ ~ W W W W W W W W W [ [ [ o.} [ W R R Y Y R R R E [ [ o.o.o.[ [ [ [ W W W W W E E W W [ [ [ W [ W W E R E R R W [ [ [ E E R R R R R R E [ } +.+.[ [ #.=.>.e.h.g.I.I.I.Y.T.T.Q.].&X%X=X*X*X<X*X=X%X#X&X=X&X#X[.Q.T.T.].[.#X*X1X6XwXwXwXwXwXeXwXwXwXwXwXwXwXrXrXwXwXwXwXrXrXwXwXwX6X6X6XwXwX=Xv.4.6.8.8.8.r.k.k.k.k.k.k.k.k.k.k.k.j.j.l.z.k.j.j.k.z.l.l.z.z.z.l.z.z.z.z.x.x.z.z.c.c.c.c.m.m.V.V.V.V.V.V.V.V.V.V.V.V.m.c.c.c.x.x.x.x.x.x.x.x.l.l.l.l.j.j.j.j.j.j.j.j.j.j.j.j.j.j.j.j.j.j.j.j.l.l.x.c.c.c.c.c.z.x.k.j.j.j.N.j.k.z.z.z.k.k.k.k.j.j.u.u.j.k.l.l.l.l.z.z.z.z.k.k.r.8.4.3.g.[.1X6X1X=X*X*X*X*X1X1X7XeXtXyXyX7X6XwXwX7X1X6X1X<X#X[.[.[.].Q.].Q.Q.].].].#X#X=X=X[.#XQ.g.y.I.Q.v.h.6.&.&.4.4.4.4.4.;.-.&.-.;.6.6.y.y.y.&.&.6.e.=XyXCXGXGXZXZXZXZXZXAXNXmXmXmX=Xv.1XxXZXMXCXCXmXyXxXMXGXGXGXGXMXcXcXxXxXxXcXxXcXmXMXMXMXMXcXxXeXeXeXxXmXMXZXFXMXMXMXMXMXMXCXFXCXmXxXeXeXeXeXyXxXxXzXeXeXeXzXzXzXnXnX8X!.t.{ G j j j j G j j g g g g g f f f f f d d i i i r r r r r r t t w w w q q q q q q 3 3 3 z z z - - - - - - - ",
"CXJXCXJXbXbXbXbXnXnXzXtXtXqX9X9X0X6X5X<X%X&X#X#X[.E.Q.W.T.Y.Y.I.n.n.I.n.n.g.g.h.h.h.e.e.e.e.6.4.;.;.;.-.-.-.-.-.&.&.O.+.o.~ ~ W W W W W W W [ [ } o.+.o.o.W W R R Y R R E [ [ } [ } [ [ [ [ [ [ W W W E E E W [ [ [ [ [ [ [ [ E E E E W [ [ W E E E R R R R R R E [ } } o.[ o.O.-.e.h.g.g.I.I.I.I.Y.T.Q.].&X=X<X6X6X<X%X@X@X#X#X=X=X#X[.Q.T.T.Q.[.=X<X1X6XwXwXwXwXwXwXwXwXwXwXwXwXwXrXrXwXwXwXwXrXrXrXwXwX1X1X1X1XwX=XM.6.6.8.r.r.k.k.k.k.k.k.k.k.k.k.k.k.j.j.j.j.z.k.k.k.l.k.k.k.k.k.k.z.z.z.z.x.x.z.z.c.c.c.c.m.m.V.V.V.V.V.V.V.V.V.V.V.V.m.c.c.x.x.x.z.x.x.x.x.x.x.l.l.l.j.j.j.j.j.j.j.j.j.j.j.j.0.0.j.j.j.j.j.j.l.x.x.c.c.c.c.z.x.k.j.j.j.j.N.j.x.z.z.z.z.k.k.k.k.j.u.u.j.k.l.l.l.l.z.z.z.z.l.k.r.8.4.4.v.=X1X6X1X=X=X=X*X1X1X6X7XwXeXtXeX6X7XtXyXwX7X1X1X<X=X=X#X#X].].].].].].].[.%X=X*X<X[.#XQ.v.y.h.Q.Q.Y.h.6.6.&.&.&.&.&.-.4.6.e.r.h.g.h.6.&.@.4.&.T.eXZXMXZXGXZXZXZXZXZXZXNXmXmXeX].v.1XmXZXCXCXMXMXcXxXMXGXFXGXFXMXcXcXxXxXxXxXxXmXMXMXMXmXmXxXxXeXeXtXxXcXMXCXMXMXMXMXMXMXMXCXZXMXcXxXeXeXeXeXyXxXxXzXeXeXeXzXzXzXzXnXfX-XU.*.U G j j j G j j g g g g g f f f f f d d i i i r r r r r r t w w w w q q q q q q 3 3 3 z z z - - - - - - - ",
"JXJXJXJXCXJXbXbXcXcXzXzXtX9X9X0X6X5X1X<X%X&X#X#X[.E.Q.W.T.T.Y.I.n.n.n.n.n.v.g.g.h.h.r.e.e.e.6.6.;.;.;.;.;.-.-.-.&.&.O.+.o.o.~ W W W W W W W W W o.o.+.+.} [ E R R P R R E [ [ [ [ [ [ [ o.[ [ [ W W W W W W W W W W W [ } [ [ [ W W W [ [ [ W E E W R R R R E E E [ [ } [ [ +.=.e.t.g.g.L.L.I.I.Y.T.W.].@X#X*X6X6X5X&X@X].[.@X&X=X=X&X@X].T.T.T.].=X6X6X6X7XwXwXwXwXwXwXwXwXwXwXwXwXwXwXwXwXwXwXwXwXrXwXwX1X1X1X1X1X#XT.8.8.r.k.k.k.k.k.k.k.k.k.k.k.k.k.k.k.j.u.j.k.k.k.k.k.k.k.l.l.z.z.l.l.z.z.z.z.x.x.z.z.c.c.m.m.m.m.V.V.V.V.C.C.V.V.V.V.V.c.c.x.x.x.x.x.x.x.x.x.x.l.l.l.l.l.l.j.j.j.j.j.i.u.i.u.u.u.i.i.i.j.j.l.l.x.c.c.m.m.m.c.z.l.k.j.j.j.j.j.k.z.z.z.z.z.l.k.k.j.j.j.j.k.l.z.z.z.b.b.b.b.k.k.r.8.4.4.n.<X6X6X1X1X1X1X1X*X<X1X7XwXeXtXwX6XwXyXyXtXwX1X1X<X*X=X#X[.].].].].].[.#X#X=X*X<X<X=X=X[.I.r.e.n.[.[.T.I.I.n.g.e.e.e.e.r.h.g.v.g.h.g.4.&.4.4.6.].wXZXAXAXCXMXMXNXNXuXuXmXMXyX#Xn.Y.wXmXCXZXCXMXCXMXmXCXFXGXGXFXCXmXcXxXxXxXxXcXMXFXCXMXcXxXxXtXeXeXtXxXmXMXCXmXmXmXmXmXMXMXZXCXMXcXxXeXeXeXeXtXxXxXtXeXeXtXzXzXzXzXnXvXdX~.L.#.] G G G G H j g g g g g g f f f f d f i i i r r r r r r r t r w w w w q q q q q 3 3 3 3 < - - - - - - - ",
"JXbXJXJXCXbXbXbXcXcXzXzXtX9X9X0X6X5X<X<X%X%X#X#X[.E.Q.W.T.T.Y.I.n.n.n.n.n.v.g.g.g.h.h.e.e.y.e.6.6.;.;.;.;.-.-.-.&.O.O.o.o.~ W W W W W W W W W [ o.o.+.+.} [ E Y P I R R E E W W W W [ o.o.[ [ [ W W W W W W W W W W W W [ [ [ [ W W [ [ [ [ W E W W R R R R E E E [ [ [ [ } O.-.e.h.g.g.L.I.Y.T.W.].&X&X=X#X=X*X*X#X@X].].].@X&X=X=X%X#X[.Q.T.T.Q.#X6X6X1X6X6X6X7X7X7X7X6X6XwXwXwXwXwXwXwXwXwXwXwXwXrXrXwXwX1X1X1X=X[.T.r.8.r.k.k.k.k.k.k.k.k.k.k.k.k.k.k.k.k.j.j.j.j.j.k.k.k.k.k.k.k.k.k.l.z.z.z.z.x.x.z.z.c.c.m.m.m.m.V.V.V.V.C.C.V.C.V.V.V.c.c.x.x.x.x.x.z.x.x.x.x.x.x.l.j.j.j.j.j.j.j.j.i.i.u.u.u.u.i.i.i.i.j.l.l.x.c.c.m.m.m.c.z.l.k.k.j.j.j.j.k.z.z.z.z.z.l.k.k.j.j.j.j.k.l.z.z.z.b.b.b.b.l.k.r.8.4.4.Y.<X7X6X1X1X1X1X1X1X<X1X7XwXtXyXtXwXwXyXyXwXwX7X7X1X*X=X[.].].].].[.[.[.%X=X<X<X<X<X<X<X#X].I.y.6.v.Q.Q.T.Y.Y.I.I.n.I.n.g.g.e.h.h.6.6.-.4.r.g.].Q.1XNXmXyXyXuXyXyXNXuXuXmXuX=XY.n.].yXMXZXCXCXMXCXMXMXFXGXGXGXFXCXcXxXxXxXxXxXcXCXFXFXMXcXtXeXeXeXeXzXxXmXMXMXmXmXcXcXmXMXMXZXMXMXcXxXeXeXeXeXtXxXxXeXeXeXzXzXzXzXxXnXbXzX3XU.>.| G G G G G j h g g g g g f f f f d f i i i r r r r r r r t r w w w w q q q q q 3 3 3 3 < - - - - - - - ",
"JXJXJXJXCXbXbXbXcXcXzXtXtX9X9X0X6X5X<X<X%X&X#X#X[.E.Q.W.T.T.Y.I.I.n.I.I.n.v.g.g.g.h.h.r.e.e.e.e.e.6.;.;.;.-.-.-.&.O.+.o.o.~ W W E W W W W W [ o.o.o.+.o.} [ W R P P R R R R R R W W [ o.W W W W W W W W W W W W W W W W W W ~ ~ W W W W [ [ W W W W R R R E E W E [ [ [ [ +.$.>.t.h.g.g.g.I.Y.W.@X&X&X&X#X@X@X#X&X#X[.[.].[.#X%X=X=X*X*X#X].T.Y.T.#X*X*X*X1X6X1X6X6X6X7X1X1X7X7XwXwXwXwXwXwXwXwXwXwXwXwXwXwXwX1X1X1X#X`.k.r.r.k.k.k.k.k.k.k.k.k.k.k.k.k.k.k.k.k.j.j.j.j.j.j.k.k.k.k.k.k.k.k.z.z.z.z.x.x.z.z.c.c.m.m.m.m.m.V.C.C.C.C.C.C.A.A.V.V.c.c.x.x.x.x.x.x.x.x.x.x.l.x.l.j.j.j.j.j.j.j.i.i.i.i.u.0.i.i.i.i.j.l.l.x.z.c.m.m.m.c.z.l.k.k.j.j.j.k.k.z.z.z.z.z.z.l.k.j.j.j.k.l.z.z.z.z.b.b.b.b.z.k.r.r.4.8.T.1XwX1X1X1X1X1X1X1X6X6XwXeXyXxXyXeXtXyXtXwX7X7X7X6X<X#X[.[.[.[.[.[.[.%X=X<X1X1X1X1X<X=X=X=X].g.6.6.v.Y.T.Y.Y.I.I.v.n.n.n.n.n.v.6.4.4.4.6.v.1X].].=XuXuXuXuXwXuXuXyXuXyXyX=XQ.v.T.1XmXCXCXMXCXCXCXCXCXGXGXGXGXFXMXcXxXtXeXeXxXcXCXFXFXMXcXtXeXeXeXeXzXxXmXMXMXmXmXcXcXmXMXCXZXMXMXcXxXeXeXeXeXtXxXxXeXeXtXzXzXzXzXzXnXnXvXfX-XL.*.G G G G G j j g g g g g f f f f f f i i i i i r r r e r w t w w w q q q q q q 3 3 3 3 3 - < - - - - - ",
"JXJXJXJXCXCXbXbXbXcXzXtXtX9X9X0X5X5X<X%X%X&X#X#X[.E.Q.W.T.T.Y.I.I.I.I.I.n.v.g.g.g.h.h.r.e.e.e.e.e.6.;.;.-.-.-.&.&.O.o.~ W W W W E E W W W W W [ o.o.o.o.} [ W R R P P P I R R R W W W [ W W W W W W W W W E W W o.o.W W W ~ ~ ~ W W W W [ [ W W W W R R R E E W E [ [ [ } #.-.e.h.h.g.g.g.I.T.+X&X&X&X].].].+X#X&X@X#X[.].[.#X%X=X*X<X5X=X].T.Y.T.@X*X=X=X*X1X1X1X1X1X1X1X1X7X7X7X7XwXwXwXwXwXwXwXwXwXwXwXwXrXwXwXwX1X[.n.r.k.k.k.k.k.k.k.k.k.k.k.k.k.k.k.k.k.k.j.j.j.j.j.k.k.k.k.k.k.k.k.k.z.z.l.z.x.x.z.z.c.c.m.m.m.m.m.m.C.C.V.V.C.C.A.V.V.V.c.c.x.x.x.x.x.x.x.x.x.x.l.l.l.j.l.l.j.j.j.j.i.i.i.u.0.0.0.u.u.i.j.l.x.x.z.z.b.b.c.c.z.l.k.j.j.j.j.k.k.z.z.z.z.z.z.l.k.j.j.k.l.l.z.z.z.z.b.b.b.b.z.k.r.8.4.r.T.1X6X1X1X1X1X1X1X1X6X7XeXtXyXcXxXtXyXcXtX7X1X7X6X1X=X[.[.[.#X#X#X#X%X*X1X6X1X1X1X1X<X#X=X7X1XQ.v.6.6.h.n.Y.T.T.Q.].T.Y.v.g.r.6.3.&.6.6.r.Q.yX=X[.].1XwXuXuXwXwXyXuXyXwX[.T.Y.Y.=XtXAXAXCXAXCXCXCXCXCXGXGXFXFXFXMXcXxXeXeXeXxXcXCXFXFXMXxXeXeXeXeXeXzXxXmXmXmXcXcXcXcXmXMXCXZXMXMXcXxXeXeXeXeXeXxXeXeXeXtXzXzXzXzXzXxXnXbXnXdX!.t.{ U H G G j j g g g g g f f f f f f i i i i i r r r e e w t w w w q q q q q q 3 3 3 3 3 < < - < - - - ",
"JXbXJXJXbXbXbXcXcXnXzXtXqX9X0X6X5X<X<X=X%X&X#X#X#X].Q.W.T.T.Y.I.I.I.I.I.n.n.v.g.g.h.h.r.e.e.y.6.e.;.;.-.-.-.-.&.&.O.+.~ W W W W W W W W W W o.o.o.o.o.[ [ W E E R R Y P Y E W W [ [ o.o.W W W W W W W W W W W W o.o.[ W W W W W W W W W [ [ W W [ [ E E [ [ E E [ } } [ +.$.:.t.h.g.g.g.I.T.+X&X&X@X].T.W.E.+X@X&X&X@X[.].@X&X&X=X*X*X5X*X@XQ.Y.T.[.=X&X%X&X<X6X6X1X6X6X1X1X1X1X6X6XwXwXwXwXwXwXrXrXrXrXrXrXrXwXrXrX6X=XT.k.k.k.k.k.k.k.k.k.k.k.k.k.k.k.k.k.k.k.j.j.j.j.k.k.z.z.k.k.k.k.k.k.l.z.l.l.x.z.x.z.c.c.c.c.m.m.m.m.M.M.V.V.V.V.V.V.V.V.V.c.x.x.x.x.x.x.x.x.x.x.l.x.x.x.l.l.l.l.j.j.j.j.j.i.0.0.0.u.0.u.j.j.l.l.x.z.c.b.c.c.x.l.j.j.j.j.j.k.z.z.b.b.b.z.z.k.k.j.j.k.l.l.z.z.z.z.b.b.b.b.z.k.r.8.6.g.].1X6X6X1X1X1X1X6XwX7XwXeXtXyXxXyXyXyXcXuXwX1X1X1X1X=X[.#X#X#X#X#X=X<X6X7X7X7X7X7X7X1X<X=X<X7X1X].n.6.4.y.g.r.h.g.g.r.e.6.6.&.6.6.6.4.v.1X=X1X=X].T.#X1X1XwXuXNXyXwX1X[.T.T.[.1XyXcXAXCXAXCXCXCXCXCXFXGXGXFXFXFXMXcXxXtXeXeXxXcXCXFXFXmXxXeXeXeXeXeXlXxXmXmXmXcXcXcXcXmXMXZXMXMXmXcXxXeXeXeXeXeXtXeXeXeXtXxXxXxXxXxXxXnXbXbXgX-XU.,.| G G G j j j g g g g g f f f f f f f d i i r r r r r t t w w w q q q q q q 3 3 q q < < < - - - - - ",
"JXbXbXbXbXbXbXcXcXnXzXtXqX9X0X5X5X<X<X%X%X&X#X#X#X[.Q.Q.W.T.Y.I.I.I.I.I.n.n.g.g.h.h.h.e.e.e.e.e.e.6.;.;.-.&.&.&.&.O.+.o.W W ~ ~ W W W W W W o.o.o.o.[ [ o.W E E R R Y P R [ [ [ o.+.+.o.o.o.W W W W W W W [ o.o.+.o.+.o.[ W W W W W W W [ [ [ W [ [ E [ [ [ [ [ } +.} } #.*.e.t.g.g.g.I.T.$X;X@XE.W.W.W.E.].@X#X&X@X@X@X].@X&X&X=X*X*X*X*X#X].T.T.].&X%X%X&X<X6X6X6X6X6X1X1X1X1X1X1X7X7XwX6XwXwXwXwXrXrXrXrXrXrXrXwXwX1X].b.k.k.k.k.k.k.k.k.k.k.k.k.k.k.k.k.k.k.j.j.j.j.j.k.l.l.z.l.l.k.k.k.l.l.l.l.x.x.x.z.c.c.c.c.m.m.m.m.M.M.V.V.V.V.V.V.V.V.V.c.x.x.x.x.x.x.x.x.x.x.l.x.x.l.x.l.l.l.l.l.j.j.j.u.0.0.0.0.0.0.j.j.l.l.x.x.c.c.c.z.x.l.j.j.j.j.j.k.z.z.b.b.b.b.z.l.k.j.j.k.l.b.b.b.b.b.b.b.b.b.z.k.r.6.6.v.[.6X1X6X1X1X1X1XwXwX7XwXeXtXtXyXyXyXxXmXyXwX1X1X1X1X<X#X#X#X#X=X=X*X6X7XwXwXwX7X7X7X7X6X<X=X1X7X1X].Y.g.e.6.6.6.y.e.6.6.6.6.h.6.6.h.T.1XyXwX1X[.T.T.[.=X=X=X1X1X=X].Y.T.[.<XyXyXAXAXAXAXAXCXCXCXCXCXFXGXGXFXFXCXmXcXxXeXeXeXxXcXMXFXCXcXtXeXeXeXeXeXxXcXmXcXcXcXcXcXcXMXCXCXMXmXcXcXxXeXeXeXeXeXeXeXeXeXeXtXtXxXxXxXxXnXnXbXzX8X!.L.$.] G G j j j g g g g g f f f f f f d d i i r r r r r t t w w w q q q q q q 3 3 q q < < < < - - - - ",
"JXbXbXbXbXbXbXcXcXnXzXtXtX9X9X0X5X<X<X%X&X&X#X#X[.].E.Q.W.T.Y.I.I.I.I.I.n.n.g.g.g.h.h.e.r.e.e.y.e.6.;.;.-.-.-.&.&.&.O.o.o.o.W W W W W W W W o.o.o.o.o.o.o.o.W E Y Y P P R } o.} +.+.+.o.o.o.~ ~ W W [ [ o.o.+.+.+.+.+.+.o.o.W W [ o.o.o.} o.} [ [ [ E [ } o.[ [ o.#.#.+.$.>.e.h.g.g.I.U.+X;X%XW.Y.Y.W.].].].].@X&X@X@X&X&X&X&X*X=X=X*X*X*X*X[.Q.T.Q.[.#X%X&X<X5X1X6X6X1X1X1X1X1X1X1X7X7XwXwXwXwXwXwXrXrXrXrXrXrXrXrXrXrX{.Y.k.k.v.v.k.k.k.l.k.k.l.l.l.l.k.k.k.k.k.k.k.j.j.j.k.z.b.b.l.k.k.l.l.l.z.z.z.z.x.x.c.c.c.c.c.c.m.m.m.m.V.V.C.C.A.V.V.V.V.c.c.x.x.x.x.x.x.x.x.x.l.l.l.l.l.l.l.l.l.l.j.j.j.u.0.0.0.0.0.0.j.j.j.l.x.x.c.c.c.z.x.l.j.j.j.j.k.z.z.z.b.b.b.b.z.l.k.j.j.k.l.b.b.b.b.b.b.b.b.b.b.k.r.8.6.n.=X7X6X6X6X1X1XwXwXwXwXwXeXtXeXtXxXyXcXmXmXuXtXwXwXwX1X#X#X#X=X=X*X1X7XwXwXwXwXwXwXwXwX7X1X<X1X1X7X1X<X].Y.g.h.h.r.e.e.e.r.r.h.v.].1XuXMXwXrX].T.[.[.[.#X[.].].T.Y.Y.].=XtXyXAXAXZXZXAXAXAXCXCXCXCXZXFXGXGXGXFXMXcXxXtXeXeXeXxXcXMXFXMXxXeXeXeXeXeXeXxXcXmXcXcXcXcXcXmXMXCXMXMXmXcXcXxXeXeXeXeXeXeXeXeXeXeXtXtXxXxXxXxXcXnXbXnXzX-XU.,.{ G G G G j j j k g g g f f f f f f f d i r r r r r r r t t w w q q q q q q q q q 3 3 < < < - < - ",
"JXbXbXbXbXbXbXbXcXnXzXtXtX9X9X0X5X<X<X%X%X&X#X#X[.].Q.Q.W.T.Y.I.I.I.I.I.n.n.v.g.h.h.h.e.e.e.e.e.e.e.6.;.;.-.-.&.&.&.O.+.o.o.W W W W W W W W [ o.o.o.[ o.+.o.W R Y Y Y R W o.+.} o.o.o.o.o.o.o.~ W W [ o.+.+.+.O.O.O.O.+.o.[ [ [ o.o.o.o.o.o.} [ [ [ E [ #.o.[ | +.#.#.O.-.e.t.h.g.I.U.E.@X+XW.T.T.T.W.E.].].].@X@X@X&X&X&X&X=X*X*X=X*X=X=X*X%X].T.Q.].[.#X%X*X6X1X1X1X1X1X1X1X1X1X1X7X7XwXwXwXwXwXwXrXrXrXrXrXrXrXrXrXrX1X`.k.k.k.k.k.k.k.l.l.k.k.k.l.l.k.k.l.l.k.k.k.j.j.j.j.l.m.m.l.k.k.z.z.k.l.z.z.z.x.x.c.c.c.c.c.c.m.m.m.m.V.V.C.C.A.V.V.V.V.c.c.x.x.x.x.x.x.x.x.x.l.l.l.l.l.l.l.l.l.l.l.k.j.u.0.0.0.0.0.0.j.j.j.l.x.x.c.c.c.z.x.l.j.j.j.j.k.z.z.z.b.b.b.b.b.z.k.j.j.k.l.b.b.b.b.b.b.b.b.b.b.k.r.8.6.Y.=XwX6X6X6X1X1X1XwXwXwXwXeXeXeXeXyXyXcXmXmXuXtXeXtXwX1X=X[.#X%X=X*X6XwXwXwXwXwXwXwXwXwX7X7X6X1X1X1X7XcXeX6X%XY.I.n.v.v.n.I.T.[.1XwXwXuXuXyXyX[.].[.T.].[.].].T.T.#XuXyXyXcXmXAXAXAXAXAXAXCXCXCXCXCXZXFXGXGXFXFXmXcXxXeXeXeXeXxXcXMXCXMXxXeXeXeXeXeXeXxXcXcXcXcXcXcXmXMXCXMXmXcXcXxXxXxXeXeXeXeXeXeXeXeXeXeXtXtXxXxXcXnXcXnXnXnXnXdX$Xh.$.U H G G j j j k g g g k k f f f f f d i i r r r r r r t t w w q q q q q q q q q 3 < < < < - < - ",
"bXbXbXbXbXbXbXnXnXnXzXtXtX9X9X0X5X<X%X%X&X&X#X[.[.E.E.Q.W.T.Y.Y.I.I.I.I.n.g.g.g.h.h.h.h.r.e.e.e.e.6.6.;.;.-.-.&.&.O.O.+.o.~ W W W W T T W W [ o.o.o.[ o.o.[ E R Y Y R W [ +.o.o.o.o.[ ~ o.o.~ W W W [ o.+.+.+.+.+.+.+.o.[ [ [ [ } o.+.+.o.} } [ [ [ [ o.+.} [ o.+.+.+.$.:.t.h.g.L.I.T.E.W.T.Y.T.T.W.W.E.].].@X@X@X@X#X&X#X#X&X=X*X=X=X=X=X*X=X[.Q.Q.Q.].[.#X=X<X1X<X<X1X1X1X1X1X1X7X7X7XwXwXwXwXwXwXwXwXrXrXwXwXrXwXwXuX1X{.z.k.k.k.k.k.k.k.k.k.k.k.l.l.l.k.k.k.k.k.k.k.k.j.j.k.z.M.{.`.k.z.z.k.k.z.z.z.x.x.c.c.c.c.m.m.m.m.m.m.V.V.C.C.V.V.V.V.V.c.x.x.x.x.x.c.x.x.x.x.x.x.x.x.x.x.x.x.x.l.l.j.j.i.0.0.0.0.0.0.j.j.j.k.l.z.c.m.m.z.z.l.k.j.j.j.l.z.c.c.c.c.c.c.z.z.k.j.j.k.z.z.z.z.z.z.b.b.b.b.b.k.r.8.r.`.1XwX6X6X1X1XwX6XwXwXwXwXeXeXwXwXtXyXcXmXmXyXtXeXtXwX6X=X#X#X=X=X<X7XeXeXeXeXwXwXwXwXwXwXwX6X1X1X7XwXwXyXyXwX7X1X<X*X=X=X=X=X1XwXyXcXyXtXyXmXyX=XT.T.].].=X=XwXrXyXcXmXMXZXZXZXZXMXMXMXCXZXCXCXCXCXCXFXGXGXGXFXmXxXtXeXeX9XeXxXmXCXMXcXeXeXeXeXeXeXxXxXcXcXxXcXcXcXmXMXCXMXmXcXcXcXcXxXeXeXeXeXeXeXeXeXeXeXeXtXxXxXcXnXnXnXnXnXnXfXsXW.t.| G G j j j h g g g g k k f f f d d f i r r r r r r r t t w w w q q q q q q 3 3 < - < - - - - - ",
"bXbXbXbXbXbXbXnXnXnXzXtXtX9X9X0X5X<X=X%X&X&X#X[.[.E.E.Q.Q.W.T.Y.I.I.I.I.n.g.g.g.h.h.h.h.r.e.e.e.e.6.6.;.;.-.-.&.&.&.O.+.o.o.~ W W Q T T W W [ o.o.o.o.o.W E R Y Y Y W o.+.+.o.o.o.o.o.o.o.o.~ W W W W [ W W W W W W W W W W [ [ } o.+.+.+.} } [ [ [ } +.+.[ [ o.+.+.$.-.e.t.g.I.I.E.E.Y.I.Y.T.T.W.E.E.].@X@X@X@X@X@X@X@X@X#X&X&X=X=X=X=X=X*X<X&X].Q.Q.E.].[.=X<X1X<X1X1X1X1X1X1X1X7X7X7XwXwXwXwXwXwXwXwXrXrXwXwXwXwXuXuXrX{.M.k.k.k.k.k.k.k.l.k.k.k.l.l.l.k.l.l.k.k.k.k.k.k.j.j.k.b.=X{.z.j.j.z.z.z.z.z.x.x.c.c.c.c.m.m.m.m.m.m.V.V.C.C.V.V.V.V.V.c.x.x.x.x.c.c.x.c.x.x.x.x.x.x.x.x.x.x.x.l.l.j.j.i.0.0.0.0.0.0.j.j.j.k.l.z.c.m.m.c.z.l.k.j.j.k.l.z.c.c.c.c.c.b.z.z.l.j.j.k.z.z.z.z.z.z.b.b.b.b.b.k.r.8.k.].1XwX6X6X1X1XwXwXwXwXwXwXeXeXeXwXtXyXcXmXmXyXtXtXtXwX7X1X%X%X=X*X<XwXeXeXeXeXwXwXwXwXwXwXwX6X6X7XwXeXtXxXxXtXwXwX7X1X1X1XwXtXtXyXxXxXyXtXtXxXxXeX1X=X1XwXyXNXMXmXxXyXmXMXZXZXCXCXMXMXMXMXZXZXCXCXCXFXFXGXGXGXFXmXxXtXeXeX7XeXxXMXMXcXxXeXeXeXeXeXeXxXxXcXxXcXcXcXmXMXMXMXMXmXcXcXcXcXxXeXeXeXeXeXeXeXeXeXeXeXtXxXxXcXnXnXnXnXnXzXlXfX@XL.:.{ G j j h j h g g g k k f f d d d f i r r r r r r r t t w w w w q q q q q 3 3 < - < - - - - - ",
"bXbXbXbXbXbXnXnXnXcXzXtXtX9X9X0X5X<X=X%X&X#X[.[.[.E.E.Q.Q.W.T.I.I.I.I.I.v.g.g.h.g.g.g.g.h.r.e.e.e.e.6.6.;.;.-.&.&.&.&.O.+.+.o.~ o.~ Q W W W o.o.o.+.o.W E R R R Y Q [ o.o.o.o.o.+.o.o.~ ~ ~ W ! R E W W W W W W W W W W W W ~ W [ o.+.+.+.+.o.} [ [ o.+.o.[ [ #.+.#.*.:.e.h.L.U.W.!.T.I.I.Y.T.W.E.].].@X].@X&X&X@X@X@X@X[.@X#X%X=X=X=X=X*X*X<X=X#XW.Q.W.Q.[.%X<X6X6X6X6X1X1X1X1X1X7X7X7XwXwXwXwXwXwXwXwXrXrXwXwXuXuXuXuXrX1X{.k.k.k.k.z.z.z.l.z.l.z.z.z.z.z.l.l.l.l.z.l.z.l.k.j.k.b.l.z.z.j.j.z.z.z.z.z.x.x.z.z.z.z.c.c.m.m.m.m.m.V.V.V.V.V.V.A.V.c.x.x.c.c.c.c.c.c.c.c.x.x.x.x.x.x.x.x.x.l.l.k.j.i.0.0.q.7.q.0.j.j.j.k.l.l.c.m.b.z.z.l.k.k.x.x.z.c.m.b.b.b.b.b.z.z.z.j.j.k.b.z.b.z.z.M.M.M.M.M.b.k.r.8.v.[.wXwX7X7XwXwXwXwXwXeXtXtXtXtXtXtXtXyXcXmXmXxXyXtXtXwX7X6X=X=X=X*X1XwXeXeXeXeXrXwXwXrXwXwXwXwXwXrXeXyXyXmXmXyXtXeXwX6X1X6XtXyXyXxXxXtX7XtXMXZXCXmXwX1X1XuXcXmXZXZXMXcXmXMXMXMXMXMXMXMXMXCXZXZXCXCXCXGXGXGXGXGXFXmXxXeXeXeX7XeXcXMXMXxXeXeX7XeXeXeXeXxXcXcXcXcXcXcXmXMXCXMXmXcXcXcXcXcXxXeXeXeXeXeXeXeXeXeXeXeXtXxXcXcXmXmXcXnXnXnXzXfX8XW.t.} G h j j j h g g g k k f f f f d f f i i r r r r r r r t w w w q q q q q q q < < < < < - - - ",
"bXbXbXbXbXbXnXnXnXnXzXtXtX9X9X0X5X<X=X%X&X#X[.[.].E.E.Q.Q.Q.T.I.I.I.I.n.v.g.g.h.g.g.g.g.h.r.e.e.e.e.6.4.;.-.-.-.&.&.&.&.O.+.o.o.o.o.W Q W ~ o.o.o.o.W W E R R Y R [ o.[ o.o.o.+.+.o.o.W W W W W W W W W W W W W W ~ o.[ [ [ ~ ~ [ o.+.+.+.+.+.} [ [ +.o.| [ o.#.$.-.:.>.e.g.I.E.E.I.I.Y.T.T.W.E.E.].].].].@X&X&X#X@X@X[.].[.&X&X%X%X&X=X=X*X<X<X%X].Q.Q.Q.].#X<X6X7X7X7X1X1X1X1X1X1X7X7XwXwXwXwXwXwXwXwXrXrXwXwXuXuXuXuXwXrX{.M.k.k.k.z.z.z.z.z.l.z.z.z.z.z.z.z.z.z.z.z.z.z.l.k.k.k.k.k.j.k.z.l.k.k.z.z.x.x.z.z.z.z.c.c.c.m.m.m.m.m.V.V.V.V.V.A.V.c.x.x.c.c.c.c.c.c.c.x.x.x.x.x.x.x.x.x.x.x.l.j.j.u.0.q.7.7.7.q.u.j.j.k.l.l.c.m.b.z.z.l.k.k.x.l.z.c.m.m.b.b.b.b.b.z.z.j.j.k.b.b.M.b.M.M.M.M.M.M.M.z.r.8.v.#XrXwX7X7XwXwXwXwXwXeXtXtXtXtXtXyXyXyXyXmXmXcXyXtXtXwX7X7X1X=X=X*X1XwXeXeXeXeXrXwXwXwXwX6XwXwXrXuXyXyXxXmXmXcXyXyXeXwX7XwXwXtXyXyXyXyXyXMXFXGXCXCXxXwXuXcXmXMXZXZXZXMXMXMXMXMXMXmXMXMXmXMXMXCXCXCXFXGXGXGXGXGXFXmXxXeXeXeXeXtXcXmXcXeXeX7XeXeXeXeXtXxXcXcXcXcXcXmXMXMXMXmXcXxXcXcXcXcXxXeXeXeXeXeXeXeXeXeXeXeXeXxXcXcXmXcXcXcXnXzXzX9X0X$XU.*.] h h h j j h g g k k f f f f f f d i i i r r r r r r t w w w q q q q q q q 3 < < < < - - - ",
"bXbXbXbXbXbXnXnXnXnXzXtXtX9X9X0X5X<X=X%X#X#X[.[.].E.Q.Q.Q.Q.T.I.I.I.I.n.n.g.h.g.g.g.g.g.h.r.e.e.e.e.6.4.;.-.-.-.&.&.&.&.O.O.+.o.o.o.~ W W o.o.o.o.o.W W R R R R W [ o.[ [ o.o.+.+.o.o.W W W o.o.[ ~ [ o.o.o.W W W W W W W W [ [ [ o.+.+.+.+.+.} | o.+.o.[ | #.$.-.e.e.e.e.L.T.E.W.I.I.T.W.W.E.].].].].].].].#X&X@X].].].].].[.@X&X&X%X=X*X*X<X<X=X].W.W.W.W.].=X6X7X7X7X7X6X1X1X1X1X7X7X7X7XwXwXwXwXwXwXrXrXuXuXuXuXuXuXrXwX=X`.v.v.z.z.z.z.z.z.z.l.z.z.z.z.z.z.z.z.z.z.b.b.b.z.k.k.j.u.u.k.z.k.k.k.z.z.z.x.z.z.z.z.c.c.c.c.m.m.m.m.V.V.V.V.A.A.V.c.c.x.c.c.x.x.x.x.x.x.x.x.x.x.x.x.x.x.b.x.l.k.j.u.0.q.7.7.7.q.0.j.j.j.l.z.z.c.b.m.z.l.k.k.x.l.x.c.m.m.m.m.m.m.M.b.z.j.j.k.z.b.M.M.M.M.M.M.M.M.M.b.r.r.Y.1XwXwXwXwXwXwXwXwXwXwXwXwXtXtXtXyXyXyXcXcXcXxXyXtXtXeXwX7X1X=X%X*X6XwXwXwXeXwXwXwXwX6X1X1XwXrXuXuXuXyXmXMXCXmXxXxXtXeXwXwXwXtXyXyXcXmXCXFXGXFXMXmX1XuXxXmXMXZXCXCXZXZXZXMXMXMXmXmXmXmXmXmXmXmXCXCXFXGXGXGXGXGXFXmXxXtXeXeXeXxXcXcXtXeXeXeXeXeXeXeXxXcXcXcXxXxXxXcXmXmXmXcXcXxXxXcXcXcXxXeXeXeXeXeXeXeXeXeXeXeXtXxXxXcXmXmXnXnXnXxXzXeX9X0X~.g.*.G h h j h j h g g g g f f f f f d i i i r r r r r r t w w w q q q q q q q q < < < < - - - ",
"bXbXbXbXbXbXnXnXnXnXzXtXtX9X9X0X5X<X=X%X#X#X[.].E.Q.Q.Q.Q.Q.T.I.I.I.I.n.v.g.h.g.g.g.g.h.h.r.e.e.e.e.6.;.;.-.-.-.&.&.&.&.&.O.+.+.+.o.~ ~ o.o.o.o.o.o.W W R R R R W [ [ [ o.o.+.o.o.o.o.o.o.W ~ o.+.+.O.O.+.o.W R R R W W W W [ [ } } +.+.+.+.+.o.| +.o.[ [ #.#.=.:.e.e.e.g.U.W.W.Y.I.Y.T.W.E.+X+X@X+X].].].].@X&X@X].[.].].].].[.&X&X#X%X=X*X<X<X&X#XE.W.Q.T.Q.#X<X7X7X7X7X6X1X1X1X1X7X7X7X7XwXwXwXwXwXwXrXrXuXuXuXuXuXuXrXwX1X{.M.v.v.z.z.z.b.l.z.l.z.z.z.z.z.z.z.z.z.z.b.b.b.b.l.l.k.j.j.j.k.l.k.k.l.z.z.x.z.z.z.z.c.c.c.c.m.m.m.m.V.V.V.V.A.V.V.c.c.x.c.c.x.x.x.x.x.x.x.x.x.x.x.x.x.x.b.x.l.l.j.i.0.0.7.8.7.7.0.i.j.j.l.z.z.c.m.m.z.l.k.k.l.l.x.c.m.m.m.m.M.M.M.b.z.j.j.k.z.b.M.M.M.M.m.M.M.M.M.b.r.k.].1XeXwXwXwXwXwXwXwXwXwXwXwXtXeXtXyXyXcXmXmXxXyXyXyXyXyXwX7X1X*X=X%X*X7X7X6X6X6X1X1X1X1X1X1XwXrXuXuXuXyXmXMXCXmXcXxXyXtXwXwXtXeXtXmXMXmXMXGXGXMXmXyXeXyXcXmXMXZXCXCXCXZXZXMXMXMXmXmXmXmXmXmXMXMXCXCXFXGXGXGXGXGXFXmXxXtXeXeXeXxXcXcXeXeXeXeXeXeXeXtXxXcXcXxXxXeXzXxXxXcXxXxXxXxXxXxXcXcXxXeXeXeXeXeXeXeXeXeXeXeXtXzXxXcXmXmXnXnXnXxXzXeXzX9X,XR.>.| U h h j j h g g g g f f f f f d i i i r r r r r r t w w w q q q q q q q q < < < - - < - ",
"JXbXJXJXbXbXbXbXnXnXzXtXtX9X9X0X5X<X%X%X&X#X[.].E.Q.Q.Q.Q.Q.T.I.I.I.I.n.n.v.g.g.g.g.g.h.h.r.e.e.y.e.6.6.;.;.;.-.-.&.&.&.&.&.O.+.O.+.o.o.o.o.o.o.+.o.[ W E W W W [ [ [ o.o.o.+.+.o.o.o.o.o.~ ~ o.o.+.O.O.+.o.W R R R W W E W W [ [ } +.+.#.+.+.+.o.+.o.[ o.#.$.-.e.e.e.t.L.Y.I.I.Y.Y.Y.W.E.].@X#X&X#X@X[.].].@X&X@X@X[.].].].].@X&X&X&X#X#X*X<X<X*X&X[.Q.Q.T.T.].=X6X7X7X7X7X7X7X1X1X6X7X7X7XwXwXwXwXwXwXrXrXwXwXuXuXuXuXuXrXrX1XT.v.v.b.z.z.b.b.z.z.z.z.z.z.z.z.z.z.z.z.b.b.b.b.b.b.k.k.j.j.j.j.k.k.l.z.z.x.z.z.c.c.c.c.c.c.m.m.m.m.V.V.V.V.A.A.A.V.c.c.c.x.x.x.x.x.x.x.x.x.x.x.x.x.x.c.b.b.x.l.l.j.i.0.0.7.7.7.7.0.j.j.l.z.z.c.m.m.z.l.l.l.l.z.z.c.M.M.M.M.m.m.M.b.z.j.j.k.z.b.M.b.M.M.M.M.M.M.b.k.8.v.#XwXyXwXwXwXwXwXwXwXwXwXwXwXeXeXtXtXyXcXmXmXxXyXxXxXxXyXeX7X1X*X*X=X=X6X7X6X1X1X1X1X1X1X1X1XwXrXuXuXeXyXmXMXCXmXcXxXyXtXtXtXtXyXxXyXcXCXZXZXZXMXcXcXmXmXmXMXZXZXCXZXZXZXZXZXCXMXMXMXMXMXCXCXZXZXCXCXFXGXGXGXGXGXFXMXxXzXtXtXxXcXcXxXeXeXeXeXeXeXtXxXxXcXxXxXeXeXeXeXzXxXxXzXeXeXxXcXcXcXxXeXeXeXeXeXeXeXeXeXtXtXzXzXxXcXcXcXcXcXxXxXzXzXtXzX9X$XL.*.E G h j j h j g g g f f f f f d d i i i i r r r r r r w w w w q q q q q q < 3 < < < < < ",
"JXbXJXbXbXbXbXbXnXnXzXtXtX9X9X0X5X<X=X%X&X#X[.E.E.Q.Q.W.W.W.T.I.I.I.I.n.n.v.g.g.g.g.g.h.h.r.e.e.y.e.6.6.;.;.;.-.-.-.&.&.&.&.O.O.O.O.+.o.o.o.o.o.+.o.o.W W W W W [ [ [ [ o.+.+.o.o.o.o.W W o.+.o.o.o.+.O.O.o.W R R E W W W W [ [ [ } +.#.#.+.+.+.+.o.o.o.+.$.*.:.e.e.e.h.L.L.L.I.Y.Y.Y.W.E.+X@X&X&X&X#X@X@X].@X&X@X@X@X].].].].@X@X@X@X@X#X=X<X<X<X=X#X].Q.T.T.Q.#X6X7X7X7X7X7X7X1X1X6X6X1X1XwXwXwXwXwXwXrXrXwXwXuXuXuXuXuXuXrX1X[.M.v.b.b.z.b.b.z.z.z.z.z.l.l.l.z.z.z.b.b.b.b.z.z.z.z.z.k.j.j.j.j.k.l.z.l.x.z.x.x.z.c.c.c.c.c.m.c.m.m.V.V.V.A.A.A.V.D.c.c.x.x.x.x.x.x.c.x.x.x.x.x.x.x.c.b.b.x.x.l.l.i.0.0.7.7.7.7.0.j.j.l.z.z.c.m.m.z.l.l.l.l.z.z.c.M.M.M.M.m.m.M.m.z.j.j.k.b.b.M.M.M.M.M.M.M.M.z.k.8.n.=XuXeXwXwXwXwXwXwXwXwXwXwXwXeXeXtXtXyXxXcXcXcXcXcXcXcXyXeX6X<X*X*X1X1X1X7XwXwXwXwX6X6X6X1X6XwXwXuXuXyXyXmXMXMXmXcXxXyXtXtXyXyXyXyXmXCXCXZXGXFXcXyXmXZXmXmXMXZXZXZXZXZXZXZXZXCXCXCXCXZXZXZXZXZXZXCXCXFXGXGXGXGXGXFXMXxXzXxXxXxXcXcXxXeXeX7XeXeXeXxXxXxXxXxXeXeXeXeXeXeXeXeXeXeXeXxXxXxXcXxXeXeXeXeXeXeXeXeXeXtXtXzXzXxXcXcXcXcXcXxXxXzXtXtXzXqX5XR.h.} U G h j h j g g g f f f f f d d i i i i r r r r r r w w w w q q q q q q 3 3 < < - < - ",
"bXbXbXbXbXbXbXbXvXvXzXtXtXqX9X0X5X<X%X%X#X#X~.E.E.Q.Q.W.W.W.Y.I.I.I.I.n.n.g.g.g.g.g.g.h.h.h.e.e.e.e.e.6.4.;.;.-.-.-.&.&.&.&.O.O.O.O.o.o.~ o.o.o.o.o.~ W W W W [ [ [ [ [ o.+.+.+.+.o.~ W W o.+.+.+.+.o.+.+.o.[ E R E [ } [ [ [ W [ } +.O.#.#.#.+.+.+.o.+.$.=.;.e.e.e.e.h.g.L.I.T.T.T.T.W.].[.#X%X&X%X#X@X[.[.@X#X@X[.].].].].].+X].+X@X@X#X=X*X5X5X*X%X@XE.Q.T.W.#X6X7X7X7X7X7X1X1X1X1X1X6X7X7X7XwXwXwXwXwXwXeXeXeXyXyXyXyXyXuXwX1XT.v.b.b.b.b.z.b.z.z.z.z.z.b.b.b.b.b.b.b.b.z.z.z.z.z.z.z.k.j.j.j.k.z.k.k.k.c.k.z.c.c.c.c.c.c.c.c.m.m.m.V.A.A.A.A.V.m.c.x.x.x.x.x.x.x.x.x.x.c.c.c.c.c.c.b.b.b.x.x.l.j.0.7.7.7.7.7.0.j.j.l.x.z.c.m.m.z.z.l.l.l.z.z.m.m.m.m.m.m.M.M.M.b.k.j.k.b.m.m.m.M.M.M.M.M.M.k.r.r.Y.wXuXyXwX7XwXwXwXwXwXwXwXwXwXwXtXeXeXtXxXmXcXcXcXcXcXcXyXeX6X<X=X*X1X1X1X1X7XwXwXwX1X6XwXwXwXwXwXeXtXyXxXmXMXMXMXcXxXyXeXtXyXxXyXcXMXZXZXCXZXmXxXcXmXZXmXmXMXZXZXZXZXZXZXCXMXMXMXCXCXCXCXZXZXZXZXCXCXFXGXGXGXGXGXZXbXcXxXxXxXxXcXcXxXeXeX7X7XeXtXxXxXtXeXeXeXeXeXeXeXeXeXeXeXtXtXtXxXxXxXtXeXeXeXeXeXeXeXeXeXtXtXzXxXcXcXcXcXcXxXxXxXzXtXzXtXzX9X2XU.:.{ G G G G h h g g g g k f f f d d d i i r r r r r r t t w w q w q q q q 3 q < < - < - ",
"bXbXbXnXbXnXbXbXvXvXzXzXtXqX9X0X5X<X%X%X#X#X[.E.E.Q.Q.W.T.T.Y.I.I.I.I.I.n.g.g.g.g.g.g.h.h.h.e.e.e.e.e.6.4.;.-.-.-.&.&.&.&.&.&.&.&.O.o.~ ~ o.o.o.o.o.~ W W o.o.o.[ [ [ [ [ +.+.O.O.+.o.~ o.+.+.O.O.O.+.o.o.o.o.} [ [ } o.} [ [ [ [ o.O.O.O.#.#.+.+.+.#.$.&.-.>.e.e.e.g.g.L.I.T.E.].].].].#X%X=X<X=X&X#X#X#X#X@X[.[.].].].].].].+X].+X+X@X#X#X*X*X5X*X%X&X].Q.T.T.[.1X7X7X7X7X7X1X1X1X1X1X1X7X7X7XwXwXwXwXwXwXeXeXeXuXyXyXyXyXyXyX6X].M.b.z.b.b.z.b.z.z.z.z.z.b.b.b.b.b.b.z.z.z.z.z.z.z.z.z.z.z.k.j.j.k.z.x.c.j.z.z.z.c.c.z.z.z.z.c.m.m.m.V.V.A.A.A.V.m.c.c.x.x.x.x.x.x.x.x.x.c.c.x.c.c.c.b.b.b.b.x.l.j.0.7.7.7.7.7.0.j.j.l.x.z.z.m.c.z.l.l.l.l.z.m.m.m.m.m.m.m.M.M.m.M.k.j.k.b.b.m.M.M.M.M.M.M.M.k.r.v.`.uXuXuXwXeX7XwXwXwXwXwXwXwXwXwXeXeXeXtXcXMXmXcXxXcXcXcXyXwX6X*X=X*X<X1X1X6X6X7XwX7X1X1XwXeXuXeXeXeXeXyXxXmXMXMXMXcXxXyXyXyXtXtXmXMXmXCXCXmXwXwXmXZXCXZXMXMXMXZXZXZXZXZXZXCXMXMXMXCXCXCXCXCXZXZXZXCXCXFXGXGXGXGXGXCXcXxXxXxXxXxXxXcXxXeXeX9XeXeXeXxXtXtXeXeXeXeXeXeXeXeXeXeXeXtXtXxXxXxXxXtXeXeXeXeXeXeXeXeXeXtXtXzXxXcXcXcXcXxXxXnXzXtXeXeXeXlXfX8X!.h.$.I G G G h h g g g g k f f d d d d i i r r r r r r t t w w w w q q q q 3 q < < - < - ",
"bXbXbXvXbXnXbXbXbXvXzXzXtXqX9X0X5X<X%X%X#X#X[.E.E.Q.Q.W.T.T.Y.I.I.I.I.I.I.n.g.g.g.g.g.h.h.h.e.e.e.e.y.e.6.;.;.-.&.&.&.O.O.&.&.O.%.o.+.+.o.o.o.o.o.o.~ W o.o.o.W W W W o.o.+.O.O.O.O.o.o.+.+.+.O.O.O.+.o.[ [ +.+.o.} +.o.} [ [ [ [ o.O.$.O.#.O.#.#.$.O.=.-.;.e.e.t.g.g.I.Y.T.E.].#X[.[.#X%X=X<X1X<X=X=X%X%X#X&X@X].].].].].].].].].].@X@X&X%X&X*X*X*X&X&X].W.T.Y.Q.=X7X7X7X7X7X1X7X1X1X1X1X1X7X7XwXwXwXwXwXwXeXeXeXuXyXyXyXuXyXyXwX<XT.v.b.b.M.z.z.b.z.b.b.b.b.b.b.b.z.z.b.b.z.z.b.z.m.m.z.z.z.z.k.j.j.k.z.c.j.z.z.z.z.z.z.z.z.z.c.m.m.m.V.V.A.A.A.V.V.c.c.c.x.x.x.x.x.x.c.c.b.b.c.c.c.c.m.m.m.b.x.l.j.0.0.0.q.7.q.0.j.j.l.z.z.b.m.m.z.l.l.l.z.m.m.m.C.m.M.M.m.m.m.M.M.z.k.k.b.M.M.M.M.M.M.M.M.M.k.8.n.=XyXuXyXeXeXeXwXwXeXeXeXeXwXwXeXeXeXeXtXcXMXmXcXcXcXcXcXyXwX6X*X=X*X<X1X7X7X7X6X1X1X1X6XwXyXyXyXyXtXyXxXmXmXmXmXmXcXxXyXtXtXmXMXmXmXmXcXyXtXyXmXmXCXZXZXCXMXMXZXZXZXZXZXZXCXMXCXCXCXCXCXCXCXZXZXZXCXCXFXGXGXFXFXZXMXxXzXzXzXxXxXxXcXcXxXeXeXeXeXxXxXxXtXtXeXeXeXeXeXeXeXeXeXeXtXtXxXxXxXxXtXeXeXeXeXeXeXeXeXeXtXzXzXxXcXcXcXcXzXtXzXzXeXeXeXeXlXfXfX-XU.>.{ U G G G h h g g g g k k f f d d i i r r r r r r t t w w w q q q q q 3 q < < - < - ",
"bXvXbXvXvXvXvXvXvXnXzXtXtX9X9X0X5X<X=X%X#X[.E.E.Q.Q.W.W.T.T.Y.I.I.I.I.I.I.n.g.g.g.g.g.h.h.h.e.e.e.e.y.e.6.;.;.-.&.&.O.O.+.o.+.o.o.o.o.o.o.o.o.o.o.o.o.~ o.~ W R E W [ o.o.+.O.O.O.O.O.+.+.O.+.O.O.O.+.o.o.o.o.o.+.+.+.o.} [ [ W } o.O.O.O.O.O.O.$.=.=.-.-.:.e.t.g.I.I.T.W.E.].@X#X#X[.#X%X=X<X<X<X<X1X1X<X%X#X@X[.].].].].].].].].+X@X#X&X#X&X&X=X&X%X&X].Q.T.I.T.#X7X7X7X7X7X1X7X1X1X1X1X1X7X7XwXwXwXwXwXwXeXeXeXuXyXyXyXuXuXyXwX6X[.n.b.b.M.z.z.b.z.b.z.b.b.z.b.b.z.z.b.b.z.z.z.z.m.m.m.b.z.z.z.k.j.j.M.>XiXc.z.z.z.c.z.z.z.z.c.c.c.m.m.V.V.A.V.V.V.c.c.c.x.x.x.x.x.x.c.c.b.b.c.c.c.c.m.m.m.b.x.l.j.0.0.0.q.7.7.0.j.j.l.z.z.c.m.m.z.l.l.z.z.m.m.C.C.C.M.M.M.m.m.C.M.z.k.k.b.M.M.M.M.M.M.M.M.M.7.r.T.1XuXyXtXeXeXwXeXwXeXeXeXeXwXwXeXeXeXeXtXcXmXmXcXcXcXcXcXtXwX6X*X=X*X<X1X1X7X7X6X1X1X1X7XtXyXyXxXyXyXyXxXcXcXmXmXcXcXxXyXyXxXcXmXmXmXcXyXyXxXmXCXCXZXZXZXCXMXMXCXZXZXZXZXZXCXMXCXCXCXCXCXCXCXZXZXZXCXCXFXFXCXCXCXCXcXzXtXtXtXzXxXxXcXcXxXtXeXeXeXxXxXtXtXtXyXyXyXtXeXeXeXeXeXeXeXtXxXxXxXxXeXeXeXeXeXeXeXeXeXeXtXzXzXzXcXcXcXzXzXtXlXlXeXeXeXeXlXlXfX5X!.L.$.U D D G h h g g g g k k f f d d i i r i r r r r t t w w q q q q q q q q < < - < - ",
"bXvXbXbXvXnXnXzXnXnXzXtXtX9X9X0X5X<X=X%X#X[.E.E.Q.Q.W.R.T.T.T.Y.I.I.I.I.I.n.v.g.g.g.g.h.h.h.r.e.e.e.y.e.6.4.;.;.&.&.O.+./ ~ o.o.+.+.+.o.o.o.+.+.+.+.o.o.o.o.W W W W [ o.o.+.O.O.O.O.O.O.O.O.O.O.O.O.+.+.+.+.+.+.+.+.+.o.o.o.o.o.o.+.O.O.O.O.O.$.&.=.;.;.;.e.e.g.I.T.W.W.].@X&X%X#X#X#X%X=X*X*X*X<X1X6X7X6X*X%X#X[.].].[.[.[.[.[.[.[.@X@X&X&X&X&X=X=X%X#X[.W.T.I.I.@X6X7XwX7X7X7X7X1X7X7X1X1X7X7X7XwXwXwXwXeXyXyXyXyXyXyXyXyXyXyXyXwX=XT.M.M.M.b.z.z.z.z.b.b.b.b.z.z.z.z.b.b.b.z.b.M.m.m.b.m.m.z.c.z.k.j.G.pXiXXXc.c.c.c.c.c.c.m.m.c.c.c.c.m.V.V.V.V.V.V.c.c.x.x.x.c.c.c.b.b.c.c.c.c.c.c.m.m.m.m.x.l.j.0.0.0.q.7.0.0.j.j.l.z.z.c.c.c.z.l.l.x.c.m.m.m.V.m.M.M.M.M.M.M.M.b.k.l.b.m.C.M.M.M.M.C.M.z.7.k.[.uXyXyXyXtXtXeXeXwXwXwXtXtXtXtXtXtXeXeXyXcXmXcXcXcXcXcXcXeXwX6X*X=X*X<X1X1X6X7X7X6X7X6XwXwXtXyXyXyXxXyXxXxXcXcXcXcXcXxXxXxXxXxXcXcXxXyXxXcXmXMXZXZXZXZXCXCXMXCXCXZXZXZXZXCXCXMXCXCXCXCXCXCXCXZXZXCXCXCXCXCXCXCXCXCXcXzXtXtXtXtXzXzXxXxXxXxXxXtXzXxXtXeXzXzXxXxXxXyXeXeXeXeXeXeXeXxXxXxXxXxXeXeXeXeXeXeXeXeXeXeXtXzXzXzXxXxXzXtXtXtXeXeXeXeXlXlXlXlXfX8X-XW.>.[ G H G G j h g g g k f f f d f d d i i r r r r r r t t w w q q q q q q 3 3 < < < ",
"vXvXbXvXvXnXzXzXnXzXzXqXqX9X9X0X1X<X=X%X#X[.E.Q.Q.W.R.T.T.T.T.Y.I.I.I.n.I.n.v.g.g.g.g.h.h.h.h.r.e.e.y.e.6.4.;.;.-.&.O.o./ ~ o.+.O.O.O.O.O.O.O.O.O.O.O.+.+.+.o.o.o.o.o.o.o.+.O.O.O.=.O.O.O.O.O.O.O.O.O.O.+.+.+.+.+.+.+.o.+.o.o.o.+.+.O.O.O.&.&.&.=.-.;.e.e.h.g.I.T.E.E.E.@X&X<X<X#X#X=X=X=X*X*X*X=X*X1X6X7X6X<X%X[.].].[.#X@X@X#X#X#X#X#X&X%X&X&X=X=X%X&X@X].T.I.I.].<X7XwX7X7X7X7X1X7X7X1X1X7X7X7X7XwXwXwXeXyXyXyXyXyXyXyXyXyXuXyXuX1X].Y.M.M.b.M.M.M.b.M.M.M.M.z.z.z.z.b.b.b.z.M.M.m.m.b.b.m.m.c.c.z.k.M.`.>XiXiXc.z.z.c.c.m.C.V.V.m.c.c.m.V.V.V.A.V.V.c.c.x.x.x.c.c.c.b.b.c.c.c.c.c.c.m.m.m.m.b.l.k.i.0.0.q.7.0.0.j.j.l.z.z.c.c.c.z.z.x.z.m.m.m.m.m.m.C.C.C.C.M.M.M.b.k.z.m.m.C.M.M.m.M.M.M.k.r.Y.=XuXyXyXyXtXtXeXeXeXwXwXtXtXtXtXtXtXeXtXxXmXmXcXcXcXcXcXcXeX7X1X*X=X*X<X<X1X1X7X7XwXwX7XwXtXyXyXtXtXyXxXxXxXxXxXcXcXcXcXxXcXxXxXxXxXyXcXmXmXMXMXCXZXZXZXCXMXMXmXCXCXCXCXCXCXCXMXCXCXCXCXCXCXCXZXZXZXZXZXZXZXCXCXZXCXMXxXzXtXeXeXtXtXtXxXxXxXtXeXeXeXeXeXeXtXxXxXxXyXeXeXeXeXeXeXxXxXxXxXxXxXeXeXeXeXeXeXeXeXeXeXtXtXzXzXzXzXzXtXtXtXeXeXeXeXlXlXlXlXfX9X8X-Xh.*.{ F G G j h g g g k k f f d f d d i i r r r r r r t t w w q q q q q q q 3 < < < ",
"vXvXvXvXbXvXzXzXzXzXtXqXtX9X9X0X<X<X%X%X#X[.E.Q.Q.W.R.T.T.T.T.T.Y.I.I.I.I.n.v.v.g.g.g.h.h.g.h.h.e.e.e.e.6.;.;.-.&.&.O.+.o.o.+.O.&.&.&.O.O.O.O.O.O.O.O.O.O.O.O.O.+.+.+.o.+.+.O.O.=.=.O.O.=.&.&.&.&.&.O.O.O.O.O.O.+.+.#.+.+.+.+.+.O.O.$.$.&.=.-.-.;.6.e.t.g.I.T.E.[.@X[.&X=X*X<X=X#X%X=X<X*X*X*X*X%X=X*X1X6X7X6X=X#X[.[.#X#X#X%X%X%X%X=X=X&X&X=X=X=X=X&X&X&X[.Q.I.I.W.=X7XwX7X7X7X7X6X7X7X1X1X7X7X7X7XwXwXeXeXyXyXyXyXyXyXyXyXyXyXyXyXrX=X`.M.M.M.M.M.M.M.M.M.M.M.M.M.M.M.M.M.M.M.M.M.M.M.m.m.m.m.c.c.c.z.k.m.`.pXiXc.z.z.c.m.C.C.V.V.V.V.V.V.V.V.V.V.A.A.V.c.x.x.c.c.c.c.c.c.c.c.c.c.m.m.m.m.m.m.b.b.l.i.u.0.0.q.0.0.j.j.l.z.c.c.m.m.c.z.z.m.m.m.C.C.C.C.C.C.C.C.M.M.M.b.l.z.M.M.M.M.M.b.M.M.b.r.r.].uXmXxXyXyXtXtXtXtXtXwXeXeXtXeXtXtXtXeXxXcXmXmXcXcXcXcXcXcXeX7X1X*X=X=X*X<X1X1X7XwXwXwXeXtXyXyXyXtXtXyXxXxXxXcXcXxXcXcXcXcXcXcXcXcXcXcXmXMXCXZXCXCXMXmXmXmXmXmXmXCXCXCXmXmXmXMXCXCXCXCXCXCXCXCXZXZXZXFXFXGXGXFXFXFXZXMXxXzXtXeX9XeXeXeXeXxXxXeXeXeXeXeXeXeXtXxXxXzXeXeXeXtXtXtXxXcXcXcXxXxXxXeXeXeXeXeXeXeXeXeXeXtXzXzXzXzXzXtXtXtXtXzXzXzXzXlXlXlXlXeX9X9X8XW.t.#.G G G j h g g g g g k k f f f d d i r r r r r r r t w w w w q q q q q q < < < ",
"vXvXvXvXbXvXnXzXzXzXtXqXtX9X9X0X5X<X=X%X#X[.E.Q.Q.W.R.T.T.T.T.T.Y.I.I.I.I.n.n.v.g.g.g.h.h.g.h.h.r.e.e.e.6.6.;.-.&.&.O.+.%.+.O.O.O.O.O.O.O.O.O.O.O.O.O.O.&.&.O.O.+.+.+.+.+.+.O.O.=.&.&.O.&.&.&.&.&.&.=.$.$.O.O.O.O.+.#.+.+.+.+.O.O.O.=.=.=.-.;.>.e.h.h.g.I.T.E.@X&X@X[.&X&X*X*X&X%X&X=X<X*X*X*X*X%X%X=X*X6X7X7X5X&X#X#X#X&X%X&X&X=X=X=X=X=X=X=X=X=X=X&X&X%X@XQ.Y.Y.Q.#X6X7X7X7X7X7X6X6X6X1X1X7X7X7X7XwXwXeXeXyXyXyXyXyXyXyXyXyXyXyXuXuX1X#XY.M.M.M.M.M.M.M.M.M.M.M.M.M.M.M.M.M.M.M.M.M.M.m.m.m.m.c.c.c.c.c.z.M.M.m.c.c.c.m.m.C.C.V.V.V.V.V.A.V.V.V.V.A.A.V.c.c.c.c.c.c.c.c.c.m.m.m.m.V.m.m.m.m.m.b.b.l.j.u.0.0.7.0.0.j.j.l.z.c.c.m.m.c.z.z.m.m.C.C.C.C.C.C.C.C.C.M.M.M.b.z.b.M.M.M.m.M.b.M.M.z.8.k.#XuXNXyXyXyXtXtXtXeXtXeXeXeXwXeXtXtXtXtXxXmXmXcXcXcXcXcXcXcXeX7X1X*X=X=X*X<X1X1X7XwXwXtXtXyXyXtXtXyXxXxXcXcXcXcXcXcXcXcXcXcXcXcXcXcXcXmXMXZXZXZXZXMXmXmXMXmXmXmXmXMXCXMXmXmXmXmXMXCXCXCXCXCXCXCXZXZXZXFXFXGXGXGXGXFXZXMXxXzXeX9X9X9XeXeXeXeXeXeXeXeXeXeXeXeXxXzXzXzXeXeXeXxXxXxXxXcXcXcXcXxXxXeXeXeXeXeXeXeXeXeXeXtXzXzXzXzXzXtXtXtXtXzXzXzXzXeXlXlXeXeX9X9X9X$XU.>.{ G G h h g g g g g k k f f f d d i r r r r r r r r w w w w q w q q q q < < < ",
"bXvXbXvXbXvXzXzXzXzXzXqXqXqX9X0X5X<X,X&X#X[.E.Q.Q.W.R.T.T.T.T.T.Y.I.I.I.I.n.n.g.g.g.g.g.h.g.g.h.r.e.e.e.6.6.;.-.&.&.+.o.+.+.O.O.O.O.&.&.O.O.O.O.O.O.O.O.O.O.O.+.+.+.o.o.+.+.O.O.&.&.&.&.&.&.=.&.&.&.O.O.O.O.O.O.O.O.+.+.+.+.+.O.O.O.=.;.e.e.e.I.Y.g.g.I.T.E.[.@X@X@X[.@X#X=X*X=X#X=X*X<X<X*X*X*X=X=X=X*X1X6XwX7X<X%X#X#X&X%X%X%X%X%X%X=X=X=X%X%X%X&X&X%X%X#XQ.T.T.T.].;X7X7X7X7X6X6X7X7X7X7X7X7X7X7XwXwXwXtXtXtXtXtXtXyXyXuXuXuXyXuXuXrX=X`.M.M.M.M.M.M.M.M.M.M.M.M.m.m.M.M.M.M.M.M.M.M.M.M.m.m.m.m.m.b.c.x.x.x.x.z.z.m.m.m.C.C.C.C.C.V.V.V.C.C.C.C.C.C.A.V.c.c.c.c.c.c.c.c.m.m.m.m.m.m.m.m.m.m.m.b.l.j.i.0.0.0.0.u.i.l.x.c.c.m.m.m.c.c.c.c.V.C.C.C.C.C.C.C.C.M.M.M.C.b.z.z.M.M.M.M.M.M.M.M.k.8.Y.=XyXmXyXyXyXyXtXtXeXeXeXeXeXeXtXtXtXeXeXxXmXmXmXmXmXmXmXmXxXeX7X1X*X=X=X*X*X1X6X7XwXeXtXtXyXyXtXyXxXcXmXcXcXcXcXcXcXcXcXcXcXcXmXmXmXMXCXCXCXFXFXCXCXCXCXCXMXcXmXMXCXCXMXMXMXMXMXCXCXCXCXCXCXCXCXCXZXFXFXFXGXGXGXGXZXCXcXxXtXeX7X7XeXeXeXeXeXeXeXeXeXeXeXeXeXtXeXeXeXeXtXzXxXxXxXcXcXcXcXcXxXeXeXeXeXeXtXeXeXeXeXeXtXzXzXzXxXzXzXzXzXzXlXlXeXtXzXlXlXeXeX9X9XfXdX!.L.=.{ G h h g g g g g k f f f f f i i i i i r r r r r w w w w w w q q 3 3 3 < < ",
"bXvXbXvXbXvXzXzXzXzXzXtXqXqX9X0X5X<X,X&X#X[.E.Q.Q.W.R.T.T.T.T.T.Y.I.I.I.I.I.n.g.g.g.g.g.h.g.g.h.r.e.e.e.6.;.;.-.&.&.O.%.+.+.O.O.O.O.&.&.O.O.O.O.O.O.O.O.O.+.o.o.+.+.+.+.+.O.O.O.=.&.&.&.&.O.O.$.&.&.O.O.O.O.O.O.O.O.+.+.+.+.O.O.O.$.=.-.e.g.I.I.L.L.I.T.E.@X&X@X&X&X&X&X#X=X*X=X#X=X*X<X<X<X<X*X*X*X*X*X1X6X7X7X6X*X%X%X%X%X%X%X%X%X%X=X=X=X%X=X*X*X=X*X=X#X].Q.T.T.Q.*X7X7X7X7X6X6X7X7X7X7X7X7X7X7XwXeXeXtXtXtXtXtXtXyXyXuXuXuXyXyXuXuXrX{.Y.M.M.M.M.M.M.M.M.M.M.M.m.m.M.M.M.M.M.M.M.M.m.m.m.m.m.m.m.b.c.c.c.c.z.j.x.x.c.c.m.C.C.C.C.C.C.C.C.C.C.C.C.C.A.V.m.c.c.c.c.c.c.c.m.m.m.m.V.V.C.V.C.m.m.b.x.l.j.i.0.0.0.u.i.l.x.c.c.c.m.c.c.c.c.c.V.C.C.C.C.C.C.C.C.M.M.C.M.b.b.z.M.M.M.M.M.M.M.b.k.r.].wXxXxXyXyXyXyXtXtXeXeXeXeXeXeXtXtXtXeXtXxXmXmXmXmXmXmXmXxXeXwX7X1X*X=X=X*X*X1X6XwXwXeXtXtXyXyXyXxXcXmXmXmXmXmXcXcXcXcXcXcXmXmXmXmXMXCXCXCXCXCXFXFXFXFXZXCXCXMXMXMXCXCXCXMXCXMXMXCXCXZXCXCXCXCXCXCXZXFXFXFXFXGXGXFXCXCXcXyXtX7X7X7X7XeXeXeXtXeXeXeXeXeXeXeXeXeXeXeXtXtXtXxXxXxXxXcXcXcXcXcXxXeXeXeXeXtXxXtXeXeXeXeXtXzXzXzXxXzXzXzXzXzXlXlXeXeXzXzXzXeXlX9X9X9X8X-XU.t.} I G h g g g g g k f f f f f i i i i i r r r r r w w w w w w q q 3 3 3 < < ",
"bXvXbXbXbXvXzXzXzXzXtXtXqXqX9X0X5X<X%X&X#X[.E.Q.W.W.T.T.T.T.T.T.Y.Y.I.I.I.I.n.n.n.n.v.g.g.g.g.h.r.e.e.6.6.;.;.&.&.&.O.+.+.O.+.+.+.O.O.O.O.O.O.O.O.O.O.+.+.o.o.o.o.o.+.O.O.O.=.&.&.&.&.&.&.$.$.$.&.=.O.O.O.O.O.O.O.O.O.+.+.O.O.O.&.-.;.e.h.I.Y.I.Y.W.+X+X@X&X%X%X*X*X*X&X#X=X*X=X#X=X*X1X1X<X1X1X1X1X1X1X1X6X7XwX7X1X=X%X%X%X%X%X%X%X=X%X=X=X<X*X<X<X<X5X<X%X[.W.T.I.T.*X7X7X7X7X7X7X7X7X7X7X7X7XwXwXwXtXtXtXtXtXtXtXtXyXyXuXuXuXyXyXyXyXuX=X`.M.M.M.M.M.M.M.M.M.M.M.M.M.M.M.M.M.M.M.m.m.m.m.m.m.M.M.M.M.m.m.m.c.z.k.j.x.x.c.c.m.V.C.C.C.C.C.A.C.A.A.C.C.C.V.V.c.c.c.c.c.c.c.m.m.m.V.C.C.C.C.C.C.C.m.b.l.k.i.0.0.0.u.i.l.x.c.c.m.V.m.c.c.c.c.V.C.C.C.C.C.C.C.C.C.C.C.M.m.z.M.M.M.C.M.M.M.M.z.k.k.=XyXyXyXxXxXyXtXtXtXtXtXtXtXeXeXtXtXyXtXyXxXcXmXmXmXmXmXmXyXrX6X6X1X*X=X=X=X*X1X6XwXeXtXtXyXxXcXxXcXMXMXMXmXmXmXmXmXmXmXmXmXmXmXmXMXCXCXFXCXCXCXCXCXFXFXZXCXCXMXMXMXCXCXCXCXCXCXCXCXZXZXCXCXCXCXCXCXFXFXFXFXFXGXGXFXCXMXcXyXeX7X6X6X7XeXeXtXxXeXeXeXeXeXtXeXeXeXeXeXeXtXtXxXxXxXxXcXcXcXcXxXeXeXeXeXeXtXxXxXeXeXeXeXzXzXxXxXxXxXxXzXzXzXzXzXtXtXzXzXtXzXzXeX9X9X9X8X~.I.:.] G h g g g g g k k f f f f f d i i i i i i r r r e e w w w q q q q < < < ",
"vXzXbXzXvXvXzXzXzXzXtXqXqXqX9X0X5X<X%X&X#X[.E.Q.W.T.T.T.T.T.T.T.Y.Y.I.I.I.n.n.n.n.n.n.g.g.g.g.h.r.e.e.6.;.;.-.&.&.O.+.%.%.o.+.+.+.+.O.O.O.+.+.O.O.+.+.+.o.o.o.o.o.+.O.O.O.$.&.=.=.=.&.&.-.=.O.$.$.O.O.O.O.O.O.O.O.O.O.+.O.O.O.O.&.e.t.g.E.W.W.E.&X%X&X@X#X&X%X<X*X&X&X&X#X=X*X=X#X=X*X1X1X1X1X6X6X6X6X6X6X1X7XwXwX6X<X=X=X=X%X%X%X%X=X%X=X=X<X<X<X<X5X5X1X=X[.W.T.I.T.&X6X7X7X7X7X7X7X7XwXwXwXwXwXwXeXeXtXtXtXtXtXtXtXtXyXuXuXuXyXyXyXyXuX1X{.Y.M.M.M.M.M.M.M.M.M.M.M.M.M.M.M.M.M.m.m.m.m.m.m.m.M.M.M.M.m.m.m.m.m.c.z.x.x.z.c.c.m.V.C.C.C.C.A.A.A.A.C.C.C.A.V.m.c.c.c.c.c.c.m.m.m.V.C.C.C.C.C.C.C.m.b.x.l.j.u.0.0.u.i.l.l.c.c.m.V.m.m.c.c.m.V.C.A.C.C.C.C.C.C.C.C.C.C.m.z.M.M.M.C.M.M.M.b.k.k.n.1XyXyXyXxXyXyXtXtXtXtXtXtXtXtXtXyXyXyXtXyXxXcXmXmXmXmXmXxXyXwX6X6X6X*X=X=X=X=X1X6XwXeXtXtXyXyXcXcXmXMXMXMXmXmXmXmXmXmXmXmXMXMXMXMXCXCXFXFXCXCXCXCXCXCXFXCXCXMXmXMXMXCXCXCXCXCXCXCXCXZXZXCXCXCXCXCXCXFXFXFXFXFXGXGXFXCXMXnXtX7X6X6X6X7XeXeXeXxXeXeXeXeXeXzXtXeXeXeXeXeXeXtXxXxXxXxXxXxXxXxXzXeXeXeXeXeXxXxXxXtXeXeXeXzXxXcXcXxXxXzXzXzXzXzXzXtXtXlXzXtXtXzXeX9X9X9X8X3X!.t.[ G h g g g g g k k f f f f f d i i i i i i r r r e e w w w q q q q < < < ",
"nXzXvXvXvXvXzXzXzXzXtXqXtX9X9X0X5X<X,X&X@X[.~.Q.W.T.T.Y.Y.Y.Y.Y.Y.Y.I.I.I.I.I.I.I.n.n.g.g.g.h.h.e.e.e.;.;.-.-.&.&.O.+.o./ / o.+.O.+.O.O.O.+.O.O.O.+.+.+.+.+.+.+.+.O.O.O.&.-.;.;.;.-.-.-.-.-.O.O.$.O.O.O.O.O.O.O.O.O.O.%.+.O.O.-.e.g.T.Q.].].].&X*X<X&X&X&X%X=X&X%X&X%X%X%X%X%X%X%X=X*X<X1X1X6X7XwXwXwXwX6X1XwXwX7X7X1X1X<X=X%X#X%X%X=X=X=X=X<X<X<X<X<X6X1X=X#XQ.T.Y.Y.@X6X7XwXwXwXwXwXwXwXwXwXwXwXwXwXtXtXtXtXtXtXtXyXyXyXyXyXyXyXyXyXyXuXuX=X`.Y.M.M.M.M.M.M.M.M.M.M.M.M.M.M.M.M.M.M.M.M.M.M.M.m.m.m.m.m.m.M.M.M.m.c.z.x.x.x.c.m.V.C.C.C.C.C.C.C.C.C.C.C.C.V.V.m.c.c.c.c.c.c.m.m.V.C.C.C.C.C.C.C.C.b.x.l.j.u.0.0.0.j.l.x.c.m.V.V.V.m.m.m.m.C.C.C.C.C.C.C.C.C.C.C.C.M.b.z.M.C._._.M.M.M.M.r.k.T.uXyXxXxXcXxXyXyXyXtXtXtXtXtXtXtXeXeXeXtXyXxXmXmXmXmXmXcXxXeXrXwX6X1X*X=X%X%X=X1X7XwXeXtXtXyXxXcXmXmXMXMXmXmXMXmXmXmXmXmXMXMXMXCXCXCXCXFXCXCXCXCXCXCXFXFXCXCXMXmXMXCXCXZXCXCXCXCXCXCXZXZXCXCXCXMXCXCXFXFXFXFXGXGXGXFXCXMXcXtX9X6X6X6X7XeXeXtXxXeXeXeXeXeXeXeXeXeXeXeXeXeXeXxXxXxXxXxXxXxXxXxXeXeXeXeXeXxXxXxXtXeXeXeXxXcXcXcXcXxXzXzXzXzXxXxXzXzXtXtXzXzXzXzXeXeX9XfXdX-XU.:.{ G g g g g g g g g g f f f d i i i i i i r r r r e w w w q q q q q < < ",
"zXzXnXzXvXnXzXzXzXzXtXqXtX9X9X0X5X<X,X&X@X[.~.Q.W.T.T.Y.Y.Y.Y.Y.Y.I.I.I.I.I.I.I.I.I.n.v.g.h.e.e.e.e.6.;.-.-.-.&.&.O.+.+.+.+.O.O.O.O.O.O.O.O.O.O.O.O.O.O.O.O.O.O.O.&.-.-.;.;.>.e.6.;.;.;.6.;.-.&.O.O.O.O.&.O.O.O.O.O.O.%.O.-.e.g.I.Y.T.T.].[.&X%X*X*X&X&X#X#X@X@X#X%X=X=X%X#X[.#X%X=X*X<X1X6X7XwXwXwXwXwX6X1XeXwX7X7X6X1X1X1X=X#X%X%X=X=X=X=X<X<X<X<X<X6X6X<X#X].Q.Y.Y.].*X7XwXwXwXwXwXwXwXwXwXwXwXwXwXwXtXtXtXtXtXtXyXyXyXyXyXyXyXyXyXyXuXuXrX{.`.Y.M.M.M.M.M.M.M.M.M.M.M.M.M.M.M.M.M.M.M.M.M.M.m.m.m.m.m.m.M.M.M.m.m.c.x.z.x.c.V.C.Z.Z.C.C.C.C.C.C.C.C.Z.C.A.V.V.m.c.c.c.c.c.m.m.V.C.C.C.C.C.C.C.C.b.x.l.j.u.u.0.0.j.l.x.c.V.V.V.V.V.m.m.C.C.C.C.C.Z.Z.Z.C.C.C.C.C.M.b.z.M.M._._.C.M.M.b.r.k.[.uXyXcXcXcXxXyXyXyXtXtXtXtXtXeXeXeXtXeXyXyXxXmXmXmXmXmXcXxXtXeXwX6X1X=X=X#X%X=X1X7XwXeXtXtXyXxXcXmXmXmXmXmXmXMXmXmXmXmXmXMXMXMXCXCXCXCXCXCXCXCXCXCXCXFXFXCXCXmXcXMXCXZXZXCXCXCXCXCXCXZXZXCXCXMXMXCXCXFXFXFXFXGXGXGXFXCXMXcXzX9X6X6X6X7XeXtXxXtXeXeXeXeXeXeXeXeXeXeXeXeXeXeXeXxXxXxXxXxXxXxXxXeXeXeXeXeXxXxXxXeXeXeXeXxXcXmXcXcXxXzXzXzXzXxXxXzXzXtXtXzXzXzXzXeXeXlXlXdX0XW.t.#.] h g g g g g g g g f f d d i i i i i i r r r r e w w w q q q q q < < ",
"zXzXnXzXvXzXzXzXzXzXtXqXtX9X9X0X5X<X,X&X@X[.[.E.W.W.T.Y.Y.Y.Y.Y.Y.Y.I.I.I.I.I.I.I.I.n.v.h.h.e.6.e.6.;.-.-.-.-.&.&.O.O.&.&.&.&.&.&.O.O.O.O.O.&.&.&.O.O.O.=.&.=.&.-.-.;.;.;.>.e.e.e.e.e.e.6.6.;.;.-.&.O.O.&.-.-.&.&.-.-.-.e.g.W.].E.W.W.E.[.&X=X=X*X=X&X&X<X<X%X#X[.#X#X=X#X[.].#X%X=X<X1X6X7XwXrXrXwXwXwX6X1XeXwXwXwX7X6X7X6X<X%X%X%X=X=X=X=X<X<X1X<X1X6X6X1X%X[.].T.I.T.6X7XwXwXwXwXwXwXwXwXwXwXwXwXwXwXtXtXtXtXtXtXyXyXuXyXyXyXyXyXyXyXyXyXuX1X].Y.M.M.M.M.M.C.M.M.C.C.C.C.C.C.C.C.C.C.M.M.C.C.M.m.C.C.C.C.C.C.C.C.M.m.m.c.c.c.c.c.V.C.C.C.C.C.C.C.Z.Z.Z.C.C.A.V.V.m.m.c.c.m.m.V.V.C.C.C.C.C.C.C.C.m.b.l.j.u.0.0.u.j.l.z.m.C.C.C.V.C.C.C.C.C.Z.Z.G.G.G.`.`.C.C.C.C.C.m.b.M.C._._.C.M.M.k.r.Y.1XmXmXmXmXmXcXxXyXyXtXtXtXeXeXeXeXeXeXeXyXxXcXmXmXmXmXmXcXxXtXeX7X1X*X=X#X#X%X=X1X7XeXtXtXyXxXcXmXmXmXmXmXmXmXMXMXMXmXMXMXMXMXCXCXCXCXFXFXFXFXCXCXFXCXCXFXCXCXmXcXMXCXCXZXCXCXCXCXCXCXCXCXCXCXCXMXCXCXFXGXGXGXGXGXGXFXCXMXcXtX9X6X6X6X7XeXxXxXeXeXeXeXeXeXeXeXeXeXtXtXeXeXeXeXtXeXtXxXxXxXxXxXeXeXeXeXeXxXxXeXeXeXeXeXxXcXMXcXxXzXzXzXzXzXxXxXzXzXtXtXtXtXtXtXtXlXzXlXfXdX-XU.:.{ G h g g g g g g g g g f f f d i i i i i r r r r w w w w w w w q < < ",
"zXzXnXzXzXzXzXzXzXzXtXqXtX9X9X0X5X<X,X&X@X[.~.E.W.W.T.Y.Y.Y.Y.Y.Y.I.I.I.I.I.I.I.n.n.g.g.g.h.e.e.e.6.;.-.&.&.-.&.&.&.&.&.&.&.&.&.&.O.O.O.O.&.-.-.&.&.&.&.-.-.;.;.;.;.>.>.e.e.e.e.e.e.e.e.e.e.e.e.e.;.-.-.-.;.;.;.;.e.r.h.Y.&X*X].W.&X5X0X6X6X7X6X<X=X&X&X&X%X[.].Q.].[.[.[.].].#X=X=X<X6X7XwXwXrXwXwXwXwX6X;XeXwXwXwX7X7X7X7X1X=X%X%X=X=X=X=X<X<X<X<X1X6X7X6X&X@X].T.Y.T.6X7XwX7XwXwXwXwXwXwXwXwXwXwXwXwXtXtXtXtXtXtXyXyXuXyXyXyXyXyXyXyXyXyXyXrX=X_.M.M.M.M.C.C.m.M.C.C.C.C.C.C.C.C.C.C.M.M.C.C.M.M.C.C.C.C.C.C.C.C.C.M.C.M.m.m.m.V.C.G.Z.Z.C.C.C.C.Z.Z.Z.C.C.A.V.V.V.m.c.c.m.m.V.V.C.C.C.C.C.C.C.C.m.b.l.j.u.0.0.u.j.l.z.m.C.C.C.V.C.C.C.C.Z.G.G.G.`.`.`.`.C.C.C.C.M.M.z.M.C._._.C.M.b.r.b.#XyXmXmXmXmXcXcXxXyXyXtXtXtXuXeXeXeXeXeXeXyXxXmXmXmXmXmXmXcXxXyXeX7X<X=X#X#X#X%X=X1X7XeXtXyXyXxXcXmXmXmXmXmXmXmXMXMXMXmXMXMXMXMXCXCXCXCXFXFXFXFXCXCXFXCXCXCXCXMXmXcXMXCXCXCXCXCXCXCXCXCXZXCXCXCXCXMXCXCXFXFXFXGXGXGXGXFXCXMXcXtX9X6X6X6XeXeXxXzXeXeXeXeXzXeXeXeXeXeXtXtXeXtXeXeXeXeXeXtXxXxXxXtXeXeXeXeXeXeXeXeXeX7XeXeXxXcXMXcXxXzXzXzXzXzXlXlXtXtXtXtXtXtXtXtXtXzXzXlXfXdX3X!.h.#.U h G g g g g g g g g f f f d i i i i i r r r r e w w w w w w q < < ",
"nXnXnXnXzXzXzXzXzXzXtXqXqX9X9X0X5X<X%X&X@X#X[.E.Q.R.T.T.T.Y.Y.Y.Y.I.Y.I.Y.Y.Y.n.n.g.g.g.g.h.h.e.y.6.;.-.-.-.&.&.&.&.&.&.&.&.&.&.O.O.O.&.-.;.6.;.-.-.;.;.6.6.e.e.e.e.e.e.e.t.t.t.t.t.t.t.t.t.e.e.e.e.6.6.e.y.e.e.y.n.W.*X6X#X@X&X1X6XeXeXwXwX6X*X&X#X@X[.[.].].Q.Q.].[.[.[.].].#X=X*X1X6X7XwXwXwXwXwXwX7X6X<XeXwXwXwX7XwXeXwX6X<X*X*X*X*X*X*X1X1X1X1X1X1X0X0X*X#XE.W.Y.Y.%X7X7X6X7XwXwXwXwXwXwXwXwXwXwXwXeXtXtXtXtXtXtXtXyXyXyXyXyXxXxXyXyXyXyXuXrX{._.M.M.M.C.V.m.C.C.C.M.M.M.M.M.C.C.C.M.M.M.C.C.C.C.C.C.C.C.C.C.C.C.C.C.C.C.C.V.V.Z.'.`.Z.C.C.C.Z.Z.Z.Z.Z.C.C.V.V.V.V.c.c.c.c.V.V.V.C.C.C.C.C.C.C.m.z.l.j.j.0.0.u.j.k.z.m.C.A.C.C.C.C.C.C.Z.Z.`.`.`.`.`.`.G.C.C.C.M.M.M.M.C._.M._.M.l.r.T.rXmXmXmXmXmXmXmXcXxXyXyXeXeXtXtXtXtXtXtXtXyXcXmXmXmXmXmXmXmXcXtXeX7X<X=X%X#X#X=X*X6X7XeXtXyXxXxXcXmXmXmXMXMXMXMXMXMXMXMXMXMXCXCXCXCXCXCXZXZXZXZXZXFXFXFXCXCXMXMXmXmXMXMXCXCXCXCXCXZXZXZXZXZXZXCXCXCXCXCXFXFXGXGXGXGXGXGXZXMXcXzX9X6X1X6XeXtXxXeXeXeXeXeXtXeXeXeXeXzXtXxXzXxXtXeXeXeXeXeXxXxXxXzXeXeXeXeXeXtXeXeX7X9XeXtXxXcXmXcXxXzXzXzXzXlXlXlXxXxXlXlXtXtXzXzXzXzXzXzXfXdX3X$XU.:.{ G G g g h g g g g g f d d d d d i i i i r e e e e w w w 3 3 3 3 3 ",
"nXnXnXnXzXzXtXzXzXtXtXqXqX9X9X0X5X<X,X&X@X#X[.E.Q.W.R.T.Y.Y.Y.Y.Y.Y.Y.Y.Y.Y.I.n.n.g.g.g.h.h.e.e.y.6.4.;.-.-.-.-.&.&.-.&.&.&.&.&.O.+.O.;.e.t.e.6.4.6.e.e.e.e.e.e.e.e.h.h.g.g.g.g.g.g.g.g.g.h.h.t.e.e.e.e.t.t.h.g.I.&X0X5X@X@X#X*X6X7X<X*X*X<X%X[.].].].].].].Q.Q.].[.#X#X#X#X#X=X*X1X6X6X7XwXwXwXwXwXeXwX7X1XeXwXwXwX7XeXeXwX7X1X*X*X*X*X*X*X1X1X1X1X1X1X5X6X5X#X].W.T.T.].7X7X7X7XwXwXwXwXwXwXwXwXwXwXwXeXtXtXtXtXtXtXtXyXyXyXyXyXxXxXyXyXyXyXyXuXrX{.Y.M.M.C.V.m.C.C.C.M.M.M.M.M.C.C.C.M.M.M.C.C.C.C.C.C.C.C.C.C.C.C.C.C.C.C.C.C.C.C.`.Z.A.A.A.C.C.Z.Z.Z.Z.C.C.V.V.V.V.m.c.c.c.V.V.V.C.C.C.C.C.C.C.m.z.z.k.j.u.0.u.j.l.z.m.C.A.C.C.C.C.C.C.Z.Z.`.`.`.`.`.`.G.C.C.C.M.m.M.C.C.`.M.M.M.k.b.[.uXNXmXmXmXmXmXmXmXmXmXyXyXeXtXtXtXtXtXtXyXxXcXmXmXmXmXmXmXmXnXtXwX6X1X=X%X#X%X=X1X7X7XeXyXxXxXcXcXmXmXmXMXMXMXMXMXMXMXMXMXMXCXCXCXZXCXCXZXZXZXZXZXFXFXFXCXCXMXmXmXMXMXMXMXMXMXCXCXZXZXZXZXZXZXCXCXCXCXCXCXCXFXGXGXGXGXGXZXMXcXxXtX0X6X6X7XeXeXeXeXeXeXeXeXeXeXeXeXtXtXxXxXxXxXeXeXeXeXeXxXxXxXeXeXeXeXeXeXeXeXeX9XeXtXxXcXcXmXcXxXeXlXzXzXzXlXlXxXlXzXzXxXxXzXzXzXzXzXzXfX8X5X-XW.h.=.U D h g h g g g g g f d d d d d i i i i r e e e e w w w q q 3 3 3 ",
"nXzXnXzXzXzXzXzXzXtXtXtX9X9X9X0X5X,X,X&X&X@X[.[.E.Q.W.R.T.T.T.T.T.T.T.Y.Y.I.I.n.n.g.g.h.h.r.e.e.y.6.;.;.;.;.;.-.-.-.&.-.-.-.-.&.&.&.;.e.g.h.e.e.e.r.t.t.t.t.t.t.t.h.g.g.g.g.n.n.v.n.n.n.v.g.h.h.h.h.g.h.g.g.n.T.=XeX9X#X].@X#X%X#X#X].].].].Q.Q.Q.].].].[.[.#X#X#X*X1X*X=X=X6X6X6X6X7X7XwXwXeXeXeXeXeXeXwX6XyXeXwXwXwXeXeXeX7X1X*X*X*X*X*X*X1X1X1X1X6X6X6X6X6X=X[.Q.T.Y.E.6XeXeXwXwXwXwXwXwXwXwXwXwXwXwXwXwXtXtXtXtXtXtXyXyXyXyXyXxXxXyXyXyXyXyXuXuX1X].M.M.C.C.C.C.C.C.C.C.C.C.C.C.C.C.M.C.M.M.C.C.C.C.C.C.C.C.C.C.C.C.C.C.C.C.C.C.C.V.m.c.V.V.A.C.Z.Z.Z.Z.Z.C.C.A.V.V.m.m.m.m.V.V.C.C.C.G.G.C.C.C.m.m.z.l.k.j.u.j.k.l.c.m.C.A.C.C.C.C.Z.Z.G.G.`.`.`.`.`.`.`.C.C.C.M.M.`.`.`.C.M.M.z.z.`.1XyXMXMXMXMXmXMXmXmXmXmXmXyXyXyXyXyXtXtXtXxXcXMXcXcXcXcXcXcXcXxXtX7X6X*X=X%X%X=X<X6XwXwXeXyXxXcXmXmXmXMXMXMXMXMXMXMXMXMXMXMXCXCXCXCXCXZXZXFXFXZXZXZXFXFXFXCXCXmXmXMXMXMXMXMXMXMXCXCXZXZXZXZXZXCXCXCXCXCXCXFXFXGXGXGXGXGXGXZXMXMXcXzX9X7X6X7XeXeXeXeXeXeXeXeXeXeXeXeXtXxXxXxXxXxXeXeXeXeXeXxXxXxXeXeXeXeXtXtXeXeX7X9XeXzXxXcXcXcXxXzXtXlXzXzXxXlXlXlXxXxXxXxXxXxXxXxXxXzXlX9X8X8X3X@XU.t.} D D g g g g g g g s d d d d d i i i i i e e e e w w w w w q 3 3 ",
"nXzXnXzXzXzXzXzXzXtXtXtX9X9X9X0X5X<X%X%X&X@X[.[.E.Q.Q.R.T.T.T.T.T.T.T.Y.Y.I.n.n.n.g.g.h.h.e.6.6.e.6.4.;.;.;.;.;.-.-.&.&.&.-.-.-.-.-.e.g.g.t.e.t.h.h.h.r.t.t.t.t.h.h.g.g.g.g.g.n.n.I.I.I.n.n.g.g.g.g.g.g.v.n.Y.#XtX7X&X].].@X[.].Q.Q.Q.].].].].#X[.#X=X=X%X=X*X=X*X1X7X1X1X6X7XwXwXwX7X7XwXwXeXeXeXtXtXtXeXwXxXtXeXwXwXeXeXeX7X1X*X*X*X*X*X*X1X1X1X1X6X6X6X6X6X=X@XQ.T.Y.Q.6XeXeXeXeXeXwXwXwXwXwXwXwXwXwXwXwXtXtXtXtXtXtXyXyXyXyXyXxXxXyXxXyXyXyXuXuXrX=X_.M.M.m.C.C.C.C.C.C.C.C.C.C.C.C.M.M.M.M.C.C.C.C.C.C.C.C.C.C.C.C.C.C.C.C.C.G.C.m.c.x.c.V.Z.Z.Z.Z.Z.Z.Z.C.C.C.V.V.m.m.m.m.V.V.C.C.C.G.G.C.C.C.m.m.z.z.k.j.i.j.j.l.c.m.A.C.C.C.C.C.C.C.Z.Z.G.`.`.`.`.`.`.C.C.M.M.M.`.`.`.C.M.M.k.n.{.wXmXMXCXmXMXmXMXmXmXmXmXmXmXyXyXyXyXtXtXyXxXmXmXcXcXcXcXcXcXnXtX7X6X1X=X=X%X%X=X1X6XwXwXeXyXxXcXmXmXmXMXMXMXMXMXMXMXMXMXMXMXCXCXCXCXCXZXZXFXFXZXZXZXFXFXFXCXCXmXMXMXMXMXMXMXMXMXCXCXZXZXFXZXZXCXCXCXCXZXCXFXFXGXGXGXGXGXGXCXMXcXcXxXtXeX7X7XwX7X7X7X7X7X7X9XeXeXeXeXtXxXxXxXxXzXeXeXeXeXeXeXtXzXeXeXeXeXtXeXeX7X7XeXzXxXcXcXcXxXzXtXeXlXlXlXlXlXlXlXxXxXcXcXcXxXxXzXzXzXlX9X8X0X2X$XE.L.:.{ D g g g g g g g s d d d d d i i i i r e e e e w w w w w q 3 3 ",
"nXzXnXzXzXzXzXzXzXzXtXtXtX9X7X6X5X<X,X%X&X#X[.[.E.E.Q.W.T.T.T.T.T.T.T.Y.I.I.n.v.g.g.g.h.h.e.e.6.e.6.6.;.;.;.;.-.-.-.-.-.&.-.;.&.&.e.g.g.g.h.h.h.g.g.h.t.t.h.h.h.g.g.L.L.L.L.n.I.I.I.I.I.I.I.I.I.n.I.I.I.Y.Y.].7XxX%XQ.].].].].].Q.Q.Q.[.#X[.#X=X=X*X6X6X1X6X6X6X1X1XwX6X6X7XwXeXtXeX7XwXwXeXeXeXtXtXtXtXeXeXyXeXwXwXwXeXtXtXwX6X1X*X*X*X<X<X1X1X1X6X6X6X6X6X6X<X#XQ.T.Y.W.5XeXeXtXtXtXtXeXeXtXtXtXtXtXtXeXeXeXtXtXtXtXtXyXyXyXyXyXyXxXxXxXxXxXxXyXuXuXwX{.`.C.m.M.C.C.C.C.C.C.C.C.C.C.C.C.C.C.C.C.C.C.C.C.C.C.C.C.C.C.C.C.C.C.Z.C.G.Z.C.m.x.x.V.Z.Z.Z.Z.Z.Z.Z.Z.Z.Z.V.V.V.m.m.m.V.V.C.C.G.G.G.G.C.C.m.m.z.z.l.j.i.j.j.l.c.m.C.C.A.A.C.C.C.C.Z.Z.G.`.`.`.`.`.`.C.C.M.M.M.C.`.M.M.M.M.k.T.wXyXMXMXCXCXMXmXMXmXmXmXmXmXmXxXyXyXyXyXtXxXcXmXmXmXcXcXcXcXcXxXtX7X<X=X=X=X%X%X=X1X6XwXeXeXyXxXcXmXMXMXMXMXMXMXMXMXMXMXMXMXCXCXCXZXFXFXFXFXFXFXFXFXFXFXFXZXCXMXMXMXMXMXCXCXCXMXMXCXCXCXZXZXZXZXZXCXZXZXZXZXFXFXGXGXGXGXGXGXMXcXcXcXxXzX9X0X6X6X7X6X6X6X7X7X7XeXeXeXeXtXeXyXxXxXzXeXeXeXeXeXeXeXeXeXtXeXeXeXeXeX7XeXeXzXxXbXcXcXzXeXeXeXeXeXlXlXlXlXxXxXcXcXxXxXxXzXlXeXeXeXeX9X7X5X-X@X!.h.#.U g g g g g g g s g d d d d d d i i i r r e e e w w w w q q 3 ",
"nXzXnXzXzXzXzXzXzXzXtXtXtX9X7X6X5X<X,X%X&X@X[.[.E.E.Q.W.T.T.T.T.T.T.Y.I.I.n.g.g.g.g.g.h.h.h.e.e.e.6.6.;.;.;.;.;.;.-.-.-.&.&.&.O.;.g.I.n.g.g.g.g.g.g.g.h.g.g.g.g.n.I.I.Y.Y.Y.T.T.T.T.T.I.I.I.I.I.I.I.Y.T.Q.].5XtX7X].].].[.[.@X@X[.[.#X=X=X=X<X1X6X7XwXwX7XeXeX7X6X6X7X6X6X7XwXtXtXtXwXeXeXeXeXeXtXtXtXeXeXtXtXeXwXwXeXeXeXeXeXwX6X*X*X*X<X<X1X1X1X6X6X6X6X6X5X<X&X].T.Y.T.*XeX9XtXtXtXtXeXeXeXeXtXtXtXtXeXeXeXtXtXtXtXtXyXyXyXyXyXxXxXxXxXxXxXxXyXyXuXuXrX{.M.M.C.C.C.C.C.C.C.C.C.C.C.C.C.C.C.C.C.C.C.C.C.C.C.C.C.C.C.C.C.C.Z.Z.Z.G.G.`.Z.V.c.c.c.V.C.Z.Z.Z.Z.Z.Z.Z.V.V.V.m.m.V.V.V.C.C.C.G.G.G.C.C.m.m.z.z.l.j.j.j.j.l.c.m.C.C.A.A.C.C.C.C.C.Z.Z.G.`.`.`.`.`.C.C.M.M.M.M.M.M.M.M.z.b.#XuXyXMXMXCXCXCXmXMXmXmXmXMXmXmXmXxXyXyXyXyXcXcXmXmXmXcXxXxXxXxXxXtX7X<X=X=X%X%X%X=X1X6X7XeXtXxXcXmXMXMXMXMXMXMXMXMXMXMXmXmXMXCXCXCXCXFXFXFXFXFXFXFXFXFXFXFXCXCXMXMXMXMXMXCXCXCXCXCXCXCXCXZXZXFXZXZXCXZXFXFXFXFXFXGXGXGXGXGXFXMXxXxXxXxXzX9X6X6X6X6X6X6X6X7X7XeXeXeXeXeXeXeXeXtXeXeXeXeXeXeXeXeXeXeXeXtXeXeXeXeXeX7XeXtXzXxXcXcXxXtXeXeXeXeXeXlXeXlXxXxXnXcXxXxXxXzXzXeXeX9XeX9X9X7X6X-X$X!.L.:.} H g s g g g g s g d d d d d d i i i r r e e e w w w w q w 3 ",
"nXzXzXzXzXzXzXzXzXzXzXtXtX9X7X6X5X<X%X$X&X&X#X[.[.[.E.Q.W.T.T.R.T.Y.I.I.n.g.g.g.g.g.h.h.h.h.e.e.e.e.6.6.6.6.6.;.;.-.-.-.-.&.&.;.g.Y.I.n.g.h.g.g.g.g.g.g.n.I.I.I.I.Y.T.T.W.E.E.Q.T.T.I.I.Y.Y.Y.Y.Y.T.Q.].#XtXzX5X#X].].[.#X#X*X=X%X*X1X1X<X1X6XwXeXwX7X7XwXtXtXwX6X7X6X6X7XwXeXtXyXtXeXeXeXeXtXeXeXeXeXwXeXyXeXwXwXwXeXeXtXeXtXeX7X1X*X<X<X<X1X1X1X6X6X6X0X6X6X5X%X[.W.T.T.&X7X7XtXtXtXtXeXeXwXeXeXtXtXtXeXeXeXeXtXtXtXtXyXyXyXyXxXxXxXxXxXxXxXxXxXyXuXyXuX1X{.M.M.M.C.C.C.C.C.C.C.C.C.C.C.C.C.C.C.C.C.C.C.C.C.C.C.C.C.C.Z.Z.Z.Z.G.G.`.`.`.Z.C.m.m.V.Z.Z.Z.Z.Z.Z.Z.V.V.V.V.V.V.V.V.V.Z.Z.G.G.G.G.C.C.m.m.m.z.z.l.j.j.j.l.z.m.C.C.A.A.C.C.C.C.Z.Z.C.Z.G.`.`.`.C.C.C.M.m.M.M.M.M.M.b.k.`.rXmXMXMXMXCXCXCXMXMXMXMXMXMXMXmXmXmXxXyXyXxXmXmXMXMXmXcXxXnXnXxXxXtX7X<X=X=X%X%X=X*X1X6XwXeXyXcXmXMXMXMXMXMXMXMXMXMXMXMXmXMXMXCXZXZXZXFXFXFXFXFXFXFXFXFXFXCXCXCXMXMXMXCXCXCXCXCXCXCXCXCXCXZXZXZXZXZXZXFXFXFXFXFXFXGXGXGXGXFXCXcXzXzXzXzXeX7X5X5X5X6X6X6X6X7XeXeXeXeXeXeXeXeXeXeXeXeXeXeXeXeXeXeXeXeXtXeXtXeXeXeXeXeXeXzXxXcXcXcXzXtXeXeXeXeXeXlXlXxXcXnXnXxXxXxXzXeXeXeX9X9X9X9X9X7X6X;X$X~.R.h.$.I V s s g g g g g g g d d d d d i i i i e e e w w w w w w q ",
"zXzXzXzXzXzXzXzXzXzXzXtXtX9X9X6X5X,X,X$X&X&X#X[.[.[.E.Q.Q.W.W.R.Y.I.I.n.g.g.g.g.g.g.g.h.h.h.h.e.e.e.e.e.e.e.6.6.;.;.-.&.&.&.e.g.I.Y.I.I.n.n.g.g.g.g.n.I.I.I.I.Y.T.T.W.E.E.E.E.E.T.Y.I.I.Y.T.T.T.Q.[.%X<X7XtX<X%X@X].].[.#X*X;X=X=X6XwX6X6X6XwXeXeXwX7X7XeXyXyXeX7XwX1X6X7XwXeXyXyXtXeXeXeXeXtXeXeXeXeXwXeXeXeXwXwXeXeXwXeXeXtXeXeX6X<X<X<X<X1X1X1X6X6X6X0X6X6X5X&X#X].T.Y.&X7X7XeXtXtXtXeXeXwXwXeXtXtXtXeXeXeXeXtXtXtXtXyXyXyXyXyXxXxXxXxXxXxXxXxXyXyXuXuXuX=X`.M.M.M.M.C.C.C.C.C.C.C.C.C.C.C.C.C.C.C.C.C.C.C.C.C.C.C.C.Z.Z.G.Z.G.G.`.G.Z.`.`.C.V.c.m.V.V.Z.Z.Z.Z.V.V.V.V.V.m.V.V.A.C.Z.G.G.G.G.C.C.M.m.m.z.z.l.k.j.j.l.c.m.C.C.C.C.C.C.C.C.C.C.C.C.Z.Z.`.C.C.C.M.m.m.b.M.T.M.M.k.M.1XuXZXZXCXMXCXCXCXMXMXMXMXMXMXMXMXMXmXmXxXyXnXmXmXMXMXmXcXxXxXnXxXyXeX7X<X=X=X%X%X=X*X1X6XwXtXxXcXmXMXMXMXMXMXMXMXMXMXMXMXmXMXMXCXZXZXZXFXFXFXFXFXFXFXFXFXFXCXCXMXCXMXMXCXCXCXCXCXCXCXCXCXCXZXZXZXZXZXZXFXFXFXFXFXFXGXGXGXGXFXMXcXtXlXlXeX9X6X<X<X5X6X6X7X7XeXeXeXeXeXeXeXeXeXeXeXeXeXeXeXeXeXeXeXeXtXeXeXeXeXeXeXeXeXeXzXxXcXcXxXtXeXeXeXeXeXeXlXxXxXnXnXnXxXxXxXzXeX9X9X9X9X9X9X9X9X6X*X&XE.E.I.>.[ V s s g g g g g g g d d d d d i i i i e e e w w w w w w q ",
"zXzXzXzXzXzXzXtXzXtXtXtXqX9X0X5X5X<X,X&X&X@X@X#X[.[.E.E.Q.Q.W.T.Y.I.I.n.v.v.g.g.g.g.g.h.h.h.h.e.e.e.e.e.e.e.e.6.;.;.-.&.-.6.g.T.W.T.Y.Y.I.I.I.I.n.g.I.T.W.T.T.T.W.Q.E.].].].].E.T.Y.Y.Y.T.E.E.].].%X=X<X6X=X#X@X[.].].#X=X6X6X6X6XeXeXeXwXeXeXeXeXeX7XeXeXeXeXeX7X7X6X6X7XeXeXtXtXtXtXtXtXeXwXwXeXwXwXwXwXwXwXwXeXeXeXwXeXtXeXtXeXwX6X1X<X<X1X1X1X6X6X6X6X6X6X5X*X%X].T.Y.E.6XeXeXtXtXtXeXeXeXeXwXeXtXtXtXtXeXeXtXtXtXtXtXtXyXyXyXyXyXyXxXxXxXxXyXyXyXuXuXuXrX=XM.M.C.C.C.C.C.C.C.C.G.G.C.C.C.C.C.C.C.C.C.C.Z.C.C.C.Z.Z.Z.Z.Z.Z.G.G.G.G.Z.`.`.Z.C.c.c.x.c.V.Z.Z.C.V.V.V.V.m.m.m.m.C.C.Z.G.G.`.`._.C.C.m.m.b.c.x.l.l.l.x.b.m.C.C.A.A.C.C.C.C.C.C.C.C.C.C.C._.C.C.M.M.M.b.M.T.T.M.k.`.1XyXZXZXZXCXCXCXZXCXCXMXMXmXmXmXMXmXmXmXxXyXcXmXMXMXMXmXcXcXxXxXxXyXwX6X*X=X%X%X%X=X*X6X7XwXtXxXmXmXMXMXMXMXMXMXCXMXMXmXmXmXMXCXCXZXFXFXFXFXFXFXGXGXFXFXFXCXCXMXCXCXCXCXCXCXCXCXCXCXCXCXZXZXZXZXZXZXZXZXZXZXFXFXFXFXGXGXGXGXFXMXxXeX9X9X0X5X<X<X<X<X5X6X7X9XeXeXeXeXeXeXeXeXeXeXeXeXeXeXeXeXeXeXeXtXxXtXeXeXeXeXeXeXeXxXxXcXcXcXzXtXeXeXeXeXeXeXzXxXxXcXcXxXxXxXeXeXeX9X9XeX9X9X9X9X9X6X;X&XE.$X!.L.:.U s s g g g g g g g d d d d d i i i i r e e w w w w w w q ",
"zXzXzXzXzXzXzXzXzXtXtXtXqX9X0X5X5X<X,X$X&X@X@X@X[.E.E.E.Q.Q.W.T.I.I.n.n.v.v.g.g.g.g.g.h.h.h.h.h.r.h.h.r.e.e.e.6.;.;.&.&.6.g.Y.W.Q.T.T.Y.Y.Y.I.I.I.I.Y.E.E.W.W.E.E.].@X@X].].E.T.Y.I.T.].#X#X*X=X#X].].#X#X[.[.[.].].#X*X6X6X6XeXeXeXeXeXeXeXeXeXeXeXeXeXeXeXeX7X6X<X=X*X6XwXwXeXeXtXtXtXtXwXwXwXeXwXwXwXwXwXwXwXeXeXeXeXeXeXeXtXtXeX7X1X<X<X1X1X1X6X6X6X6X6X6X6X5X=X[.T.Y.T.%X9XeXtXtXtXeXeXeXtXeXeXtXeXtXtXwXwXtXtXtXtXtXtXyXyXyXyXyXyXxXxXxXxXyXyXyXyXuXuXuX1X{.`.M.M.C.C.C.C.C.C.G.G.C.C.C.C.C.C.C.C.Z.C.Z.Z.Z.Z._._.Z.Z.Z.Z.G.G.G.G.`.`.`.`.Z.Z.V.c.x.c.V.A.A.V.V.V.V.V.m.m.m.C.C.Z.G.G.`.`.`.Z.C.V.m.b.c.x.l.l.x.c.m.V.C.C.A.A.C.A.C.C.C.C.C.C.C.C._._._.C.M.M.M.b.M.T.M.z.M.=XuXAXAXAXCXCXCXCXCXCXCXMXMXmXmXmXMXMXMXmXcXcXmXMXMXMXMXcXcXcXxXxXyXtX7X1X=X=X%X%X%X=X*X6X7XwXyXxXmXmXMXMXMXMXCXMXCXMXMXmXmXmXMXCXCXZXFXFXFXFXFXFXGXFXFXFXCXCXCXCXCXCXCXCXCXCXCXCXCXCXCXCXZXZXZXZXZXZXZXZXZXZXFXFXFXFXGXGXGXGXGXMXxXeX9X0X6X<X<X<X<X<X5X6X9XeXeXeXeXeXeXeXeXeXeXeXeXeXeXeXeXeXeXeXeXxXxXtXeXeXeXeXeXeXtXxXcXcXcXxXtXeXeXeXeXxXtXxXxXxXxXxXxXxXxXeXeXeXeXeXeXeXeXeXeXeX9X0X;X&X&X%X$XE.t.#.U D g g g g g g g d d d d d i i i i r e e w w w w w w q ",
"zXzXzXzXzXzXzXtXzXtXtXqXqX9X9X0X5X<X%X%X&X&X&X&X#X[.[.E.Q.W.T.T.I.n.n.g.v.g.g.g.g.g.g.g.g.h.h.h.h.h.h.h.e.e.e.6.;.-.-.6.h.I.W.E.E.W.T.T.T.T.T.Y.Y.T.E.[.@XE.E.@X@X[.@X@X].E.W.T.Y.W.&X5X7X6X#X].Q.Q.].@X@X[.[.[.@X=X<X6X7X7XeXtXxXtXtXeXeXeXeXeXeXeXeX7X6X6X6X*X*X=X=X=X*X6XwXwXwXwXwXwXeXwXwXwXwXwXwXwXwXwXeXeXeXeXeXeXeXeXtXtXtXtXwX6X1X1X1X1X1X6X6X6X6X6X6X6X7X*X#XQ.T.Y.].0XeXeXtXtXeXeXeXeXeXeXtXtXwXwXtXtXtXtXtXtXtXtXyXyXyXyXyXyXyXyXxXxXyXyXyXyXyXyXuXuX1X[.M.M.C.C.C.C.C.C.G.G.C.C.G.G.C.C.G.G.Z.Z.`.`.`.`.`.`.`.Z.`.`.G.G.`.`.`.`.`.`.`.`.Z.V.x.x.x.c.V.V.V.V.V.m.V.V.V.V.C.Z.Z.G.`.`.`._.C.C.m.m.b.c.x.x.c.m.V.C.C.C.A.A.C.C.C.C.C.C.Z.Z.C.C.`.`.`._.C.M.M.M.M.M.z.z.#XrXNXAXZXAXCXCXCXCXZXCXCXCXCXCXCXCXCXCXCXCXmXmXMXMXCXMXmXcXxXxXxXxXyXeX6X<X=X=X%X%X%X=X*X6X7XwXyXxXmXMXMXMXMXCXCXCXCXMXMXmXmXmXMXCXZXFXFXFXFXFXFXFXFXFXFXCXCXCXCXCXCXCXCXCXCXCXCXCXCXCXCXCXZXZXZXZXZXZXFXFXZXZXZXZXFXFXFXFXFXGXGXMXxXeX7X7X6X5X<X<X<X<X6X0X9X9X9X9XeX9XeXeXeXeXeXeXeXeXeXeXeXeXeXeXtXxXxXxXeXeXeXeXeXxXxXxXcXcXcXxXeXeXeXeXtXxXxXxXxXxXyXeXeXeXtXeXeX7XeXeXeXeXlXzXzXlXeX9X5X&X&X%X2X-XU.>.} G h g g g g g g g g d d d d i i i r e e w w w w w w q ",
"zXtXzXtXtXtXtXzXzXtXtXqXqX9X9X0X5X<X,X%X&X&X&X&X@X[.[.E.Q.R.T.I.I.n.v.g.g.g.g.g.g.g.g.g.g.h.h.h.h.h.h.h.e.e.e.6.;.-.;.t.I.T.W.E.E.E.W.W.W.W.T.Y.T.E.@X&X&X[.E.@X@X@X@X].E.W.W.T.E.*X9X;X#X@X].].].#X%X%X&X=X=X=X*X6X6X6XeXeXxXxXxXxXxXeXeXeXeXeXeXeXeX0X*X=X=X=X=X=X=X=X*X6X6X7X7X7XwXwXwXwXwXwX7XwXwXwXwXwXwXeXeXeXeXeXeXeXtXtXtXyXeX7X6X1X1X1X1X6X6X6X6X6X6X7X7X5X&X].T.T.Q.=X7XtXtXtXtXtXeXeXeXeXtXtXeXwXtXtXtXtXtXtXtXtXyXyXyXyXyXyXyXyXxXxXyXyXyXyXyXyXyXyXuX1X].M.M.C.C.C.C.C.G.G.C.G.G.G.`.G.`.`.`.Z.`.`.`.`.`.`.`.`.`.`.G.G.`.`.`.`.`.`.`.`.Z.C.m.x.x.x.c.m.V.V.V.V.V.V.V.V.C.C.G.`.`.`.`.`.Z.C.V.m.b.c.x.b.b.m.C.C.C.C.A.A.C.C.C.C.C.C.Z.C.C.C.`.`.`._.C.M.M.M.M.M.z.`.1XyXAXAXAXAXCXCXCXCXZXCXCXCXCXCXCXCXCXCXCXCXmXmXMXCXCXMXcXcXxXxXxXxXyXeX1X=X%X=X#X%X%X=X*X6X7XeXyXxXmXMXMXMXCXCXCXCXCXMXMXmXmXmXMXCXZXFXFXFXFXFXFXFXFXFXCXCXCXCXCXCXCXCXCXCXCXCXCXCXCXCXCXCXZXZXFXZXZXZXZXFXZXZXZXZXFXFXZXZXFXGXFXMXxX9X0X0X6X5X<X<X5X5X6X7X9X9X9X7X9X9XeXeXeXeXeXeXeXeXeXeXeXeXeXeXtXxXxXxXeXeXeXeXxXxXxXcXcXxXxXtXeXeXeXeXxXxXxXxXxXtXeXeXeXeXeXeX7XeXeXeXzXxXxXxXxXxXeX9X5X%X%X,X0X8X$XL.:.] h g g g g g g s g d d d d i i i r e e w w w w w w q ",
"zXtXzXzXzXzXzXtXtXtXtXqXqX9X9X0X5X<X,X%X&X&X&X&X#X#X].Q.W.T.I.I.I.n.g.g.g.g.g.g.g.g.g.g.g.h.h.h.h.h.g.h.e.e.e.6.-.;.e.I.T.W.E.E.E.W.W.W.Q.Q.T.T.T.E.@X&X&X[.E.@X].].E.].].].].+X#X;X;X#X].].].].[.=X*X*X6X6X6X7X7X9XeXeXeXtXxXtXtXtXtXeXeXeXrXeXeXeXeX7X5X*X%X%X=X*X*X*X<X6X6X6X6X6X6X7X7X7X6X7X7X7XwXwXwXwXeXeXeXeXeXeXtXtXtXtXtXyXtXeX7X1X1X1X6X6X6X6X6X0X6X7X7X7X&X].W.T.Q.&X7XtXtXeXeXtXtXtXtXtXtXtXtXtXtXtXtXtXyXyXyXyXyXyXyXyXyXyXyXyXyXyXxXxXxXxXcXcXcXcXyXuX=X`.M.M.C.C.C.G.G.G.G.G.`.`.`.`.`.`.Z.Z.`.`.`.`.`.`.`.`.`.`.`.`.`.`.`.`.`.`.`.Z.Z.Z.V.c.l.j.x.c.V.V.C.V.V.V.V.V.C.C.G.G.G.G.`.Z.Z.Z.C.m.m.c.c.m.m.V.C.C.C.C.C.C.C.C.Z.Z.Z.Z.Z.Z.C.C.`.`.`.`._.Y.M.M.M.b.M.=XuXNXAXAXAXCXCXCXCXCXZXZXZXCXZXCXCXCXCXCXCXCXCXCXCXCXMXMXcXcXxXxXxXxXxXeX<X%X%X#X#X#X%X=X1X7XwXtXxXmXMXMXMXCXCXCXMXMXMXMXmXmXmXMXCXCXFXFXGXFXFXZXZXZXCXCXCXCXCXCXCXCXCXCXCXCXZXZXCXCXCXZXCXCXZXZXFXZXZXZXZXZXZXZXFXFXFXFXFXFXFXFXFXMXxX9X6X6X6X6X6X6X6X6X0X9X9X9X7X7X7X7XeXeXeXeXeXeXeXeXeXeXeXeXeXeXxXxXxXtXeXeXeXxXxXxXxXxXcXxXzXtXzXeXeXxXxXcXcXxXxXxXeXeXeXeXeX7XeXeXeXtXxXxXxXcXcXcXxXeX5X=X&X5X9XfXsX~.h. .D g g h g g g f d d d d i i i i i e e e e w w w w q ",
"tXqXtXtXtXtXtXtXtXtXtXqXqX9X9X0X5X<X<X%X&X%X&X#X#X[.E.W.T.Y.I.I.n.v.g.g.g.g.g.g.g.g.g.g.g.g.g.g.g.g.h.r.e.e.6.;.;.e.I.W.+X+X@XE.W.T.T.T.W.W.T.W.E.E.[.@X@XE.E.].E.T.T.@X*X*X*X*X@XQ.Q.].#X#X#X#X%X=X6X7X7XeXeXeXeXeXeXeXeXyXtXeXtXtXeXeXeXeX7X6X7XeX9X7X6X6X6X5X<X<X6X6X6X6X6X1X<X*X*X*X1X6X7X7XwXwXeXwXwXwXeXeXeXeXeXeXtXtXtXtXtXyXyXtXwX6X6X1X1X6X6X6X0X0X6X7X7X7X<X#XE.T.T.[.<XeXtXeXeXeXtXtXtXtXtXtXtXtXtXtXtXtXyXyXyXyXyXyXyXyXyXyXyXyXyXyXxXxXxXxXcXcXcXmXNXyXrX=XM.M.C.C.C.C.G.G.G.G.`.`.`.`.`.`.G.G.`.`.`.`.`.`.`.`.`.`.`.`.`.`.`.`.`.`.Z.Z.Z.Z.C.V.c.l.j.x.m.V.C.C.C.V.V.V.C.Z.G.G.G.G.Z.Z.Z.Z.C.C.m.m.m.m.V.V.C.C.C.C.C.C.C.C.Z.Z.Z.Z.Z.Z.C.C.`.`.`.`._.M.M.b.b.M.{.rXyXAXAXZXCXCXCXCXCXCXZXZXZXCXZXCXCXCXCXMXCXMXCXZXCXCXMXmXcXxXxXxXxXyXtX7X*X#X#X#X#X#X=X<X6XwXtXxXmXMXCXCXMXMXCXCXMXMXMXmXmXmXMXCXCXCXFXFXFXFXZXCXMXMXMXCXCXCXCXCXCXCXCXCXCXCXZXCXCXCXZXZXCXCXZXZXZXZXZXZXZXZXZXZXFXFXFXFXFXFXFXFXZXMXzX9X6X6X6X6X6X6X6X6X0X0X7X7X7X7X7X7X7X7XeXeXeXeXeXeXeXeXeXeXeXeXxXxXxXtXeXeXeXxXxXxXxXxXcXxXxXxXxXxXxXxXcXcXcXxXxXxXtXeXeXeXeXeXeXxXxXxXcXcXcXcXcXcXxXeX5X=X*X6X9XzXfX4XU.:.] D g g g g g f d d d d i i i i i e e e t w w w w w ",
"tXqXtXtXtXtXtXtXtXtXtXtXqX9X9X0X0X0X<X,X%X&X#X#X[.Q.Q.T.Y.I.I.n.n.g.g.g.v.v.v.v.g.g.g.g.g.g.g.g.g.g.h.e.e.e.6.;.e.I.E.@X&X&X@X@X[.].E.E.W.T.T.[.@X[.E.E.Q.T.W.E.E.E.&X9XeX7X#X].Q.T.T.].[.@X#X#X=X<XwXeXeXeXeXeXeXeXeXeXeXyXeXeXtXtXeXeXeX7X6X6X7XeXwXwXeXeXeXeX9XeX7X6X6X6X1X1X<X*X1X1X1X6XwXwXwXwXeXeXeXeXeXeXeXeXeXeXtXtXyXyXyXtXyXyXtX7X6X6X1X6X6X6X0X7X7X7X7X7X5X%X[.W.Y.W.%X9XeXeXeXtXtXtXtXtXtXtXtXtXtXtXtXtXyXtXyXyXyXyXyXyXyXyXyXyXyXxXxXxXcXxXcXcXmXmXMXpXuX1X{.`.T.M.C.G.`.`.`.C.`.`.`.`.`.`.G.G.`.`.`.`.`.`.`.`.`.`.G.`.G.G.`.`.`.`.Z.Z.Z.Z.Z.C.V.c.x.j.x.m.C.C.C.C.C.C.C.Z.G.G.G.G.Z.Z.Z.Z.Z.C.C.V.V.V.C.C.C.C.C.C.C.C.C.C.Z.Z.Z.Z.`.`.`.`.`.`.`.`._.M.b.z.b.`.1XNXZXAXZXZXCXCXCXCXCXCXZXZXZXZXZXZXZXCXCXCXmXCXZXZXFXCXCXmXcXxXcXxXyXyXeX6X=X#X#X#X#X=X=X1XwXtXxXmXMXCXCXCXCXCXCXMXMXMXmXmXmXmXMXCXCXCXFXFXFXZXCXMXMXMXMXCXCXCXCXCXZXZXZXZXZXZXCXCXZXZXZXZXCXCXCXCXZXZXZXZXZXZXZXZXFXFXFXFXGXFXFXZXCXMXtX7X6X6X6X6X6X6X6X6X0X0X0X0X0X6X7X7X7X7XeXeX7X7XeXeXeXeXeXeXeXeXxXxXxXtXeXeXxXxXxXxXxXcXcXcXxXcXcXcXcXmXmXcXcXxXxXxXxXxXeXeXeXxXxXxXcXcXcXcXcXcXcXcXxXeX6X*X<X7XzXnXvXfX~.g.#.I g g g g g f g f d d d i i i i r e e e w w w w w ",
"tXqXtXtXtXtXtXtXtXtXtXtX9X9X9X0X0X0X0X,X&X#X#X[.E.Q.T.Y.Y.I.I.I.v.g.g.g.v.v.v.v.g.g.g.g.g.g.g.g.g.h.r.e.e.6.;.e.h.W.@X&X&X$X@X+XE.E.E.Q.T.T.E.@X&X@XE.Q.W.T.Q.&X*XzX9X*X#X@X].].].@X#X%X=X*X;X;X6X6XeXeXeXeXeXeXeXeXeXeXtXxXxXxXyXeXrXeX6X6X6X7XwXeXwXeXeXxXcXxXeXeXeXeX6X6X1X1X1X6X7X7X7X7XwXwXwXwXeXeXeXeXeXeXeXeXeXeXtXtXyXyXyXtXyXyXtXwX6X6X1X6X6X6X6X6X6X7X7X7X6X=X#XE.T.Q.[.6X7XeXeXeXtXtXtXtXtXtXtXtXtXtXtXtXyXtXyXyXyXyXyXyXyXyXyXyXxXxXxXxXcXxXcXcXmXmXNXNXuXuX1X].`.M.C.G.G.`.`._.`.`.`.`.`.`.Z.Z.`.`.`.`.`.`.`.`.`.`.G.G.G.`.`.Z.G.Z.Z.Z.Z.Z.Z.C.C.V.c.x.j.x.c.V.C.C.C.C.C.G.G.G.G.G.Z.Z.Z.Z.Z.C.C.C.C.C.C.C.C.C.C.C.Z.Z.C.C.C.Z.Z.Z.`.`.`.`.`.`.`.`.M.M.z.v.Y.=XuXmXZXZXZXZXCXCXCXCXCXCXZXZXZXZXZXZXZXCXCXMXmXCXZXGXGXCXCXmXcXxXxXxXtXeXwX<X%X#X#X#X=X=X*X7XeXxXcXmXMXCXCXCXMXMXMXMXMXmXmXmXmXmXCXCXCXCXZXZXCXCXCXCXCXCXCXCXCXCXCXCXZXZXZXZXZXZXCXCXZXZXZXZXCXCXCXCXZXZXZXZXZXZXZXZXFXFXFXFXGXFXFXZXCXcXtX0X6X6X6X6X6X6X6X5X5X5X6X6X0X7X7X7XeX7X7X7X7X7XeX7X7X7XeXeXeXeXtXxXxXeXeXeXxXxXxXxXxXcXcXcXcXmXmXmXMXMXmXcXxXxXtXxXxXxXxXtXxXcXcXcXcXcXcXcXcXcXcXxXxXeX6X1X6X9XzXnXvXvX8XR.>.{ H s g g g f g d d d d i i i i r e e e w w w w w ",
"zXtXzXtXtXtXtXtXtXqXqXqXtX9X7X0X0X0X5X,X%X#X[.E.Q.T.T.Y.I.I.I.n.n.n.g.g.g.g.g.g.g.g.g.g.g.g.g.g.h.h.e.e.6.;.e.h.W.@X#X@X#X&X@X@X].E.E.Q.W.T.E.E.].].].E.].].&X6X0X*X*X@X].+X[.@X#X=X;X;X6X6XwXeX9X7XeXeXeXeXeXeXeXeXeXeXtXxXxXxXtXeXeX7X6X6XwXeXeXrX9XeXeXxXmXmXcXtXxXeXeX7X6X6X6X7X7X7X7X7XwXwXwXwXwXwXwXwXwXwXeXeXeXeXeXtXtXtXyXyXyXyXyXeX7X6X6X6X6X6X0X0X0X7X7X9X0X<X&X].W.T.].*X7XeXtXeXeXeXtXtXtXtXtXtXtXtXtXtXtXtXyXyXyXyXyXyXyXyXyXyXxXxXxXxXcXcXcXcXmXmXNXNXyXuXuX=X{.`._.`.`.`._._._._.G.G.`.`._._._._.Z.Z.Z.Z.Z.Z.G.Z.G.G.G.G.G.Z.Z.Z.Z.Z.Z.C.C.C.C.V.m.x.j.j.x.c.m.C.C.C.C.Z.G.`.G.G.G.G.Z.Z.Z.Z.C.C.C.C.A.C.C.C.C.Z.Z.Z.Z.Z.Z.Z.C._.`.`.`.`.`.`.`._.M.b.k.M.1XyXmXAXZXZXCXCXCXCXCXCXCXCXZXZXZXZXZXZXZXCXCXCXCXCXZXGXGXFXCXMXmXcXcXyXyXeX7X*X#X#X#X#X=X*X1XwXtXxXcXMXMXCXCXMXMXMXMXMXMXmXmXmXmXmXMXCXCXCXZXCXCXCXCXCXCXCXCXZXZXZXZXZXZXZXZXCXCXCXCXCXZXCXCXZXZXZXZXZXZXZXFXZXZXZXFXFXFXFXGXGXGXGXZXZXMXcXeX0X5X0X5X5X5X5X5X5X6X6X6X6X9X9XeXeXeX9X7X6X6X6X6X7X7X7XeX9XeXeXtXxXxXeXeXxXxXxXxXxXxXmXMXMXMXmXmXMXMXMXmXxXxXtXeXzXxXxXxXxXcXmXmXcXcXcXcXcXcXcXcXxXxXeX6X6X7XeXzXxXxXnXzX-XI.*.R H f g g k f d d d d i i i i r e e e w w w w w ",
"zXtXzXtXtXtXtXtXtXtXqXqXtX9X9X0X0X0X5X,X&X#X[.Q.W.T.Y.I.I.I.n.n.n.n.v.n.g.g.g.g.g.v.g.g.g.g.g.g.h.e.e.;.;.;.h.Y.[.&X#X@X@X@X@X@X[.E.E.W.Q.W.E.W.T.Q.@X&X*X9XeX0X*X&X@X#X&X*X*X*X;X6X6X6X6X6XwXrXeX7XeXeXeXeXeXeXeXeXeXeXeXeXtXeXeXrXeXwXwXrXeXrXeXrX9XeXeXxXmXmXcXxXcXcXxXeXeX7X6X6X6X6X6X6X7X7XwXwXwXwXeXwXwXeXeXeXeXeXtXtXtXtXyXyXyXyXyXtXeX6X6X6X6X6X0X0X0X6X7X9X7X5X&X@XQ.T.W.#X6XeXtXeXeXeXtXtXtXtXtXtXtXtXtXtXtXtXyXyXyXyXyXyXyXyXyXyXxXxXxXxXcXcXcXcXmXmXmXmXNXyXuXuX1X{.`._.`.`._._._.`.`.`.`.G.C.C.C.C.C.C.C.C.C.C.Z.C.C.C.Z.Z.Z.Z.C.C.C.C.C.C.C.A.A.A.V.m.x.l.l.x.x.c.V.C.C.Z.Z.G.`.`.`.`.`.`.G.Z.Z.C.C.C.C.C.C.C.Z.Z.Z.Z.Z.Z.Z.Z._._.`.`.`.`.`.`.`._.M.k.v.].uXmXZXZXZXZXCXCXCXCXCXCXCXCXCXCXZXZXZXZXZXCXCXCXZXZXFXGXGXFXCXMXmXcXcXyXtXwX6X=X#X#X#X#X=X<X7XeXyXxXcXMXMXMXMXMXMXMXMXmXmXcXcXcXcXmXMXCXCXCXCXCXCXCXCXCXZXZXZXZXZXZXZXZXZXZXZXCXCXCXCXCXCXCXCXCXZXZXZXZXZXZXFXZXZXZXFXFXFXFXGXGXGXGXZXCXMXxXeX6X5X5X5X5X5X5X5X5X6X6X6X6X7X9XwXwX7X7X6X5X<X<X6X6X6X6X7X7XeXeXeXxXxXeXeXxXxXxXxXxXmXMXFXCXMXMXMXMXMXmXcXxXeXeXeXtXxXxXcXmXmXmXcXcXcXcXcXcXcXcXxXxXtXeX6X6X9XeXzXxXxXxXnXfX~.g.#.H g g g k f d d d d i i i i r e e e w w w w w ",
"zXtXzXtXtXtXqXqXtXtXqXqXtX9X9X0X6X5X<X&X#X#X].Q.T.Y.I.I.I.n.n.n.n.n.n.n.n.n.v.n.v.v.v.v.g.g.h.h.e.e.6.;.;.h.I.Q.[.#X#X#X#X#X@X[.[.E.E.Q.W.E.W.W.W.E.%X9XzXzX0X&X&X=X5X6X7X9X7X7XwXeXwXwX7XwXwXeXeX7XeXeXeXeXeXeXeXeXeXeXrXrXeXeXeXeXrXeXrXrXeXeXeXrXeXeXeXxXcXcXcXcXcXcXcXcXcXxXeX6X6X6X6X1X6X7XwXwXwXwXeXeXwXeXeXeXeXeXeXtXtXtXyXyXyXyXyXyXeX7X7X7X7X7X7X7X7X6X0X9X9X6X*X&X].T.T.E.5XeXtXeXeXeXtXtXtXtXtXtXtXtXtXtXtXtXyXyXyXyXyXyXyXyXyXyXxXxXxXxXcXcXcXcXmXmXmXmXmXMXNXuXuX=X{.`.`.`.`.`.`.`._.Z.`.`.C.C.C.C.C.C.C.C.C.C.C.C.C.C.C.C.Z.Z.Z.C.C.C.C.C.C.C.C.C.C.C.c.x.x.x.x.x.c.C.C.C.Z.G.`.`.`.`.`.`.`.G.G.G.Z.C.C.C.C.C.C.C.C.C.Z.Z.Z.Z.G.G.`.`.`.`.`.`.`._.z.k.Y.1XNXZXZXZXZXZXCXCXCXCXCXCXCXCXCXCXZXZXFXZXZXZXZXZXZXZXGXGXGXFXCXMXmXcXcXyXeXwX<X=X#X#X%X%X*X6XeXyXxXxXmXMXMXMXMXMXMXMXmXmXcXcXcXcXxXcXmXMXCXCXZXFXGXFXFXFXFXFXZXFXZXZXZXZXZXFXFXCXCXCXCXCXCXCXCXCXCXCXZXZXZXZXZXZXZXZXFXFXGXGXGXGXGXGXZXCXMXxX9X5X*X*X*X*X5X;X5X5X6X6X6X6X6X6X6X7X6X6X5X*X*X*X*X*X*X6X7X7XeXeXeXxXtXeXeXxXxXxXxXmXZXFXFXCXCXMXMXMXMXmXxXeXeXeXeXeXxXcXmXmXmXmXmXmXcXcXcXcXxXxXcXxXtXeX7X7XtXzXxXcXcXzXzXzXfXW.e.{ h f g f f f s d d d i i i r e e e w w w w w ",
"zXtXzXtXtXtXtXqXtXqXqXqXtX9X9X0X0X5X<X&X#X[.E.W.Y.Y.I.n.n.n.n.n.n.n.n.n.v.v.v.g.v.v.v.v.g.g.h.h.e.6.;.6.e.I.W.E.[.[.#X#X#X#X#X[.@XE.E.Q.Q.E.T.E.&X*X0X7X6X&X&X&X&X*X0XeXeXeXeX7XeXeXeXwXwXwXwXeXeX7XeXeXeXeXeXeXeXeXeXeXeXeXwX7X7XwXeXeXtXtXeXeXeXrXeXeXeXxXcXcXcXxXcXcXcXcXmXmXxXeX6X1X1X6X6X7X7XwXwXwXeXeXwXwXeXeXeXeXeXtXtXtXyXyXyXyXyXyXtXwX7X7X7X7X7X7X7X6X7X7X9X7X6X&X@XW.T.T.%XeXxXtXtXtXtXtXtXtXtXtXtXtXtXtXtXtXtXtXyXyXyXyXyXyXyXyXxXxXxXxXcXcXcXcXmXmXmXmXmXmXNXNXuXrX=X`.`.`._.`.`.`.`.Z.`.C.C.C.C.C.C.C.C.C.M.M.C.C.C.C.A.C.C.C.C.C.C.C.C.C.C.C.V.V.C.C.V.m.c.c.x.x.x.c.V.C.G.`.`.`.`.`.`.`.`.`.G.G.Z.Z.Z.C.C.C.C.C.C.Z.Z.Z.Z.Z.G.G.`.`.`.`.`.`._.Y.r.k.=XuXAXZXZXZXZXZXCXCXCXCXCXCXZXZXZXCXCXZXFXZXZXZXZXZXZXZXGXGXFXFXCXCXmXcXcXyXwX6X*X#X#X#X%X=X<X7XtXxXcXcXmXmXMXMXMXMXMXmXmXcXcXxXxXxXxXxXmXMXCXCXZXFXGXFXGXFXFXFXFXFXZXZXZXZXCXCXCXCXCXCXCXCXCXCXCXCXCXCXCXZXZXZXZXZXZXZXFXFXGXGXGXGXGXZXZXCXMXxX9X5X*X*X*X*X*X*X*X*X*X5X6X6X6X6X6X6X6X*X*X=X=X=X=X=X*X6X7X7XeXeXeXtXeXeXeXxXxXxXcXMXFXFXFXMXMXMXMXMXmXcXxXeXeXeXeXeXxXcXcXcXmXmXmXmXcXcXcXcXxXcXcXxXtXeX7XeXzXxXcXMXMXxXzXlXnX-XI.:.G f g f f f s d d d i i i r e e e w w w w w ",
"zXtXzXtXtXtXqXqXqXtXqXqXtX9X9X0X5X<X%X@X[.[.Q.T.T.Y.I.n.n.n.n.n.n.n.n.v.v.g.g.g.g.g.g.g.g.h.h.e.e.;.;.e.g.T.E.[.@X@X#X@X[.[.[.[.@X].E.E.E.].E.&X5X0X6X=X#X@X@X=X*X6X9XeXlXeXeXwXrXeXeXrXwXwXwXrXeX7XeXeXeXeXeX7XeXeXeX7X7X7X7X7X7X7XeXrXrXrXeXeXeXrXeXeXeXxXxXxXxXxXxXxXxXcXmXmXcXxXeX7X6X6X6X6X7XwXwXwXeXeXeXeXeXeXtXtXtXtXtXtXtXtXyXyXyXyXyXeXwX7X7X7X7X7X7X7X7X7X9X9X7X*X#X].W.T.].0XxXxXxXxXtXtXtXtXtXtXtXtXtXtXtXtXtXtXyXyXyXyXyXyXxXxXxXxXxXxXcXcXmXmXcXcXmXmXMXNXmXNXNXyXwX{.`.`.`.`.`.`.`.`._._.C.C.C.C.C.C.C.C.M.m.C.C.C.V.A.C.A.C.C.A.C.C.C.C.C.C.C.C.C.C.C.C.m.c.c.x.x.x.c.C.Z.`.`.`.`.`.`.'.`.`.`.G.G.Z.C.C.Z.Z.Z.C._._.Z.Z._._.`.`.`.`.`.`.`._.Y.b.r.`.rXNXAXZXZXZXZXZXZXCXCXCXCXCXZXZXZXCXZXZXGXFXZXZXZXZXFXGXGXGXFXFXCXCXMXmXcXyXwX1X=X#X#X=X*X<X6XeXyXxXcXcXcXmXmXmXMXmXmXmXcXcXcXxXxXxXxXmXMXCXCXCXFXFXFXGXFXFXGXFXFXFXFXFXZXCXCXCXCXCXCXCXCXCXCXCXZXZXZXCXCXCXFXFXZXZXCXFXFXFXFXFXGXFXFXZXCXZXMXcXeX<X&X&X&X&X&X*X*X*X;X;X;X;X*X*X*X*X*X=X*X=X=X=X*X*X6X6X7XeXeXeXeXeXeXeXeXxXxXxXmXCXFXFXFXMXMXMXMXmXcXxXeXeXeXeXeXxXcXcXcXcXcXcXcXcXcXcXcXcXcXcXcXxXzXeX7XeXxXcXcXmXmXcXzXzXfXfX$XL. .G g g f f s d d i i i i r r e e e e w w w ",
"zXtXzXtXtXtXtXqXtX9XqXqX9X9X0X5X<X,X&X#X[.E.Q.T.T.Y.I.n.n.n.n.n.n.n.v.g.v.g.g.g.g.g.g.g.h.h.e.e.e.6.e.h.T.Q.E.[.@X@X[.[.[.[.[.].E.].E.E.].&X0XeX0X*X#X#X@X#X=X=X;X6XeXeXlXeXeXwXeXeXeXrXwXwXwXwXeXeXeXeXeXeX7X6X6X6X6X6X7X6X7X7XwXwXeXeXrXrXeXeXeXeXeXeXeXeXeXtXxXxXxXxXxXxXxXcXxXcXcXxXeX6X6X6X6XwXwXwXeXeXeXeXeXeXtXtXtXtXtXtXtXtXyXyXyXyXyXeXwXwXwX7X7X7X7X7X7X7X9XeX9X6X*X&X].T.T.%XeXxXxXyXtXtXtXtXtXtXtXtXtXtXtXtXeXtXyXyXyXyXyXyXxXxXxXxXxXxXcXcXmXmXmXmXmXmXMXMXmXNXNXNXyXwX{.`.`.`.`.`._.C._.C.C.C.C.C.C.C.C.C.C.C.C.C.C.C.C.C.C.C.C.C.C.C.C.C.C.V.C.C.V.V.C.C.C.m.m.c.x.x.x.m.C.Z.`.`.`.`.`.`.`.`.`.`.G.Z.Z.Z.Z.Z.Z.C._._.Z.Z._._.`.`.`.`.`.`._.Y.b.k.b.{.yXNXAXZXZXZXZXZXZXZXCXCXCXCXZXZXZXZXZXFXFXFXZXZXGXFXGXFXFXFXFXFXFXCXMXcXcXtXwX1X=X#X#X=X1X6X7XtXxXxXxXxXcXmXmXmXmXmXmXcXcXcXcXcXxXxXmXMXCXZXCXCXFXFXFXGXFXFXGXFXFXFXFXFXZXCXCXCXCXCXCXCXCXCXCXCXCXZXCXCXCXCXZXZXZXZXCXCXFXFXFXFXGXZXZXZXZXCXMXcX9X*X&X&X&X&X&X&X*X*X*X*X*X*X*X*X=X=X=X*X*X*X*X*X*X6X6X6X7XeXeXeXeXeXeXeXxXxXxXcXMXZXFXFXMXMXMXMXmXcXxXeXeXeXeXeXxXcXcXcXcXcXcXcXcXcXcXcXcXcXcXcXcXxXeXeXeXxXcXcXcXcXcXcXzXlX9XlX-XU.*.] h g f f s d d i i i i r r e e e e w w w ",
"zXtXzXtXtXtXtXqXtX9XtX9X9X0X5X<X,X%X@X[.E.Q.W.T.Y.I.I.n.n.n.n.n.n.n.n.v.g.g.g.g.g.g.g.g.h.e.e.e.e.e.e.I.E.E.~.~.@X@X[.[.[.[.[.].E.].@X&X5XxXzX&X@X&X&X%X#X=X*X6X6X9XeXlXlXeXeXwXeXeXeXeXeXrXrXwXeXeXeXeXeXeXeX6X6X6X6X7X7XwXeXeXeXeXeXeXwXrXtXxXtXeXeXeXeXeXeXeXtXtXxXxXxXxXxXxXxXxXxXxXxXeX6X7X6X7XwX7XwXeXeXeXeXeXtXtXtXtXtXtXtXtXyXyXyXyXyXtXeXeXwXwX9X9X9X9X9X9XeXeX9X9X5X&X].T.T.].*XeXeXeXeXeXtXtXtXtXyXtXtXtXtXtXtXtXuXuXyXyXyXyXxXxXcXcXxXxXcXcXmXmXmXmXmXmXMXMXmXmXNXNXNXyXwX#X`.T.T.T._._._._.C.C.C.C.C.C.C.C.m.m.m.m.C.C.V.V.C.C.C.C.C.C.C.V.V.V.V.V.V.V.C.C.C.C.m.m.c.x.x.x.m.C.Z.`.`.`.`.`.`.`.`.`.`.Z.G.G.Z.Z.Z.Z._._._.Z._._._.`._._.`.`.T.M.k.u.`.rXNXNXAXZXZXZXZXZXZXZXCXCXCXCXZXZXZXZXFXZXZXZXZXZXGXGXGXGXFXFXFXFXFXFXCXmXcXtXwX1X=X%X=X1X6X7XeXyXxXcXxXxXcXcXmXmXmXmXmXcXcXcXcXcXxXcXMXFXFXCXFXFXGXGXGXFXFXFXFXFXFXFXFXFXFXZXCXCXCXCXCXCXCXCXCXCXCXCXCXCXCXZXZXZXZXZXZXZXFXFXFXFXGXZXFXCXCXCXMXzX7X=X#X&X&X&X&X&X=X=X*X*X&X&X&X&X=X=X=X=X*X<X6X6X6X6X6X7X7XeX7XeXeXeXeXeXxXxXcXmXCXFXFXMXMXMXMXmXcXxXeXeXeXeXeXxXcXcXcXcXcXcXcXcXcXcXcXcXcXcXcXcXcXxXeXeXeXcXmXcXcXcXxXxXeXeX9X9X0X~.L. .G f f f s f d i i i i r r e e e e w e w ",
"zXtXzXtXtXtXtXqXtX9X9X9X9X0X5X<X%X&X#XE.Q.Q.T.Y.Y.I.n.n.n.n.n.n.g.n.n.v.n.g.g.g.g.g.g.g.h.e.e.e.e.e.g.E.[.~.~.~.@X@X[.[.[.[.[.[.@X&X5XeXeX0X&X*X*X=X*X<X*X=X*X6XeXeXlXxXlXeXwXwXrXeXeXeXeXeXeXrXeXeXeXeXeXeXeX7X7X7XeXeXeXrXrXrXeXeXeXeXwXrXxXxXxXeXeXeXeXeXeXeXeXeXxXxXxXxXxXxXxXtXtXtXxXxXeX7X6X6X7X7XwXwXeXeXeXeXtXtXtXtXtXtXtXtXyXyXyXyXyXtXeXeXwXwX9X9X9X9X9X9XeXeXeXeX0X*X@X].T.T.].6XeXeXeXeXtXtXtXtXyXtXtXtXtXtXtXtXuXyXyXyXyXyXxXxXcXcXxXxXcXcXmXmXmXmXmXmXMXmXmXmXMXNXmXNXyX1X{.`.Y.Y.T._._._.C.C.C.C.C.C.C.C.m.m.m.m.C.C.C.V.C.C.C.C.C.C.C.V.V.V.V.V.V.V.C.C.C.C.C.V.m.c.c.x.c.m.C.Z.`.`.`.`.`.`.`.`.`.G.G.G.Z.Z.Z.Z._._._.Z._._._._._._._._.M.k.r.v.=XNXAXNXZXZXZXZXZXZXZXZXCXCXFXFXZXZXZXZXGXGXZXZXZXZXGXGXGXGXFXFXFXFXFXFXCXmXcXtXwX1X=X=X*X6X7XwXtXyXxXcXcXxXcXmXmXmXmXmXmXcXcXcXcXcXcXMXCXCXFXFXFXFXGXGXGXFXFXFXFXFXFXFXFXFXFXZXZXCXCXCXCXCXCXCXCXCXCXCXCXCXZXZXZXZXZXZXZXZXFXFXFXFXGXZXFXCXCXMXcXtX6X=X&X&X=X=X&X&X=X%X%X%X%X%X#X#X%X&X=X=X<X6X6X6X7X6X6X7X7XeX7XeXeXeXeXeXxXcXcXMXFXCXMXMXMXmXmXcXxXeXeXeXeXeXxXcXcXcXcXcXcXcXcXcXcXcXcXcXcXcXcXcXxXxXeXeXxXmXmXcXcXxXxXeXeX9X9X7X0X-XU.*.] h g f s f d i i i i r r e e e e w e w ",
"zXtXzXtXtXtXtXqXtXqX9X9X0X5X<X,X#X#X[.Q.Q.W.T.Y.I.I.n.n.n.n.n.n.n.n.v.v.g.g.g.g.g.g.g.h.e.e.e.e.e.g.E.&X@X@X@X!.~.@X[.[.E.[.@X@X%X0XzXzX9X&X*X6X6X6X6X6X6X*X*X7XrXeXeXyXeXeX7XeXrXrXrXrXrXrXeXrXeXrXeXeXeXeXeXwX7XeXrXeXeXeXeXeXrXrXrXeXrXrXxXxXxXeXeXeXeXeXeXrXeXeXtXyXyXyXyXyXtXeXeXtXeXxXtXeX7X7X7XwXwXwXeXeXtXtXtXtXtXtXtXtXyXyXyXyXyXxXyXyXtXeXwXwXwXwXwXwXwXwXeXeXeXeX7X6X&X[.Q.T.T.#X6XeXeXeXeXeXtXtXtXtXyXtXyXtXtXtXyXyXyXyXxXxXxXxXxXcXcXcXcXcXmXmXmXmXmXmXmXmXmXmXMXMXNXNXNXuX1X{.`.T.M._._.C.C.C.C.C.C.C.M.M.M.M.M.m.C.C.C.C.C.C.V.V.C.m.m.m.m.m.m.m.V.C.C.C.C.C.C.C.V.m.m.c.z.z.m.m.C.`.`.`.`.`.`.`.`.`.`.`.Z.Z.Z.Z.`.`.`.Z._._._._._._._.M.z.k.r.M.rXNXAXZXCXZXZXZXCXCXCXCXFXFXFXFXCXCXCXFXGXFXCXCXFXFXGXGXGXGXFXFXFXFXFXCXMXmXcXtXwX1X=X*X1X6XwXeXtXyXxXxXcXcXmXmXmXmXmXcXcXcXcXcXcXmXmXMXCXCXFXFXFXFXGXFXFXFXFXFXFXFXFXFXFXFXFXFXZXCXCXCXCXCXCXCXCXCXCXCXCXCXCXCXZXZXZXZXZXZXZXFXFXFXFXFXFXZXCXMXcXtX5X&X&X*X=X=X%X%X%X%X%X%X&X&X&X&X%X&X&X*X5X5X6X0X7X7X0X0X7X7X7X7XeXeXeXtXxXcXmXMXFXMXMXMXmXcXcXxXeXrXrXeXtXxXcXmXcXcXcXcXcXcXcXcXcXcXcXxXxXxXcXcXxXtXeXzXcXmXcXxXxXeXeXeX7X0X7X0X0X8X!.>.| G g g s d d i i i i i r e e e e w w w ",
"zXtXzXtXtXtXtXqXtXqX9X0X0X1X<X,X#X#X[.Q.Q.W.T.Y.I.n.n.n.n.n.n.n.n.n.g.g.n.n.n.n.g.g.h.e.e.e.e.e.g.W.&X&X@X@X!.~.~.~.[.[.].[.&X&X6XxXnX6X*X*X6X7XeX7X7X6X6X6X*X*XwXeXtXrXrXwXeXeXeXeXeXeXrXrXrXeXeXrXeXlXtXeXeXwX7X7XeXrXeXeXeXeXrXeXeXrXtXeXxXxXxXeXeXeXrXrXwXwX7XwXwXeXtXyXyXyXyXtXeXtXeXeXeXeXtXeXwXwXwXeXeXeXtXtXtXtXtXtXtXtXyXyXyXyXyXxXyXyXyXtXeXwXwXwXwXwXwXwXeXeXeXeXeX7X6X%X[.Q.T.T.#X7XeXeXeXeXtXtXtXtXyXtXyXyXtXtXyXyXyXyXxXyXxXxXxXcXcXcXcXcXmXmXmXmXmXmXmXmXmXmXMXMXNXNXNXNXuX6X#X`.M.M.C.C.C.C.C.C.C.C.M.M.M.m.M.M.C.C.C.C.C.C.V.V.C.m.M.M.m.m.m.m.C.C.C.C.C.C.C.C.C.C.m.m.m.m.z.z.m.C.`.`.`.`.`.`.`.`.`.`.Z.Z.Z.Z.`.`.`.Z._._._.C.M.M.M.b.k.r.v.].cXAXZXZXZXZXZXZXCXCXCXCXFXFXFXFXCXCXCXFXFXCXCXFXGXGXGXGXGXGXFXFXFXFXFXCXMXcXxXeX6X*X*X6X6X7XwXtXyXyXyXyXcXcXmXmXmXmXmXcXcXcXcXcXcXmXMXCXCXCXFXFXGXGXGXFXFXFXFXFXFXFXFXFXFXFXFXFXFXCXCXCXCXCXCXCXCXCXCXCXCXCXCXCXZXZXZXZXZXZXZXZXFXFXFXFXFXZXCXMXxXeX5X&X&X&X&X&X%X%X&X&X%X%X%X%X%X%X&X&X*X*X5X0X6X0X7X7X6X0X7X7X7X9XeXeXeXtXcXmXMXFXFXMXMXmXcXxXlXeXeXrXrXeXxXcXmXmXmXcXcXcXcXcXcXcXcXcXcXxXxXxXcXcXxXtXeXxXmXcXcXxXeXwX7X6X6X6X6X6X0X8X~.L.#.U h g s d d d i i i r e e e e e w w w ",
"zXtXzXtXtXtXtXqXtXqX9X0X1X<X,X&X#X@X[.Q.Q.T.T.Y.I.n.n.n.n.n.n.n.n.n.n.n.n.n.n.n.g.h.t.e.e.e.e.t.T.[.&X@X@X@X@X+X~.[.[.[.@X&X*XeXzXeX*X*X6X9XeXeXeXeX7X6X6X7X6X*X;XrXxXeX7XeXeXeXwX7XwXwXwXwXeXeXeXrXeXeXeXeXrXwX7X7XeXrXeXeXeXeXeXtXtXtXxXyXxXxXxXxXeXeXeXeXeXrXwXwXwXwXeXeXyXtXtXtXtXtXeXeXeXeXeXeXtXeXwXeXeXtXtXtXtXtXtXtXtXtXyXyXyXxXxXxXxXxXyXxXtXeXeXeXeXwXwXwXeXeXeXeXeXeX7X<X%X].Q.T.Q.=XeXeXeXeXeXeXyXyXyXyXyXyXyXyXyXyXyXyXyXyXxXxXcXcXcXcXcXcXmXmXmXmXmXmXmXmXMXMXMXMXMXNXNXNXpXuX6X[._.M.M.M.M.M.C.M.M.M.M.M.M.m.M.M.m.m.m.m.C.V.V.m.M.m.M.M.C.C.C.C.C.C.C.C.C.C.C.C.C.C.C.m.m.m.m.z.c.m.C.`.`.`.`.`.`.`.`.`.G.`.`.`.`.`.`._._.C._.M.M.M.M.k.7.7.M.rXNXAXZXZXZXZXZXZXFXFXFXFXFXFXFXFXFXFXFXFXFXCXFXGXGXGXGXGXGXGXFXFXFXFXCXmXcXxXtXwX1X=X<X7XwXwXtXyXyXyXyXyXcXmXMXmXMXMXmXcXcXcXcXcXcXmXMXCXFXFXFXGXGXGXGXFXGXFXFXFXFXFXFXFXFXFXFXFXFXZXCXCXCXCXCXCXCXCXCXCXCXCXCXZXZXZXZXZXZXZXZXZXFXFXFXFXGXZXMXMXxX9X*X&X&X#X&X&X&X&X&X&X%X%X%X%X%X%X=X=X*X*X5X6X6X0X7X7X7X7X7X7X7X7XeXeXeXxXcXMXCXFXCXMXmXcXxXtXrXrXrXrXtXxXcXcXcXmXcXcXcXxXcXcXcXcXcXcXxXxXxXxXxXxXxXtXxXcXmXcXcXxXeX6X6X6X6X6X0X7X0X8X-XU.*.G G g g s s d i i i r r e e e e w w w ",
"zXtXzXtXtXtXtXqXqX9X0X5X<X,X%X&X#X@X[.Q.Q.T.Y.Y.I.n.n.n.n.n.n.n.n.n.n.n.n.n.n.n.g.h.h.t.e.e.e.I.E.@X@X@X@X@X@X+X!.E.].[.&X*X9XzXeX5X*X5X0XeXeXeXeX7X6X6X6X6X7X*X*XrXyXwX7XeXeXwXwX7X6X6X6X6X7X7XwXeXeXrXrXeXeX7X6X7XeXrXeXeXeXtXtXxXyXxXxXxXxXxXxXxXeXeXeXeXeXrXwX7X7X7X7XwXeXeXeXeXeXeXeXeXeXeXeXeXeXeXeXeXeXeXtXtXtXtXtXtXtXtXyXyXyXxXxXxXxXyXyXxXyXtXeXeXeXwXwXwXeXeXeXeXeXeXwX6X<X#X].Q.Q.[.<XeXeXeXeXtXyXyXyXyXyXyXyXyXyXyXyXyXyXyXxXxXcXcXcXcXmXmXmXmXmXmXmXmXmXmXMXMXMXMXMXMXMXNXpXpXuXwX].Y.M.M.M.M.M.M.M.M.M.M.m.m.M.M.m.m.m.M.C.C.V.m.M.m.M.M.C.C.C.C.C.C.C.C.C.C.C.C.C.C.C.C.m.m.m.m.m.c.m.C.`.`.C.`.G.G.`.`.`.`.`.`.Z.Z.Z.C._.C._.M.M.b.l.7.5.k.].uXNXAXZXZXZXZXZXZXFXFXFXFXFXFXFXFXFXFXFXFXFXFXFXGXGXFXFXFXGXGXGXFXFXFXCXmXyXtXwX6X<X*X6XeXtXtXyXyXyXyXyXyXmXmXMXCXCXMXmXcXcXcXcXcXcXmXMXCXFXFXFXGXGXGXGXFXGXFXFXFXFXFXFXFXFXFXFXFXFXZXCXCXCXCXCXCXCXCXMXMXMXCXCXZXZXZXZXZXZXZXZXZXFXFXFXFXGXZXMXcXtX0X&X&X&X&X&X&X@X@X#X#X&X%X%X%X%X%X=X=X*X*X;X5X5X6X7X6X6X0X7X7X7X7XeXeXeXxXcXMXCXFXCXMXcXxXeXrXeXrXrXeXxXcXcXcXcXcXcXxXxXxXcXcXxXxXcXxXxXxXxXxXxXxXxXxXxXmXmXcXxXeX6X6X1X6X6X6X0X7X7X0X-XU.,.{ U h g s s d d i i i r e e e e w w w ",
"zXtXzXtXtXtXtXqX9X0X5X<X<X%X&X&X#X#X[.E.Q.T.Y.Y.I.n.n.n.n.n.n.n.n.n.n.n.n.n.n.g.h.h.h.t.t.t.g.T.@X@X@X@X@X@X@X+X@X+X@X&X*X9XeX9X6X*X*X6X9XeXeXrXeXwX7X6X6X6XwX7X*X[.eX7X7XwXeXwX7X7X6X6X6X6X7X7XwXwXeXeXeXrXeX6X6X7XeXrXeXeXeXtXtXxXxXxXxXxXxXxXxXxXxXtXtXtXeXeXeX7X6X6X7X7XwXwXeXeXtXtXeXeXeXeXwXwXeXeXeXeXtXyXtXtXtXtXtXtXtXyXyXyXxXxXxXxXxXyXxXxXxXyXeXeXeXeXeXeXeXeXeXeXeXeXeX7X6X*X#X].Q.Q.#X6XeXeXeXtXyXyXyXyXyXyXyXyXyXyXxXxXxXxXxXxXxXxXxXxXcXcXmXmXMXMXMXMXMXMXMXMXMXMXmXMXNXNXpXpXpXuXwX{.`.b.b.M.M.M.M.M.M.M.m.m.M.M.M.M.C.C.C.C.C.C.m.C.m.m.C.C.C.C.C.C.C.C.C.C.C.C.C.C.C.C.C.M.m.m.m.m.c.m.C.C.C.C._._._._._._._._.Z.Z.C.Z.C.C.M.M.M.l.k.8.4.k.=XyXNXZXZXZXFXFXFXFXFXFXFXFXFXFXGXGXFXFXFXFXFXFXGXGXFXFXFXFXFXFXFXFXCXCXMXmXyXeXwX6X1X1XwXtXyXyXyXtXtXtXyXcXmXMXCXCXCXMXmXcXcXcXcXcXcXmXMXCXFXFXGXGXGXGXGXGXGXGXFXFXGXGXFXFXFXFXFXFXFXZXZXCXCXCXCXCXCXCXMXmXMXCXCXZXFXFXFXFXFXFXFXFXGXGXFXFXZXCXMXcXeX6X%X@X@X@X@X@X@X@X@X&X%X%X&X&X*X*X*X%X*X*X*X5X6X6X6X6X6X6X7X9X7X9X9XeXeXxXmXMXCXCXMXmXxXeXeXwXeXrXeXxXcXcXcXcXcXcXcXxXxXxXxXcXxXxXcXxXcXxXxXxXxXxXxXtXxXcXmXcXtXeX6X<X<X6X7XeX9X7X6X0X-X!.h.} U h h g g d d i i i i e e e e e e e ",
"zXtXzXtXtXtXtX9X9X5X<X,X&X&X&X&X#X[.E.Q.T.Y.Y.Y.I.n.n.n.n.n.n.n.n.n.n.n.n.n.g.g.h.h.h.e.t.g.Y.E.@X@X@X@X@X@X@X+X@X@X&X*X9XzX9X*X*X;X6X9XeXeXeXrXeXwXwX7X7X6X7X7X;X#X;X7X7X7X7X7X6X6X6X6X6X6X6X6X7X7X7X7XwXrXrX7X6X7XeXrXeXeXtXeXxXxXxXxXxXxXxXxXxXxXxXxXyXyXtXyXtXwX6X6X6X7X7X7XwXeXeXtXeXeXeXeXwXwXwXwXeXeXxXcXxXyXtXtXtXyXyXyXyXyXxXxXxXxXxXyXxXxXxXyXeXeXeXeXeXeXeXeXeXeXeXeXeXeX7X6X=X#X].Q.].#X6XeXeXtXtXyXyXyXyXyXyXyXyXyXxXxXxXxXxXxXxXxXxXxXcXcXmXmXMXMXMXMXMXmXMXMXMXMXmXmXNXNXNXpXpXpXyXuX=X`.M.z.b.M.M.M.M.M.M.M.M.M.C.C.C.C.C.C.C.C.C.C.m.m.C.C.C.C.C.C.C.C.C.C.C.C.C.C.C.C.C.C.M.m.m.m.m.c.m.m.C.G._.C._._._._._._.C.Z.C.C.C.M.M.M.b.k.r.8.5.M.1XNXMXZXFXFXFXFXFXFXFXFXFXFXFXFXGXGXFXFXFXFXFXFXGXGXFXFXFXFXCXCXCXCXCXMXmXmXxXtXwX6X1X7XeXtXyXyXtXwXeXtXyXcXMXCXCXCXCXMXmXcXcXcXcXcXcXmXCXCXFXFXGXGXGXGXGXGXGXGXFXFXGXGXFXFXFXFXFXZXZXCXCXCXCXCXCXCXCXCXmXcXmXCXCXZXFXFXFXFXFXFXFXFXGXGXFXFXZXCXMXcXeX5X%X@X@X@X#X@X@X@X&X%X%X%X%X&X*X*X*X*X*X*X*X*X<X6X6X6X6X6X7X9X7X9X9X9XeXxXmXmXMXMXcXxXeXrXeXwXeXeXxXcXcXcXcXcXcXcXxXxXxXxXxXcXxXxXcXcXcXxXxXxXxXxXxXxXtXcXmXxXeX7X6X<X6X7XeXeX9X7X6X5X3X~.L.$.U h g g s d d i i i i e e e e e e w ",
"zXtXzXtXtXtXtX9X0X<X<X%X&X&X&X[.[.[.Q.T.T.Y.Y.Y.n.n.n.I.I.I.I.I.n.n.n.n.n.n.g.h.h.h.h.h.g.I.E.&X@X@X@X@X@X@X@X@X@X&X*X9XeX9X5X&X*X0X9XeXeXeXeXeXrXeXwXwXwX6X7XwX7X*X=XwXrXeXeXeXwX7X7X7XwX7XwXeXeXrXeXrXrXtXtXeXwXeXeXtXeXeXxXxXxXxXxXxXxXxXxXxXxXxXxXxXxXxXxXxXyXtX7X6X7XwXwXwXwXwXwXeXtXtXeXeXeXeXwX7X7XwXyXxXcXxXxXyXyXyXxXxXxXxXxXxXxXxXcXxXxXxXxXyXeXeXeXeXeXeXeXeXeXeXeXeXeXeXeX7X6X=X#X].Q.Q.#X6XeXeXtXyXyXyXyXyXyXxXyXyXxXxXxXxXxXxXcXcXcXcXmXmXmXmXMXMXMXMXMXMXMXMXMXMXMXMXMXMXNXNXNXNXNXNXuX1X].M.b.M.M.M.M.M.C.C.C.C.C.C.V.V.C.C.C.C.C.C.C.C.C.C.C.C.C.C.C.C.C.C.C.C.C.C.C.C.C.C.C.C.C.m.m.c.z.b.m.C._._._._.`.`._._.C.C.C.C.C.M.M.z.k.r.8.4.k.].uXNXMXZXZXFXFXFXFXFXFXFXGXGXGXGXGXGXGXGXGXGXGXGXGXGXFXFXFXCXCXCXMXMXMXmXcXxXxXtXwX6X6XwXtXyXtXtXwX7XwXtXyXcXMXCXCXCXCXMXmXcXcXcXcXcXmXMXCXFXFXGXGXGXGXGXGXGXGXGXGXGXGXGXGXFXFXFXZXZXCXCXCXCXCXCXCXCXCXCXmXmXMXCXCXFXFXFXFXFXFXFXFXFXGXFXFXFXZXZXMXcXeX5X%X@X@X#X#X#X@X&X%X%X*X%X%X%X*X;X*X*X*X*X*X;X<X<X<X5X<X6X7X9X9X9X9X9XeXxXmXMXMXcXxXeXeXeXeXrXeXxXcXcXcXcXcXcXcXcXxXxXxXxXcXcXcXcXcXcXxXxXxXxXcXxXxXxXxXcXcXeX7X6X<X6XwXeXeXeXeX9X6X5X0X-XU.:.] G g s d d d i i i i e e e e e e w ",
"zXtXzXtXtXtX9X0X<X<X%X#X&X&X[.[.[.Q.Q.T.Y.T.T.Y.n.n.I.I.I.n.n.n.n.n.n.n.n.n.g.h.h.h.h.h.I.W.&X&X&X@X@X@X@X@X@X@X&X%X0XzXeX*X&X5X0X0X9X9XeXeXeXeXrXeX7XwXwX6X6X7X7XeX=X6XwXrXeXeXeXrXeXeXrXrXeXeXrXrXrXrXeXxXxXrXeXrXeXxXxXeXxXxXeXeXxXxXxXxXxXxXxXxXxXxXyXyXyXxXyXyXeX6X7XwXwXwXwXwXwXwXeXeXeXeXeXeXwX7X6X6X6X7XwXtXxXcXcXxXxXxXxXxXxXxXxXxXxXxXxXxXxXyXeXeXeXeXeXeXeXeXeXeXeXeXeXeXeXeX6X<X=X@X].Q.].%X6XeXeXtXyXyXyXyXyXyXyXyXxXxXxXxXxXxXcXcXcXcXmXmXmXmXMXMXMXMXMXMXMXMXMXMXMXMXMXMXNXNXNXNXNXyXyXuXwX#XT.M.M.M.M.C.C.C.C.C.C.C.V.m.V.C.C.C.C.C.C.C.C.C.C.C.C.C.C.C.C.C.C.C.C.C.C.C.C.C.C.C.C.C.m.m.c.c.m.m.M.C.C.C._._._._._.C.C.C.M.M.z.k.k.8.4.4.v.{.mXNXMXZXZXFXFXFXFXFXFXFXGXGXGXGXGXGXGXGXGXGXGXGXGXGXFXFXCXCXMXMXmXmXmXcXxXxXyXeXwX6X7XeXyXyXtXwX7XwXwXtXyXcXMXCXCXCXCXMXmXcXcXcXcXcXMXCXCXFXFXGXGXGXGXGXGXGXGXGXGXGXGXFXFXFXFXFXZXCXCXCXCXCXCXCXCXCXCXCXmXcXMXCXCXZXZXZXFXFXFXFXFXFXFXFXFXFXZXMXbXxXeX*X#X@X@X#X#X#X&X%X%X%X*X%X%X%X*X*X*X*X*X*X*X;X<X<X<X<X5X6X7X9X9X9X9XeXeXxXmXmXcXxXzXrX7XwXrXeXxXcXcXcXcXcXcXcXcXcXxXxXxXxXcXcXcXcXcXcXcXxXxXxXcXxXxXxXxXxXyXeX7X6X6X7XeXeXeXeXwX7X0X6X0X-XR.t.{ G h g d d d i i i i e e e e e e w ",
"zXzXtXtXqX9X9X<X<X,X,X%X&X&X[.[.[.Q.W.Y.I.T.T.Y.I.I.I.I.n.n.n.n.n.n.n.n.v.g.h.h.h.h.h.g.W.E.&X&X@X@X@X@X@X@X@X@X&X*XeXzX6X&X=X6X6X6X6X6X7X7XeXeXeXeX7X7XwX7X7XwX7XwX=X=XwXtXyXyXyXtXtXtXeXeXeXrXrXrXeXeXeXeXxXeXeXrXeXtXyXtXtXtXtXeXxXxXxXxXxXxXxXxXxXxXyXtXxXxXxXxXeXeX7XeXwXwXwXwXwXwXwXeXeXtXeXeXeXwX7X7X6X6X6XwXtXyXcXcXxXxXxXxXxXxXcXcXcXcXcXcXcXxXeXeXeXeXeXeXeXeXeXeXeXeXtXeXtXeX7X6X<X&X[.Q.Q.[.=X7XeXtXyXyXyXyXxXxXxXxXxXxXxXxXxXxXcXcXcXcXmXmXmXmXMXMXMXMXMXMXMXMXMXMXmXMXMXMXMXMXmXNXNXmXmXNXuXuX1X[.`.M.M.C.C.C.`.`.C.C.C.C.C.C.C.C.C.C.C.C.C.C.C.C.C.C.C.C.C.C.C.C.C.C.C.C.C.C.C.C.C.C.C.m.m.b.m.b.b.M.M._._.C._._._.C.M.M.z.z.k.k.8.4.4.4.Y.1XmXMXCXCXFXFXFXFXGXGXGXGXGXGXGXGXGXGXGXGXGXGXGXGXGXGXFXFXCXMXMXmXcXcXcXcXxXyXeXwXwXwXwXyXyXyXtXwX7XwXeXtXyXmXMXCXCXCXMXmXmXxXxXcXcXmXMXCXFXFXFXFXGXGXGXGXGXGXGXGXGXFXFXFXFXFXFXFXFXCXCXCXCXCXCXCXCXCXCXCXMXcXMXCXCXZXCXCXZXZXFXFXFXFXZXFXFXFXZXMXcXxX9X*X&X@X#X#X#X#X&X&X&X%X%X%X&X&X&X&X%X%X*X*X*X*X<X<X<X<X6X6X7X7XeXeXeXeXeXxXmXcXcXxXrXeXwXrXlXxXxXcXcXcXcXcXcXcXcXcXxXxXxXcXcXcXcXcXcXcXcXcXcXcXcXcXxXxXxXxXeXeX6X6X7XeXeXeXrXwXwXeX9X9X6X-XW.h.} D h g s d d i i i i e y y y e e e ",
"zXtXtXtX9X0X<X,X,X%X&X&X&X&X[.[.[.Q.T.Y.Y.Y.Y.Y.Y.I.I.I.n.n.n.n.n.n.n.g.g.h.h.h.h.h.g.I.E.@X@X@X@X@X@X@X@X@X@X@X&X9XzX0X=X=X<X5X5X5X5X5X6X7XeXeXeXeX7X6X6X6X7X7X6X7X6X1X6XeXeXeXeXeXeXeXeXeXeXeXrXrXeXeXeXeXtXeXeXrXeXtXxXxXtXxXeXeXtXtXxXxXyXxXtXtXtXtXtXtXtXtXxXzXeXeXeXeXwXwXwXwXwXwXwXwXwXeXeXeXtXeXeXeXwX7X7X6X6XwXtXxXcXcXxXxXxXxXcXcXcXcXcXcXcXxXeXeXeXeXeXeXeXeXeXeXeXeXtXeXtXtXeX7X5X=X#X[.Q.Q.[.=XwXtXyXyXyXyXxXxXxXxXxXxXcXcXxXxXcXcXcXcXmXmXmXmXMXMXMXMXMXMXMXMXMXMXmXMXMXMXMXMXmXmXmXmXmXmXpXpXuXuX=X].`.M.C.C.`.`.`.`.`.C.C.C.C.C.C.C.C.C.C.C.C.C.C.C.C.C.C.C.C.C.C.C.C.C.C.C.C.C.C.C.C.C.C.m.m.b.l.b.M.M.M.M._._._.M.M.M.z.k.k.8.5.4.4.r.].uXNXMXCXCXFXFXFXFXGXGXGXGXGXGXGXGXGXGXGXGXGXGXGXGXGXGXFXCXMXmXmXcXcXcXcXcXxXtXeXwXwXwXyXyXtXwXwXwXwXwXeXyXcXmXCXCXCXMXmXcXcXxXxXxXcXmXMXCXFXFXFXFXGXGXGXGXGXGXGXGXGXFXFXFXFXZXFXFXFXCXCXCXCXCXCXCXCXCXCXCXMXcXMXCXCXCXCXCXZXZXFXFXFXFXFXFXZXZXZXMXcXxX9X*X&X@X@X#X#X#X#X#X&X&X&X&X&X&X&X&X%X%X&X=X=X*X=X=X*X<X5X6X7X7XeXeXeXeXeXcXcXxXxXeXwXeXrXtXxXcXcXcXcXcXcXcXcXcXcXcXxXxXxXcXcXcXcXcXcXcXcXcXcXcXcXcXxXxXxXxXtXeX7X7XeXtXeXeXeXeXeXeXeXlX0X2X!.L.#.I h s d d d i i i i e y e e e e e ",
"tXtXtX9X0X5X,X&X%X%X&X&X&X#X[.[.Q.T.Y.T.T.T.Y.Y.Y.I.I.n.n.n.n.n.n.n.g.g.h.h.h.h.h.h.g.E.&X@X@X+X[.@X@X@X@X@X&X*X0XeXzX*X&X=X<X6X6X5X6X6X6X0X9XeXeXeX7X6X6XwX6X6X6X6XwX6X7XeXeXrXeXeXeXeXrXeXeXeXrXeXeXeXeXeXtXeXeXrXtXxXyXxXyXxXeXeXeXeXtXtXyXyXtXtXtXtXtXeXeXeXtXxXxXeXeXeXwXwXwXwXwXwXwXwXwXwXeXeXeXeXeXeXeXwXwX7X7X7X7XeXtXxXcXcXcXxXcXcXcXcXcXcXcXxXxXeXeXeXtXeXeXeXeXeXeXeXtXtXtXtXtXeX7X1X%X#X[.Q.Q.[.1XtXxXyXyXyXxXxXcXcXcXcXcXcXcXcXmXmXmXmXmXmXmXmXMXMXMXMXMXMXMXMXCXCXCXCXAXAXMXMXmXmXmXmXmXmXmXmXpXuXuX1X{.`._._._.`.`.`.`.`.`.`._._._.C._._.C.C.C.C.C.C.C.C.C.C.C.C.C.C.C.C.C.C.C.C.C.C.C.C.C.m.b.b.b.b.b.M.M.M.M.Y.M.M.b.z.z.k.r.8.4.4.6.r.[.xXCXMXCXCXFXFXGXGXGXGXGXGXGXGXGXGXGXGXGXGXGXHXGXGXGXGXCXMXMXmXmXcXcXcXcXcXyXyXyXtXtXyXyXtXwXwXwXwXwXwXtXuXmXCXCXCXCXMXmXcXcXxXxXxXcXmXCXCXFXFXFXFXGXGXGXGXGXGXGXGXGXFXFXFXFXCXZXZXFXZXZXCXCXZXCXCXCXCXCXCXMXMXCXCXCXCXCXCXZXZXFXFXFXFXFXFXZXZXZXMXcXzX0X&X&X@X@X@X@X@X@X@X@X@X&X#X&X&X&X&X&X&X#X&X&X=X%X%X=X<X6X6X7XeXeXeXeXeXeXxXxXeXrXwXwXrXlXxXcXmXcXcXcXcXcXcXcXcXcXcXcXcXcXcXcXcXcXcXmXcXcXcXcXcXcXxXxXxXxXxXeXeX7XeXeXzXtXxXxXxXxXxXxXnXdX8X~.L.*.] G g d d d i i i i e i e e e e e ",
"tXtXqX9X5X,X%X&X&X&X&X&X&X#X[.[.Q.T.Y.T.T.T.Y.Y.Y.I.I.n.n.n.n.n.n.g.g.h.h.h.h.h.h.g.Y.#X&X@X+X].[.@X@X@X@X&X%X9XzXeX5X&X%X=X<X5X6X5X6X6X5X6X9XeXeXeX7X6X6XwX7X6X6X6XwXwXwXwXwXwXeXeXeXeXrXrXrXeXrXeXeXeXeXeXtXeXeXrXeXlXtXeXeXeXeXeXeXeXtXtXtXtXtXtXtXeXtXeXeXrXeXxXxXtXeXeXwXwXwXwXwXwXwXwXwXwXwXwXwXeXeXeXeXeXeXeXeXwX7X7XwXtXxXxXcXcXcXcXcXcXcXcXcXxXxXtXeXeXtXeXeXeXeXeXeXeXtXtXtXyXxXyXtX7X<X%X#X].Q.Q.#X7XtXtXyXyXxXxXcXcXcXcXcXcXcXcXmXmXmXmXmXmXmXmXMXMXMXMXMXMXMXMXCXCXCXCXAXAXMXMXmXmXmXmXmXmXmXmXpXpXpXuXuX1X{.`._._.C.`.`.`.`.`.`._._.C._._._._.C.C.Z.C.C.C.C.C.C.C.C.C.C.C.C.C.C.C.C.C.C.C.C.M.m.b.b.z.z.b.M.M.M.M.M.b.z.k.k.r.8.4.4.3.4.h.=XcXZXZXCXCXFXFXGXGXGXGXGXGXGXGXGXGXGXGXGXGXGXHXGXGXGXFXCXMXMXmXcXcXcXcXcXcXyXyXyXyXyXyXtXwXwXwX7XwXwXwXyXcXmXCXCXCXCXmXcXxXcXxXxXxXcXmXCXCXFXFXFXFXGXGXGXGXGXGXGXFXFXFXFXFXCXCXCXCXZXZXZXCXCXZXCXCXCXCXCXCXMXMXCXCXCXCXCXCXZXZXFXFXFXFXFXZXZXZXVXmXcXzX6X%X&X@X@X#X@X@X[.[.[.[.@X@X@X@X@X@X&X&X&X&X#X#X&X&X%X*X<X6X7XeXeXeXeXeXeXxXeX7X7XwXrXeXxXcXmXcXcXxXcXcXcXcXcXcXcXcXcXcXxXcXcXcXcXcXmXcXcXcXcXcXcXxXxXxXxXtXeXeXeXeXxXeXtXxXcXmXcXcXcXnXzXdX$XU.*.{ h g d d d i i i i e y e e e e e ",
"tXtX9X0X<X,X%X&X&X&X&X&X%X#X[.E.Q.T.T.T.T.T.T.T.Y.I.I.n.n.n.n.n.g.g.g.g.g.h.h.h.g.I.E.&X&X&X@X@X@X@X@X#X&X*X0XxXxX0X&X&X%X*X5X0X6X6X6X6X5X5X7X9XeXeXeX7X7X7X7X7X6X6XwXwXwXwXrXrXeXeXeXeXeXeXeXeXeXeXeXeXtXtXtXeXeXrXtXxXtXtXtXtXeXeXeXeXtXtXxXxXxXxXxXtXtXlXeXeXtXxXxXxXeXeXwXwXwXwXwXwXwXwXwXwXwXwXwXwXwXeXeXeXeXeXeXeXeXwX7X7XeXtXxXxXcXcXcXcXcXcXcXcXcXxXxXzXeXeXeXeXeXeXeXeXtXtXtXyXxXxXtXeX7X<X=X[.].Q.[.<X7XtXtXtXyXxXcXcXcXcXcXcXcXcXmXmXmXmXMXMXMXMXMXMXMXMXMXMXMXMXCXCXCXCXAXAXMXMXMXCXmXmXmXmXmXmXmXAXAXNXNXuXuX1X{.`.`.`.`.`.`.`.`.`._._._._._._._._.Z.C.C.C.C.Z.C.C.C.C.C.C.C.C.C.C.C.C.C.C.C.C.m.m.b.b.z.z.z.M.M.M.b.k.k.k.r.r.6.4.4.4.8.T.wXxXMXZXCXCXFXFXGXGXGXGXGXGXGXGXGXGXGXGXGXGXGXGXGXGXFXCXMXMXmXmXmXcXxXxXcXxXxXxXxXxXyXtXwXwXwXwX7X7XwXtXyXmXCXCXCXMXMXcXcXcXxXxXxXxXcXmXCXFXFXFXGXGXGXGXGXGXGXGXGXGXGXGXFXZXCXCXCXCXZXZXZXCXCXCXZXCXCXCXCXMXMXCXCXCXCXCXCXCXFXFXFXZXZXCXZXZXZXZXMXcXxXzX6X&X@X+X@X@X@X@X@X@X@X@X@X@X@X@X@X@X&X&X&X&X&X&X%X&X=X=X<X6X7XeXeXeXeXeXeXeXeX7XwXrXtXxXcXcXcXcXcXxXxXcXcXcXcXcXcXcXcXxXxXxXcXcXcXcXcXcXcXcXcXcXcXxXxXxXxXeXeXeXeXxXxXxXcXcXmXmXmXmXmXcXzXdX$XR.:.] h h d d d i i i i r i y e e e e ",
"tX9X0X5X,X%X%X%X&X&X&X&X#X[.[.E.Q.Q.T.T.W.T.T.T.I.I.I.n.n.n.n.g.g.g.g.g.g.h.h.h.I.W.&X&X&X&X@X@X@X@X@X&X*X7XzXxXeX5X*X*X*X*X5X5X6X6X6X6X6X5X6X7XeXeXeX7XwX7X7X7XwXwXwXwX7XwXeXeXeXeXeXeXeXeXeXeXeXeXeXeXtXtXtXrXeXrXtXxXtXeXeXeXeXeXeXeXtXtXxXxXxXxXxXyXtXtXrXrXeXxXxXxXxXtXeXwXwXwXwXwX7X7X7X7X7X7X7X7X7X7XwXeXeXeXtXeXyXeXwX6X6X7XeXtXxXcXcXcXmXcXcXcXcXcXxXxXtXtXtXeXeXeXeXeXtXtXtXtXtXxXxXtX7X6X=X#X[.[.Q.[.=X7XtXtXyXxXcXcXcXcXcXcXcXcXmXmXmXmXMXMXMXMXMXMXMXMXMXMXMXMXCXCXMXMXAXAXMXCXMXMXmXmXmXmXmXmXmXMXMXAXNXNXNXuXuX1X{.`._._.T.`.`.`._.C._._._._._._.C.C.C.Z.Z.Z.C.C.C.C.C.C.C.C.C.C.C.C.C.C.C.C.C.M.m.b.b.l.k.v.k.v.k.k.k.r.r.6.6.4.4.6.v.[.yXxXMXZXCXCXFXFXGXGXGXGXGXGXGXGXGXGXGXGXGXGXGXHXGXGXFXCXMXmXmXcXxXxXxXxXxXxXxXxXcXcXyXtXwXwXwXwXwXwXtXyXcXMXCXCXCXMXmXcXxXxXxXxXxXcXmXMXFXFXFXGXGXGXGXGXGXGXGXGXFXFXFXFXFXZXCXCXMXCXCXZXZXCXCXCXFXZXCXCXMXMXMXCXCXCXCXCXCXCXFXFXFXZXZXCXZXZXZXCXMXcXxXlX;X&X+X+X+X@X@X@X@X@X@X@X@X@X@X@X@X@X&X&X&X&X&X&X%X&X=X=X<X6X7XeXeXeXeXeXwXrXwXwXeXtXxXcXcXcXcXxXxXxXxXxXcXcXcXcXxXxXxXxXxXxXcXcXcXcXcXcXcXcXcXcXxXxXxXcXxXtXeXeXeXxXxXxXmXmXmXMXMXmXmXcXzX8X&XR.:.{ h h d d d i i i i r i y e e e e ",
"9X0X5X,X,X%X%X%X&X&X#X[.[.[.Q.Q.E.Q.Q.W.W.W.T.T.I.I.I.n.n.n.n.g.g.h.h.g.g.g.h.g.I.E.%X&X&X&X@X@X@X@X#X*X7XeXxXeX0X*X*X*X*X<X5X0X7X6X0X0X7X0X6X6X7XeXeXwXeXwXwXwXwXwXwX6X7XwXeXeXeXeXeXeXtXtXtXeXeXeXeXeXeXeXeXeXeXrXeXtXeXeXeXeXeXeXeXeXtXtXxXxXyXyXxXxXlXtXeXeXeXxXxXxXxXxXtXeXwXwXwXwX7X7X7X7X6X6X6X6X6X6X7XwXwXwXeXtXyXtXeXwX7X7X6XwXeXxXcXcXcXcXmXcXcXcXcXxXxXxXxXeXtXeXtXtXtXtXtXtXtXxXxXtXeX7X<X=X%X#X].Q.[.<X7XtXyXyXcXcXcXcXcXcXmXmXMXMXMXMXMXMXMXMXMXMXMXMXMXMXMXMXCXCXMXMXAXAXMXMXMXMXmXmXmXmXmXmXMXMXMXMXMXMXMXNXNXuXrX=X[.`.`.`.`.`.`._._._.C._._._.C.C.C.C.C.C.C.C.C.C.C.C.C.C.C.C.C.C.C.C._._.C.C.M.b.b.k.k.k.k.k.k.r.r.r.y.6.4.4.4.r.Y.yXMXMXZXZXCXCXFXFXGXGXGXGXGXGXGXGXGXGXGXGXGXGXGXGXGXGXCXMXmXmXcXcXcXxXxXxXxXxXxXxXcXcXyXtXwXwXwXwXwXtXyXxXmXCXCXCXCXMXcXcXxXxXcXcXcXmXMXFXFXFXFXGXGXGXGXGXFXFXFXFXFXFXFXFXFXCXCXMXMXCXCXCXCXCXCXZXFXZXCXCXMXMXCXCXCXCXZXZXCXZXZXZXZXCXCXCXZXZXZXCXMXcXxXeX;X#X+X+X@X#X@X@X@X@X@X@X@X@X@X@X@X@X&X&X&X&X&X#X%X&X&X=X6X6X7XeXeXeXeX7X7XeXwXrXtXxXcXmXcXcXcXxXxXxXxXxXxXxXxXxXxXxXxXtXxXxXcXmXmXcXcXcXcXxXxXcXxXtXxXcXcXxXtXxXxXxXxXcXMXMXMXMXMXmXmXnXzX8X-XW.>.| G h d d d i i i i r i y y e e e ",
"0X5X,X%X%X%X%X%X%X&X#X[.].].Q.Q.E.[.Q.Q.W.W.T.Y.I.I.I.n.n.n.v.g.h.h.h.h.g.h.g.Y.E.@X$X&X&X&X@X@X@X&X%X0XzXcXxX7X5X5X*X&X%X<X5X5X7X0X0X0X7X7X5X5X7XeXeXeXeXwXwXwXwXwXwX6X6XwXeXeXeXeXeXeXtXtXtXeXeXeXeXeXeXeXeXeXeXrXeXtXeXeXeXeXeXeXeXeXeXtXxXxXyXxXxXxXxXtXrXrXeXtXxXxXxXxXyXtXeXeXwXwX7X7X6X6X6X6X6X1X1X6X6X7X7X7XwXeXtXtXtXeXeXwXwXwXeXeXeXtXxXcXmXmXmXmXmXcXcXxXxXtXtXeXtXtXtXtXtXtXtXyXyXyXyXeX6X<X=X=X[.Q.Q.[.<X7XyXyXxXcXcXcXcXcXmXmXMXMXMXMXMXMXMXMXMXMXMXMXMXMXMXMXCXCXMXMXAXAXMXMXMXMXmXAXAXAXMXMXMXMXMXMXMXMXMXMXMXNXNXuXuX1X{.].`.`.`.`.`._.C._._._.C.C.C.C.C.C.C.C.C.C.C.C.C.C.C.C.C.C.C._._.C.C.C.M.M.b.k.k.k.k.k.r.r.r.y.6.4.4.4.6.n.=XmXZXZXZXZXCXCXFXGXGXGXGXGXGXGXGXGXGXGXGXGXGXGXGXGXGXZXMXmXmXmXmXcXcXxXxXxXxXxXxXcXcXxXyXtXwXwXwXwXeXtXyXxXmXCXCXCXMXmXcXxXxXxXcXcXmXMXCXFXFXFXGXGXGXGXGXGXFXFXFXFXFXFXFXFXFXCXCXMXMXCXCXCXCXCXCXZXFXZXCXCXMXMXCXCXCXCXZXZXCXCXZXZXZXCXCXCXZXZXZXCXMXcXxXeX;X#X+X+X@X#X@X@X@X@X@X@X@X@X@X@X@X@X#X#X&X&X&X&X%X&X=X<X6X6X7XeXeXeXeX7X6XwXrXeXxXcXcXcXcXxXxXxXxXxXxXxXxXxXtXeXtXeXeXeXxXxXcXmXmXcXcXcXcXxXxXcXxXtXxXmXmXxXxXxXxXxXxXmXMXMXMXmXmXmXmXnXzX8X-XE.t.} G h d d d i i i i r i y y e e e ",
"0X<X,X%X%X%X%X%X%X#X[.E.Q.[.[.Q.Q.].E.Q.W.T.Y.Y.I.I.I.n.n.g.g.h.h.t.h.h.h.h.n.Q.#X#X&X#X@X@X@X@X#X%X;XlXnXnX9X6X6X6X5X%X*X;X5X6X0X0X0X7X9X7X6X6X6X7X7X7XwXwXwXwXwXwXwXwX7X7XeXrXeXeXeXeXeXeXeXeXeXeXeXeXeXeXeXrXrXrXeXeXeXeXeXeXeXeXeXeXeXeXxXxXxXyXyXtXtXxXtXtXeXyXxXxXxXxXxXxXeXeXeXeX7X7X7X6X6X6X6X6X6X6X6X6X6X6X7X7XwXeXyXyXtXtXeXeXeX7X7XeXeXtXcXcXmXmXMXmXcXcXxXxXxXzXzXzXtXtXyXtXtXxXxXxXxXxXeX7X6X*X&X].Q.Q.#X6XeXxXxXcXcXcXmXmXmXmXMXMXMXMXMXMXMXMXMXMXmXmXmXmXCXCXCXCXCXCXCXCXCXCXMXMXmXmXmXmXmXmXmXCXCXCXMXMXAXMXAXNXNXNXNXNXyXuX{.{.`.`.C.C.M.M.M.M.M.M.M.M.C.C.C.C.C.C.C.C.C.C.C.C.C.C.C.C.C.C.M.M.M.b.z.k.u.r.r.r.r.r.y.6.4.4.&.6.v.[.uXMXZXZXZXZXCXCXFXGXGXGXGXGXGXGXGXGXGXGXGXGXHXHXHXGXGXCXMXmXmXmXcXcXxXxXxXxXxXxXxXxXxXyXyXeXwXwXwXwXwXeXyXxXMXCXCXCXMXcXxXyXyXxXcXmXMXMXCXFXFXFXGXGXFXFXFXGXGXGXFXFXFXFXFXFXFXCXMXMXMXCXCXCXCXCXCXCXFXZXCXMXMXMXMXMXCXCXZXCXZXCXCXCXZXZXZXCXZXCXMXMXMXcXxXeX;X@X+X@X@X@X@X#X@X@X@X@X@X@X#X#X#X#X#X&X&X&X#X&X&X&X*X*X6X6X7XeXeXeXeX7X9XeXeXxXxXxXxXxXxXxXxXxXxXxXxXxXyXeXrXrXrXrXeXeXyXxXmXmXmXmXmXxXcXxXxXxXxXxXxXmXmXcXxXxXxXxXcXMXMXMXMXmXmXmXnXnXzX8X-X!.h.#.G g s d d i i i i i i y y e w w ",
"1X<X,X%X%X%X%X,X&X[.Q.Q.[.[.[.Q.Q.].].Q.T.T.Y.I.I.I.n.n.n.g.h.e.e.t.h.h.h.g.Y.E.#X&X&X#X@X@X@X&X%X;X9XnXbX0X;X7X9X6X6X6X5X;X5X6X6X0X0X0X6X6X6X6X6X6X6X7XwXwXwXwXeXwXeXeXwXwX7XeXeXeXeXeXeXeXeXeXeXeXeXeXeXeXeXrXrXrXeXeXeXeXeXeXeXeXeXeXeXeXeXeXyXyXyXtXeXxXtXtXeXyXxXxXxXxXxXxXtXeXtXtXeXeX7X6X6X7X6X7X6X6X6X6X6X6X6X6X6X7X7XeXxXxXxXxXtXeXeXeXeXeXeXxXcXcXMXMXMXmXmXmXcXxXxXzXtXtXtXtXxXxXxXxXxXxXxXeX7X6X*X%X[.Q.].=X7XeXxXxXcXcXmXmXmXmXMXMXMXMXMXMXMXMXMXMXmXmXmXmXCXCXCXCXCXCXCXCXCXCXMXMXmXmXmXmXmXmXCXCXCXCXMXMXAXAXAXNXNXNXNXAXAXNXuXuXuX1X{.{.`.M.M.M.M.M.M.M.M.m.m.m.M.M.M.M.M.M.M.C.M.M.M.M.m.b.b.z.z.z.k.k.k.r.r.y.8.6.6.4.4.4.6.v.[.uXMXMXZXZXZXZXCXFXFXGXGXGXGXGXHXGXGXGXGXGXGXGXGXHXGXGXCXMXcXcXcXcXcXcXxXxXxXxXxXxXxXxXxXyXyXeXwXwXwXeXwXyXyXxXMXCXCXCXMXcXyXtXyXxXcXmXMXCXFXFXFXFXGXGXFXFXGXGXGXGXFXFXFXCXCXCXFXCXMXMXMXCXCXCXCXCXCXCXFXCXCXMXMXMXMXMXCXCXZXCXZXCXCXCXZXZXZXCXZXMXCXMXmXcXxX9X;X@X+X@X@X@X#X#X@X@X@X@X@X@X#X#X#X#X&X&X&X&X&X&X=X*X*X;X6X6X7XeXeXeXeXeXeXeXzXxXxXxXxXtXtXeXeXeXeXeXtXeXrXwXwXwXwXrXeXeXyXxXmXmXmXmXcXxXcXxXxXxXxXxXxXmXMXcXcXxXxXxXmXMXMXMXMXmXmXmXnXnXzX8X-X!.L.$.U g s d d i i i i i i y y e w w ",
"<X,X,X,X<X%X<X%X#X].Q.[.[.[.Q.Q.Q.].].Q.T.Y.I.I.I.n.n.n.g.g.h.e.e.h.h.h.g.I.E.#X#X#X#X#X@X@X&X&X*X7XzXbXzX;X;X7X9X7X6X6X5X5X6X6X5X5X6X0X7X6X6X6X6X1X1X6X7XwXwXwXeXeXrXeXeXeX7X7XwXeXeXeXeXeXeXeXeXeXrXrXrXrXrXrXrXrXeXeXeXeXeXeXeXeXrXeXrXeXrXeXrXeXeXeXeXeXtXtXyXyXxXxXxXxXxXxXxXxXxXxXtXtXeX7X7X7X7X7X6X6X6X6X6X7X7X6X1X1X1X6X7XeXtXtXxXxXxXtXeXeXeXeXeXxXcXmXMXMXCXCXmXcXxXxXyXxXxXxXxXxXxXxXxXxXcXxXeX7X6X=X#X].].[.=XeXeXxXxXcXcXmXmXMXMXMXMXMXMXMXMXMXMXMXCXCXCXCXCXCXCXCXCXCXCXCXCXCXMXMXMXCXMXMXmXmXmXmXMXMXCXMXMXMXCXNXNXAXNXNXAXAXZXNXyXuXuXuXrX=X{.{.{.{.{.[.{.{.{.{.{.`.`._._.M.M.M.M.M.z.z.b.b.z.k.k.k.k.k.r.r.y.6.5.5.8.8.6.r.T.1XuXMXNXMXMXMXZXZXZXFXGXGXGXGXGXHXHXHXGXGXGXGXGXGXHXHXGXFXMXcXcXcXcXcXcXcXxXxXxXxXxXxXxXxXyXyXeXeXeXeXeXeXyXyXxXmXMXCXCXMXmXxXyXyXyXxXcXmXMXCXFXFXGXGXGXGXFXFXFXFXFXFXFXFXCXCXCXCXCXCXCXMXCXCXCXCXCXCXCXCXCXCXCXMXmXmXMXMXCXCXZXCXCXCXCXCXCXCXCXCXZXCXCXMXcXxXzX0X*X@X@X@X#X#X#X#X#X#X#X@X@X#X&X&X&X&X&X&X&X&X&X&X=X*X*X6X6X6X7XeXeXeXeXwXeXeXtXxXeXeXeXrXrXeXeXeXeXeXeXwX7X7XwXrXtXyXyXyXyXxXmXmXmXcXcXxXxXxXxXxXxXtXcXMXMXcXcXxXxXcXMXMXMXMXmXmXcXmXnXnXzXdX3X~.P.*.U g f d d i i i i i i y y e w w ",
",X%X%X,X<X<X<X#X[.Q.Q.[.[.Q.T.Q.Q.E.Q.Q.T.Y.I.I.n.n.n.g.g.h.h.h.e.t.h.h.g.Q.&X@X#X#X#X#X@X@X&X%X0XlXMXlX7X;X6X6X7X6X6X6X0X5X6X5X5X5X6X0X7X6X6X6X6X6X1X1X6X7XwXwXeXrXrXrXeXeXeXwXwXeXrXeXeXeXeXeXrXrXrXrXrXrXrXrXrXrXeXeXeXeXeXeXrXrXrXrXeXeXeXrXrXeXeXeXeXeXxXxXeXeXxXxXxXxXxXxXxXxXxXxXxXyXtXeX7X7X6X6X6X6X6X6X6X7X7X7X1X1X*X*X<X6X7XeXeXtXxXxXxXtXeXeXeXeXtXxXmXMXZXFXMXmXcXxXxXxXxXxXxXxXxXxXxXxXcXxXxXeX7X*X=X#X@X].[.*XeXeXxXcXmXmXMXMXMXMXMXMXMXMXMXMXMXMXCXCXCXCXCXCXCXCXCXCXCXCXCXCXMXMXMXMXMXMXmXmXmXMXMXMXCXCXMXCXMXMXAXNXAXNXAXAXAXAXAXNXNXyXyXuXuXuXuXyXuXuXuXuXuXuXuXuXuXrX1X1X1X=X{.{.`.T.Y.M.M.b.k.k.k.k.r.r.8.6.8.y.r.r.T.#XwXcXMXMXMXMXMXMXZXCXFXFXGXGXGXGXGXHXHXHXGXGXGXGXGXGXGXGXGXCXcXcXcXcXcXxXcXcXxXxXxXxXxXxXxXxXyXyXeXeXeXeXeXtXyXxXmXMXMXCXCXMXcXxXyXtXyXxXcXmXMXCXFXFXGXGXGXGXFXFXFXFXFXFXFXFXCXCXCXCXCXCXCXMXCXCXCXCXCXCXCXCXCXCXCXMXmXmXMXMXCXCXCXCXCXCXCXCXCXCXCXCXCXMXMXMXcXzXeX5X%X@X@X@X#X#X#X#X&X&X#X@X#X#X&X&X&X&X&X&X&X&X&X*X*X*X6X6X6X6X7XeXeXeXeXeXeXeXeXeXeXrXrXeXeXwXwXwX7X6X6X7XwXrXtXyXyXyXyXyXyXxXmXmXmXcXcXxXxXxXxXxXxXtXcXMXMXmXcXxXcXmXMXMXMXMXmXcXcXcXnXxXlXfX8X$XU.*.I g s d d i p i i i i y y e w w ",
"%X%X=X<X,X%X%X[.Q.Q.E.[.].Q.T.Q.Q.Q.Q.W.T.Y.I.I.n.n.g.g.h.h.h.e.e.e.h.g.I.~.&X#X@X@X@X@X@X@X%X;XlXcXbX6X;X6X6X5X5X6X6X0X0X0X6X5X5X6X6X0X7X7X6X6X6X1X<X<X6X7X7XwXeXeXeXeXrXeXeXwXwXwXeXeXeXeXrXrXwXwXwXwXwXwXrXrXeXeXrXrXrXrXeXeXeXeXeXrXeXeXrXrXeXeXxXxXtXtXeXeXeXeXyXyXxXxXxXxXcXcXcXcXcXxXxXeXeXwX6X6X6X6X6X6X7X7XwXwXwX7X6X1X<X6X6X7XeXeXeXeXtXxXxXeXeXeXeXtXxXcXMXMXMXmXcXxXxXxXxXxXxXxXxXxXxXxXxXxXxXtXeX6X*X=X%X[.].@X6XeXxXcXmXMXMXMXMXMXMXMXMXMXCXCXCXCXMXCXCXCXCXCXCXCXCXCXCXCXCXCXCXCXCXCXmXmXMXMXCXMXMXMXMXMXMXMXCXMXMXMXMXMXZXZXZXZXZXAXAXAXAXAXAXAXAXZXZXZXAXAXAXAXNXNXNXNXyXyXuXuXrXrXrXrX1X=X{.{.`.T.Y.n.v.v.v.v.v.T.=X=XrXyXmXmXMXMXMXMXMXMXCXFXFXGXGXGXGXGXHXHXGXGXGXGXGXGXGXGXGXGXCXcXcXcXxXxXcXcXcXxXxXxXxXxXxXxXxXyXyXuXuXeXtXtXyXyXyXcXmXMXMXCXCXmXcXxXyXyXyXxXmXMXCXCXFXGXFXFXFXFXFXFXFXFXFXFXFXCXCXCXCXCXCXCXCXCXCXCXCXCXCXCXCXCXCXCXCXMXMXMXMXMXMXCXCXCXZXCXCXCXCXCXCXCXCXMXMXMXcXzX9X5X%X@X@X#X#X#X#X&X&X&X#X#X&X&X&X&X&X&X%X%X#X#X&X*X*X*X5X6X6X6X7XeXeXeXeXeXeXeXeXeXeXrXwX7X6X6XwXwXwXwXeXeXyXyXyXyXxXxXxXxXxXxXcXcXcXcXcXxXxXxXxXxXxXxXxXMXMXmXcXcXcXMXFXMXCXMXmXmXcXcXcXxXlXfX8X-XU.*.I H s s d p i i i y y e e w w w ",
"%X%X=X<X%X%X[.Q.Q.[.[.[.Q.T.Q.].Q.Q.W.T.T.T.Y.I.n.g.g.h.e.e.e.e.e.h.h.n.R.@X#X#X@X@X&X@X@X&X%X7XnXVX6X;X;X;X5X6X6X5X5X0X7X7X6X6X5X6X6X0X7X7X6X6X6X1X<X<X6X6X7XwX7XeXeXeXrXrXeXeXeXwXeXeXwXwXwXwXwXwXwXwXwXwXrXrXeXrXrXrXrXrXrXrXeXeXeXrXeXrXeXrXeXeXxXtXeXeXeXeXeXeXeXeXtXtXxXxXxXcXcXxXxXxXxXxXtXeX7X7X7X7X7X7X7X7XwXeXtXtXeXwX7X6X6X0X7X7X7X7XeXeXxXxXxXxXtXeXtXxXxXxXcXmXcXxXxXxXxXxXxXxXxXxXxXxXxXxXxXxXxXeX6X<X=X@X[.].%X7XtXxXcXmXMXMXMXMXMXMXMXMXCXCXCXCXMXCXCXCXCXCXCXCXCXCXCXCXCXCXCXCXCXCXmXmXMXMXCXCXMXMXMXMXMXMXMXMXMXMXZXZXCXCXZXZXZXZXZXZXZXZXZXZXZXZXZXZXZXZXZXZXZXZXNXNXNXNXNXuXuXuXuXuXrXrX1X1X=X=X=X=X=X=X=X=X1XrXyXcXNXmXmXmXMXMXMXMXMXMXCXFXGXGXGXGXGXGXHXHXGXGXGXGXGXGXGXGXGXMXcXcXcXcXxXxXcXcXcXxXxXxXxXxXxXxXyXyXyXeXeXeXeXyXyXyXyXmXmXMXCXCXMXcXxXyXyXyXxXcXmXMXCXFXFXGXFXFXFXFXFXFXFXFXFXFXFXCXCXCXCXCXCXCXCXCXCXCXCXCXCXCXCXCXCXCXCXMXMXMXMXMXCXCXCXCXZXCXCXCXCXCXCXCXMXMXMXbXcXzX9X*X&X@X@X#X#X#X#X&X&X&X#X#X#X&X&X&X&X&X%X%X#X#X&X&X=X*X*X6X6X6X7XeXeXeXeXeXtXtXeXeXeXwX6X6X6X6X7XeXeXxXcXmXmXmXcXcXcXcXcXcXcXcXcXcXcXcXxXxXxXxXxXxXxXxXxXcXcXcXcXxXmXMXMXMXCXMXmXmXcXnXxXzXlXlX8X-XU.*.U D s s d p i i i y y e e w w w ",
"<X%X%X%X#X[.Q.Q.[.#X[.Q.Q.Q.[.[.E.Q.Q.W.W.W.Y.I.n.g.h.t.e.e.e.e.t.h.h.R.~.&X&X&X&X&X@X@X$X%X6XlXnX9X%X5X6X6X6X6X6X5X5X0X7X7X0X6X6X6X0X0X9X7X6X6X6X6X1X<X*X6X6X6X7X7XeXeXrXrXrXeXrXeXeXeXwXwXwXwXwXwXwXwXwXwXrXrXrXeXrXrXrXrXrXrXeXeXeXeXrXrXeXeXeXtXtXeXeXrXrXrXeXeXeXeXtXtXxXxXxXxXxXxXxXxXxXxXyXtXeXwXwXwXwXwX7X7XeXtXtXtXyXtXeXeX7X7XeXeX7X7X7XeXeXeXxXxXxXzXtXxXxXeXeXxXcXxXxXxXxXxXxXxXxXxXxXxXcXcXcXcXcXxXeX6X<X=X#X@X@X=X7XxXxXcXMXMXMXMXMXMXCXCXCXCXCXCXCXCXCXCXCXCXCXCXCXCXCXCXCXCXCXCXCXCXCXCXCXCXCXCXCXCXCXCXCXCXCXCXMXMXCXCXCXCXCXCXZXZXZXZXZXZXZXZXZXZXZXZXFXFXGXGXFXFXCXMXMXMXNXyXyXyXyXyXuXrXwXwX1X1XwXwXrXrXuXyXuXyXxXcXmXMXMXMXMXMXMXMXMXCXZXFXGXGXGXGXHXHXHXHXGXGXGXGXGXGXGXFXCXcXxXxXcXcXxXxXcXcXcXcXxXyXxXxXxXxXxXyXtXeXeXyXyXyXyXyXcXmXmXCXCXCXMXxXyXyXyXxXcXmXMXCXFXFXGXGXFXFXFXFXFXFXFXFXFXFXFXCXCXCXCXCXCXCXCXCXCXCXCXCXCXCXCXCXCXCXCXMXMXMXMXMXCXCXZXZXCXCXCXCXCXCXCXCXMXMXMXbXcXzX9X*X#X@X#X#X#X#X&X$X%X%X&X#X@X@X#X#X&X&X&X&X&X&X=X=X=X=X*X6X6X6X7X7XeXeXeXeXeXeXeXeXwX7XwXwXeXeXeXxXmXMXMXMXMXMXmXmXMXMXmXmXmXcXcXcXmXcXxXxXcXxXxXxXxXxXxXxXcXxXxXcXMXFXCXCXMXMXmXmXmXcXcXzXlXlX9X-XU.*.U G s s d p i y y y y e y w w w ",
"1X<X%X#X[.Q.Q.[.#X[.Q.Q.Q.].[.[.E.Q.Q.W.W.W.T.I.g.h.h.e.e.e.e.e.h.g.n.E.@X@X@X@X@X@X@X@X&X%X9XnXlX*X;X;X;X;X6X6X6X6X5X0X0X0X0X6X6X6X0X0X7X7X6X6X6X6X1X<X*X*X<X6X6X7X7XeXeXrXrXrXrXeXeXwXwXrXeXrXwXwXwXwXwXwXwXwXeXeXrXrXrXrXrXrXeXeXeXeXrXrXrXrXeXeXeXrXrXrXeXrXrXeXeXeXtXtXxXxXxXxXxXzXxXxXxXxXyXtXeXwXwXeXeXwX7X7XeXtXyXyXtXtXxXtXeXeXeXeXeX7X7X7XeXeXeXeXxXxXxXxXxXeXeXeXxXxXxXxXxXxXxXxXxXxXxXxXcXcXcXcXcXmXxXeX6X*X=X#X@X@X=X9XxXxXcXMXMXMXMXMXCXCXCXCXCXCXCXCXCXCXCXCXCXCXCXCXCXCXCXMXMXCXCXCXCXCXCXCXCXCXCXCXCXCXCXCXCXCXMXMXMXCXCXCXCXCXZXZXZXZXZXZXZXZXZXZXZXZXFXFXGXGXFXZXCXZXMXMXmXyXyXyXyXyXuXrXwX1X1X1XwXwXuXuXyXxXxXcXmXmXMXMXMXMXMXMXMXMXMXCXZXFXGXGXGXGXHXHXHXHXGXGXGXGXGXFXZXMXcXxXxXxXcXcXxXxXcXcXcXcXxXyXxXxXyXyXyXeXeXwXeXyXyXyXyXyXcXmXmXCXCXMXmXyXyXyXyXxXcXmXMXCXFXFXGXGXFXFXFXFXFXFXFXFXFXFXFXCXCXCXCXCXCXCXCXCXCXCXCXCXCXCXCXCXCXCXCXMXMXMXMXMXCXCXZXCXCXZXCXCXCXCXCXCXMXbXbXcXcXzX9X*X#X@X#X#X#X#X&X$X%X&X&X#X@X@X@X@X&X&X&X&X&X&X=X&X=X=X*X6X6X6X7X7XeX7X7XeXeX7X7X7X7XeXeXxXxXcXmXMXMXCXCXMXMXMXMXMXMXMXMXmXmXcXcXcXmXcXxXxXcXcXcXcXxXxXxXxXxXxXcXmXMXMXMXMXMXMXmXmXmXcXxXxXlXfXdX-XU.:.I D s s d p i y y y y e y w w w ",
"<X<X%X#X[.Q.Q.[.#X[.Q.Q.[.[.[.[.].E.Q.Q.Q.Q.W.I.n.g.h.r.e.e.e.e.h.I.].[.@X@X@X@X+X@X@X@X%X6XzXdX0X%X5X;X;X5X5X5X5X5X5X6X0X0X0X0X6X6X7X7X7X7X0X0X6X6X5X5X6X*X*X*X6X6X7X7X7XeXeXeXeXeXeX7XeXeXeXeX7X7XeXeX9X9XeXeXeXeXeXeXwXwXeXeXrXrXrXrXwXwXrXrXrXrXrXrXeXeXeXeXeXeXeXxXyXxXxXxXxXxXxXxXxXtXtXtXyXtXeXwXwXeXeX7X6X6XwXtXtXtXyXyXzXzXzXzXxXzXtXtXeXeXeXeXeXeXyXxXxXxXxXxXeXeXeXxXxXxXxXxXxXxXxXxXxXxXcXcXcXmXmXmXcXxXeX6X*X=X#X[.@X=XeXxXxXmXMXMXMXMXCXCXCXCXCXCXCXCXZXZXCXCXCXCXCXCXCXCXCXCXCXCXCXCXCXCXCXCXCXCXCXCXCXCXMXMXMXMXCXCXCXCXCXCXCXCXZXZXZXZXZXZXZXZXZXZXZXFXGXFXGXFXGXFXZXCXCXMXmXyXyXyXyXyXyXwXwX1X1X1XwXwXuXyXxXmXmXmXmXmXmXmXMXMXMXMXMXMXCXCXFXGXGXGXGXGXHXHXHXHXGXGXGXGXGXZXMXbXcXxXxXxXxXxXxXxXcXcXcXxXyXyXyXyXyXyXyXyXtXwXwXtXyXyXyXcXcXmXMXCXMXMXxXyXyXyXyXcXmXMXCXCXZXFXGXGXGXFXFXFXZXZXZXZXZXZXZXCXCXCXCXCXCXCXCXCXCXCXCXMXMXCXZXZXCXCXCXMXMXMXMXMXCXCXCXCXCXCXCXCXZXCXCXMXMXmXmXcXcXzX9X*X#X@X@X&X&X&X&X&X%X%X&X@X@X@X@X&X&X&X&X%X%X%X*X*X=X*X<X5X6X6X7XwXeXeX7X7X7X6X7X7XrXtXxXcXMXMXMXCXZXZXFXFXCXCXCXMXMXMXMXmXMXmXmXmXcXcXcXcXmXmXcXxXyXyXyXyXyXxXmXCXMXMXMXmXmXmXmXmXmXmXcXxXnXzXdX-XP.=.U g g s i p i y y y y e e w w w ",
"<X%X#X[.Q.Q.[.[.[.E.Q.E.[.#X[.[.].].E.Q.Q.W.W.I.I.g.h.r.e.e.e.e.g.T.@X[.@X@X@X@X@X@X&X%X;XdXlX5X%X*X;X;X;X;X5X5X5X5X5X5X5X0X0X0X6X6X0X7X7X7X7X7X7X0X5X6X6X6X6X6X*X*X6X6X7X7XeXeXeXeXeXeXeXeXeX7X7X7X7X7X7X7X9XeXeXeXeXeXwXwXeXeXrXrXrXrXwXwXwXwXwXwXwXwXeXeXeXeXeXeXxXxXyXtXxXxXxXxXxXxXxXzXeXeXtXtXeXwX7X7X7X6X1X6XwXtXtXtXyXyXzXzXxXxXcXcXMXcXcXxXxXxXxXxXxXxXxXxXxXcXxXxXeXeXtXxXxXxXxXxXxXxXxXxXcXcXcXmXmXmXmXcXxXeX6X*X&X@X].[.6XeXxXmXMXMXMXMXCXCXCXCXCXCXCXCXCXCXCXCXCXCXCXCXCXCXCXCXCXCXCXCXCXCXCXCXCXCXCXCXCXCXMXMXMXMXCXCXCXCXCXCXCXCXZXZXZXZXZXZXZXZXZXZXZXGXFXFXGXFXGXFXZXZXCXMXmXyXyXyXyXyXyXwXwX1X1X1XwXwXuXyXxXmXmXmXmXmXmXmXMXMXMXMXMXCXCXCXFXGXGXGXGXHXHXHXHXGXGXGXGXGXGXZXMXcXcXxXxXxXcXxXxXxXcXcXcXxXyXyXyXyXyXyXyXtXtXwXtXtXyXyXyXcXcXmXMXMXMXcXxXyXyXyXxXcXMXCXCXCXZXZXFXFXFXFXFXFXZXZXZXZXZXZXZXCXCXCXCXCXCXCXCXCXCXMXMXmXMXMXCXZXCXCXCXMXmXmXMXMXCXCXCXCXCXCXZXZXZXCXMXMXmXcXcXcXcXzX9X*X#X@X#X&X&X&X&X&X&X&X&X&X&X&X&X&X&X&X&X%X%X%X*X*X=X*X5X5X6X6X7X7X7X7X7XeXeXeXeXxXcXcXMXMXMXMXCXCXCXCXCXCXCXCXMXMXMXMXMXmXMXmXmXmXcXcXcXmXmXmXxXxXyXeXeXeXyXxXCXCXCXMXmXcXcXcXmXmXmXmXcXcXbXbXgX-Xt.} G g g s i p i y y y e e e w w w ",
"%X&X#XQ.].[.[.Q.Q.Q.[.[.@X@X[.[.].].].E.Q.Q.W.Y.n.g.h.r.e.e.e.t.n.Q.&X@X@X@X@X@X@X&X%X;X9XnX7X%X%X%X-X-X;X;X5X5X5X5X5X5X5X5X0X0X6X6X7X7X7X7X9X9X9X7X0X6X6X6X6X5X<X<X<X<X6X6X6X7X7XeXeXeX7X7X7X7X7X7X7X7X7X7XeXeXeXeXeXeXrXrXeXeXrXrXrXrXrXeXrXrXrXeXrXrXeXeXeXeXeXeXxXxXtXtXxXxXxXxXxXxXxXxXxXzXyXtXeXwX6X6X6X1X1X6XwXtXtXtXtXyXzXzXxXcXMXMXMXMXMXcXcXxXcXxXxXxXxXxXcXcXcXxXyXeXeXeXxXxXxXxXxXxXxXxXcXcXcXcXmXmXmXmXcXxXeX6X*X#X].].%X6XeXxXMXMXMXMXCXCXCXZXZXZXZXZXZXCXCXCXCXCXCXCXCXCXCXCXCXCXCXCXCXCXCXCXZXZXZXZXZXZXZXZXCXCXCXCXCXCXZXZXZXZXZXCXZXZXZXZXZXZXZXZXGXGXGXGXGXGXGXFXFXZXZXCXmXcXyXyXyXyXyXeXwX1X1X1XwXrXuXyXcXmXmXmXmXmXmXmXMXMXMXCXCXZXFXGXGXGXHXHXHXHXHXHXHXGXGXGXGXGXZXCXMXcXcXcXxXxXcXcXxXxXcXcXcXxXyXyXyXyXyXyXyXtXtXtXtXyXnXyXcXmXAXCXCXCXMXxXyXyXyXyXxXmXCXCXFXFXZXZXZXZXFXFXFXFXZXZXZXZXZXZXZXCXCXCXCXCXCXCXCXCXCXMXMXmXMXMXZXZXFXCXCXMXMXMXMXMXCXCXZXZXCXCXCXCXCXCXMXmXmXcXcXcXcXzX9X*X&X#X&X&X&X&X&X&X&X&X&X&X&X&X&X&X&X&X%X%X%X%X=X=X*X6X6X6X6X7X7X7X6X7XeXeXeXcXcXmXMXMXMXMXMXMXMXMXMXMXMXZXMXMXMXMXMXMXMXMXMXMXMXmXmXmXmXmXmXxXyXeXeXeXrXeXyXMXCXCXCXMXcXcXxXcXxXcXcXcXmXcXcXbX8XR.:.{ G s g s p p y y y y y e e w w w ",
"#X[.E.Q.[.=X#XE.Q.Q.[.#X#X[.[.[.].].E.E.Q.Q.T.I.n.g.h.r.e.e.e.t.W.[.@X[.@X@X@X@X$X%X;X7XlX9X;X%X%X%X-X-X;X;X5X5X5X5X5X5X5X5X0X0X6X6X7X7X7X7X9X9X9X9X7X7X6X6X7X6X5X<X5X*X*X*X*X6X6X7X7X7X7X6X6X7X7X7X7X7X7X7XeXeXeXeXeXeXrXrXrXrXeXeXrXrXrXeXrXrXrXeXrXrXeXeXeXeXeXeXyXxXtXtXxXxXxXxXxXxXxXxXxXxXyXtXeXwX6X6X1X<X<X1XwXtXtXtXyXtXtXzXxXxXcXcXcXcXcXxXxXxXcXcXcXcXxXxXcXcXxXxXxXxXeXeXeXtXxXxXxXxXxXxXxXcXcXcXcXmXmXmXmXcXxXeX6X*X&X#X#X%X6XxXcXmXMXCXCXCXCXZXZXZXZXZXZXCXCXCXCXCXCXCXCXCXCXCXCXCXCXCXCXCXCXCXZXZXZXZXZXZXZXCXCXCXCXCXCXCXZXZXZXZXZXCXZXZXZXZXZXZXZXZXGXGXGXGXGXGXGXFXFXZXZXCXmXcXxXyXyXyXyXeXwX1X1X1XwXwXuXyXcXmXmXmXmXmXmXmXMXMXCXCXFXFXFXGXGXGXHXHXHXHXHXHXHXGXGXGXGXFXCXMXcXcXcXcXxXxXcXcXxXcXxXxXxXxXyXyXyXyXyXyXyXtXtXtXyXyXyXnXmXCXCXCXCXAXmXxXyXyXyXxXcXMXCXCXFXFXZXZXZXZXFXFXFXFXZXZXZXZXZXZXCXCXCXCXCXCXCXCXCXCXCXMXMXmXMXMXCXCXCXZXCXMXMXMXMXCXCXCXZXCXCXCXCXCXCXCXMXmXMXcXcXcXcXzX0X&X&X&X&X&X$X$X&X$X%X%X&X&X&X&X&X&X&X&X%X%X%X%X=X=X*X6X6X6X6X6X7X7X6X7XeXxXcXMXMXMXMXMXMXMXMXMXMXMXMXMXmXMXmXmXMXMXmXMXMXMXMXMXMXmXmXcXmXmXxXxXeXeXwXwXwXtXcXMXCXCXMXMXcXxXzXxXxXxXyXxXmXcXzXzX-XL.#.{ G s s s p p i y y w y e e w w w ",
"#X[.Q.Q.[.=X#X[.Q.[.&X@X@X[.[.E.E.E.E.Q.Q.Q.T.I.n.g.h.t.e.e.t.g.E.@X@X@X@X@X@X@X%X;X9XzXlX5X&X%X;X-X-X5X;X;X5X5X6X6X5X5X6X6X6X0X6X0X0X7X7X7X7X7X7X7X7X7X7X9X0X0X5X<X5X<X*X*X*X<X<X<X6X0X7X6X6X7X7X7X7X7X7X7XwXeXeXeXeXeXwXwXrXrXeXeXeXeXeXeXeXrXrXrXrXrXeXeXeXeXeXeXxXxXxXxXxXxXxXxXxXxXxXxXxXxXyXtXeXeXwX6X1X*X*X1X7XeXtXtXtXyXxXxXxXxXxXxXxXxXxXxXxXxXxXxXxXxXxXxXcXxXxXxXxXxXxXeXeXeXtXxXxXxXxXxXxXxXxXxXcXcXcXmXmXmXcXtXeX6X<X=X#X@X=XeXxXcXMXCXCXCXCXCXZXZXZXZXZXZXCXCXCXCXCXCXCXCXCXCXCXCXCXCXCXCXCXCXZXZXCXCXZXZXZXZXZXZXCXZXZXZXZXZXZXZXZXZXZXZXZXZXZXZXZXZXFXFXGXGXGXFXZXZXZXZXZXCXCXMXcXxXyXyXyXeXwXwXwXwXwXwXeXyXxXmXmXmXmXmXmXMXMXMXCXCXFXFXGXGXGXGXHXHXHXHXHXHXGXGXGXGXFXZXMXmXcXcXxXcXxXxXxXxXcXcXxXxXcXxXyXyXyXyXtXtXtXtXtXtXyXyXnXcXAXCXCXCXmXcXxXyXxXxXxXxXmXMXCXCXFXFXFXFXFXFXZXZXZXZXZXZXZXZXZXZXZXCXCXMXMXMXCXCXCXMXMXMXMXMXMXMXCXCXCXCXCXMXMXMXMXCXCXCXCXFXFXCXCXCXCXMXMXMXMXcXcXcXxXeX0X&X&X%X%X%X%X%X%X%X%X%X&X&X&X&X&X&X&X&X%X%X=X&X*X*X*X6X6X6X6X7X7X7X6X7XeXxXmXMXMXMXMXMXMXMXMXMXmXcXcXcXcXxXcXcXcXmXmXmXMXMXMXmXmXmXmXcXcXxXxXtXeXwXwXwXeXxXMXMXMXMXMXcXxXyXzXtXeXeXtXyXeX9XlX;XI.*.| U H g g s p p y y y y y y y w w 4 ",
"#X].Q.[.[.#X[.[.[.#X&X#X#X[.[.E.Q.Q.Q.Q.Q.T.Y.n.g.g.g.h.h.e.h.T.+X@X@X@X@X@X@X&X%X7XnXlX0X%X&X%X;X;X5X5X;X5X5X5X6X6X5X5X6X6X6X0X6X0X0X7X7X7X7X7X7X7X7X7X9X7X0X0X5X5X<X<X*X<X<X*X*X*X5X6X6X6X6X6X7X7X7X7X7X7XwXwXeXeXeXeXwXwXrXrXrXrXeXeXeXeXeXrXrXrXrXrXeXeXeXeXeXeXxXxXxXxXxXxXxXxXcXcXxXxXxXxXyXtXtXeXeX7X1X*X*X1X6XwXeXtXtXtXzXzXzXzXxXxXxXxXxXxXxXxXxXxXxXxXxXxXxXxXxXxXxXxXxXeXeXeXeXtXxXxXxXxXxXxXxXxXxXxXcXmXmXmXmXcXtXeX7X6X=X#X#X<XtXcXMXMXCXCXCXCXZXZXZXZXZXZXCXCXFXCXCXCXCXCXCXCXCXCXCXCXCXCXZXZXZXZXCXCXZXZXZXZXZXZXCXCXZXZXZXZXZXZXZXZXZXZXZXZXZXZXFXFXFXFXGXGXGXFXZXZXZXZXZXCXCXCXmXcXyXyXyXyXyXwXwXwXwXwXeXyXxXmXmXmXmXmXmXMXMXMXCXCXFXFXGXGXGXGXHXHXHXHXHXHXGXGXGXFXZXMXmXcXcXxXcXxXxXxXxXxXcXcXxXxXyXyXyXyXtXtXtXtXtXtXtXyXyXnXcXAXCXCXCXmXcXnXxXyXyXxXcXmXMXCXCXCXFXFXFXFXFXFXZXZXZXZXZXZXZXZXZXZXZXCXMXMXMXmXCXCXCXMXMXMXMXMXMXMXCXCXCXCXCXMXMXMXMXCXCXCXCXCXFXCXCXMXMXMXMXMXMXcXcXcXxXeX0X&X#X&X%X%X%X%X%X%X&X%X&X&X&X&X&X&X&X&X&X&X&X&X*X*X*X6X6X6X7X7X7X7X7XeXeXxXxXcXmXMXMXMXMXMXmXmXxXyXyXyXyXyXxXxXxXxXxXcXmXMXMXmXmXmXmXcXxXyXtXeXwXwXwXeXxXMXMXMXMXmXcXxXyXyXzXtXeXeXyXyXeX6X@XI.-.E F D H g g s p p y y y y y y w w w 4 ",
"[.Q.Q.[.[.].[.#X#X&X@X[.[.[.E.Q.Q.Q.Q.Q.W.T.I.n.g.g.g.h.g.e.g.].@X@X@X@X@X@X&X%X;XnXnX6X%X%X%X%X-X-X5X5X5X5X6X6X5X6X5X5X6X6X6X0X6X0X0X7X7X7X7X7X7X7X7X7X7X7X7X0X6X6X5X<X<X6X6X6X1X1X6X1X6X6X6X6X7X7X7X7X7X7X7XeXeXeXeXeXwXwXrXrXrXrXeXeXeXeXeXeXeXrXeXeXeXeXeXeXeXeXxXxXxXxXxXxXxXcXcXcXcXxXxXxXyXyXtXtXeX7X1X=X*X1X1X7X7XeXtXtXtXtXzXtXzXzXxXxXxXxXxXxXxXyXyXyXzXzXzXxXxXyXxXxXxXtXeXeXeXtXxXxXxXxXxXxXxXxXxXxXxXcXmXmXmXmXcXxXeX7X6X%X[.#X0XtXcXMXCXCXCXZXFXFXZXZXZXZXFXFXFXFXCXCXCXCXCXCXCXCXCXCXCXCXZXZXZXZXZXZXZXZXZXZXZXZXZXZXFXFXZXZXZXZXZXZXZXZXGXGXGXGXFXFXFXFXGXGXGXFXZXZXZXZXZXCXCXCXmXmXxXyXyXyXyXyXyXyXyXyXyXyXxXmXmXmXmXmXMXMXCXCXZXFXFXFXGXGXGXGXHXHXHXHXHXHXGXGXGXZXMXcXcXcXcXxXcXcXxXxXxXxXcXcXxXxXyXyXyXyXtXtXtXtXeXtXyXyXcXcXmXCXCXCXmXcXnXyXyXyXxXcXMXMXCXCXCXFXFXFXFXFXFXFXZXZXZXZXZXZXZXZXZXZXZXCXCXMXmXmXCXCXMXMXMXMXMXMXMXMXCXCXCXFXCXMXMXMXCXCXCXCXFXFXFXFXCXMXMXMXMXMXbXcXcXcXxXeX5X&X@X@X#X#X&X&X&X&X@X&X&X&X&X&X&X&X&X&X&X&X&X&X*X*X*X6X6X7X7X7X7X7X7XeXeXtXxXxXxXxXxXxXxXxXxXxXeXrXrXrXwXwXeXtXyXyXyXxXcXmXmXmXmXmXcXxXxXrXwXwXwXwXeXxXMXMXMXMXmXcXxXyXtXyXzXtXeXeXrXwX;XE.L.:.o.F V V H B s s d p y y y y e w w w w 4 ",
"[.].[.[.[.Q.E.@X&X#X[.[.[.~.E.Q.Q.Q.Q.W.T.Y.I.v.g.g.g.h.h.g.Y.].@X@X@X@X@X@X&X*X8XnX9X%X%X*X;X%X-X5X5X5X5X5X6X6X5X6X5X5X6X0X6X0X6X0X0X7X7X7X7X7X7X7X7X7X9X9X0X0X6X6X5X6X6X6X6X6X1X1X6X6X6X6X6X6X7X7X7X7X7X7XeXeX9X9XeXeXwXwXrXrXrXrXeXeXeXeXeXeXeXrXeXeXeXeXeXeXeXeXxXxXxXxXxXxXxXcXcXcXcXcXcXcXyXyXyXtXeX7X1X=X=X<X1X6X7X7XeXeXeXeXeXeXtXzXxXxXxXxXxXxXxXyXyXyXzXeXxXxXxXxXtXyXxXtXeXeXeXeXxXxXxXxXxXxXxXxXxXxXxXxXcXcXmXmXmXcXxXeX7X6X=X#X%X<XtXcXCXCXCXZXFXFXZXZXFXFXFXFXFXFXCXCXCXCXCXCXCXCXCXCXCXCXCXZXZXZXZXZXZXZXZXZXZXZXZXZXFXFXZXZXZXZXFXFXFXZXGXGXGXGXGXFXFXFXGXGXGXFXZXZXZXZXZXCXCXCXmXmXcXyXyXyXyXyXyXyXyXyXyXyXxXmXmXmXmXmXMXMXCXCXFXFXFXFXGXGXGXHXHXHXHXHXHXGXGXGXFXZXMXcXcXcXxXxXcXcXxXxXxXxXxXcXcXxXyXyXyXyXtXtXtXtXtXtXyXyXcXmXCXCXCXCXcXnXyXyXyXxXcXMXMXMXCXCXCXFXFXFXFXFXFXFXZXZXZXZXZXZXZXZXZXZXZXCXCXMXmXmXMXCXCXMXMXMXMXMXMXMXCXCXCXFXCXCXMXMXCXCXCXCXFXFXZXCXCXMXMXMXMXbXbXcXcXcXxXeX6X&X+X@X+X+X+X@X&X&X@X@X&X&X@X@X@X@X@X@X&X&X&X&X*X*X*X6X7X7X7X7X7X7X7XeXyXeXtXeXeXeXeXrXrXeXrXeXwXwX6X6XwXwXwXrXeXtXyXyXxXcXmXmXmXcXxXyXeXwXwXwXwXeXxXmXMXMXMXmXxXxXyXeXeXyXxXtXeXwX*X#XT.r.6.@.o.F V B B s s s p p y y y y y w w w w 4 ",
"Q.[.#X[.[.Q.[.#X&X#X[.[.@X~.E.E.Q.Q.W.T.Y.I.I.n.g.g.g.g.g.I.E.+X@X@X@X@X@X&X*X7XlXzX;X%X%X;X5X;X;X5X5X5X6X;X5X5X5X5X5X6X6X6X6X6X0X0X6X6X6X6X6X0X0X0X0X0X7X7X7X0X6X6X5X5X5X<X<X<X<X5X5X5X5X5X6X6X6X6X7X7X7X7XeXeXeXwXwXeXeXeXeXeXeXeXrXrXrXrXeXrXeXeXeXeXeXeXtXtXtXtXxXyXxXyXxXxXxXcXcXcXcXcXxXxXxXxXxXxXeXeX7X<X*X*X6X6X6X6X7XeXeXeXeXeXeXxXxXyXxXyXxXxXyXyXyXyXxXxXxXtXtXtXxXxXxXxXtXeXtXeXtXtXyXyXxXcXxXxXxXxXxXxXxXxXcXmXmXmXmXxXeXeX6X*X#X=X6XxXmXMXCXZXZXZXZXZXZXZXZXZXZXZXZXZXZXZXCXCXCXCXCXCXCXCXCXCXZXZXFXFXFXFXFXCXFXFXFXFXFXFXFXFXFXFXFXFXGXGXGXGXGXGXGXGXGXGXGXGXGXFXFXFXCXCXCXCXCXCXMXmXmXxXyXyXyXyXyXyXyXyXyXxXcXmXmXmXmXMXCXCXCXCXFXFXGXFXGXGXGXHXHXHXHXHXGXGXGXZXCXMXMXcXxXxXxXxXxXxXxXyXyXxXcXcXcXcXxXyXyXyXtXtXtXtXtXyXxXxXmXMXMXCXCXMXcXyXyXtXyXyXmXmXMXMXCXZXZXZXFXFXFXFXFXFXFXFXFXFXZXZXZXZXZXZXCXCXCXMXmXmXMXMXMXMXMXmXMXMXMXMXMXMXCXCXCXCXCXCXCXCXCXCXCXCXCXCXCXMXAXmXAXAXcXbXcXyXeXtX%X$XW.W.+X+X+XE.E.E.+XE.+XE.E.E.E.E.E.E.].@X&X&X%X*X*X5X9X9X9X9X9X7X7XeXlXlXeXeXwX7X6X6X6X6X6X6X6X6X6X1X6X6XwXrXuXtXyXyXxXxXxXxXyXtXtXuXrXwXwXwXrXyXcXmXmXmXcXcXyXtXeXeXrXwXwXwX;X[.T.v.r.r.y.4.@.o.J B M a s s p p y y y y y y w 4 4 4 ",
"[.[.#X[.E.E.#X#X#X#X[.[.[.~.E.E.W.T.T.Y.I.I.I.n.g.g.g.g.g.T.@X@X@X@X@X@X@X&X6XlXlX%X;X%X;X5X5X6X5X6X5X5X6X6X5X5X5X5X6X6X6X6X6X6X0X0X6X6X6X6X6X6X0X0X0X0X7X7X6X6X6X6X6X6X5X5X<X<X5X5X5X5X5X5X6X6X6X6X6X6X6X7XeXeXeXeXeXeXeXeXeXeXeXeXeXeXrXrXrXrXeXeXeXeXeXeXtXtXtXtXxXyXxXyXxXxXxXcXcXMXcXcXcXxXxXxXxXxXxXtXeX6X*X*X<X6X6X6X6X7X7X7X7XeXeXeXyXyXxXyXyXyXyXyXyXyXxXxXxXeXeXtXtXzXxXtXtXeXtXtXtXtXtXyXxXxXxXxXxXxXxXxXxXxXcXcXmXMXMXmXcXxXeX0X*X=X=X6XtXcXMXCXZXZXZXZXZXZXZXZXZXZXZXZXZXZXCXCXCXCXCXCXCXCXCXCXZXZXZXFXFXFXFXCXFXFXFXFXFXFXFXFXFXFXFXFXGXGXGXGXGXGXGXGXGXGXGXGXGXFXFXCXCXCXCXCXCXCXMXMXmXxXyXyXyXyXyXyXyXyXxXmXmXmXmXmXCXCXMXCXFXFXFXFXFXGXGXGXGXHXHXHXHXHXGXGXFXMXMXMXcXcXxXxXxXxXxXxXxXyXyXxXcXcXmXcXxXyXxXyXtXtXtXtXyXyXxXcXmXMXCXCXCXmXyXyXyXyXyXxXmXmXMXCXCXZXZXZXFXFXFXFXFXFXFXFXFXFXZXZXZXZXZXCXCXCXCXMXmXmXMXMXMXMXMXmXMXMXMXMXMXMXCXCXCXCXCXCXCXCXCXCXZXZXCXAXCXZXAXZXZXZXZXZXAXAXZXcX%X!.W.E.+X+X+XE.E.E.E.W.W.T.T.T.T.T.T.T.T.W.E.E.@X&X&X*X0X9X9X9X9X7X6XeXlXlXeXeX7X6X<X*X*X*X*X*X1X1X6X6X6X6XwXrXtXyXyXyXyXyXtXrXrXrXrXwX6XwXrXuXuXyXxXcXcXcXxXyXtXuXeXeXeXtXwX=XT.v.v.r.r.r.6.4.&.O.~ J B M a s p p y y y y y y w 4 4 4 ",
"[.#X[.Q.Q.[.#X#X#X[.[.].E.E.Q.W.T.T.Y.I.I.I.L.g.g.g.g.g.g.E.&X+X@X@X@X@X@X%X0XlX0X&X0X5X6X0X0X0X6X6X6X6X6X6X5X5X*X5X0X0X6X6X6X6X0X0X0X7X6X6X6X6X6X6X6X6X6X6X6X6X6X6X6X6X6X5X6X6X6X6X6X5X6X6X<X<X6X6X<X<X6X6X7XeX9X7XeXeXeXeXeXeXeXeXeXeXrXrXrXrXrXrXeXeXeXeXtXtXtXtXyXyXxXxXxXxXxXcXmXMXmXcXcXcXxXxXxXxXxXxXtXeX6X=X*X6X6X6X6X6X7X7X7XeX7XeXtXyXyXyXyXtXtXtXeXeXeXeXeXeXeXeXxXxXtXtXtXxXtXtXtXeXeXeXyXxXxXxXxXxXxXxXxXxXxXcXcXMXMXMXMXcXxXeX0X*X=X=X1XtXmXmXCXZXZXZXZXZXZXZXFXZXZXZXZXZXZXCXCXCXCXCXCXCXCXCXCXCXZXZXFXFXFXFXFXFXFXFXGXGXFXFXFXFXFXFXGXGXGXGXGXGXGXGXGXGXGXGXGXFXFXCXCXCXCXCXCXCXCXMXmXxXyXyXyXyXyXyXxXxXxXmXmXmXmXMXMXMXCXFXFXFXGXGXGXGXGXGXHXHXHXHXHXHXGXGXFXMXMXmXcXxXxXxXxXxXxXxXyXyXyXyXcXmXmXcXxXyXxXxXtXtXtXtXyXxXcXmXMXCXCXCXMXcXyXyXyXyXyXcXmXMXCXZXZXZXZXZXFXFXFXFXFXFXFXFXFXFXZXZXZXCXCXCXCXCXCXMXmXmXMXmXMXmXmXmXmXmXmXmXMXMXCXCXZXCXCXCXZXZXCXCXZXZXZXZXZXZXAXZXZXFXFXZXZXZXFXMX$XW.W.E.+X@X@X@X@X+XE.W.T.T.Y.Y.Y.Y.Y.Y.Y.Y.Y.T.W.Q.].&X*X0X9X9X9X6X7XeXlXlXeXeXwX6X=X=X=X=X=X*X1X6XwXwXwXwXrXrXtXtXtXuXrXrXrXwXwXwXwX6X6XrXuXyXxXxXxXxXyXyXyXtXrXrXrXwX1X=X].Y.v.u.r.r.r.r.y.5.4.3.@.~ A M a a p p y y y y y y y w 4 4 ",
"#X#XE.Q.E.[.#X#X[.[.[.E.E.E.W.W.T.Y.I.I.I.I.g.g.g.g.g.g.I.+X@X@X@X@X@X@X&X5X9X6X%X%X%X6X7X0X0X0X0X6X0X6X6X6X5X5X*X5X5X5X6X6X6X6X6X6X6X6X6X6X6X6X6X6X6X6X6X6X6X6X6X6X0X6X6X6X6X6X6X6X6X5X6X<X<X<X<X5X*X*X6X6X7X7X7X7X7X7XeXeXeXeXeXeXeXeXeXeXeXeXrXrXrXeXeXeXtXtXtXtXyXyXxXxXxXxXcXcXMXMXmXcXcXcXcXxXxXxXxXxXxXeX7X*X*X<X6X6X6X6X6X7X7X7X7X7XwXeXtXyXtXtXtXeXeXeXeXeXeXeXeXeXxXxXtXtXtXxXtXtXtXeXeXeXtXtXyXyXxXxXxXyXxXxXxXcXcXmXMXMXMXmXcXxXeX7X*X=X=X6XeXcXmXCXZXZXZXZXZXZXFXZXZXZXZXZXCXCXCXCXCXCXCXCXCXCXCXCXZXZXFXFXFXFXFXFXFXFXGXGXFXFXFXFXGXGXGXGXGXGXGXGXGXGXGXGXGXGXFXCXCXCXCXCXCXCXCXCXCXMXmXcXxXxXxXyXyXyXxXxXcXmXmXMXMXMXMXCXCXFXFXFXGXGXGXGXGXGXHXGXHXHXHXGXGXGXCXmXmXcXxXxXxXxXxXxXxXxXyXyXyXyXcXcXmXcXcXxXxXxXyXyXtXyXxXcXmXMXMXCXCXCXmXxXyXyXyXyXcXmXMXCXZXZXZXZXZXZXFXFXFXFXFXFXFXFXFXFXZXZXCXZXCXCXCXMXMXmXmXmXmXMXMXmXmXmXmXmXmXmXMXMXMXCXCXZXCXZXZXAXAXAXAXAXAXAXAXpXpXpXpXpXpXpXpXpXpXuX[.W.W.E.+X@X@X@X@X@X+XE.T.T.Y.Y.Y.I.I.I.I.I.I.I.Y.Y.T.].&X*X6X9X9X6X9XeXlXlXrXeXwX6X<X*X<X1X6X6X6XwXrXrXrXwXrXrXrXrXrXrXwXwXwX6X6X6X6X6XwXrXyXcXcXyXtXtXtXuXrXrXrXrXrX=X].Y.b.z.k.k.i.u.u.r.7.7.8.5.3.@.~ C M a p p y y y y y y y w 4 4 ",
"#X[.Q.E.E.[.[.[.E.E.E.E.Q.Q.W.T.Y.I.I.I.I.L.g.g.g.g.g.I.T.+X@X+X+X+X+X@X-X8X9X%X@X;X*X5X0X0X7X7X0X0X7X6X6X6X5X5X5X*X<X5X6X6X6X6X6X6X6X6X6X6X6X6X6X6X6X6X6X6X6X6X0X0X0X6X6X6X6X6X6X6X6X5X<X5X<X<X*X*X*X<X6X6X6X7X7X7XeXeXeXeX7X7XeXeXeXwXeXeXeXeXeXeXrXrXeXeXeXeXeXeXxXxXxXxXxXcXcXcXmXmXmXmXmXcXcXxXxXxXxXxXxXtXeX6X<X6X6X6X6X6X6X7X7X6X6X6X7XwXeXtXtXtXeXeXeXeXeXeXeXeXeXeXtXxXxXxXxXxXyXtXtXeXeXeXeXeXtXyXxXxXxXxXxXxXxXxXxXcXmXMXMXMXMXmXcXeX7X*X=X=X6XtXcXMXCXZXFXFXFXFXFXZXZXCXCXCXCXCXCXCXCXCXCXCXCXCXCXCXCXCXZXZXFXFXGXGXGXGXGXGXGXGXGXGXGXGXGXGXGXGXGXGXGXGXGXGXGXGXFXCXCXCXCXCXCXCXCXCXMXMXmXcXxXxXxXyXxXxXxXxXxXmXmXMXMXMXCXFXFXFXGXGXGXGXGXGXGXGXGXGXHXHXHXHXGXFXMXmXcXxXxXxXyXyXyXyXyXyXyXyXyXyXcXcXcXcXcXcXcXxXyXyXyXyXxXcXmXMXCXCXCXMXcXxXyXyXyXxXmXMXCXCXZXZXZXFXZXFXFXFXFXFXFXFXFXFXZXZXZXZXCXCXMXMXMXMXMXmXmXmXmXmXmXmXmXmXmXmXmXmXNXMXMXMXCXZXAXAXAXAXAXpXpXpXpXpXpXpXpX>X>X>X>X>X>X>X>X{.].T.T.W.E.+X+X@X@X@X+XE.T.Y.Y.Y.I.I.I.I.I.I.I.I.Y.Y.Y.T.@X&X6X9X9X7XwXeXxXlXrXeX7X6X1X6X6XwXwXwXrXeXyXuXeXrXrXrXwX6XwX6X6X1X6X6XwXwX1XwXrXrXuXyXyXyXuXuXeXrXrXyXNXuX{.`.b.k.k.j.u.u.u.u.u.u.u.7.7.7.5.3.@.~ A M a p p p y y y y y y 4 4 ",
"[.Q.Q.Q.E.[.[.E.E.E.E.W.W.W.T.T.U.I.I.I.I.g.g.g.g.g.g.Y.E.!.+X+X+X+X@X$X6XlX0X@X@X%X<X5X6X6X6X6X6X6X0X6X6X6X5X5X5X*X<X<X<X6X6X6X6X6X5X5X6X6X6X6X6X6X6X6X6X6X0X0X6X6X0X6X6X6X6X6X6X6X6X5X<X<X<X<X*X*X<X<X6X6X6X6X6X7XeXeXeXeX7X7XeXeXeXwXeXwXeXeXeXeXrXrXrXrXeXeXeXeXxXxXxXxXxXxXcXcXcXcXcXcXcXcXcXcXcXxXcXxXxXtXeXeX6X6X6X6X6X6X6X6X6X6X6X6X7XwXeXeXeXeXeXeXeXeXeXeXeXeXeXeXtXtXxXxXxXxXyXtXtXeXeXeXeXeXtXtXyXyXyXyXxXxXxXxXxXcXcXMXMXMXMXMXMXcXtX7X6X*X*X6XtXcXmXCXZXFXFXFXFXZXZXCXZXCXCXCXCXCXCXCXCXCXCXCXCXCXCXCXZXZXFXFXGXGXGXGXGXGXGXGXGXGXGXGXGXGXGXGXGXGXGXGXGXGXGXGXFXCXCXCXCXCXCXCXCXCXMXMXmXcXxXxXxXxXxXxXxXxXxXcXmXMXMXCXCXFXFXFXGXGXGXGXGXGXGXGXGXGXHXHXHXHXGXCXmXmXcXxXxXxXyXyXyXyXyXyXyXyXyXyXxXxXcXcXcXxXxXxXxXyXyXxXxXmXMXMXCXCXMXmXxXyXyXyXyXxXmXCXCXCXZXZXFXFXFXFXFXFXFXFXFXFXFXZXZXZXZXZXCXMXMXmXMXMXmXmXmXmXmXmXmXmXmXmXmXmXmXmXNXAXAXAXAXAXAXpXpXpXiXiXiX>X>X>X>X>X>XK.K.K.K.K.K.K.>X{.`.T.T.T.W.E.E.+X+X+XE.W.T.I.I.I.I.I.I.I.I.I.I.I.I.Y.Y.T.E.&X*X6X9X7XwXeXlXlXrXrXwX6X6X6XwXrXrXrXrXeXeXeXrXwXwXwX6X1X1X1X1X1X6X6XwXwXwXwXrXrXrXrXwXrXrXeXeXtXuXrX=X`.M.z.k.u.u.u.u.u.u.i.u.i.0.0.7.8.8.5.4.@./ A B a u y y y y y y y 4 4 ",
"[.Q.Q.E.E.E.Q.Q.Q.W.W.T.T.T.Y.Y.I.I.I.n.g.g.g.g.g.g.g.W.+X!.@X@X+X+X$X6X9XlX%X@X&X%X*X*X;X;X5X5X5X5X6X6X6X6X6X5X5X*X<X<X<X<X5X5X5X5X5X5X6X6X6X6X6X6X0X0X7X7X7X7X7X7X7X6X0X6X6X6X6X6X6X5X5X5X<X<X*X*X*X*X<X<X<X<X6X6X7XeXeXeXeX7XeXeXeXwXeX7XeXeXeXeXrXrXrXrXeXeXtXtXtXtXxXxXxXxXxXxXcXcXcXcXcXcXmXmXmXmXcXxXyXeXtXeX6X6X<X6X6X6X6X6X6X6X6X6X7XwXwXwXwXwXeXeXeXeXeXeXtXtXeXtXtXtXxXxXyXyXyXyXtXeXeXeXeXeXtXtXyXyXxXxXxXxXcXcXcXxXcXMXCXCXCXMXCXMXmXxXwX6X<X<X1XtXcXmXCXZXFXFXFXZXZXCXCXCXCXMXMXMXMXMXCXCXCXCXCXCXCXCXZXZXFXFXGXGXGXGXGXGXGXGXGXGXGXGXGXGXGXGXGXGXGXGXGXGXGXGXFXCXCXFXFXCXCXCXCXCXMXMXmXcXxXxXxXxXxXyXxXxXxXcXMXMXCXCXFXFXFXFXGXGXGXGXGXGXGXGXGXGXHXHXHXHXFXMXmXcXcXxXxXxXyXyXyXyXtXtXtXtXyXyXyXyXyXyXyXyXxXyXyXtXyXxXmXMXMXCXCXMXMXcXxXyXyXxXxXmXmXCXZXZXZXZXZXZXFXFXFXFXZXZXZXFXFXFXZXZXZXZXCXMXmXmXMXmXmXmXmXmXmXmXmXmXMXmXmXmXmXpXAXAXZXZXAXpXpXiXiX>X>X>XK.K.K.K.K.K.K.K.K.K.K.H.H.H.H.F.`.T.T.R.T.W.W.E.E.E.W.T.Y.I.I.I.I.I.L.L.L.L.I.I.I.Y.T.T.E.&X=X6X7X7XwXeXtXtXeXeXeXwX7XwXeXeXeXrXrXeXeXrXwX7X6X6X1X1X=X1X1X1X6X6XwXwXwXwXwXrXwXwXrXrXrXrXrXrXwX=X_.v.k.j.j.j.u.i.u.u.u.i.u.u.0.0.0.7.8.5.4.4.@.~ A B u p p y y w y 7 4 4 ",
"Q.Q.E.~.E.Q.Q.W.W.T.T.T.T.Y.I.I.I.I.g.g.g.g.g.h.g.g.I.E.@X!.!.!.+X@X%X9XzX;X@X&X%X%X&X&X%X%X%X*X%X;X;X;X;X6X0X0X0X5X=X=X*X<X<X<X<X5X5X5X6X6X6X6X6X6X0X7X7X7X7X7X6X0X0X6X7X6X6X6X6X6X6X5X5X5X<X<X*X*X*X*X*X*X*X*X*X6X6X7XeXeXeXeXeXeXeXeXeX7XeXeXeXeXrXrXrXrXeXeXtXtXyXtXeXeXtXtXzXxXxXxXxXxXcXcXcXmXmXmXmXxXxXtXtXtXeX6X<X6X6X6X6X6X6X6X6X6X7X7X7X7X7X7XwXwXeXeXeXeXeXeXeXeXtXtXtXxXyXyXyXtXtXeXwXeXeXeXtXyXxXxXyXxXxXxXcXcXcXxXcXmXMXMXCXCXZXCXCXCXcXtX7X1X<X1XwXyXmXZXZXZXZXZXCXCXCXCXMXcXcXmXmXmXMXMXMXCXCXCXCXCXZXZXFXFXFXFXFXFXGXGXGXGXGXGXGXGXGXGXGXGXGXGXGXGXGXGXGXGXFXFXFXFXFXFXFXCXCXCXCXMXMXcXxXxXxXxXyXxXxXxXcXmXMXCXCXFXFXFXFXFXGXGXGXGXGXGXGXGXGXGXHXHXHXGXCXcXcXxXxXxXyXyXyXtXtXtXtXtXtXtXyXyXyXyXyXyXyXyXyXtXtXtXyXcXmXMXCXCXCXMXmXxXyXyXxXcXmXMXCXZXZXZXZXZXZXZXFXFXFXFXZXZXZXZXFXFXZXZXZXCXCXMXmXmXmXmXcXmXmXmXmXmXmXcXcXmXmXAXAXAXpXpXpXpXiXiX>X>X>X>XK.K.K.K.H.H.K.K.K.K.K.H.H.H.H.H.F.G.`.Q.W.T.T.W.W.W.W.W.T.T.I.I.I.I.I.I.L.g.g.L.I.I.I.Y.T.T.W.@X#X*X6X6XwXeXtXxXeXeXeXrXwXrXeXeXeXrXrXrXrXwX6X6X1X1X;X=X=X=X1X1X1X1X1X1XwXwXwXwXwXwXwXwXrXrXrXrX].Y.k.k.k.k.j.i.i.i.0.0.u.i.0.0.0.q.q.7.8.8.4.4.3.@.~ A m u 8 7 y w y 7 4 4 ",
"E.E.E.E.E.Q.R.T.T.T.T.T.T.Y.I.I.I.I.g.g.g.g.g.g.g.g.I.E.!.E.E.E.+X@X*XzXzX@X@X&X&X&X%X%X%X%X%X%X%X%X;X;X;X5X0X9X0X0X5X<X*X*X*X=X<X<X5X5X6X6X6X0X6X0X7X7X9X7X0X6X6X0X0X6X6X6X6X6X6X6X6X5X5X5X<X<X*X*X*X*X=X=X=X=X*X*X<X6X7XeXeXeXeXeXeXwXeXeXwXwXwXwXwXwXrXrXeXeXeXeXtXtXtXtXtXtXtXtXxXyXxXxXcXcXcXmXmXmXmXcXxXxXtXtXeX7X6X6X<X<X5X5X5X5X6X6X6X7X7X7X7X7XwXwXwXwXeXeXeXeXeXeXtXyXyXyXyXyXyXtXeXwXwXwXeXeXeXeXxXcXxXxXcXcXcXxXcXcXcXcXmXMXMXZXCXCXCXFXCXcXyXwX1X<X1XwXyXcXmXMXCXCXCXCXCXCXCXmXmXCXMXMXmXMXMXCXCXCXCXCXCXCXCXFXFXFXFXFXGXGXGXGXGXGXGXGXGXGXGXGXGXGXGXGXGXGXGXGXGXGXGXGXGXFXFXCXCXCXCXCXMXmXxXxXxXxXxXxXcXmXMXMXCXFXFXFXFXFXFXFXGXGXGXGXGXGXGXGXGXGXGXGXGXGXMXmXcXxXyXyXyXyXyXtXtXtXtXtXtXtXtXyXyXyXyXyXxXyXyXyXtXyXxXcXmXMXCXCXCXMXcXyXyXyXxXmXMXCXCXCXZXCXCXCXZXFXZXZXFXZXZXZXZXZXZXZXZXZXCXCXCXMXMXmXcXcXcXcXcXmXNXNXmXyXNXNXAXAXpXpXiXiX>X>X>X>XH.H.H.H.H.H.H.H.H.H.H.H.H.H.H.H.H.H.H.H.F.'.].E.W.W.W.W.W.W.W.T.T.Y.I.I.I.I.I.L.n.g.g.n.L.I.I.Y.T.T.E.].&X*X6X6X7XrXxXxXxXtXtXeXrXrXrXeXeXeXeXeXwXwX6X;X;X;X=X;X;X;X6X6X6X6XwX6X6XwXwXwX6X1X7XwXwXeX=XT.Y.b.l.k.j.j.j.j.i.i.i.i.0.0.0.0.0.0.0.q.7.8.5.5.9.3.@.^ A M u p y y y y y 4 ",
"E.E.E.E.W.Q.R.T.Y.Y.Y.Y.Y.Y.I.I.I.n.g.g.g.g.g.g.g.g.U.E.!.E.E.E.+X&X5XlX9X@X@X&X&X&X%X%X%X%X%X%X%X%X*X;X*X5X5X9X9X9X0X6X5X<X=X=X=X*X<X5X5X5X6X6X6X0X7X7X7X6X6X6X5X6X6X6X6X6X6X6X6X6X6X6X5X5X5X5X*X*X*X*X*X*X*X*X*X*X*X*X6X7XeXeXeXeXwXwXeXeXwXwXwXwXwXwXrXrXeXeXeXeXtXtXtXtXtXtXtXtXxXyXxXxXcXcXcXcXcXmXmXmXcXxXxXtXtXeXeX9X0X5X<X<X<X<X<X5X7X7X7X7X7X7X7X7XwX7X9XeXeXeXeXeXtXyXyXyXyXyXyXyXeXeXeXwXwXwXeXeXxXxXcXcXcXcXcXxXcXcXcXcXmXmXmXMXCXCXCXCXFXCXMXxXyXwX6X1X<X6XtXxXMXCXCXCXCXCXCXMXMXZXCXCXMXMXmXMXCXCXCXCXCXFXCXCXFXFXFXFXFXFXGXGXGXGXGXGXGXGXGXGXGXGXGXGXGXGXGXGXFXFXFXZXCXCXCXMXMXMXMXmXcXcXxXxXxXxXyXyXcXmXMXMXCXFXFXFXFXFXFXFXFXFXGXGXGXGXGXGXGXGXGXGXGXCXMXcXxXxXyXyXyXtXtXtXtXtXtXtXtXtXtXtXyXyXxXxXxXxXxXxXxXxXcXmXMXMXCXCXMXmXxXyXtXyXcXmXCXCXCXCXZXCXCXCXFXFXZXZXFXZXZXZXZXZXZXZXZXZXCXZXCXMXMXmXcXxXcXcXcXyXuXyXpXAXAXpXpXiXiX>X>X>X>XK.H.H.H.H.H.H.H.H.H.H.H.H.H.H.H.H.H.H.H.H.H.H.F.`.].W.W.W.W.E.E.W.W.U.U.Y.I.I.I.I.I.L.g.g.g.g.I.I.I.Y.T.T.E.].#X=X*X6X6XeXxXxXxXxXeXrXrXeXwXwX7X7X7X7X6X;X;X;X;X;X=X=X;X;X6X6X1X1X6X1X6X6X1X1X1XwXuXyXeX=XT.M.b.z.k.j.j.j.j.j.i.i.i.i.0.0.0.0.0.0.0.0.0.7.7.8.5.9.3.@.^ A M u p y y y y 7 ",
"E.~.E.E.E.W.R.T.I.I.I.I.I.I.I.I.n.v.g.g.g.g.g.g.g.L.W.E.E.E.E.!.@X%X0X9X5X&X&X&X&X&X%X%X%X%X%X%X%X%X;X*X%X*X*X5X5X0X9X9X0X6X<X<X*X=X=X<X5X5X5X6X6X6X7X6X6X6X0X7X0X6X6X6X6X6X6X6X6X6X6X6X6X6X6X6X6X6X6X6X6X6X6X6X6X*X*X*X*X6X7X7XwXwXwXwXeXeXwXwXwXwXwXwXrXrXeXeXeXeXtXtXtXtXtXtXyXyXxXxXxXxXcXcXcXcXmXmXmXmXmXcXxXxXxXxXtXeXeX9X6X5X<X<X=X<X6X7X7X0X7X7X7X7X7X7X9XeXeXeXeXeXtXxXyXyXyXyXxXxXyXtXtXeX7X6X6XeXeXeXxXcXcXcXcXcXcXcXcXmXmXmXmXmXMXCXZXCXZXZXCXMXmXxXtX6X<X*X1X7XtXxXcXMXCXZXCXmXmXCXZXZXZXCXMXmXMXCXCXCXCXFXFXFXFXFXFXFXFXFXGXGXGXGXGXGXGXGXGXGXGXGXGXGXGXGXGXGXGXGXFXZXCXCXCXMXMXMXMXmXcXcXcXxXxXyXtXyXyXxXcXmXMXCXCXCXCXCXCXFXFXFXGXGXGXGXGXGXGXGXGXGXGXMXcXcXxXyXyXyXyXtXtXtXtXtXtXeXtXtXyXyXyXyXxXxXxXxXxXxXcXcXcXMXMXCXCXMXmXxXyXtXyXxXmXMXCXCXCXCXCXCXCXCXFXFXZXZXFXZXZXZXZXZXZXZXZXCXZXZXCXCXMXmXxXcXcXcXcXyXuXuXpXpXpXiX>X>X XH.H.H.H.H.H.H.H.H.H.H.H.H.H.H.H.H.H.H.H.H.H.H.H.H.H.H.F.`.Q.W.W.W.W.W.W.W.W.U.U.I.I.I.I.I.I.n.n.g.g.g.L.I.I.Y.T.T.E.].&X=X<X6X7XeXxXcXcXxXeXwX7X6X6X6X;X;X;X*X;X=X;X;X;X;X=X=X6X6X6X6X1X1X6X6X1X1X1X=X1XwXuX1X=XT.v.k.z.k.j.j.u.i.j.j.j.i.j.j.i.i.i.u.0.0.0.0.0.0.0.0.8.5.9.3.@.^ J M p y y y y y ",
"E.E.E.Q.W.W.R.Y.I.I.I.I.I.I.n.n.v.g.g.g.h.h.h.h.g.I.E.E.E.E.E.!.@X%X8XzX@X%X@X@X@X@X%X%X%X%X%X%X%X%X;X;X%X%X%X%X*X5X5X6X0X0X9X0X6X*X=X=X=X<X5X5X6X6X0X6X6X6X0X7X0X6X6X6X6X6X6X6X6X6X6X6X6X6X6X6X6X6X7X7X6X6X6X6X6X6X6X*X=X=X*X6X7X7XeXeXeXeXwXwXwXwXwXwXrXrXeXeXeXeXeXtXtXtXtXtXxXxXxXxXxXxXcXcXcXcXmXmXmXmXmXmXcXxXxXxXtXtXtXeX9X0X6X5X<X<X5X6X0X6X6X6X7X7X7X7X9XeXeXeXeXeXyXxXyXyXyXxXxXxXxXyXyXtXwX7X7X7XeXeXeXyXxXcXcXcXcXcXmXmXmXmXmXmXmXMXCXCXZXZXZXCXCXmXxXtXwX6X1X6X6X7XtXyXcXbXMXcXcXMXCXCXZXCXCXMXMXMXMXMXCXCXFXCXFXFXFXFXFXFXGXGXGXGXGXGXGXGXGXGXGXGXGXGXGXGXGXGXGXGXGXGXGXGXFXFXFXFXCXCXMXMXmXmXcXxXyXyXyXxXcXmXMXCXCXCXCXCXCXFXFXFXFXZXFXGXGXGXGXGXGXGXCXcXxXxXyXtXtXtXtXtXtXtXtXtXeXeXtXtXyXyXxXyXyXyXxXxXcXcXmXmXmXMXCXCXMXcXxXyXtXtXyXcXmXMXCXCXCXCXZXZXZXFXFXFXFXFXFXZXZXZXZXZXZXZXZXZXZXCXCXCXMXmXmXyXyXyXyXpXpXpXiXiX>X>X XH.H.H.H.H.H.H.H.H.H.H.H.H.H.H.H.H.H.H.H.H.H.H.H.H.H.H.H.H.F.`.Q.W.W.W.W.W.W.W.T.U.I.I.I.I.I.I.L.g.g.g.g.g.L.I.I.Y.T.T.E.].#X=X<X6X7XeXxXcXmXxXrX7X6X6X;X;X*X*X*X*X*X*X;X;X;X;X=X=X6X6X6X6X1X1X6X6X1X1X=X=X1XwX=X].M.v.v.k.k.j.j.j.i.j.j.j.j.i.i.i.i.i.i.u.0.0.0.0.0.0.0.0.7.8.5.9.3.@.~ J B 8 7 7 7 7 ",
"E.E.W.W.E.W.T.Y.I.I.I.I.n.n.g.g.g.g.g.h.t.h.h.h.g.U.!.E.E.E.E.E.&X0XzX5XE.@X@X@X@X@X&X%X&X%X%X%X%X%X;X;X;X*X%X%X%X*X*X<X0X9XeXeX9X5X=X%X%X=X<X<X5X6X6X6X6X6X6X6X0X6X6X6X6X6X6X6X6X6X7X6X6X6X0X6X7X7X7X7X7X0X6X6X6X6X6X<X*X=X=X*X6X6XwXeXeXeXwXwXrXrXwXwXwXwXwXwXeXeXeXeXtXtXxXxXxXxXxXxXxXxXcXcXcXmXmXmXmXmXMXmXmXcXcXxXzXtXtXtXeX9X0X5X5X<X<X5X6X6X6X6X7X7X7X7X7XeXeXeXeXtXxXxXxXyXyXxXxXxXxXxXyXyXtXtXeXeXeXeXeXeXtXxXxXcXcXcXcXcXcXcXcXcXcXmXMXCXCXZXFXCXCXCXMXmXxXeXwX7X6X6X7X7XtXxXnXxXxXcXmXMXCXZXCXCXMXMXMXMXCXCXCXCXFXFXFXFXFXFXGXGXGXGXGXGXGXGXGXGXGXGXGXGXGXGXGXGXGXGXGXGXGXGXGXGXGXFXFXCXCXMXmXmXmXcXxXxXcXcXmXmXCXCXCXCXCXCXCXCXFXFXFXZXFXGXGXGXGXGXGXFXmXxXxXxXyXtXtXtXtXtXtXtXtXtXeXeXtXyXyXyXxXxXyXyXxXcXmXmXMXMXMXMXMXMXmXxXyXyXyXyXxXcXMXMXMXCXCXCXCXCXZXFXFXZXFXFXFXFXZXZXZXZXZXZXZXCXCXMXMXZXMXmXyXuXuXuXpXpXpXiX>X>XH.H.H.H.H.H.H.H.H.H.H.H.H.H.H.H.H.H.H.H.H.H.H.H.H.H.H.H.H.H.H.H.F.`.T.T.W.W.W.W.W.R.Y.I.I.I.I.I.I.I.g.g.g.g.g.g.I.I.I.Y.T.T.W.].#X&X*X6XwXeXxXmXcXtXwXwX6X1X;X;X=X=X=X;X*X*X=X=X;X;X=X=X=X=X6X6X6X6X6X1X1X=X=X1X=X=X].Y.v.k.k.k.j.j.j.i.i.i.j.j.i.i.i.i.i.i.i.i.i.0.0.0.0.0.0.0.q.7.5.5.9.4.@.~ J m 8 9 7 7 ",
"E.E.W.Q.W.W.T.Y.I.I.I.I.n.n.g.g.g.g.g.h.h.t.h.h.g.W.!.E.E.E.E.@X%X0XnX@X@X@X@X@X@X@X&X&X&X&X%X%X%X%X%X%X*X*X%X*X*X*X=X=X%X5X9X9XeX7X5X=X%X%X%X=X*X<X5X5X6X6X0X6X6X6X6X6X6X6X6X6X6X6X6X6X6X6X6X6X7X7X7X7X7X6X6X6X6X6X6X<X1X*X=X=X*X;X;X6XwXeXwXwXwXwXwXwXwXwXwXwXwXwXeXeXtXtXxXxXxXxXxXxXxXxXcXcXcXmXmXmXmXmXMXmXmXcXcXcXxXzXtXtXeXeX7X6X6X5X<X<X<X5X6X6X6X6X7X7X7X7X7XeXeXeXyXxXyXxXxXxXxXxXxXxXxXyXxXxXxXeXeXeX7XeXeXeXtXxXxXcXcXcXcXcXcXcXcXcXcXmXmXMXCXCXFXFXCXCXCXMXxXyX7X7X6X6X7X7XeXtXeXtXtXxXmXMXMXCXCXCXCXMXMXMXCXCXCXFXFXFXFXFXGXGXGXGXGXGXGXGXGXGXGXGXGXGXGXGXGXGXGXGXGXGXGXGXGXGXGXFXCXCXMXmXmXmXmXcXcXxXcXcXmXmXMXMXMXMXMXMXCXCXCXCXZXZXFXGXGXGXGXGXFXMXcXxXxXtXtXtXtXtXtXtXeXeXeXeXeXtXyXyXxXxXxXxXxXxXmXmXMXMXCXCXCXMXMXcXxXyXyXyXyXxXmXmXMXMXCXCXCXCXCXCXCXFXFXFXFXFXFXFXZXZXZXZXZXZXCXCXCXMXMXZXZXNXuXuXiXpXpXiX>X XH.H.H.H.H.H.H.H.H.H.H.H.H.H.H.H.H.H.H.H.H.H.H.H.H.H.H.H.H.H.H.H.H.H.G.`.T.U.Y.Y.I.U.U.Y.I.I.I.I.I.I.I.g.g.g.g.g.g.g.L.I.I.Y.T.T.W.].#X=X*X6XeXeXxXmXtXwXwXwXwX6X6X;X;X;X;X;X=X*X*X*X;X;X=X=X=X=X6X;X6X6X=X=X;X=X=X1X=X].M.b.k.k.k.j.j.i.i.i.i.i.j.j.i.u.u.0.i.i.i.i.i.0.0.0.0.0.0.0.0.7.8.5.5.4.4.@.o.A M 8 6 7 ",
"E.W.W.Q.W.T.T.Y.I.I.I.I.n.n.g.g.g.g.h.h.h.t.h.g.I.E.E.E.E.E.@X@X5XzXnX!.&X&X&X&X&X&X&X&X@X@X$X$X&X&X%X%X%X%X%X%X*X*X=X*X%X%X5X0X7X9X9X6X<X=X&X&X&X&X<X<X<X5X5X6X6X6X6X6X6X6X6X6X6X6X0X6X6X0X0X0X7X7X7X7X6X6X6X6X6X6X6X6X6X6X*X=X=X*X*X;X6XwXwXwXwX7X7X7XwXwXwXwXwXwXwXeXtXxXxXxXxXxXxXxXxXxXcXcXcXcXmXmXmXmXMXmXmXmXcXcXcXxXzXtXeXeXeX7X6X6X5X<X<X5X5X6X6X6X7X7X7X7X7XeXeXeXtXyXxXxXyXyXxXxXxXxXxXxXxXxXxXxXeXeXeXeX7XeXeXeXtXxXxXxXxXxXxXxXxXxXxXxXxXmXMXMXCXCXFXCXCXCXMXmXxXeX7X7X7X7X7X7X7X7X9XtXyXxXxXcXMXMXMXMXCXMXMXCXCXCXFXFXFXFXGXFXGXGXGXGXGXGXGXGXGXGXGXGXGXGXGXGXGXGXGXGXGXGXGXGXGXGXCXCXMXcXcXcXcXxXxXxXxXxXcXcXmXmXMXMXMXMXMXMXCXCXMXCXFXGXGXGXGXGXFXmXxXxXxXeXeXtXeXeXtXwXwXwXwXwXtXtXyXxXxXcXcXxXxXcXMXMXCXCXCXCXMXMXcXxXyXyXyXyXxXmXMXMXCXMXCXCXCXCXCXCXCXFXFXFXZXZXZXZXZXZXZXZXZXZXCXCXCXMXMXMXNXyXuXiXpXpX>X XF.H.H.H.H.H.H.H.H.H.H.H.H.H.H.H.H.H.H.H.H.H.H.H.H.H.H.H.H.H.H.H.H.H.H.H.A.M.I.I.I.I.I.I.I.I.I.L.L.I.I.I.L.g.g.g.g.g.n.n.L.I.I.Y.T.T.W.].#X=X*X6XeXeXxXyXwX6XwX7X7XwX6X;X;X=X;X*X*X*X;X;X;X;X6X;X=X;X;X=X;X;X=X=X=X=X1X=X`.M.k.k.k.k.j.j.i.0.0.i.i.i.j.i.i.0.0.0.i.i.i.i.i.i.u.u.0.0.0.0.0.q.7.8.5.5.4.4.@./ A x 9 9 ",
"E.Q.Q.R.T.T.T.Y.I.I.I.n.n.n.g.g.g.g.h.h.h.t.h.g.I.E.!.E.E.E.@X&X0XnX0X%X%X%X%X%X&X&X&X&X@X@X@X@X&X&X&X%X%X%X%X%X*X*X*X<X%X%X%X5X0X9X9X9X7X6X<X=X=X&X=X=X=X<X5X6X6X6X6X6X6X6X6X6X6X6X0X6X6X6X7X0X7X7X7X7X7X7X6X6X6X6X1X1X6X6X6X*X*X*X*X*X;X6X6XwX6X6X6X6XwXwXwXwXwXwXwXrXtXxXxXxXxXxXxXxXxXxXcXcXcXcXmXmXmXmXMXmXmXmXmXmXcXcXcXxXtXtXtXeX7X6X6X5X5X5X<X5X6X6X6X6X7X7X7X7X7XeXeXtXyXyXyXxXxXxXyXyXxXxXxXxXxXxXxXeXeXeXeXeXeXeXeXeXeXeXtXeXtXtXtXtXyXyXxXxXcXmXMXMXCXCXCXCXCXMXmXxXyXtXeX7X7X7X7X7X7X7XeXtXeXtXyXxXcXmXMXMXMXMXCXCXFXFXFXFXFXFXGXGXGXGXGXGXGXGXGXGXGXGXGXGXGXGXGXGXGXGXGXGXGXGXGXFXCXMXmXcXxXxXxXyXyXyXyXxXxXxXcXcXmXmXmXmXMXMXCXMXMXMXZXFXGXGXGXGXMXcXxXtXeXeXeXeXeXeXwXwXwXwXwXwXeXtXtXxXcXcXcXcXcXmXMXCXCXCXCXCXMXcXxXyXyXyXyXxXcXmXMXCXMXCXCXCXCXCXCXCXCXFXFXFXZXZXZXZXZXZXZXZXZXZXCXCXCXMXNXyXuXiXiXiXiX>XXXH.H.H.H.H.H.H.H.H.H.H.H.H.H.H.H.H.H.H.H.H.H.H.H.H.H.H.H.H.H.H.H.H.H.H.H.F.V.M.I.I.I.I.I.I.I.I.L.L.g.g.g.g.g.g.g.g.g.g.n.n.L.I.I.Y.T.T.W.].#X=X*X6XeXeXyXrX7XwX7X7XwXwX6X;X;X;X;X*X*X*X;X;X6X;X;X6X;X;X;X;X=X=X=X=X=X1X=X`.M.b.k.i.u.j.u.i.i.0.0.i.i.i.i.i.0.0.0.0.i.i.i.i.i.i.u.u.0.0.0.0.0.0.7.8.8.8.5.4.4.@./ A x 9 ",
"Q.Q.W.T.Y.T.T.Y.I.I.I.I.n.g.g.g.g.g.g.h.h.t.h.g.Y.E.E.E.W.E.@X%X9XbX%X%X$X%X%X%X%X$X&X&X&X&X&X&X&X#X&X&X&X&X%X%X%X*X5X<X*X*X*X*X6X9XeXeXeXeX9X6X*X*X*X&X*X*X*X5X5X6X6X6X6X6X6X6X6X6X6X6X6X6X6X0X6X7X7X7X7X7X7X6X6X6X6X6X6X6X6X6X6X*X6X*X*X6X6X7X7X7X7X7X7X7X7X7XwXwXwXwXeXtXyXyXyXyXxXxXxXxXcXcXcXcXcXcXmXmXMXMXmXmXmXmXMXMXcXxXzXzXzXzXeX7X0X6X5X5X<X<X<X6X6X6X6X6X6X6X6XeXeXeXeXtXyXxXxXxXxXxXxXxXxXxXxXxXxXxXeXeXeXeXwXwXwXeXeXeXeXeXtXtXtXtXyXyXyXxXxXcXmXMXMXCXFXFXFXFXCXMXmXcXxXtXeXeXeXeXwXwXwXwXwXeXeXtXtXyXxXcXmXMXCXCXCXCXFXFXFXFXFXGXGXGXGXGXGXGXGXGXGXGXGXGXGXGXGXGXGXGXGXGXGXGXGXGXCXCXMXmXxXxXyXyXyXyXyXxXxXcXmXmXmXmXMXmXMXMXCXMXMXMXFXGXGXGXGXCXcXyXtXeXeXeXeXeXeXeXeXwXeXeXeXtXeXtXyXxXcXcXmXmXMXMXCXCXCXCXCXMXmXxXyXtXtXyXxXcXcXmXMXMXMXCXCXCXZXZXZXZXZXZXZXZXZXZXZXZXZXZXCXZXZXCXCXCXCXAXpXpXiX>X>X>X>XH.H.H.H.H.H.H.H.H.H.H.H.H.H.H.H.H.H.H.H.H.H.H.H.H.H.H.H.H.H.H.H.H.H.H.H.H.H.F.V.M.I.I.I.I.I.I.L.L.L.L.g.g.g.g.g.g.g.L.g.g.g.L.L.I.I.I.T.T.E.+X#X&X*X6XeXeXeX7X6X7X6X6X6X6X6X<X*X*X*X*X=X*X*X6X;X;X;X;X;X;X*X=X=X=X=X=X=X=X].n.k.k.k.u.u.i.i.i.i.0.0.0.0.0.i.i.0.0.0.0.0.0.0.0.i.i.0.0.0.0.0.0.0.0.q.7.5.8.8.5.5.3.@.^ Z x ",
"W.W.W.R.Y.T.T.Y.I.I.I.I.g.g.g.g.g.g.h.h.h.t.h.g.T.E.E.E.E.E.&X%X8XlX@X%X%X%X%X%X$X$X$X$X%X&X%X%X&X&X&X&X&X&X&X&X%X*X5X<X*X*X*X*X*X*X7XeXeXeXeX9X0X6X5X*X*X*X*X;X<X5X5X5X6X6X6X6X6X6X6X6X6X5X5X6X6X6X6X7X7X7X7X7X7X6X7X6X7X6X6X6X6X6X6X6X<X*X6X6X7X7XwXwXwX7X7X7XwXwXwXwXwXeXyXyXyXyXyXyXxXcXcXcXcXcXcXcXmXMXMXMXmXmXMXMXMXcXcXcXcXxXxXxXzXeX7X0X6X5X5X<X1X<X<X6X6X<X6X*X6X7XeXeXeXeXtXyXxXxXxXxXxXxXxXxXxXxXxXxXxXeXeXeXeXwXwXwXeXeXeXeXtXtXtXtXtXtXyXyXyXxXcXmXMXMXFXCXFXFXFXFXFXCXMXMXcXxXeXeXeXwXwXwXwXeXeXeXeXeXtXyXxXcXmXMXCXCXCXFXFXFXFXFXFXGXGXGXGXGXGXGXGXGXGXGXGXGXGXGXGXGXGXGXGXGXGXGXCXCXMXmXcXcXxXyXyXyXxXcXmXMXCXCXCXCXCXMXMXMXMXMXCXCXGXGXGXGXCXmXyXeXeXeXeXeXeXeXeXeXeXeXeXeXeXeXtXyXcXcXcXcXmXMXMXCXCXCXCXCXCXMXcXxXtXeXtXxXxXmXmXMXCXCXCXCXCXCXZXZXZXZXZXZXZXZXZXZXZXZXZXZXZXZXZXCXCXCXCXNXiX>X>XK.K.H.H.H.H.H.H.H.H.H.H.H.H.H.H.H.H.J.J.J.J.J.J.J.J.J.J.J.J.H.H.H.H.H.H.H.H.H.H.H.H.F.V.M.I.I.L.L.I.L.L.L.L.g.g.g.g.g.g.g.g.L.g.g.g.L.I.I.I.I.T.T.E.+X#X&X*X6XeXrXeX7X6X7X6X6X6X<X*X*X=X*X*X*X*X*X*X*X=X=X*X*X*X*X=X=X=X=X=X;X=X].M.k.r.u.u.u.i.i.i.i.i.i.0.0.i.i.j.j.0.0.i.i.0.0.0.0.0.0.0.0.0.0.0.0.0.0.0.q.7.8.8.8.5.9.3.@.^ S ",
"W.W.W.R.Y.T.T.Y.I.I.I.I.g.g.h.h.g.h.h.h.h.t.h.I.W.E.E.E.E.@X$X0XdX6X$X%X%X%X%X%X%X%X$X%X%X%X%X%X%X&X&X&X&X&X&X&X%X%X*X<X5X5X5X;X*X*X;X7XeXeXeXeXeX9X0X5X*X*X*X*X<X<X<X5X5X5X6X6X6X6X6X6X6X5X6X5X6X6X6X6X6X7X7X7X7X7X7X7X7X7X7X6X6X6X6X6X6X*X6X6X6X7XeXeXeXwXwXwX7X7X7XwX7XwXeXyXyXyXyXyXxXxXcXcXxXcXxXcXcXmXmXMXmXmXMXMXMXMXbXcXcXcXxXxXxXzXeX7X7X0X6X6X6X<X*X<X<X*X<X*X*X6X7XeXeXeXeXeXtXxXxXxXxXxXxXxXxXxXxXxXxXxXtXeXeXeXwXwXwXwXeXeXeXeXtXtXtXtXyXyXyXyXxXcXmXMXMXCXFXFXFXFXFXGXFXCXMXmXcXxXtXeXeXwXwXwXwXwXwXwXwXeXtXyXxXcXMXMXCXCXCXFXFXFXFXFXGXGXGXGXGXGXGXGXGXGXGXGXGXGXGXGXGXGXGXGXGXGXFXCXMXmXMXmXcXxXyXyXxXcXmXMXMXMXMXMXmXmXcXcXcXmXCXGXGXGXGXCXMXxXeXeXeXeXwXwXwXwXeXwXeXeXeXeXeXtXyXxXcXcXcXmXMXCXCXCXCXCXCXCXMXcXxXtXeXeXyXxXcXMXMXMXCXCXZXCXZXZXZXZXZXZXZXZXZXZXZXZXZXZXZXZXCXCXZXCXCXCXCXpXiX>XH.K.H.H.H.H.H.H.H.H.H.H.H.H.H.H.J.J.J.J.J.J.J.J.J.J.J.J.J.J.J.J.J.J.H.H.J.H.H.H.H.H.J.S.V.M.I.L.L.L.L.L.L.g.g.g.g.g.g.g.g.g.g.L.v.v.L.L.I.I.I.I.T.T.E.+X#X&X*X6XwXeXwXwX6X6X6X6X6X*X=X*X=X=X*X*X*X*X*X=X%X#X#X=X*X=X=X%X=X=X=X=X[.Y.v.k.k.k.u.j.j.j.p.p.i.i.j.i.i.i.j.j.j.j.j.j.i.i.0.0.0.0.0.0.i.i.0.0.i.0.0.0.7.7.5.8.8.5.5.3.@.^ ",
"W.R.R.Y.Y.Y.Y.Y.I.I.I.g.g.g.h.h.h.h.h.h.h.e.h.I.W.E.E.E.!.&X%X9XdX%X$X%X%X$X%X$X%X$X%X%X%X%X*X;X<X*X%X&X&X&X&X&X&X%X%X*X5X5X6X6X*X*X*X;X6XeXeXeXeXeX9X0X5X*X=X*X=X*X<X<X<X<X5X5X5X6X5X5X5X<X5X5X6X6X6X6X6X6X7X7X7X7X7X7X7X7X7X7X7X7X7X7X6X<X*X*X6X6XeXtXeXwXwX7X7X7X7X7X7X7XwXeXtXyXyXyXxXxXxXxXxXxXxXcXcXcXmXmXmXmXMXMXMXMXMXcXcXcXxXxXxXxXzXeX9X7X7X6X6X<X*X*X*X*X*X*X*X*X6X6X7X7XwXwXeXtXxXxXyXyXxXxXxXxXxXxXxXxXxXtXtXeXeXwXwXwXwXwXeXeXeXtXtXtXyXyXyXyXyXxXcXmXmXMXMXMXFXFXFXFXGXFXFXCXMXmXxXxXtXeXeXeXwXwXwX7XwXwXwXeXeXyXxXcXMXMXMXCXCXCXFXFXFXGXGXGXGXGXGXGXGXGXFXFXFXFXFXFXFXFXFXFXGXFXCXCXMXMXMXMXcXxXyXyXyXxXxXxXcXxXxXxXxXxXxXxXmXMXFXGXGXGXFXMXcXyXeXwXwXwXwXwXwXwXwXwXwXeXeXtXyXyXyXxXxXcXmXMXCXCXCXCXCXCXMXMXmXxXtXeXeXeXyXcXmXMXCXCXCXCXZXCXZXZXZXZXZXZXZXZXZXZXZXZXZXZXZXCXCXCXZXCXCXCXZXuX>X>XH.K.>X>X>XH.H.H.H.H.H.H.H.H.H.H.J.J.J.J.J.J.J.J.J.J.J.J.J.J.J.J.J.J.J.J.H.J.H.H.H.J.J.D.V.M.I.L.L.L.L.g.g.g.g.g.g.g.g.g.g.g.L.L.v.v.L.L.I.I.I.I.Y.T.W.+X#X&X*X6XwXeXwXwX6X6X1X1X<X*X*X=X=X=X*X<X<X*X&X#X#X#X#X#X=X=X=X#X#X%X#X=XY.v.k.k.k.k.u.i.i.i.i.i.i.i.i.0.i.i.i.j.0.0.i.i.i.i.i.0.0.0.0.0.i.i.0.0.i.i.0.0.q.q.5.5.8.8.5.9.3.@.",
"R.T.T.Y.I.Y.Y.I.I.I.g.g.g.h.h.h.t.h.t.h.h.e.h.I.W.W.W.W.!.$X%XzXlX%X$X%X$X&X$X$X%X%X%X%X%X%X;X;X<X*X<X*X%X%X&X&X&X%X%X*X;X;X6X;X*X*X*X*X*X6X9XeXeXeX9X9X0X5X*X*X=X<X<X<X<X<X5X5X5X5X6X6X1X*X*X*X<X6X6X6X6X6X6X7X7X7X7X7X7X7XeXeXeXwXwXeX7X6X6X5X<X6X7XeXtXeXeXwXwXwX7X7X7X7X7XwXeXtXyXyXzXxXxXxXxXxXxXxXxXcXmXmXmXmXmXmXMXMXMXbXcXcXcXxXxXxXxXzXeX9X9X7X6X6X*X<X*X<X<X*X*X*X*X<X6X6X6X7X7XeXeXeXtXtXxXxXxXyXxXxXxXxXxXxXtXtXeXeXeXeXwXwXwXeXeXeXtXtXtXtXxXxXxXxXxXcXmXmXmXMXCXCXZXFXFXFXFXFXFXCXMXmXxXxXyXtXeXeXwXwXwXwXeXeXeXtXyXyXxXcXmXmXMXMXCXCXCXFXFXFXGXGXGXGXGXGXFXFXFXFXFXFXFXFXFXFXFXFXCXCXCXCXMXMXcXxXxXyXxXxXxXxXxXxXxXxXxXxXcXMXCXFXGXGXGXFXMXcXxXeXwX7X7X7X7X7X7X7X7X7XeXeXtXxXxXxXxXcXcXmXMXMXCXCXCXCXCXMXMXMXcXtXeXeXeXtXxXcXMXCXCXCXCXCXZXZXZXZXZXZXZXZXZXZXZXZXZXZXCXCXCXCXCXZXZXZXMXmXZXuX>X}.F.K.>X>X>X>X>XK.F.J.H.J.H.H.J.J.J.J.J.J.J.J.J.J.J.J.J.J.J.J.J.J.J.J.J.J.J.H.H.H.H.J.J.D.b.M.I.L.L.L.v.g.g.g.g.g.g.g.g.g.g.g.g.L.L.L.L.L.I.I.I.I.Y.T.W.].@X%X=X6X6XwXwX7X6X1X1X1X*X*X*X*X*X*X*X*X*X*X&X&X@X@X#X#X%X%X#X#X#X=X#XY.v.k.u.u.k.u.u.i.i.i.i.i.i.i.i.i.i.i.0.N.i.i.i.i.j.j.0.0.i.i.i.i.i.0.0.0.0.0.q.0.0.7.7.5.5.5.8.5.3.3.",
"T.T.T.Y.I.Y.I.I.I.I.g.g.g.h.h.h.t.t.t.t.t.e.g.Y.W.W.W.W.!.%X5XlX7X%X$X$X&X&X&X&X$X$X%X%X%X%X;X;X<X*X<X<X5X0X5X%X%X%X%X%X*X;X;X;X*X*X*X*X*X*X6X9XeXeXeX9X9X7X5X*X<X<X5X5X<X<X<X<X<X5X5X5X<X*X*X*X*X*X<X6X6X6X6X6X6X6X7X7X7X7XeXeXeXeXeXeXeX7X7X6X6X6X6X7XwXeXtXtXeXwXwXwX7X7X7X7X7XeXtXtXzXzXxXxXxXxXxXxXxXcXcXcXmXmXmXmXMXMXMXMXcXcXcXxXcXxXxXxXzXeX9X9X7X6X6X<X<X<X<X*X*X*X*X*X*X*X<X6X6X7XeXeXeXeXtXtXtXtXyXyXxXxXxXxXyXyXyXtXtXeXeXeXwXwXeXeXeXeXtXtXeXtXxXxXxXxXcXcXcXcXMXMXMXCXFXGXFXFXFXFXCXCXMXMXmXcXxXyXtXtXtXtXtXtXtXyXyXyXyXxXxXxXxXcXmXmXMXCXCXFXFXFXGXGXGXGXFXFXFXFXFXFXFXFXFXFXFXFXFXFXCXCXCXCXMXmXcXcXcXcXcXcXmXmXmXmXmXMXCXFXGXGXGXGXCXmXxXyXeXwX7X7X7X7X7X7X7X7X7XeXeXxXxXxXxXxXcXmXMXMXMXMXMXCXCXCXMXmXmXcXxXeXeXeXtXxXxXmXMXCXCXCXCXCXZXZXZXZXZXZXZXZXZXZXZXCXZXCXCXCXCXCXCXZXCXZXMXmXAXuXXX'.H.>X>X>X>X>X>X>XH.F.H.J.J.J.J.J.J.J.J.J.J.J.J.J.J.J.J.J.J.J.J.J.J.J.J.J.J.J.H.H.H.J.J.x.k.v.v.L.L.L.g.g.g.g.g.g.g.g.g.g.g.g.g.L.L.L.L.L.I.I.I.I.Y.T.W.E.+X#X=X*X1X6X6X7X6X1X1X1X<X*X*X*X*X*X*X*X*X=X#X#X#X#X#X#X@X#X#X#X#X=X].v.k.u.u.u.u.u.u.i.i.i.i.i.i.i.i.i.i.i.0.0.i.0.i.i.i.i.0.0.0.0.0.0.0.0.0.0.0.0.q.0.0.0.q.7.8.5.8.5.9.3.",
"T.T.T.Y.I.Y.I.I.I.I.g.g.g.h.h.h.t.t.t.t.t.t.g.T.E.W.W.W.!.%XfX9X;X%X%X%X&X&X&X&X$X&X%X%X%X%X;X;X*X*X5X5X5X9X0X*X%X&X&X%X%X%X*X*X*X*X*X*X*X*X*X6X9XeXeXeXeXeX9X0X6X6X6X6X6X<X<X5X5X6X6X6X6X6X*X*X*X*X*X*X<X6X6X6X6X6X0X0X7X7X9X9X9X9XeXeXeXeXeXwX6X6X6X6X6X7XwXeXeXeXeXwXwXwXwXwX7X7XwXeXeXyXxXxXxXxXxXxXxXxXcXcXcXcXmXmXMXCXCXCXMXMXMXMXcXcXxXxXxXzXeX9XeX7X6X6X<X<X<X<X*X*X*X*X*X*X<X<X<X6X7XeXeXeXeXtXtXtXtXtXxXxXxXxXxXxXyXyXyXtXtXeXeXwXwXeXwXwXwXwXeXtXtXxXxXxXxXxXxXcXmXmXmXmXCXCXCXCXFXFXFXFXCXCXCXMXmXcXyXyXxXyXxXxXxXxXxXxXxXxXxXxXxXcXmXmXMXCXCXFXFXFXFXFXGXGXFXFXFXFXFXFXZXZXZXZXZXZXFXFXFXFXFXFXCXCXMXMXMXMXMXMXCXCXCXCXCXFXFXGXGXGXGXCXcXxXtXeXwX7X7X7X7X7X7X7X7X7XeXeXxXcXcXmXmXmXmXMXMXMXMXMXMXCXMXMXmXxXxXxXyXwXeXeXyXxXmXMXCXCXCXCXCXCXCXZXZXZXZXZXFXFXZXZXZXZXZXCXCXCXCXCXCXCXZXZXMXmXmXuX{.F.H.>X>X>X>X>X>X>X>XH.H.J.J.J.J.J.J.J.J.J.J.J.J.J.J.J.J.J.J.J.J.J.J.J.J.J.J.J.J.J.H.J.J.q.8.r.r.g.g.L.g.g.g.g.g.g.g.g.g.g.g.g.g.v.L.L.L.L.I.I.I.Y.Y.T.W.E.].@X#X*X*X1X6X7X6X6X6X6X6X6X6X6X;X;X*X*X*X=X#X@X].].].].].].@X#X#X].Y.g.r.r.u.u.u.u.u.i.i.i.i.i.i.i.i.i.i.i.0.0.0.0.0.0.i.0.0.0.i.i.i.0.i.i.0.0.0.0.0.0.0.0.0.q.q.q.5.5.5.9.",
"T.T.T.Y.I.I.I.I.I.n.g.g.g.h.h.h.t.t.t.t.t.t.I.E.W.W.W.W.@X%XnX5X@X$X%X$X&X&X&X&X&X&X$X$X%X%X;X;X%X*X5X5X5X0X5X%X%X&X&X%X%X%X%X%X*X*X*X*X*X*X*X*X6X7X9XeXeXeXeX9X9X7X0X0X6X6X6X6X6X6X7X6X6X6X6X<X<X*X*X*X*X*X<X<X6X6X6X6X6X0X7X9X7XeXeXwXwXeXeXeXwX7X6X6X1X1X6X7XwXeXeXeXeXwXwX7X7X7X7XwXeXeXxXxXxXxXxXxXxXxXxXcXcXcXmXmXMXMXCXCXMXMXMXMXMXcXcXcXxXxXtXeXeXeX7X6X6X<X<X<X*X*X*X*X*X*X<X*X*X<X6X7XeXeXeXeXtXtXxXtXxXxXxXxXxXxXxXxXyXyXyXtXeXeXwXwXwX7X7XwXeXeXeXxXxXxXxXxXxXxXcXcXcXcXMXMXMXCXCXCXFXFXFXFXFXCXCXMXmXcXcXcXcXcXxXxXcXxXxXcXmXmXMXMXCXCXCXFXFXFXFXFXFXFXFXFXFXFXFXFXFXFXZXZXZXZXGXGXGXGXGXGXGXGXGXFXCXCXCXCXFXFXFXFXFXFXGXGXGXGXGXFXCXcXxXtXeXwX7X6X7X7X7X7X7X7X7XwXeXtXxXcXmXMXMXMXMXMXMXMXMXMXCXCXMXmXxXyXyXyXeXwXeXeXxXcXmXMXMXMXMXMXCXCXCXZXZXZXZXZXFXZXZXZXZXZXZXCXCXCXCXCXCXCXZXZXMXcXyXwX{.G.F.K.>X>X>X>X>X>XiX>XF.J.J.J.J.J.J.J.J.J.J.J.J.J.J.J.J.J.J.J.J.J.J.J.J.N.N.J.J.J.H.J.D.q.2.4.6.r.g.g.g.g.g.g.g.g.g.g.g.g.g.g.g.v.v.L.L.L.I.I.I.Y.Y.T.W.E.].+X@X=X*X*X1X6X6X1X6X6X7X7X7X6X5X;X*X*X*X=X#X@X].E.].].].].#X=X].Y.v.k.r.u.u.u.u.u.u.i.i.i.i.i.i.i.i.i.i.i.0.0.0.0.0.0.0.0.0.0.i.i.i.0.i.i.0.0.0.0.0.0.0.0.0.0.q.q.8.5.5.5.",
"T.Y.T.Y.I.I.I.I.I.n.g.g.g.h.h.h.t.h.t.t.t.t.I.E.W.W.W.!.$X5XzX-X@X&X%X&X&X&X&X&X@X@X&X&X%X%X%X%X%X;X5X6X6X6X6X;X%X%X%X%X%X%X%X%X*X*X*X5X*X*X*X*X*X5X0X9XeXeXlXlXeX9X9X7X7X7X7X7X7X7X7X7X7X6X6X6X1X*X*X*X*X*X<X<X5X5X6X6X6X6X7X9X7X9XeXeXeXeXeXeXeX7X7X6X1X<X1X1X6X7XwXwXeXwXwXwXwXwXwXwXeXeXtXtXtXxXxXxXxXxXxXxXcXcXmXmXmXMXMXCXMXMXMXMXMXMXcXcXcXcXxXzXtXeXeX9X6X5X<X<X<X<X<X<X<X<X<X<X<X<X6X6X7XeXeXeXeXeXtXxXxXxXxXxXxXxXxXxXxXxXxXxXtXeXeXeXeXeXeXeXeXeXeXeXeXeXxXxXxXtXyXyXyXyXmXmXmXMXCXCXCXFXGXGXGXGXFXFXCXMXMXmXmXMXMXMXMXMXMXMXMXCXFXFXFXFXFXFXFXFXFXFXFXFXFXFXCXCXZXZXZXZXZXZXZXZXFXFXFXFXGXGXGXGXFXFXFXFXFXFXFXFXFXFXFXFXFXFXFXCXCXMXxXtXeXeXwX7X7X7X6X7X7X7XeXeXeXeXeXtXxXcXmXMXMXMXMXMXMXMXMXMXCXMXmXcXxXtXeXeXeXeXeXxXxXcXMXMXMXMXMXMXCXCXCXCXFXFXZXZXFXZXZXZXZXZXZXZXCXCXCXCXCXCXZXZXMXcXMXyX=X`.D.H.>X>X>XH.H.>X>X>XH.H.J.J.J.J.J.J.J.J.J.J.J.J.J.J.J.J.J.J.J.J.J.H.H.x.N.J.J.J.J.J.D.9.( @.&.6.e.h.g.g.g.g.g.g.g.g.g.g.g.g.g.g.g.v.L.L.I.I.Y.Y.Y.T.T.W.].].@X%X=X=X*X<X6X6X7XwXwXwX6X;X=X%X*X*X*X%X&X+X].].].E.Q.].#X=XT.v.k.u.u.u.u.u.u.u.u.u.i.i.i.i.i.i.0.0.0.0.0.0.0.0.0.0.0.0.0.0.0.0.0.i.i.i.0.0.0.0.0.q.0.0.0.0.0.q.7.5.5.9.",
"Y.Y.Y.I.I.I.I.I.n.n.g.g.h.h.h.h.t.t.t.t.t.h.U.W.W.W.W.!.$XfXzX!.&X&X&X&X&X&X&X&X@X@X$X$X&X$X%X%X%X;X5X0X0X0X6X5X5X5X;X%X%X%X%X%X*X*X5X5X5X*X5X5X5X5X*X5X6X7X9XeXeXeXeXeXeXeXeXeXeXeXeXeX7X7X6X6X6X6X*X*X*X*X<X<X<X<X5X5X6X6X0X7X7X9XeXwXeXeXeXeXeXeX7X7X6X1X1X<X<X6X7XwXwXwXwXwXeXeXeXwXeXeXeXeXeXtXxXxXxXxXyXyXxXcXcXcXmXMXMXCXMXMXMXMXMXMXMXMXMXMXcXcXxXxXzXtX9X6X5X<X<X<X<X<X<X<X<X<X6X6X6X6X6X7XeXeXeXeXtXxXxXxXxXxXxXxXcXxXxXxXxXyXtXeXeXeXeXeXeXeXeXeXeXeXeXeXtXeXeXeXtXtXtXyXyXxXcXmXMXCXCXCXFXGXGXGXGXGXGXFXCXCXCXCXCXCXCXCXCXCXFXFXGXGXFXFXFXFXFXCXCXCXCXCXCXCXCXCXZXZXCXCXCXCXCXCXZXZXCXCXCXCXCXCXCXCXCXCXCXZXCXCXCXCXCXCXCXCXMXcXxXyXeXwXwX7X7X7X7X7X6X7X7X7XeXeXeXeXeXtXxXcXmXMXMXMXMXMXMXMXMXMXMXmXxXxXxXtXeXeXeXeXeXxXcXmXMXMXMXMXMXMXCXCXCXCXZXZXZXZXFXZXZXZXZXZXZXZXZXCXCXCXCXCXCXCXmXcXmXyX6X#Xc.S.>X>X>X XH.H.>X>X>XH.J.J.J.J.J.J.J.J.J.J.J.J.J.J.J.J.J.J.J.J. XoX>XA.N.D.J.J.H.J.x.9.( o.O.&.;.e.h.g.g.h.h.h.g.g.g.g.g.g.g.g.g.g.L.L.I.I.Y.Y.Y.Y.T.W.].].#X%X*X*X*X<X6X7XwXwXwX7X;X%X#X#X%X%X%X%X#X].E.E.E.E.].].#X].v.k.u.u.u.u.u.u.u.u.u.u.0.0.0.0.0.0.0.0.0.0.0.0.0.0.0.0.0.0.0.0.0.0.0.i.i.i.0.0.0.0.0.q.0.0.0.0.0.q.q.7.q.5.",
"Y.U.U.I.I.I.I.n.n.g.g.g.h.h.h.h.t.t.t.t.e.h.W.W.W.W.E.!.%XnX8X!.&X&X&X%X%X%X&X&X@X@X&X$X&X%X%X%X%X;X6X0X6X6X6X6X6X5X5X;X;X*X%X%X*X*X5X5X5X5X5X5X5X5X5X5X5X6X0X9X9XeXeXeXeXeXeXeXeXeXeXeXeXeX7X7X7X6X6X*X*X*X<X<X<X<X<X5X5X5X6X6X6X7X7X7X7X7XeXeXeXeXeXeXwX7X6X1X<X<X6X7XwXwXwXeXeXwXeXeXeXeXeXeXeXeXtXxXxXxXxXyXxXxXcXcXcXcXMXMXMXMXMXMXMXMXCXMXMXMXMXMXcXcXxXxXtX9X6X5X<X<X<X<X<X<X<X<X6X6X6X6X6X6XeXeXeXeXeXeXxXxXxXxXxXxXxXxXxXxXxXxXtXtXeXeXeXeXeXeXeXeXeXeXeXeXeXeXeXeXeXeXtXtXyXyXyXyXcXmXMXCXFXFXFXGXGXGXGXGXGXFXFXGXGXGXGXGXGXGXGXGXGXGXFXFXFXCXCXCXCXCXMXMXMXMXMXMXMXMXmXmXmXmXmXmXmXmXmXmXmXmXMXMXMXMXMXMXMXmXmXcXmXmXmXmXcXcXyXtXeXeXwX7X7X7X7X7X7X7X7X7X7X7XeXeXeXeXeXtXxXcXmXMXMXMXMXMXMXMXMXMXmXcXxXyXyXeXeXeXeXeXxXxXmXmXMXMXMXMXMXMXCXCXCXZXZXZXZXZXZXZXZXZXZXZXCXZXCXCXCXCXCXCXCXCXmXcXcXcXtX1X`.V.'. X>X>XH.H.H.>X>X>XJ.J.J.J.J.J.J.J.J.J.J.J.J.J.J.J.J.F.F.}.>XiXiX'.N.x.J.J.J.J.N.3./ ~ ~ +.$.-.e.h.h.h.h.h.g.g.g.g.g.g.g.g.g.g.L.I.I.I.Y.Y.Y.Y.T.W.].].@X&X*X*X*X6X6X7XeX9X7X;X*X#X#X#X#X%X%X%X+XE.W.W.W.W.].#X].n.k.r.u.u.u.u.u.u.u.u.u.u.0.0.0.0.0.0.0.0.0.0.0.0.0.0.0.0.0.0.0.0.0.0.i.i.0.0.0.0.i.0.0.0.0.0.0.0.0.0.0.q.q.q.",
"U.Y.Y.I.I.I.I.g.g.g.g.g.h.h.t.t.e.t.t.t.e.g.W.R.W.W.E.~.-XzX%X@X@X$X&X%X%X%X&X&X@X@X@X@X$X%X%X%X%X;X6X0X6X6X5X5X5X6X;X5X;X%X%X%X*X*X5X5X*X*X5X5X5X5X5X*X*X*X5X5X6X7X9XeXeXeXeXeXeXeXeXeXeXeX7X7X7X7X6X<X*X*X*X*X*X*X<X<X<X<X6X6X6X6X6X7X7X7X7X7XeXeXeXeXwXwX7X6X1X<X<X6X6X7XwXwXwXwXeXeXeXeXeXeXeXeXeXtXxXxXyXyXyXyXxXnXcXcXMXMXMXMXMXMXMXMXZXCXCXMXMXMXMXMXcXcXxXtX9X6X5X<X<X<X<X<X<X<X*X<X<X<X6X6X7XeXeXeXeXeXeXtXtXtXtXtXeXxXxXxXxXxXxXtXtXeXtXtXtXtXeXeXeXeXeXeXeXeXeXeXeXeXeXeXtXtXtXyXyXxXcXMXCXCXFXFXGXGXGXGXGXGXGXGXGXGXGXGXGXGXGXGXGXFXFXFXFXCXCXMXMXMXMXMXMXMXmXmXmXmXmXmXmXcXcXcXcXcXmXmXmXmXcXcXcXcXmXmXcXxXxXyXyXyXyXyXyXtXeXwXwXwX7X7X7X7X7X7X7X7X7X7X7XwXeXeXeXeXeXtXxXcXmXmXMXMXMXMXMXMXMXmXcXxXyXtXeXeXeXeXeXeXxXcXmXmXMXMXMXMXMXMXCXCXZXCXZXZXZXZXZXZXZXZXZXZXCXCXZXCXFXCXCXCXCXAXmXmXyXcXcXuXXX_.x.S. X>XK.H.H.H.oX>XH.J.J.J.J.J.J.J.J.J.J.J.J.J.J.S.F..XoXiXiXuXuX{.x.x.J.J.J.D.0.( ~ W W W } #.*.e.t.h.h.h.g.g.g.g.g.g.g.g.g.g.L.L.I.I.Y.Y.Y.Y.T.W.].].@X%X=X=X*X6X7X7X9X6X;X;X%X#X].].@X#X%X#X].W.T.T.W.W.#X].T.r.r.r.r.u.u.0.u.u.u.u.u.u.u.0.0.0.0.0.0.0.0.0.0.0.0.0.0.0.0.0.0.0.0.0.i.i.0.0.0.0.i.0.0.0.0.0.0.0.0.0.0.0.q.q.",
"Y.Y.Y.I.I.I.g.g.g.g.g.h.h.h.t.t.e.e.e.e.t.g.E.R.W.W.E.$X5X8X@X+X+X@X&X%X%X&X%X&X@X@X@X@X@X&X%X%X%X*X5X0X6X5X;X%X;X6X%X;X5X%X%X%X*X*X*X*X*X*X5X5X5X5X5X*X*X*X*X*X5X6X7X9XeXeXeXeXeXeXeXeXrXrXrXeXeXeX7X6X*X=X<X<X*X*X=X=X*X<X6X6X5X5X6X6X6X6X7X7X7XeXeXeXwXwXeXwX7X6X<X<X1X7XwXwXwXwXwXwXeXeXeXeXeXeXeXeXeXtXyXyXyXxXxXxXcXcXMXMXMXMXMXMXMXMXCXCXCXCXCXCXCXMXMXMXcXxXtX9X0X6X5X<X<X<X<X<X<X*X*X<X6X6X7X7XeXeXeXeXeXeXeXeXeXeXtXtXxXxXxXxXxXxXxXxXxXxXtXeXeXeXeXeXeXeXeXeXeXeXeXeXeXeXeXtXtXtXtXtXxXxXmXMXCXCXCXCXZXFXGXGXGXGXGXGXGXGXGXGXGXFXCXCXCXCXCXCXMXmXcXcXcXcXcXcXcXcXcXcXxXxXxXxXxXxXcXcXxXxXcXxXcXxXxXyXxXxXyXyXtXeXeXeXeXeXeXwXwX7X7X7X7X7X7X7X7X7X7X7XwXwXeXeXeXeXxXzXxXxXnXcXmXMXMXMXMXMXmXmXcXxXyXyXtXeXeXeXeXeXxXxXnXnXmXmXMXMXMXMXCXCXCXCXZXCXCXCXZXZXZXZXZXZXZXCXCXCXZXZXCXCXCXMXMXMXMXmXxXxXcXcXrX=X_.c.}. XH.H.H.H.H. X XH.J.J.J.J.J.J.J.J.J.J.J.S.F.}.oXiXiXuXuXyXuX1XA.D.J.J.J.D.8.( ~ [ E E W [ #.-.e.t.h.h.g.g.g.g.h.g.g.g.g.g.L.I.I.I.Y.Y.Y.T.T.W.E.].[.&X=X*X*X6X7X7X6X*X;X6X*X#X].].+X#X#X+XE.W.T.W.W.E.#XQ.v.r.r.r.r.r.u.u.u.u.i.i.u.u.0.0.0.0.0.0.0.0.0.0.0.0.0.0.0.0.0.0.0.0.0.0.0.0.i.i.i.i.0.0.0.0.0.0.q.q.0.0.0.0.0.q.",
"Y.Y.Y.I.I.I.g.g.g.g.h.h.h.h.t.t.e.e.e.e.t.L.W.W.W.W.E.%X3X-X!.!.+X@X&X&X%X&X%X&X&X@X@X@X@X@X&X&X%X*X;X5X5X;X;X-X;X6X%X5X5X;X%X%X*X*X*X*X*X*X5X5X5X5X5X*X*X*X*X*X*X5X6X7XeXeXeXeXeXeXeXeXeXeXeXeXtXeXeX6X*X*X5X5X<X*X=X=X=X*X*X*X<X<X<X<X<X6X6X7X7X7XeXeXwXwXeXeXwXwX7X6X1X6X7X7X7X7X7X7XeXeXeXeXeXeXeXeXeXeXtXtXyXyXyXxXcXcXmXMXMXMXMXMXMXMXCXCXCXCXCXCXCXMXMXMXMXcXxXtXeX9X7X6X5X<X<X<X*X*X*X*X*X<X6X6X7X7XwXwXeXeXeXeXeXeXxXxXtXtXxXxXxXxXxXxXxXxXxXtXeXeXeXeXeXeXeXeXeXeXeXeXeXeXeXeXtXtXtXtXtXyXyXxXcXmXmXmXmXMXCXCXCXCXCXCXFXFXFXFXCXCXMXmXmXmXmXmXcXxXyXyXyXyXxXyXyXyXyXyXyXyXyXyXyXyXyXyXyXyXyXyXyXyXyXyXyXyXtXeXeXwXwXwXwXwXwXwX7X7X7X7X7X7X7X7X7X7XwXwXeXeXeXtXxXxXxXxXxXnXmXmXMXMXMXMXmXmXcXcXxXxXyXtXeXeXeXeXeXxXcXcXnXnXmXmXMXMXMXMXCXCXCXCXZXCXCXZXZXZXZXZXZXZXZXCXCXCXCXZXCXCXMXMXMXMXMXmXmXcXxXcXuXrX{.C.A. X>XXXH.H.H.H.H.H.J.J.J.J.J.J.J.J.J.J.F. X>XiXiXuXpXyXcXNXNXuX'.S.J.J.J.D.5.%.W [ W W W W [ +.-.e.t.h.h.g.g.g.h.g.g.g.g.g.L.I.I.I.Y.Y.Y.T.T.W.E.].[.&X=X*X*X6X6X6X6X6X6XwX;X#X+X].+X+X@X].W.W.T.W.E.].].Y.r.r.r.r.r.r.r.r.u.u.u.u.u.u.0.0.0.0.0.0.0.0.0.0.0.0.0.0.0.0.0.0.0.0.0.0.0.0.i.i.i.i.0.0.0.0.0.0.q.q.0.0.0.0.0.7.",
"I.I.I.I.I.I.g.g.g.g.h.h.h.h.t.t.e.e.e.e.t.I.R.W.W.W.!.-X0X$X@X!.+X@X&X&X%X%X%X%X&X&X%X&X@X+X@X&X%X%X*X;X-X;X;X5X6X9X5X0X6X6X%X%X=X=X&X&X&X*X5X6X0X5X5X;X;X*X*X*X=X*X5X6X7XeXeXeXeXeXeXeXeXeXeXtXtXtXeX7X7X7X7X0X6X6X<X=X*X=X=X*X*X*X*X=X*X<X6X6X6X7X7X7XwXwXwXeXeXeXwX7X6X1X6X6X7X6X7X7X7X7X7X7XeXeXeXeXeXeXeXeXtXtXyXyXxXcXcXMXmXmXMXMXMXMXCXCXCXCXCXCXCXMXMXMXMXMXcXxXzXtXeX9X6X5X<X<X*X*X*X*X*X*X6X6X6X6X6X6X7X7XeXeXeXeXxXxXtXtXxXxXxXxXxXxXxXxXxXxXtXtXtXtXeXeXeXeXeXeXeXeXeXeXeXeXtXtXtXtXtXtXyXyXyXxXxXxXxXcXmXMXMXMXMXMXMXMXMXMXMXmXxXxXxXxXxXyXyXyXtXtXyXyXyXyXyXyXyXyXtXtXtXtXyXyXyXyXyXyXyXtXtXtXtXtXtXtXeXeXeXwXwXwXeXeXwXwX7X7X7X7X7X7X7XwXwXeXeXeXtXtXyXyXxXcXcXcXnXnXMXMXMXMXMXMXmXcXcXxXyXyXtXeXeXeXeXeXxXcXcXcXcXcXmXMXMXMXCXCXCXCXCXCXCXCXCXCXZXZXZXZXZXZXCXCXCXMXmXMXCXMXmXmXmXmXNXmXcXxXxXcXNXuX1X`.l.Z. XXXXXH.H.H.H.H.J.J.J.J.J.J.J.S.F. X>XiXiXiXpXuXyXyXyXNXyXiX}.S.J.J.J.p.3./ W [ W E W E W [ +.-.e.t.h.h.g.g.g.h.g.g.g.L.L.I.I.I.Y.Y.Y.Y.T.W.E.].[.&X=X=X*X*X6X6X6X7XeXlX9X*X+X].].].+XE.T.T.W.W.E.E.Y.v.r.r.r.r.r.r.r.r.u.r.u.u.0.0.0.0.0.0.u.u.0.0.0.0.0.0.0.0.0.0.0.0.0.0.0.0.0.0.0.0.0.0.0.0.0.0.q.q.0.0.0.0.0.0.0.q.",
"Y.I.I.I.I.n.g.g.g.g.h.h.h.h.t.t.e.e.e.e.e.I.U.W.W.E.!.%XlX~.@XE.+X@X&X&X$X%X%X%X%X%X%X%X@X@X+X@X$X%X%X%X%X-X5X6X0X9X6X7X0X6X;X%X&X&X&X&X&X*X5X6X0X0X5X5X5X5X*X5X*X=X*X5X6X7X7XeXeXeXxXxXeXeXeXtXtXtXeXeXeXeXeXeXeX7X6X5X<X<X*X*X*X%X=X=X=X*X*X*X<X6X6X7X7X7XwXwXwXeXwXwX7X6X1X6X6X6X6X6X7X7X7X7XeXeXeXeXeXeXeXeXeXeXtXtXyXcXcXcXmXmXmXmXMXMXCXCXCXCXCXCXCXMXMXMXMXMXMXcXxXxXzXeX9X6X5X<X*X*X*X*X*X*X*X*X<X<X6X6X7X7XeXeXeXeXxXxXtXtXxXxXxXxXxXxXxXxXxXxXtXxXtXtXeXeXeXtXeXeXeXeXeXeXeXeXtXtXtXtXtXtXtXyXyXyXyXyXyXyXxXxXcXcXxXxXxXxXxXxXxXxXtXtXtXyXyXyXtXtXtXtXyXyXyXyXyXyXyXyXtXtXtXtXyXyXyXyXyXyXyXtXtXtXtXtXtXeXeXeXwXwXwXwXwXwXwXwX7X7X7X7X7X7XwXwXeXeXyXyXyXxXxXxXcXmXmXmXMXMXMXMXMXMXMXMXcXcXxXxXtXtXeXwXeXeXtXyXxXcXcXcXnXcXMXMXMXMXCXCXCXCXCXCXCXCXCXCXZXZXZXZXZXZXCXCXCXmXmXmXMXMXmXmXmXmXmXmXcXxXyXcXNXNXuX=XM.i.x.}.XX XH.H.J.J.J.J.J.J.S.S.S.'.XXiXpXpXpXuXpXpXyXyXyXNXuXiXF.J.J.J.D.w.@.~ [ [ [ E W E W W o.+.-.e.h.g.g.g.g.h.g.g.g.L.L.I.I.I.Y.Y.Y.Y.T.W.E.].[.&X=X=X*X*X*X*X7XeXlXxXeX*X#X].].].E.W.T.T.W.Q.].W.v.r.r.r.r.r.r.r.r.r.u.r.u.u.0.0.u.0.0.0.u.0.0.0.0.0.0.0.0.0.0.0.0.0.0.0.0.0.0.0.0.0.0.0.0.0.0.0.q.q.0.0.0.0.0.0.0.q.",
"I.I.I.I.I.g.g.g.g.g.h.h.t.t.e.e.e.e.e.t.t.I.U.W.W.E.~.%XfXE.~.E.!.@X@X$X$X&X&X%X;X%X*X&X&X#X@X+X@X&X%X%X%X%X5X6X0X7X6X0X0X6X6X5X;X*X&X#X&X%X*X;X;X6X6X6X6X6X6X;X*X*X*X*X5X;X6X6X7XeXeXlXlXlXlXlXeXeXeXeXtXeXeXeXeXeXeX7X7X7X7X6X<X=X=X=X=X=X*X*X*X*X<X6X6X9X9XeXeXeXeXeX9X7X6X5X5X6X6X0X7X7X7X7X7XeXeXeXeXeXeXeXeXeXeXtXxXxXcXcXmXmXmXmXmXMXMXCXCXMXMXMXMXMXMXCXMXMXMXMXbXcXxXzXeX9X6X5X5X<X<X=X*X*X<X<X<X<X*X*X6X6XeXeXeXeXeXtXtXxXxXxXxXxXxXxXxXxXxXxXxXzXxXxXxXxXxXxXxXtXtXeXeXeXtXtXeXeXtXtXtXtXtXtXtXtXtXtXtXtXyXyXyXyXtXtXtXtXtXtXtXtXtXwXtXtXtXtXtXtXyXyXyXyXyXyXxXyXyXyXyXyXyXyXyXyXyXyXyXyXyXtXtXtXtXeXeXeXwXwXeXwXwXwXwXwXeXwXwX7XwXwXwXwXeXeXtXyXxXcXcXcXcXmXmXMXMXMXMXMXMXMXmXmXmXcXcXxXtXeXeXeXeXeXeXeXxXxXcXcXcXcXcXcXmXmXMXMXCXCXCXCXCXCXCXZXCXCXCXCXCXCXCXCXCXMXMXMXMXMXMXMXMXmXmXmXmXmXcXcXcXcXyXyXNXuX{.b.q.D.G.|. XH.J.J.J.J.D.D.F.XXiXiXuXuXyXyXyXNXNXNXNXNXNXuXoXF.J.J.J.J.D.7.@.o.[ { E E E R E R { | #.:.t.h.h.h.h.g.g.g.g.L.I.I.I.I.Y.Y.Y.T.T.W.E.E.[.&X=X=X*X=X=X*XeXxXcXnXlX6X#X+X].E.W.T.T.Y.T.].].I.r.r.r.r.r.7.7.7.7.r.u.u.u.u.u.u.u.u.0.0.0.0.0.0.0.0.0.0.0.0.0.0.0.0.0.0.0.0.0.0.0.0.0.0.0.0.0.0.0.0.0.0.q.q.q.q.0.0.",
"I.I.I.I.g.g.g.g.g.h.h.t.t.t.e.e.e.e.t.e.h.U.U.W.W.E.~.5X2XE.!.E.E.!.@X$X&X&X%X%X*X6X&X*X%X&X&X@X@X@X&X%X%X%X;X5X6X6X6X6X6X6X0X7X0X6X;X%X&X#X#X&X%X*X;X6X6X6X6X6X6X*X*X*X*X*X*X*X;X6X7XeXeXlXlXlXtXeXeXxXxXxXtXtXeXeXeXeXeXeXeXeX7X6X*X=X=X=X=X=X=X=X=X*X5X6X9XeXeXeXeXeXeX9X7X6X6X5X6X6X6X6X7X7X7X7XeXeXeXeXeXeXeXeXeXeXtXtXxXcXmXmXmXmXmXMXMXCXCXMXMXMXMXMXMXCXMXMXMXMXMXbXcXxXzXeX9X6X6X5X<X<X*X*X*X*X<X<X<X*X*X6X7XeXeXeXeXeXeXeXtXxXxXxXxXxXxXxXxXxXxXxXxXxXxXxXxXxXxXtXxXeXeXeXtXtXeXeXtXtXtXtXtXtXtXtXtXtXtXtXyXtXtXtXtXtXeXeXeXeXtXtXtXtXtXtXtXtXyXtXyXyXyXyXyXyXxXyXyXyXyXyXyXyXyXyXyXyXyXyXyXtXtXtXtXeXeXeXeXwXeXwXwXwXwXwXeXeXwXwXwXwXeXtXyXyXxXxXcXcXcXcXcXmXmXMXMXMXMXMXMXMXmXmXcXcXxXxXeXeXeX7XeXeXeXeXxXcXcXcXcXcXcXcXmXmXMXMXCXCXCXCXCXCXCXZXCXCXCXCXCXCXCXCXCXMXMXMXMXMXMXMXMXMXmXMXmXmXcXcXcXcXyXyXyXuXuX`.p.w.q.N.S..XH.J.J.J.D.}.>XiXuXyXcXcXmXmXmXmXNXNXNXNXuX>X|.J.J.J.J.J.D.9.@.o.[ { [ E E R E R E [ | #.:.e.h.h.h.g.g.g.g.L.L.I.I.I.Y.Y.Y.T.T.W.W.E.[.&X=X=X=X=X=X<XeXxXnXmXlX6X%X+XE.E.T.T.T.T.T.].T.k.r.y.y.r.r.r.r.7.r.7.u.u.u.u.u.u.u.u.0.0.0.0.0.0.0.0.0.0.0.0.0.0.0.0.0.0.0.0.0.0.0.0.0.0.0.0.0.0.0.0.0.0.q.q.q.q.0.0.",
"I.I.I.n.g.g.g.g.h.h.t.t.e.e.e.e.e.e.e.e.h.U.U.W.W.E.@X$X$X!.E.W.W.E.!.@X$X&X%X&X%X6X%X5X;X%X&X&X@X@X@X&X%X%X%X5X;X;X5X;X5X5X0X0X9X7X9X7X;X&X@X+X@X&X%X*X;X6X6X6X6X6X*X*X*X*X*X*X*X*X;X6X7XeXeXlXeXeXtXtXxXxXxXxXyXtXxXzXeXeXeXeXeX7X7X6X*X=X=X&X&X&X=X=X=X<X6X7XeXeXeXeXeXeX9X7X6X6X6X6X6X6X6X7X7X7X7XeXeXeXeXeXeXeXeXeXeXeXtXxXcXcXmXmXmXmXMXCXCXCXMXMXMXMXMXMXMXMXMXMXMXMXbXcXxXzXtX9X7X0X6X5X1X*X*X*X5X5X*X*X*X*X6X7XeXeXeXeXeXeXeXtXtXxXxXxXxXxXxXxXxXxXxXxXxXxXxXxXxXxXxXtXxXtXtXtXtXtXtXtXtXtXtXtXtXtXtXtXtXtXyXtXtXtXtXtXtXtXtXtXtXtXtXtXyXyXyXyXyXyXyXyXyXyXyXyXyXyXxXyXyXyXyXyXyXyXyXyXtXtXtXtXtXtXtXtXtXtXeXeXtXeXeXeXeXeXeXeXeXeXtXtXyXyXxXxXxXcXmXmXmXcXmXmXMXMXMXMXMXMXMXMXmXcXcXxXxXeXeXeXeXeXeXeXeXxXcXxXxXcXcXcXmXmXmXMXMXVXCXCXCXCXCXCXCXCXZXZXCXCXCXCXCXCXCXMXMXMXMXMXMXMXMXMXmXmXmXmXcXxXxXyXyXyXyXyXMX=XB.w.p.q.p.D.F.F.J.J.S.XXiXpXpXpXmXxXmXmXmXmXcXcXcXNXiX'.S.J.J.J.J.J.D.9.%.W E { E Q E R R R R E [ o.=.:.t.t.h.h.g.g.L.L.I.I.I.I.Y.Y.Y.T.T.W.W.E.[.&X=X=X=X=X*X6XxXnXmXmXlX6X%X+XE.E.T.Y.Y.T.Q.W.v.r.y.r.r.r.r.r.r.7.7.7.r.r.u.u.u.u.0.0.0.0.0.0.0.0.0.0.0.0.0.0.0.0.0.0.0.0.0.0.0.0.0.0.0.0.0.0.0.0.0.0.q.q.q.q.q.q.0.0.",
"I.I.n.g.g.g.g.g.h.t.t.e.e.e.e.e.e.e.e.e.h.U.U.R.W.E.@X%X@X!.E.W.W.W.E.!.@X&X%X%X%X%X5X5X;X*X%X&X@X@X@X&X%X%X%X*X%X%X;X;X;X5X5X5X0X9XeXeX9X;X%X#X@X@X#X&X%X%X;X;X6X6X6X;X*X*X*X*X*X*X*X*X5X6X7XeXeXeXeXyXxXxXxXxXxXxXxXxXtXtXeXeXeXeXeX7X7X6X*X=X&X%X#X%X&X=X<X6X7X9XeXeXeXeXeX9X9X7X0X6X6X6X6X6X7X7X7X7XeXeXeXeXeXeXeXeXeXeXxXxXxXcXcXmXcXmXMXCXCXMXMXMXMXMXMXMXMXMXMXMXMXMXMXbXcXxXzXtXeX9X7X0X6X6X6X5X5X5X*X*X*X*X*X6X6X7X7XeXeXeXeXeXeXtXxXxXxXxXcXcXxXxXxXxXxXxXxXxXxXxXxXtXxXtXtXtXtXtXtXtXtXtXtXtXtXtXtXtXtXtXyXtXtXtXtXtXtXtXtXtXtXtXtXtXyXyXyXyXyXyXyXyXyXyXyXyXyXyXxXyXyXyXyXyXyXtXtXtXtXtXtXtXtXtXtXtXtXtXeXeXeXeXeXeXeXeXeXeXtXtXyXyXyXyXxXxXxXcXmXmXmXmXmXmXMXMXMXMXMXMXMXmXcXcXxXxXeXeX7X7XeXeXeXeXxXxXcXxXxXxXcXcXmXmXMXMXMXVXCXCXCXCXCXCXCXCXZXZXCXCXCXCXCXCXCXMXMXMXMXMXMXMXMXMXmXmXmXcXcXxXyXyXyXyXyXyXNXuX}.D.p.p.p.q.N.S.|.|.S.'.iXAXpXpXyXcXcXMXbXmXcXNXNXuX'.S.J.J.J.J.J.D.p.9./ W E E E R R R R R R R R [ +.=.:.e.t.h.g.g.g.L.L.I.I.I.Y.Y.Y.T.T.W.E.E.].#X=X=X=X=X<X9XxXmXmXmXlX6X%X+XE.W.T.Y.Y.T.W.I.r.r.y.r.r.r.7.7.7.7.7.7.7.7.r.r.r.r.7.7.7.0.0.0.0.0.0.0.0.0.0.0.0.0.0.0.0.0.0.0.0.0.0.0.0.0.0.0.0.0.q.q.q.q.q.q.q.q.0.0.",
"I.I.g.g.g.g.g.g.h.t.t.e.e.e.e.e.t.t.t.e.h.I.R.T.W.E.@X%X~.!.W.W.W.W.W.!.@X$X&X%X%X%X;X5X;X*X%X&X&X&X@X&X&X%X%X%X%X%X;X;X;X;X;X;X6X7X9XeX9X9X6X*X%X&X#X#X&X%X%X;X*X;X6X6X6X*X*X*X*X*X;X*X*X*X5X6X7X9XeXeXeXxXxXxXxXxXxXxXxXxXxXxXyXtXtXeXeXeX7X6X=X&X#X#X&X&X*X5X6X7X9X9X9X9XeXeXeX9X7X7X6X7X7X7X7X7X7X7X7X7XeXeXeXeXeXeXeXeXeXeXxXxXxXcXcXmXMXMXMXMXMXMXCXMXCXCXMXMXMXMXMXMXMXMXcXxXxXzXtXeX9X9X7X6X6X6X<X<X<X*X*X*X=X*X<X6X6X7X7XeXeXeXeXeXtXxXxXxXxXxXcXcXxXxXxXxXxXxXxXxXxXxXxXxXxXxXtXtXtXtXtXtXtXtXtXtXtXtXtXtXtXtXtXtXyXyXtXtXtXtXyXyXyXyXyXyXyXyXyXyXyXyXyXyXyXyXxXxXxXxXyXyXyXtXtXtXtXtXyXyXyXtXtXtXtXtXtXtXtXtXeXeXeXeXeXeXtXtXyXyXxXxXyXyXxXxXcXcXmXmXmXMXMXMXMXMXMXMXmXmXmXcXcXxXxXeX7X6X6X7XeXeXeXtXxXcXcXcXxXcXmXmXmXmXMXMXMXMXCXCXCXCXCXCXCXCXCXCXCXCXCXCXCXMXMXMXMXMXMXMXMXMXMXMXmXmXmXmXcXxXyXyXyXyXxXxXMXNXoXS.d.d.d.p.w.q.x.A.|..XiXpXuXuXmXcXnXVXFXMXMXuX=X'.S.J.J.J.J.J.J.x.q.2.~ W E { E R R R R R R R R R [ o.$.-.e.t.h.g.L.L.I.I.I.I.Y.Y.Y.Y.T.W.E.].[.&X<X6X6X6X7XeXxXmXnXnXzX6X%X+XE.T.Y.I.Y.T.T.v.y.y.y.y.r.r.r.r.r.r.7.7.r.r.r.r.7.7.r.r.r.7.0.0.0.0.0.0.0.0.0.0.0.0.0.0.0.0.0.0.0.0.0.0.0.0.0.0.0.0.0.0.0.0.0.0.0.0.0.0.",
"I.I.g.g.g.g.g.g.h.t.t.e.e.e.e.e.t.t.t.e.g.I.U.R.W.E.@X-X@X!.W.W.W.W.W.E.+X@X&X%X%X%X%X%X*X*X*X%X%X%X&X&X&X&X%X%X%X%X;X;X;X;X;X;X;X6X0X9X9XeXlX9X0X*X%X&X@X@X#X&X&X*X;X6X6X6X6X6X;X*X;X;X*X*X*X*X6X6X7XeXeXeXxXxXxXxXxXxXxXxXxXxXxXxXxXxXxXeXeX7X6X*X*X=X&X%X=X*X<X5X6X0X0X7X9X9XeXeXeX9X7X6X7X7X7X7X7X7X7X7X7X7XeXeXeXeXeXeXeXeXeXeXtXxXcXcXmXmXMXMXMXMXMXMXCXCXMXMXMXMXMXMXMXMXMXcXcXxXzXzXtXeX7X6X6X6X5X5X<X*X*X=X=X*X*X*X<X6X6X7X7XeXeXeXeXeXeXtXxXxXcXcXcXcXcXxXxXxXxXxXxXxXxXxXxXxXxXxXxXxXyXyXtXtXtXtXtXtXtXtXtXtXtXtXyXyXtXtXyXyXyXyXyXyXyXyXyXyXyXyXyXyXyXyXyXyXxXxXxXxXyXyXyXtXtXtXtXtXtXtXyXtXtXtXtXtXtXtXtXtXeXeXeXeXeXeXyXyXyXxXxXxXyXyXxXxXcXcXmXmXmXmXmXmXmXMXMXmXcXcXcXcXxXxXeXeX7X6X7XeXeXxXxXxXxXxXcXcXxXcXmXMXMXMXMXMXCXCXCXCXCXCXCXCXCXCXCXCXCXCXCXCXCXMXMXMXMXMXMXMXMXMXMXMXmXmXmXmXcXxXuXuXuXyXzXzXMXNXiX'.D.d.d.d.p.w.w.w.D.'.>XuXpXyXmXxXcXMXcXrXiX{.`.S.D.J.J.J.J.J.D.p.5.@.%.[ { R E R R R R R R R R I R [ [ o.*.e.t.h.L.L.I.I.I.I.Y.Y.Y.T.T.W.E.].@X*X0X7X7X7XeXlXxXnXnXxXlX0X%X+XW.T.Y.I.Y.Y.n.r.y.r.y.8.8.y.y.y.8.8.7.7.7.7.7.7.7.7.r.7.7.7.0.0.0.0.0.0.0.0.0.0.0.0.0.0.0.0.0.0.0.0.0.0.0.0.q.q.q.q.0.0.0.0.0.0.0.0.0.0.",
"I.I.g.g.g.g.g.g.h.t.t.e.e.e.e.e.e.t.e.t.g.I.R.W.W.E.$X-X@X!.W.W.W.W.W.E.!.+X@X&X%X%X%X%X%X%X%X*X*X%X%X@X&X&X&X%X%X%X*X;X;X;X;X;X;X;X6X0X9X9XeXlXeX9X6X*X&X@X@X@X@X#X&X*X6X6X9X7X6X6X5X;X*X*X*X*X*X5X6X6X7XeXeXxXxXxXxXxXxXxXxXxXxXxXxXxXxXxXxXeXeX7X6X*X&X&X%X=X=X*X<X<X5X5X7X9X9XeXeXeXeX7X6X7X7X7X7X7X7X7X7X7X7XeXeXeXeXeXeXeXeXeXeXtXxXcXcXmXmXMXCXCXCXCXCXCXMXMXCXMXCXCXMXMXMXMXcXxXxXxXzXtXeX7X6X6X6X5X5X<X*X=X=X=X*X*X*X*X5X6X6X7X7XeXeXeXeXtXyXxXxXxXcXcXcXcXcXxXxXxXxXxXxXxXxXxXxXxXxXxXxXyXyXyXtXtXtXtXtXtXtXtXtXtXyXyXyXyXyXyXyXyXyXyXyXyXyXyXxXxXxXyXyXyXyXyXyXxXxXxXyXyXyXyXyXtXtXtXyXyXyXyXyXyXyXyXyXtXtXtXtXtXtXtXtXyXxXxXxXxXxXxXxXxXxXxXcXcXmXmXmXmXMXmXmXcXcXcXxXxXxXxXtXeXeX7X7X7XeXeXxXxXxXxXcXcXcXcXmXmXMXMXMXMXCXCXCXCXCXCXCXCXZXCXCXCXCXCXCXCXCXCXCXMXMXMXMXMXmXMXMXMXMXMXmXmXmXmXcXxXuXuXyXyXzXxXcXNXpXXXD.s.d.D.d.d.s.w.w.p.m.`.1XuXyXmXmXNXrX{.'.Z.S.J.J.J.J.J.J.J.p.w.9.@.~ [ R R E R R R R R R I R R R R R E o.*.e.t.L.I.I.I.I.Y.Y.Y.T.T.T.Q.].@X*X7XeXeXeXeXeXlXlXxXxXxXeX6X%X+XW.T.Y.T.Y.I.k.6.8.y.y.y.8.8.y.y.7.7.7.7.7.7.7.7.7.7.r.r.r.7.0.0.0.0.0.0.0.0.0.0.0.0.0.0.0.0.0.0.0.0.0.0.0.0.q.q.q.q.0.0.0.0.0.0.0.0.0.0.",
"I.L.g.g.g.g.g.h.h.t.t.e.e.e.e.e.e.e.e.t.g.I.R.W.W.W.$X-X@XE.W.W.W.W.W.E.E.!.+X@X&X%X%X%X%X%X%X;X5X;X%X&X@X&X%X%X%X%X%X%X%X%X*X*X;X;X;X6X7X9XeXeXlXlXeX9X5X%X&X@X@X@X#X%X*X6X9XeX9X7X0X5X5X5X*X*X*X*X*X<X6X7XeXeXeXyXxXxXxXxXxXxXxXxXcXxXxXxXxXxXeXeXeX6X<X&X&X%X&X&X=X=X=X*X<X6X7XeXeXeXeXeX7X7X6X7X7X7X7X7X7X7X7X7XeXeXeXeXeXeXeXeXeXeXtXxXxXxXcXmXmXCXCXCXCXCXMXMXCXCXCXCXCXMXMXMXMXcXcXcXxXxXeXeX7X6X6X6X<X<X*X*X*X=X=X=X*X*X*X*X6X6X6X7X7XeXeXeXeXxXxXxXxXxXxXcXcXcXcXxXxXxXxXxXxXxXxXxXxXxXxXxXxXyXyXyXtXtXtXtXtXtXtXyXyXyXyXyXyXyXyXyXyXyXyXyXyXyXxXxXxXxXyXxXyXyXyXxXxXxXyXyXyXyXyXtXyXyXyXyXyXyXyXyXyXyXyXtXtXtXtXtXtXtXyXyXyXxXxXyXxXxXxXxXxXxXcXcXmXmXmXmXmXcXcXxXxXxXtXtXtXeXeXeX7X7X7XeXeXxXxXxXxXxXcXcXcXcXmXMXMXMXMXMXCXCXCXCXCXCXCXCXZXCXCXCXCXCXCXCXCXCXCXMXMXMXMXmXmXMXMXMXMXMXmXmXcXcXcXxXuXuXuXyXxXxXxXNXpXiXS.D.D.J.d.d.d.d.d.p.p.j.M.{.1XyXNXuXXX`.A.D.D.J.J.J.J.J.J.w.w.7.9.%.o.[ R R E R R R R R F I I R J R R R [ o.-.t.L.I.I.I.Y.Y.Y.Y.Y.T.E.].@X=X7XyXxXeXtXtXlXxXlXlXeXeX9X6X%X+XW.T.Y.T.Y.g.y.6.y.5.5.5.5.5.8.8.8.8.8.8.8.8.7.7.7.7.7.7.7.7.0.0.7.7.7.7.q.q.0.0.0.0.0.0.0.0.0.0.0.0.0.0.0.0.q.q.q.q.0.0.0.0.0.0.0.0.0.0.",
"I.g.g.g.g.g.h.h.h.t.e.e.e.e.e.e.e.e.e.t.g.U.R.W.W.W.%X$X~.W.W.W.W.W.W.W.W.E.!.!.$X%X%X%X%X%X*X;X5X5X%X%X&X@X&X&X%X%X%X%X%X%X*X*X;X;X;X;X6X0X9X9XeXeXeXeX9X6X*X&X#X#X#X#X*X*X5X0X7X9X7X0X0X5X5X5X<X*X*X*X<X6X6X9XeXeXzXxXzXzXxXxXxXxXcXxXxXxXxXxXxXxXtXeX7X*X=X%X%X%X=X=X=X=X*X*X6XeXeXeXeXeXeX7X7X7X7X7X7X7X7X7X7X7XeXeXwXeXeXeXeXeXtXeXtXtXxXxXnXcXcXMXMXCXCXCXMXCXCXCXCXCXCXCXCXMXMXMXMXcXcXcXcXxXeX7X0X6X6X5X*X*X=X=X=X=X*X*X*X*X*X5X5X6X0X7XeXeXeXeXeXxXxXxXxXxXcXcXcXcXcXxXxXxXxXxXxXxXxXxXxXxXxXxXyXyXyXtXtXtXtXtXyXyXyXyXyXyXyXyXxXxXxXxXxXxXxXxXxXxXxXxXxXxXxXxXyXyXyXyXyXyXyXyXyXyXyXyXyXyXyXyXyXyXyXyXyXyXyXyXyXyXyXyXyXxXxXxXxXxXxXxXxXxXcXcXcXcXmXmXmXmXmXcXxXxXtXeXeXeXeXeX7X7X7X7XeXeXeXxXxXxXcXcXcXcXcXcXmXMXMXMXCXCXCXCXCXCXCXCXCXCXCXCXCXCXCXCXCXCXCXMXMXMXMXMXMXmXmXmXmXmXmXmXmXmXcXcXNXyXyXtXyXyXxXxXxXNXNXpX.XB.d.J.s.s.d.d.d.d.s.w.w.x.D.A.'.'.}.}.}.F.H.H.H.H.S.D.w.w.w.9.3.%.[ E E E E R R R R R I F F F J J J J R [ #.t.h.I.I.Y.Y.Y.T.T.W.].#X#X=X6XtXxXxXxXxXxXxXlXeXeX9X9X6X;X%X+XW.U.Y.Y.I.r.e.6.6.4.6.6.6.5.8.8.8.8.8.8.8.8.8.8.8.8.7.7.7.7.7.7.7.7.7.7.7.7.0.0.0.0.0.0.0.0.0.0.q.q.q.q.q.q.0.0.0.0.0.0.0.0.0.0.0.0.q.q.",
"g.g.g.g.g.g.h.t.t.t.e.e.e.e.e.e.e.e.e.t.g.U.R.W.W.E.%X$X@X!.W.W.W.W.W.W.W.W.W.E.@X$X&X%X%X%X%X%X5X6X5X%X%X&X&X&X%X%X%X%X%X%X*X*X*X*X;X;X;X;X5X5X0X9XeX9X9X9X0X5X*X=X#X#X#X%X&X*X5X0X9X9X9X0X0X6X6X<X<X*X*X*X<X5X7XeXtXzXxXzXzXzXxXxXxXxXxXxXxXxXcXcXcXxXeX7X*X=X&X=X%X%X&X=X*X*X*X6XeXeXeXeXeXeXeX7X7X7X7X7X7X7X9X9X7X7X7XwXwXeXeXeXtXtXtXtXyXtXxXnXcXcXmXMXCXCXCXCXCXCXCXCXZXCXCXMXCXMXMXMXMXMXmXmXcXxXeX9X6X6X*X*X*X=X=X=X*X*X=X=X*X*X*X5X5X6X7XeXeXeXeXeXxXxXxXxXxXxXcXcXcXxXxXxXxXxXxXxXxXxXxXxXxXxXxXyXyXtXtXtXtXtXtXtXyXyXyXyXyXyXxXxXxXxXxXxXxXxXxXxXxXxXxXxXxXxXyXyXyXxXxXxXxXyXyXyXyXyXyXyXyXyXyXyXyXyXyXyXyXyXyXyXxXxXyXxXxXxXxXxXxXxXxXxXcXcXcXcXmXmXmXmXcXxXxXeXeXeXeXeXeX7X7X7X7X7XeXxXxXxXxXxXcXcXcXcXcXcXmXMXMXMXCXCXCXCXCXCXCXCXCXCXCXCXCXCXCXCXCXCXCXMXMXMXMXMXMXmXmXmXmXmXmXmXcXcXcXcXxXyXyXtXyXyXxXxXyXcXmXNXiX).d.D.s.s.s.d.d.s.s.s.s.D.D.D.p.x.D.D.D.D.J.J.J.D.s.w.a.a.w.9.2.%.W [ { E E R R R R Y F F F F F F F F J R o.:.t.L.I.I.I.T.E.@X&X*X6X6X0X7XeXxXtXtXeXlXlXeXeX9X6X;X*X%X&X].T.T.I.I.g.e.6.6.4.6.5.5.6.6.6.6.5.5.8.8.8.8.8.8.8.8.8.8.7.7.7.7.7.7.7.7.7.7.0.0.0.0.0.0.0.0.0.0.q.q.0.q.q.q.0.0.0.0.0.0.0.0.0.0.q.0.q.q.",
"g.g.g.g.g.h.h.t.t.e.e.e.e.e.e.e.>.e.e.h.L.U.R.W.W.!.0X%X~.!.!.!.E.W.W.W.W.W.W.W.E.@X&X%X%X%X$X%X;X6X0X5X%X%X&X%X&X%X%X%X%X%X*X*X*X*X;X;X;X;X*X*X5X6X0X9XeXzXxXzXeX7X*X=X#X#X@X@X&X=X5X0X9X9X9X7X6X6X5X<X<X*X<X<X5X7XeXtXtXzXzXzXzXzXxXxXxXxXxXxXcXcXcXcXxXeX7X*X*X=X&X&X&X&X&X=X*X*X6XeXeXeXeXeXeXeX7X7X7X7X7X9X9X7X7X7X7X7X7XwXwXeXeXtXtXtXtXtXyXyXnXcXcXbXbXCXMXMXCXCXZXZXFXZXZXCXCXMXMXMXMXMXmXmXmXmXxXeXeX6X6X6X<X*X*X*X*X*X=X=X=X=X*X*X*X<X6X7X7X9XeXeXtXxXxXxXxXxXxXxXcXcXcXcXxXxXxXxXxXxXxXxXxXxXxXxXxXyXyXtXtXtXtXtXtXtXtXtXyXyXxXxXxXxXxXxXxXxXxXxXxXxXxXxXxXxXxXxXxXxXxXxXcXxXxXxXyXyXyXyXyXyXyXyXxXxXyXyXxXxXxXxXxXxXxXxXxXxXcXcXcXcXcXcXcXcXcXcXcXmXmXcXxXxXxXeXeXeXeXeX7X7X7X7X7XeXeXxXxXxXcXcXcXcXcXcXmXmXMXMXMXMXCXCXCXCXCXCXCXCXCXCXCXCXCXCXCXCXCXCXCXMXMXMXMXMXMXmXmXmXmXmXmXmXcXcXcXxXxXyXyXyXyXyXyXyXyXcXNXNXpX'.D.d.d.s.d.d.d.s.s.s.d.D.D.D.w.w.p.s.w.w.s.s.s.s.a.a.w.w.p.9.%.~ E { { E E R Y Y R Y F F F F F F F F F F [ *.e.h.I.I.Y.E.&X5X0X0X0X7X0X7XeXeXeXeXeXeXeX9X6X;X*X%X&X&X+XW.T.T.I.I.t.6.6.6.6.4.5.5.6.6.6.5.5.5.6.6.8.8.8.8.8.8.8.8.7.7.7.7.7.7.7.7.7.7.q.q.0.0.0.0.0.0.0.q.q.q.0.0.q.q.0.0.0.q.0.0.0.0.0.0.0.0.q.q.",
"g.g.g.h.h.t.t.t.e.e.e.e.e.e.e.e.>.e.e.h.L.U.R.W.W.~.0X$X~.!.!.!.E.W.W.W.W.W.W.W.W.E.@X%X%X%X%X%X;X5X6X5X;X%X%X%X%X%X%X%X%X%X%X%X%X*X*X*X;X;X*X*X*X5X5X6X7XeXeXtXxXlXeX6X*X%X#X+X@X&X%X*X5X6X7X9X7X7X0X6X6X<X<X<X<X5X0XeXtXtXzXzXzXzXzXzXxXxXxXxXxXxXcXcXcXxXeX7X6X6X=X=X&X&X&X&X=X*X*X6X7X7XeXeXeXeXeX7X7X7X7X7X7X7X7X7X7X7X7X7XwX7XeXeXtXtXtXtXyXyXxXnXcXcXcXbXMXMXCXCXCXCXZXCXCXMXMXMXMXMXbXbXmXmXmXmXxXxXeXeX7X6X6X<X<X*X*X*X=X=X=X=X*X*X*X*X<X6X6X7X7XeXeXeXtXzXxXxXxXxXxXxXcXcXcXcXcXxXxXxXxXxXxXxXxXxXxXyXyXtXtXeXeXtXeXtXtXtXtXyXxXxXxXxXcXcXxXxXxXxXxXxXxXxXxXxXxXxXxXcXcXcXcXcXxXxXxXxXyXyXyXyXyXyXxXxXyXyXxXxXxXxXxXxXxXxXxXxXcXcXcXcXcXcXcXcXmXcXcXcXcXxXxXxXeXeXeXeXeX7X7X7X7X7X7XeXxXxXxXxXcXcXcXcXcXcXmXmXMXMXMXMXCXCXCXCXCXCXCXCXCXCXCXCXCXCXCXCXCXCXCXMXMXMXMXMXMXmXmXmXmXmXmXmXcXcXcXxXyXyXyXyXyXyXyXyXyXcXmXNXNXOXD.D.s.s.d.d.d.s.s.s.s.D.J.D.w.s.s.s.s.s.s.s.s.a.a.s.s.w.w.9.^ ~ E { { R R R Y Y R P F F F F F F F F F F E +.:.t.L.I.E.@X%X7X7X7X7X9X9X9X9X6X6XwX9X9X9X;X;X%X&X#X+X+X!.W.W.Y.I.g.e.6.6.6.6.6.5.5.5.5.6.6.5.5.6.6.5.5.5.5.8.8.8.8.8.8.8.7.7.8.8.8.8.7.7.7.0.0.q.q.q.q.q.q.q.q.q.q.q.q.q.q.0.q.0.q.0.0.0.0.0.0.q.q.",
"g.g.g.g.h.t.t.e.e.e.e.e.e.e.>.>.e.e.e.h.I.U.U.W.!.@X9X@X!.E.E.E.E.E.E.W.W.W.W.W.W.E.+X&X%X-X-X-X%X;X5X6X6X5X;X%X%X&X&X&X%X%X%X%X%X%X*X*X;X;X*X*X*X*X*X*X5X0X9XeXzXxXxXeX7X5X&X&X&X&X&X&X=X*X6X0X7X7X9X7X6X6X5X<X<X<X5X0XeXeXeXtXtXzXzXzXxXxXxXxXxXxXcXcXcXcXcXxXeXeX6X=X=X=X&X&X&X=X*X<X6X6X7XeXeXeXeXeX9X7X7X7XeXeXeXeXwXwXwXwXwXwX7XeXeXyXyXyXyXyXxXnXcXcXbXbXMXMXMXMXCXCXZXCXCXMXMXMXMXMXMXMXMXMXMXmXcXxXxXeXeX7X6X6X<X*X*X*X=X=X=X=X=X=X*X*X*X*X6X6X6X7X9XeXeXeXtXxXtXxXxXxXxXxXcXcXcXcXxXxXxXxXxXxXxXxXxXxXyXyXtXtXtXeXtXeXeXtXtXtXtXtXyXyXyXyXxXxXxXxXxXxXxXxXxXxXxXxXcXcXcXcXcXxXxXxXxXxXyXyXyXyXyXyXxXxXxXxXxXxXxXxXxXxXcXcXcXcXcXcXcXcXcXcXmXmXmXcXxXxXxXzXtXeXeXeXeXeX7X6X6X7X7X7XeXxXxXxXcXcXcXcXcXcXmXmXmXMXMXMXCXCXCXCXCXCXCXCXCXCXCXCXCXCXCXCXCXCXCXCXMXMXMXMXMXmXmXmXmXmXmXcXcXcXcXcXcXyXyXyXtXtXyXyXyXyXxXcXmXNXNXoXD.s.J.s.d.d.d.s.s.d.d.d.d.d.s.s.s.s.s.s.s.s.s.s.s.s.s.w.p.2.^ Q E R R R R R R R P P F F F F F F F F F F R [ O.t.I.W.@X$X%X-X;X;X%X;X0X0X;X;X;X*X;X;X;X;X$X#X@X+X!.E.W.W.U.I.g.e.6.6.6.4.6.4.4.4.5.6.6.6.5.5.6.6.5.5.5.5.5.5.8.8.8.7.8.8.8.7.7.7.7.7.7.7.7.7.7.7.q.q.q.q.q.q.q.q.q.q.q.q.q.q.0.q.q.q.0.0.0.0.0.0.",
"g.g.g.g.h.t.t.e.e.e.e.e.>.>.>.>.e.e.e.h.I.U.U.W.!.@XfX~.!.E.E.E.E.E.E.W.W.W.W.W.W.W.E.@X$X%X-X-X%X;X5X6X6X6X6X;X;X%X&X%X&X&X%X%X%X%X*X%X;X;X*X*X*X*X*X*X*X5X6X7XeXlXxXlXeX9X0X5X*X&X&X&X#X&X=X*X6X7X9X9XeX7X0X6X<X<X<X5X6X7XeXeXeXeXtXtXtXtXxXxXxXxXcXcXcXmXmXcXcXxXeX6X*X=X=X&X&X&X=X*X*X1X6X6XeXeXeXeXeX7X7XeXeXeXeXeXwXwXwXwXwXwX7X7XeXtXtXtXyXxXnXnXcXcXcXcXbXbXMXMXMXMXCXCXMXMXMXMXMXMXMXMXMXMXMXmXmXmXcXxXtXeX7X6X6X<X5X*X*X*X=X=X=X=X=X=X=X=X*X5X<X5X0X7X7XeXeXeXeXeXtXtXxXxXxXxXcXcXxXxXxXxXxXxXxXxXxXxXxXxXxXyXyXtXtXtXtXtXtXeXeXwXeXeXtXtXyXyXxXxXxXxXxXxXxXxXcXxXcXcXcXcXcXxXxXxXyXxXyXyXyXyXyXyXxXxXxXxXxXxXxXxXxXxXcXcXcXcXcXcXcXcXcXcXmXmXcXcXxXzXeXeXeXeXeX7X7X7X7X6X7X7X7XeXxXcXxXxXcXcXcXcXcXcXmXmXmXMXMXCXCXCXCXCXCXCXCXCXCXCXCXCXCXCXCXCXCXCXMXMXMXMXMXMXMXMXmXmXmXmXmXcXcXcXcXcXcXyXyXtXtXtXyXyXyXyXxXxXcXmXMXiX'.D.J.s.s.d.d.s.d.d.s.s.s.s.s.s.s.s.s.s.s.s.s.s.s.s.s.d.i.2.^ Q E R R I R R R R Y P F F F F F F F F H H F R [ =.e.I.U.R.W.W.W.W.!.+X@X@X@X@X@X@X@X@X@X@X@X@X+X!.E.W.R.U.U.I.e.-.-.-.4.4.4.4.4.4.4.4.5.5.4.4.5.5.5.5.5.5.5.5.8.8.8.8.8.8.8.8.7.7.7.7.7.7.7.7.7.7.q.q.q.q.q.q.7.7.7.7.q.q.7.7.q.q.q.0.0.0.0.0.0.0.",
"g.g.g.h.h.t.e.e.e.e.e.e.>.>.>.>.e.e.e.g.I.U.U.W.E.$XzX!.E.E.!.!.!.!.!.E.E.W.W.W.W.W.E.!.@X$X%X-X%X%X;X6X6X5X5X5X;X;X%X&X&X&X%X%X%X%X%X%X;X;X;X;X*X*X*X*X*X*X*X*X7XeXlXzXlXeXeX9X6X*X&X&X&X&X&X&X*X5X6X0X7X7X9X7X6X<X5X5X5X5X7X9XeXeXeXeXtXeXxXxXxXxXxXxXxXcXcXcXcXcXcXeX7X*X=X=X&X&X&X=X=X*X*X6X7XeXeXeXeXeXeXeXeXwX9XeXwXwXwXwXwXwXwXwXwXtXtXtXxXxXxXnXcXcXcXcXcXcXMXMXMXMXCXMXMXMXMXMXMXMXMXMXMXMXMXMXmXmXcXcXxXeXeX7X6X6X6X5X*X*X*X=X=X=X=X=X*X*X=X=X*X*X5X6X6X7XeXeXeXeXeXeXtXtXxXxXxXxXcXxXxXxXxXxXxXxXxXxXxXxXxXxXxXyXyXyXtXtXtXeXeXwXeXeXeXeXtXyXyXyXyXyXxXxXcXcXcXcXcXcXcXcXcXxXxXxXyXxXyXyXyXyXxXxXxXxXxXxXxXxXxXxXcXcXcXcXcXcXcXcXcXcXcXcXcXcXxXxXzXeXeXeXeXeX7X7X7X7X7X7X7X7XeXxXcXxXxXcXcXcXcXcXmXmXMXMXMXMXMXMXCXCXCXCXCXCXCXCXCXCXCXCXCXCXMXMXCXCXMXMXMXMXMXMXMXMXmXmXmXmXmXcXcXcXcXcXcXyXyXtXtXtXyXyXyXxXxXxXxXcXNXpXoXD.J.J.d.d.d.d.d.d.d.d.s.s.s.s.s.s.s.s.s.s.s.s.s.s.d.d.5.@.~ Q R R R I R Y Y Y P F F F F F F F F G H F H F R [ $.>.t.t.t.h.L.I.U.U.R.R.W.W.W.W.W.W.W.W.!.!.!.E.W.W.Y.I.L.t.O.$.-.-.-.4.4.4.4.4.4.4.6.6.5.5.5.5.5.5.5.5.5.8.8.8.8.8.8.8.8.8.7.7.7.7.8.8.7.7.7.7.7.7.q.7.7.7.7.7.7.7.q.q.q.q.7.7.0.0.q.0.0.0.0.0.",
"g.g.g.h.h.t.e.e.e.e.e.e.>.>.>.>.e.e.e.g.I.U.U.W.W.-XfXE.~.E.E.!.+X~.!.!.E.W.W.W.W.W.W.E.+X@X$X%X%X%X;X5X5X5X5X5X5X;X;X%X%X%X%X%X&X&X%X%X;X;X;X;X*X*X*X*X*X*X&X&X*X6XeXeXeXeXeXeX9X0X5X*X&X&X&X&X&X=X*X<X6X7X7X7X7X6X5X<X<X5X6X0X7X9XtXtXeXeXxXxXxXxXxXxXxXcXcXcXcXcXmXcXxXeX6X=X&X&X&X=X=X=X=X*X6X7XeXeXtXeXeXeXeXwX9X9XwXwXwXwXwXwXwXwXwXeXeXtXyXxXnXnXcXcXcXcXcXcXMXMXMXMXMXMXMXMXMXMXMXMXMXMXMXMXMXMXMXmXcXcXcXxXeXeX7X7X0X6X5X5X*X*X=X=X=X=X=X=X=X=X=X*X*X*X6X6X6X7X7X7XeXeXeXeXeXeXxXxXxXxXxXxXxXxXxXxXxXxXxXxXxXxXxXxXxXyXyXyXtXtXtXtXtXtXeXeXtXtXyXyXxXyXxXxXcXcXcXcXcXcXcXcXcXxXxXxXxXxXxXxXxXxXxXxXxXxXxXxXxXxXxXxXcXcXcXcXcXcXcXcXcXcXcXxXxXxXxXlXeXeXeX7X7X7X7X6X6X7X7X7XeXeXxXcXxXxXxXcXcXcXcXcXmXmXMXMXMXMXMXCXCXCXCXCXCXCXCXCXCXMXMXMXCXCXMXMXCXCXMXMXMXMXMXMXMXMXmXmXmXmXmXcXcXcXcXcXcXyXyXtXtXtXyXyXyXyXxXxXxXxXmXNXiXS.D.J.s.d.d.d.d.d.s.s.s.s.s.s.s.s.s.s.s.s.s.s.s.s.d.B.5.%.T R R R R I R Y Y Y P F F F F F F F F F H H H H F F E o.#.#.$.=.-.:.t.t.L.L.L.I.U.U.U.I.I.I.U.R.W.R.U.Y.I.h.:.#.+.+.O.&.&.-.4.4.4.4.4.4.5.5.5.5.5.5.5.5.5.5.5.8.5.5.8.8.8.8.8.8.8.8.7.7.8.8.7.7.7.7.7.7.7.7.7.7.7.7.7.7.q.q.q.q.7.7.q.q.0.0.0.0.0.0.",
"h.g.h.h.h.t.e.e.e.e.e.e.>.>.e.e.e.e.e.g.I.U.U.W.E.0X0X!.@XE.E.~.@X@X@X@XE.E.W.W.W.W.W.E.!.@X$X%X%X%X*X5X;X;X5X5X6X6X6X;X*X*X%X%X&X&X&X%X*X;X;X;X;X;X*X*X*X*X*X&X&X<X6X7XeXeXeXeXeXeX9X9X5X*X&X&X&X&X=X*X*X6X7X7X7X7X5X5X5X5X5X5X6X7XeXeXeXyXxXxXxXxXxXxXxXxXcXcXcXcXmXmXcXxXeX7X<X=X=X=X&X&X&X&X*X5X7XeXeXtXtXeXeXeX9X9XeXeXeXeXeX9X7X7X7XwXeXeXeXtXxXxXxXxXcXcXcXcXbXbXMXMXMXMXMXMXMXMXMXMXMXMXMXMXMXMXMXMXmXcXcXcXxXzXeXeX9X7X6X6X*X*X*X=X=X=X=X=X=X=X*X*X*X*X*X*X6X6X6X6X7X9XeXeXeXtXtXtXxXxXxXxXcXcXcXcXcXxXcXxXcXcXxXcXxXxXxXxXtXtXtXtXxXtXeXeXeXeXeXtXxXxXxXcXcXcXcXcXcXcXcXcXcXcXxXxXxXxXxXxXxXxXxXxXxXxXxXxXxXxXxXxXcXcXcXcXcXcXcXcXcXcXxXxXxXxXxXeXeXeXwX7X7X7X7X6X7X7XeXeXeXxXcXcXcXcXcXcXcXcXmXmXMXMXMXMXMXMXCXCXZXZXCXCXCXCXCXCXMXMXMXMXMXMXMXMXMXMXMXMXMXMXMXmXmXmXmXcXcXcXmXmXmXcXxXxXxXyXyXtXuXtXyXyXxXxXxXxXxXxXeXNXpX|.D.s.d.d.d.s.s.s.s.s.s.s.s.s.s.s.s.s.s.s.s.s.s.s.S.b.y.%.R R R R R R R R R P I P F F F F F F F F F H H D D D F R R R R { [ } +.#.$.:.>.e.e.e.e.e.t.t.h.g.L.L.g.h.t.*.+.[ [ o.+.@.&.@.&.3.4.4.4.4.4.4.5.5.4.4.4.4.4.4.5.8.5.5.5.8.8.8.8.8.8.8.8.8.8.8.8.7.7.7.7.7.7.7.7.7.8.8.8.7.7.8.q.q.7.7.q.q.q.q.0.0.0.0.",
"h.g.h.h.t.t.e.e.e.>.e.e.>.>.e.e.e.e.e.g.I.U.R.W.!.8X%X~.@XE.E.E.E.!.@X&X@XE.W.W.W.W.W.W.E.!.@X$X%X%X%X;X;X;X6X5X6X6X6X6X;X;X*X%X&X&X%X&X&X*X;X;X;X;X*X*X*X*X*X*X&X&X<X6X9XeXeXeXeXeXeXeXeX9X0X5X=X#X#X=X*X<X6X7X7X7X0X5X6X6X6X6X5X5X5X6XeXeXtXxXxXxXxXxXxXxXxXxXcXcXmXcXcXcXmXcXeX*X=X=X&X&X&X&X&X*X6X7X9XeXeXeXtXtXtXeXeXeXeX9XeXeX7X7XeXeXeXeXeXeXzXxXxXxXcXcXcXcXbXbXMXMXMXMXMXMXMXMXMXMXMXMXMXMXMXMXMXMXmXcXcXcXcXxXxXeXeXeX7X6X6X*X*X*X=X=X=X=X=X=X=X=X*X*X*X*X<X*X<X5X0X0X7XeXeXeXtXtXtXtXxXxXxXxXcXcXcXxXxXcXcXcXcXxXxXxXxXxXtXxXyXtXxXxXtXtXtXtXtXxXxXxXxXxXcXcXcXcXcXcXcXcXcXcXxXxXxXxXxXxXxXxXxXxXxXxXxXxXxXxXxXxXcXcXcXcXcXcXcXcXcXcXxXxXxXxXeXeXeXeX7X7X7X6X6X7XeX7XeXeXxXcXcXcXcXcXcXcXmXmXmXmXMXMXMXMXMXMXCXZXFXFXCXCXCXCXCXCXMXMXMXMXMXMXCXCXMXMXMXMXMXMXMXmXmXmXmXcXcXcXmXmXmXcXxXxXxXyXyXtXtXtXyXyXxXxXxXxXxXxXuXNXNXoXB.d.d.d.d.s.s.s.s.s.s.s.s.s.s.s.s.s.s.s.s.s.s.d.S.l.4.[ R R R R R R R R R P I P F F F F F F F F D D D D D D D F F F F F G I { { { | #.#.#.#.#.#.$.=.=.*.:.:.-.$.+.[ F D F E +.O.@.@.@.&.3.3.3.4.4.4.4.4.4.4.4.4.4.4.5.5.5.5.5.5.8.8.8.8.8.8.8.8.8.8.8.8.7.7.7.7.7.7.q.q.8.8.8.8.8.8.7.7.8.8.5.5.q.q.q.q.0.0.",
"h.h.h.h.t.t.e.e.e.>.e.e.>.>.>.e.e.e.e.g.I.U.R.W.@X9X!.@X~.@XE.W.W.E.@X&X@X@XE.E.W.W.W.W.E.E.!.@X&X%X*X;X;X;X6X5X6X6X0X0X6X6X;X*X&X&X&X%X%X%X*X;X;X;X*X*X*X*X*X*X*X&X&X*X5X9XeXeXeXeXzXzXzXlXlX0X*X&X#X#X&X=X<X6X0X7X0X0X7X7X7X7X0X6X5X5X7XeXyXyXxXxXxXxXxXxXxXxXxXcXcXcXcXcXmXmXxX7X*X=X&X&X&X&X&X&X*X5X6X7X9X9XeXtXtXeXeXeXeXeXeXeXeXeXeXwXeXeXeXeXeXzXxXxXcXcXcXcXcXcXbXbXMXMXMXMXMXMXMXMXMXMXMXMXCXMXMXMXmXcXcXcXmXcXcXxXeXeXeX7X6X6X<X*X*X=X*X*X=X=X=X=X=X=X*X*X*X*X*X<X5X6X7X7XeXeXeXeXtXtXtXxXxXxXxXxXcXcXcXxXcXcXxXxXxXxXxXxXxXxXxXxXxXxXxXxXxXxXxXxXxXxXxXxXxXxXcXcXcXcXcXcXcXcXxXxXxXxXxXxXxXxXxXxXxXxXxXxXxXxXxXxXcXcXmXcXmXcXcXcXcXcXxXxXxXxXeXeXeXeX7X7X6X6X7XeXeXeXeXxXcXcXcXcXmXcXcXcXmXmXmXmXMXMXMXMXZXZXZXZXFXFXCXCXCXCXCXCXMXMXMXCXCXCXCXCXMXMXMXMXMXMXmXmXmXmXmXcXcXcXmXmXcXcXcXxXxXyXtXeXeXeXtXyXxXxXxXxXcXcXxXMXZXiX).D.d.d.d.d.d.d.d.d.s.s.s.s.s.s.s.s.s.s.s.s.s.D._.u.@.R Q R R R R R J F P F P F F F F F F F D D D D D D V V H D H H H H H H G F G G I I R R R R I { { [ [ [ [ R F H V V V D R o.%.@.@.@.@.3.3.3.4.4.4.4.4.4.4.4.4.4.4.4.4.4.5.5.5.5.8.8.8.8.8.8.8.8.8.8.7.8.7.8.7.7.7.7.8.8.8.8.5.5.7.7.8.5.5.5.5.5.8.q.q.q.",
"h.h.h.h.t.e.e.e.e.e.e.e.>.>.>.e.e.e.e.g.I.U.U.E.%X9XE.~.E.@X~.W.W.E.E.@X&X@X@XE.E.W.W.W.W.W.E.!.@X%X*X*X;X;X5X5X6X6X7X7X6X6X6X;X%X&X&X&X&X%X%X*X*X;X*X*X*X*X*X*X*X=X&X&X*X5X0X9XeXeXeXeXzXzXeX9X0X5X*X#X#X%X=X<X5X6X7X0X7X7X7X7X7X7X0X6X6X7XeXtXxXxXxXxXxXxXxXxXxXxXxXcXcXcXmXmXcXxXeX1X=X=X&X&X&X&X&X*X<X6X6X7X9XeXeXtXeXeXeXeXeXeXeXeXeXwXeX7X7XeXeXtXxXxXcXcXcXcXcXcXbXbXMXMXMXMXMXMXMXMXMXMXMXMXMXMXMXMXmXcXcXcXcXmXmXcXxXeXeXeX7X6X6X<X*X*X*X*X*X=X=X=X=X=X=X=X*X*X*X*X*X5X6X6X7XeXeXeXeXeXeXeXxXxXxXxXcXxXcXcXcXcXcXxXxXxXxXxXxXxXxXxXxXxXxXxXcXxXxXxXxXxXxXxXxXxXxXxXcXcXcXcXcXxXxXxXxXxXxXxXxXxXxXxXxXxXxXxXxXxXxXxXcXcXmXmXmXcXcXcXcXcXxXxXxXzXeXwX7X7X6X6X6X7X7XeXeXeXeXcXcXcXcXcXcXcXmXmXmXmXMXMXMXMXMXMXZXZXZXFXFXFXCXCXCXCXCXCXMXMXMXMXCXCXCXMXMXMXMXMXMXMXmXmXmXmXmXcXcXcXmXmXcXmXcXxXxXyXtXeXeXeXtXyXxXxXxXxXcXcXcXMXAXpX:XD.d.d.d.d.d.d.d.d.s.s.s.s.s.s.s.s.s.s.s.s.D.A.`.r.%.R R R R R R R R F P F P F F F F F F F D D D D D D V V V V V V V V H H H H H H D H H H H D D H D U I F H V V V V H H V D R o.%.@.@.@.@.@.3.3.3.4.4.4.4.4.4.4.4.4.4.9.4.4.4.5.5.5.5.5.8.8.8.8.8.8.8.7.8.8.8.7.7.7.7.8.8.8.5.5.5.5.5.8.5.5.5.5.8.5.5.8.8.",
"h.h.h.h.t.e.e.e.e.e.e.e.>.>.e.e.e.e.e.g.I.U.U.!.5X0XE.!.E.@X@XE.W.E.E.!.@X@X&X@XE.W.W.W.W.W.W.E.@X%X%X*X;X;X;X;X;X6X6X6X6X7X6X;X*X%X%X#X&X&X&X%X%X*X;X;X*X*X5X5X*X*X*X=X&X*X*X5X9X9XeXeXzXzXeXeXeXeX0X*X=X&X%X&X=X*X5X6X0X7X9X9X9X7XeX7X6X6X7XeXeXtXxXxXxXxXxXxXxXxXxXcXcXcXmXmXmXcXxX9X5X=X=X&X&X&X&X=X=X<X<X5X0X9XeXeXeXeXeXeXeXeXeXeXeXeXeX7XeX7XeXeXeXzXxXxXcXcXcXcXcXMXMXMXMXMXMXMXMXMXMXMXMXMXMXMXMXMXmXmXmXcXcXcXmXmXxXxXeXeXeX7X6X6X6X<X*X*X*X=X=X=X=X=X=X=X=X=X*X*X*X*X*X6X6X7X7X9XeXeXeXeXtXtXtXxXxXxXxXxXcXcXcXxXxXxXxXxXxXxXxXxXxXxXxXcXcXxXxXxXxXxXxXxXxXxXxXxXxXcXcXcXcXxXxXxXxXxXxXxXxXxXxXxXxXxXxXxXxXxXcXcXcXcXmXmXcXcXxXxXxXxXxXtXeXeXeX7X7X6X6X6X7XeXeXeXeXeXxXcXcXcXcXcXmXmXmXmXMXMXMXMXCXCXCXCXZXZXFXZXFXFXFXFXFXCXCXCXMXMXMXCXMXMXMXMXCXMXMXMXMXmXmXmXmXcXcXcXcXcXmXmXcXcXxXxXxXyXeXeXeXeXeXyXxXcXcXxXcXxXcXMXZXNXiXS.s.s.d.d.d.d.d.s.s.s.s.s.s.s.s.s.s.s.s.s.x.{.].6./ W R R R R R F F F F F F F F F H H H H H H H D D V V H H H H H H H g H H H H g g g g H H H H H H H H H B B B B H B g B H C R o.%.O.@.@.@.@.@.&.3.4.4.4.4.4.4.4.4.4.9.9.4.4.5.5.5.5.5.8.8.8.8.8.8.8.8.8.8.8.8.8.8.8.8.8.8.8.8.8.8.8.5.5.5.5.5.8.8.8.5.5.",
"h.h.h.t.e.e.e.e.e.e.e.e.>.>.e.e.e.e.e.g.I.U.U.@X5X-X!.!.E.!.@X!.E.E.E.E.E.@X&X@X+XE.E.W.W.W.W.W.E.@X%X%X*X*X;X;X;X;X6X6X6X6X6X6X;X;X*X%X&X&X&X&X&X%X;X;X*X*X5X5X*X5X5X*X*X*X&X&X*X9XeXeXeXeXzXzXxXzXlXeX7X6X=X%X#X%X%X=X5X0X9X9X9X7XeXeXeX7X6X6XeXeXeXtXxXxXxXxXxXxXxXcXcXcXmXmXMXmXmXxXeX5X=X=X&X&X&X=X%X=X=X<X6X7X9XeXeXeXeXeXtXeXeXeXeXeXeXeXeX7X7XeXeXeXzXxXcXcXcXcXcXcXMXMXMXMXMXMXMXMXMXMXmXmXmXmXMXMXmXmXmXcXcXmXmXmXcXxXtXeXeX7X7X7X6X6X6X*X*X*X*X=X=X=X=X=X=X=X=X=X*X*X*X*X*X<X<X6X7X7XeXeXeXeXeXeXeXeXeXxXxXxXxXxXxXxXxXxXxXxXxXxXxXxXxXcXcXxXxXxXxXxXxXxXxXxXxXxXxXxXxXxXxXxXxXtXtXtXxXxXtXtXxXxXxXxXxXxXxXxXcXcXcXcXcXcXcXxXyXtXtXyXeXeXeX7X7X7X7X6X6X7XeXeXtXzXzXxXxXxXcXcXcXcXmXmXmXmXMXMXMXMXCXCXCXCXZXCXFXZXFXFXFXFXFXFXCXCXMXMXMXCXMXMXMXMXCXMXMXMXMXmXmXmXmXcXcXcXcXcXmXmXcXcXxXxXxXyXtXeXrXrXeXyXxXcXxXxXxXcXcXNXMXNXiX|.d.s.d.d.d.d.s.s.s.s.s.s.s.s.s.s.s.s.s.s.V.{.Y.-.W W R R R R J F F F F F F F F F H H D H H H D D D V H H H H B B B H H H H H H g g g s g H g s s s g B B B B B B B g g g B B H R o.%.O.@.@.@.@.3.3.3.3.3.4.4.4.4.4.4.9.9.4.4.4.5.5.5.5.5.8.8.8.8.8.8.8.8.8.8.8.8.8.8.8.8.8.8.8.8.8.8.5.5.5.5.5.5.5.5.5.5.",
"h.h.h.t.e.e.e.e.e.e.e.>.>.>.e.e.e.e.e.g.I.U.U.$X0X$X!.E.E.E.!.!.@XE.E.E.E.E.@X@X@X!.E.W.W.W.W.W.E.E.@X%X*X*X*X;X;X;X;X6X6X6X9X6X6X6X6X6X*X&X&X&X%X&X*X;X5X5X5X5X5X5X5X5X*X*X*X*X*X5X9X9X9XeXeXzXxXxXxXyXeXeX7X<X=X%X#X%X=X5X0X9X9XeXeXeXeX7X6X6X6XeXeXeXtXyXxXxXxXxXxXcXcXcXmXmXMXMXMXmXxX9X5X*X=X=X&X=X&X&X&X=X<X5X7X9XeXeXeXtXtXtXeXeXeXeXeXeXeX7X7X7X9XeXtXzXxXxXcXcXcXcXcXbXbXbXbXMXMXMXMXMXmXmXmXmXMXMXMXmXmXmXmXmXmXmXmXcXcXxXxXeXeXeX7X7X0X6X6X<X*X*X*X=X*X=X=X=X=X=X=X=X=X=X*X=X=X*X5X5X6X7XeXeXeXeXeXeXeXeXeXxXxXxXxXxXxXxXxXxXxXxXxXxXcXcXcXxXxXxXxXxXxXxXxXxXxXxXxXxXxXxXxXxXxXxXxXxXxXyXxXxXxXxXxXxXxXxXxXxXcXcXcXcXcXcXxXtXeXeXeXeXeXwX6X6X6X6X7X7X7XeXeXeXtXxXxXxXxXcXmXmXmXmXmXmXMXMXMXMXCXZXFXFXFXFXCXCXCXCXCXCXFXFXCXCXCXCXCXMXCXCXCXCXCXMXMXMXMXMXMXmXmXmXmXcXcXcXcXcXcXcXcXcXxXxXxXyXxXyXeXeXtXyXxXcXxXxXmXmXmXmXmXAXNXoXJ.s.d.d.d.s.s.s.d.d.d.s.s.s.s.s.s.s.s.D.`.[.n.O.Y Y R R R R R J F F F F P F F F H H D D H H H H D V H H B B B B H H H H H H H B H B s g s B s s s g B g B B B B g g g g g s B V Y o.%.%.@.@.@.@.3.3.3.3.3.3.4.4.4.4.4.4.4.4.4.4.5.4.5.5.5.8.8.8.8.8.8.8.8.8.8.8.8.8.8.8.8.8.8.8.8.8.5.5.5.5.5.5.5.5.5.5.",
"h.h.h.t.e.e.e.e.e.>.>.>.>.;.e.e.e.e.e.g.I.U.U.~.9X!.+X!.E.E.@X@X~.E.E.E.E.E.!.@X@X@X+XE.E.W.W.W.W.E.E.@X&X*X;X;X;X;X;X;X6X6X9X9X9X9X9X9X6X*X&X&X&X%X%X*X*X5X5X5X5X5X5X5X5X5X*X*X%X&X*X0X9X9XeXzXxXxXxXxXxXeXeX9X6X*X=X%X%X=X5X0X7X7XeXeXeXwXeX7X6X6XeXeXeXtXxXxXcXxXxXcXcXcXMXMXMXmXMXmXcXxX9X5X=X=X=X=X&X&X&X&X=X<X5X7XeXeXeXtXtXeXeXeXeXeXeXeXeX7X7X7X7X9XeXeXtXzXxXxXxXcXcXcXbXbXbXMXMXMXMXMXmXmXmXmXMXMXMXmXmXmXmXmXmXmXmXmXmXcXcXxXeXeXeXeX9X0X6X6X6X6X<X*X*X=X=X=X=X=X=X=X=X=X=X=X%X%X%X*X*X6X6X7X7X7X7X7X7XeXeXeXtXxXxXxXxXxXxXxXxXxXxXxXxXxXxXxXxXxXxXxXxXxXxXxXxXxXxXxXxXxXxXxXxXxXxXxXxXxXxXxXxXxXxXxXxXxXxXxXcXcXcXcXxXxXeXeXeXeXeXeX7X7X6X6X6X6X7XeXeXeXeXeXtXxXxXxXxXcXmXmXmXmXmXmXMXMXMXMXCXZXFXFXFXFXCXCXCXCXCXCXFXCXZXCXCXCXCXMXCXCXCXCXCXMXMXMXMXMXMXmXmXcXcXcXcXcXcXcXcXcXcXxXxXxXxXyXxXxXyXeXtXyXxXcXxXxXmXmXmXcXcXMXAXiX|.J.d.J.J.d.J.J.J.J.J.s.s.w.w.s.s.s.s.D.{.[.h.#.P C Y R R R R J F F F F F F F F H H D D H H H H D V H B B B B B H H s s H s H B B g s s s B s s s s s s s s s s s s f f g g s B V Y Q ~ %.@.@.@.@.&.3.3.3.3.3.4.4.4.4.4.4.4.4.4.5.5.5.5.5.5.8.8.8.8.8.8.8.8.8.8.8.8.8.8.8.8.8.5.8.8.5.5.5.5.5.5.5.5.5.5.",
"t.h.t.t.e.e.e.e.e.>.>.>.;.6.6.e.e.e.e.L.I.I.U.@X0XE.@X@XE.+X@X@X@X!.E.E.E.E.+X@X@X@X@X@XE.W.W.W.W.W.E.E.@X%X*X;X;X;X;X5X5X0X0X0X9X9X9X9X6X5X*X%X&X&X#X%X*X;X5X6X6X6X6X6X6X6X5X*X*X%X&X*X0X0X9XeXeXxXxXxXtXtXtXtXeX7X6X*X=X=X*X5X6X6X7X7XeXeXeXeX7X7X7X7XeXeXxXcXcXcXcXcXcXmXmXmXmXmXmXmXmXmXxXeX6X*X=X=X=X&X&X&X=X=X*X6XeXeXeXeXeXeXeXeXeXeXeXeXeX7X7X7X7XeXeXeXeXtXxXxXxXcXcXmXmXmXmXmXmXmXmXmXmXmXmXmXMXMXMXMXmXmXmXmXmXmXmXmXmXmXcXcXxXzXeXeXeX7X6X6X6X6X6X<X*X*X=X=X=X=X=X=X%X%X%X=X=X%X=X%X=X*X*X6X6X6X0X0X6X7X7XeXeXeXxXxXxXxXxXxXxXxXxXxXxXxXxXxXxXxXxXxXxXxXxXxXxXxXxXxXxXxXxXxXxXxXxXxXxXxXxXxXxXxXcXcXcXcXcXcXcXxXxXtXeXeXeXeX7X7X6X6X6X6X6X6X6X7XeXeXeXeXeXtXxXxXxXxXxXcXmXMXMXMXMXMXMXMXCXCXCXCXCXCXCXCXCXCXCXCXCXCXCXCXCXCXCXCXCXCXCXCXCXCXCXMXMXMXMXMXMXmXmXmXmXcXcXcXcXcXcXcXxXxXcXxXxXxXxXxXxXeXeXxXxXxXcXcXcXcXmXmXmXmXGXiXS.D.D.D.J.J.J.S.S.D.J.s.w.a.w.s.s.D.x.D.{.T.e.+.R R Y Y R J J F F F F F F F F H H H H H H H H H H V V V V V H H H H g g g g g g g B B B B a a a s s s s s s s s s s s s g s s a B V A T / %.@.@.@.@.2.3.3.3.3.3.3.4.4.4.4.4.4.4.9.9.4.4.5.5.8.8.8.8.8.8.8.8.8.8.8.8.8.8.8.8.8.8.8.8.5.5.5.5.8.5.5.5.5.5.",
"t.t.t.e.e.e.e.e.>.>.>.>.>.>.6.e.e.e.e.g.I.I.R.&X-XW.+X!.E.+X@X@X@X@X!.E.E.].@X@X&X&X@X@X+XE.W.W.W.W.W.W.E.&X%X*X;X;X;X;X5X0X0X0X0X9X9X0X0X6X6X5X&X&X&X#X&X*X;X6X6X6X6X6X6X6X5X*X*X%X%X&X*X*X6X7XeXeXeXxXeXtXtXxXxXeX7X6X*X=X=X=X*X*X6X6X7X7X7X7X7X7X6X6X6XeXxXxXcXmXmXcXcXmXcXcXcXcXcXmXmXmXmXxXeX6X*X=X=X=X=X&X&X=X=X*X6X7XeXeXeXeXeXeXeXeXeXeXeX7X7X7XeXeXeXeXeXeXxXxXxXxXcXcXcXcXmXmXmXmXmXmXmXmXmXmXMXMXMXMXmXmXmXmXmXmXmXMXmXmXmXmXcXxXzXeXeXeX7X6X6X6X6X6X5X*X*X=X=X=X=X=X%X%X%X%X%X=X=X=X=X=X=X*X*X5X5X6X6X6X6X6X7X7XwXeXeXxXxXxXxXxXxXxXxXxXxXxXxXxXxXxXxXxXxXxXxXxXxXxXxXxXxXxXxXxXxXxXxXxXxXxXxXcXcXcXcXcXcXcXxXxXeXeXeXeX7X7X6X6X6X6X6X6X6X6X7XeXeXeXeXeXxXxXxXxXxXxXcXcXMXMXMXMXMXCXMXMXCXFXFXFXCXFXFXFXFXFXFXFXFXFXFXFXFXCXCXCXCXCXCXCXCXCXCXMXMXMXMXMXMXmXmXcXcXcXcXcXcXcXcXcXxXxXxXxXxXxXxXxXxXxXeXxXxXxXcXcXcXcXmXmXcXNXZXpX'.D.J.J.F.H.J.F.|.|.J.D.w.a.w.s.s.D.x.A.{.T.>.} R R R Y R J J F F F F F F F F H H H H H H H H H H V V V V V H H H H g g s s g g B B B B B a a s s s p d p p a a s s d d d d a s a B B C Y ~ %.%.@.@.@.2.2.3.3.3.3.3.3.4.4.4.4.4.4.4.4.5.5.5.8.8.8.8.8.8.8.8.8.8.8.8.8.8.8.8.8.5.8.8.5.5.5.5.5.5.5.5.5.5.",
"t.t.t.e.e.e.e.e.>.;.>.>.>.>.>.>.e.e.e.g.I.I.W.%X%XW.+X@X+X@X@X@X@X@X@X@X+X+X@X@X&X&X&X@X@X+XE.W.W.W.W.W.E.+X$X%X;X5X;X;X<X5X0X0X6X9X9X9X0X6X6X6X5X&X&X&X%X&X*X;X;X;X6X6X6X6X5X5X5X*X&X%X%X=X=X<X7XeXeXxXeXtXxXxXxXxXeX7X6X*X=X=X=X=X*X6X6X6X0X6X6X6X7X7X6X6XeXeXxXcXmXmXcXcXcXxXcXcXcXcXmXmXmXcXxXeX6X*X*X=X=X=X&X&X=X=X*X6X7XeXeXeXeXeXeXeXeXeXeXeX7X7XeX7XeXeXeXeXeXtXxXxXxXcXcXmXmXmXmXmXmXmXmXmXmXmXMXMXMXMXMXMXMXMXMXMXMXMXMXMXMXMXmXcXxXzXeXeXwX7X7X6X6X6X5X5X*X*X*X*X=X=X=X%X%X%X=X=X=X=X%X%X=X&X=X=X*X5X<X6X6X6X6X6X6X7XeXeXeXeXeXtXxXxXxXxXxXxXxXxXxXxXxXxXcXcXxXxXxXxXxXxXxXxXxXxXxXxXxXxXxXxXcXcXcXcXcXxXxXxXxXeXeXeXeX7X6X6X6X6X6X6X6X6X6X6X7XeXeXeXeXtXxXxXxXxXcXcXcXmXMXMXMXCXZXZXFXFXFXFXFXFXFXFXFXFXZXZXFXZXZXZXFXFXFXFXCXCXCXFXCXCXCXCXFXMXMXMXMXMXMXMXmXcXcXcXcXcXcXcXcXcXxXxXxXxXxXxXxXcXcXxXxXxXxXxXcXcXcXcXcXcXcXNXMXNX XD.J.J.H.|.OXH.H.F.F.D.w.a.w.s.s.D.x.Z.=XI.=.[ R F R Y R J J F F F F F F F F H H H H H H H H H H H H H V V H H H H H H s g g g g g s s B a a s s s a a a a a a s s a a a a a a a a u M V J ~ %.%.@.@.@.@.@.&.3.3.3.3.3.3.4.3.4.4.4.4.4.4.5.5.5.5.5.8.8.8.8.8.8.8.8.8.8.8.8.8.5.5.5.5.5.5.5.5.5.5.5.5.5.",
"e.t.e.e.e.e.e.>.e.;.>.>.>.>.>.>.e.e.e.g.I.I.T.-X$XW.+X+X+X@X@X@X&X@X@X@X@X+X@X@X@X&X&X@X@X+X+X!.W.W.W.W.W.E.+X&X%X;X5X;X<X5X0X0X6X0X9X9X0X0X0X6X6X5X&X&X&X%X&X*X*X;X;X5X6X6X5X5X5X*X*X=X&X&X&X%X6XeXeXtXeXtXxXxXxXxXxXeX7X6X*X=X&X=X*X*X6X6X6X6X6X6X6X6X6X6X6X7XeXeXxXcXcXcXxXxXxXcXcXcXcXmXmXmXcXxXeX6X*X*X*X=X&X%X%X=X=X*X6XeXeXeXeXeXeXeXeXeXeXeX7X7X7X7X7X7X9X9XeXeXeXtXxXxXcXcXmXmXmXcXmXmXmXmXmXmXmXmXMXMXMXMXMXMXMXMXMXMXMXMXCXCXMXmXcXxXeXeXeXwX7X6X6X6X6X5X5X*X*X*X*X*X=X=X=X%X=X%X%X%X=X%X=X&X=X=X=X*X=X*X<X6X*X6X6X6X7X7XeXeXeXeXeXeXeXeXxXxXxXxXxXxXxXxXcXcXxXxXxXxXxXxXxXxXxXxXxXxXxXxXxXcXcXcXcXcXxXxXxXeXeXeX7X7X7X6X6X5X<X<X6X6X6X6X6X7XeXeXeXeXeXtXxXxXxXxXcXcXcXmXMXMXMXCXZXZXFXFXFXFXFXFXFXFXFXFXZXZXZXZXZXZXFXFXFXFXCXCXCXFXCXCXCXCXFXMXMXMXMXMXMXMXmXcXcXcXcXcXcXcXcXcXxXxXxXxXxXxXxXcXcXxXxXxXxXxXxXxXcXcXcXcXcXNXmXNXXXS.D.J.F.H.H.J.J.H.H.J.w.a.w.s.s.D.D.`.=Xn.=.[ R F F Y R J J J F F F F F F F D H H H H H V H H H H H H H H B B B B g g g g g g s s s s a a a a s s a a p p a a s s a a a p p p p p p p a B A Q / @.@.@.@.@.@.@.@.3.3.3.3.3.3.3.3.4.4.4.4.4.5.5.5.5.8.8.8.8.8.8.8.8.8.8.8.8.8.5.5.5.5.5.5.5.5.5.5.5.5.5.",
"e.t.e.e.e.e.e.>.e.;.>.>.e.e.>.e.e.e.t.L.I.I.W.%X@XE.!.!.@X@X@X&X@X@X@X@X@X@X+X@X@X&X&X&X@X@X@X+XE.W.W.W.W.E.E.+X&X%X;X5X*X5X5X0X0X0X9X9X7X7X0X0X0X6X*X&X&X&X#X&X%X%X;X;X;X;X5X5X5X*X*X=X=X=X&X&X=X6XeXeXeXeXxXxXxXxXcXxXeX7X6X*X=X=X=X*X<X6X6X6X6X6X6X6X7X7X6X6X7XeXeXxXxXxXcXxXxXcXcXcXmXmXmXmXMXmXxXeX0X5X*X=X=X%X#X#X&X=X*X6X9XeXeXeXeXeXeXeXeXeXeX7X7X7X7X7X7X7X7X7XeXeXxXxXxXxXcXcXcXcXcXcXcXcXmXmXmXmXMXMXMXMXMXMXMXMXMXMXCXCXCXCXCXMXmXcXxXxXeXeXeXeX7X7X7X6X6X6X5X5X<X*X*X=X=X=X=X=X=X&X&X&X=X=X=X=X=X=X=X=X*X*X*X*X5X6X6X6X6X7XeXeXeXeXeXeXtXtXtXeXxXxXxXxXxXxXxXxXxXxXxXxXxXxXxXxXcXcXxXxXxXxXcXcXxXtXtXeXeX7X7X6X6X6X6X6X<X<X<X<X6X6X6X6X6X7XeXeXeXeXzXxXxXxXxXcXcXcXcXcXMXMXMXCXFXFXFXFXFXGXFXFXFXFXFXZXZXZXZXFXFXFXFXFXFXFXFXCXCXCXCXCXCXCXFXMXMXMXMXMXMXmXmXmXcXcXcXcXcXcXcXcXcXcXxXxXxXxXxXcXcXxXxXxXxXxXxXxXxXxXxXxXcXcXmXNX>XS.D.J.J.J.D.J.H.H.J.D.D.w.w.s.s.D.D.{.#Xh.$.[ J F F F R F F F F F F F F H H H H H H H V V H H H B H g g g g g g g g g g s g s s s s s s s s s a a p p s s p p p p p p p p p p p p y p p u B A T ~ o.%.%.@.@.@.&.&.&.&.3.3.3.4.4.4.4.4.5.5.5.5.5.5.8.8.8.8.8.8.8.8.8.8.8.5.8.5.5.5.8.5.5.5.5.5.5.5.5.5.",
"e.t.e.e.e.e.e.>.e.;.>.>.>.e.>.e.e.e.t.L.I.I.W.+X!.E.!.@X@X@X&X&X@X@X@X@X@X@X@X@X@X@X&X&X@X&X&X&X@XE.W.W.T.W.E.E.@X&X%X;X*X*X<X5X6X0X7X9X9X7X0X0X7X0X6X*X&X&X&X#X%X%X%X*X*X;X*X5X5X5X<X*X*X=X=X=X=X=X6X7XeXeXxXxXcXxXxXcXxXeX7X6X<X*X=X*X=X<X0X6X6X6X6X6X7X7X7X7X7X7XeXeXxXxXcXxXxXxXcXcXmXmXmXmXMXMXmXxXeX6X*X=X=X&X#X#X#X=X=X*X6X9XeXeXeXeXeXeXeXeXeXeXeX7X7X7X6X6X7X7X7XeXeXeXeXxXcXcXcXcXcXcXcXcXmXmXmXmXMXMXMXMXMXMXMXMXMXMXCXCXCXCXCXCXMXmXcXxXxXeXeXeXeXeX7X7X7X6X6X6X5X5X<X*X*X=X=X=X=X%X%X&X&X&X=X=X=X=X=X=X=X=X*X*X;X;X<X1X6X6X7X7XeXeXeXeXeXeXeXeXeXeXtXtXtXtXxXxXxXxXxXxXxXxXxXxXxXxXxXxXxXxXxXxXeXeXeX7X6X6X6X<X<X<X<X*X<X<X*X6X6X6X6X6XwXeXeXeXeXeXxXxXxXxXxXcXcXmXmXMXMXCXCXCXFXFXFXFXGXGXFXFXFXFXFXZXZXZXZXZXFXFXFXFXFXFXFXCXCXCXCXCXCXCXFXCXMXMXMXMXMXmXmXmXcXcXcXcXcXcXcXcXcXcXxXxXxXxXxXcXcXxXxXxXxXxXxXxXxXxXxXcXcXcXmXpX>XS.S.S.J.D.D.J.F.J.D.D.S.D.w.s.s.D.D.{.[.t.+.E J J F F I F F F F F F F F H H H H H H H V V H H B B g g g g s s s s g g s s s s a a s s s s s s a a p p p p p p p p p p p p p p p p y p p p m M B A Q o.%.%.@.@.@.&.@.@.&.3.3.3.3.4.4.4.9.5.5.5.5.5.8.8.8.8.8.8.8.8.8.8.8.5.8.5.5.5.5.5.5.5.5.5.5.5.5.5.",
"t.t.e.e.e.e.e.>.e.;.;.>.e.e.e.e.e.e.t.L.U.U.W.E.W.E.@X$X@X@X@X&X&X&X@X&X@X@X&X@X@X@X@X@X&X&X&X&X@X+XE.W.W.T.W.E.E.@X&X%X*X*X<X<X5X6X0X0X7X9X7X7X7X7X0X6X*X&X#X&X&X&X%X%X*X*X*X*X5X*X<X<X<X<X<X*X=X=X=X5X6X7XeXxXxXxXxXxXxXxXeXeX6X6X<X*X=X=X<X6X6X6X6X6X7X7X7X7X7X7X7XeXeXeXxXxXxXcXcXcXmXmXmXmXMXMXMXmXxXeX6X<X=X=X&X#X#X#X=X=X5X6X7XeXeXeXeXeXeXeXeXeXeXeX7X7X7X6X6X6X7X7X7XeXeXeXxXxXcXcXcXcXcXcXmXmXmXmXMXMXMXMXMXMXMXMXMXMXMXMXMXMXMXMXCXMXmXcXxXxXxXeXeXeXeXeXwX7X7X6X5X5X5X<X<X*X=X&X&X&X&X%X%X&X=X=X=X=X=X=X=X=X*X*X*X*X*X*X6X6X6X6X7X7XeXeXeXeXeXeXeXeXeXeXeXeXeXtXxXxXxXxXxXxXxXxXxXxXxXxXtXzXeXeXeX7X6X6X6X<X6X<X<X*X*X*X*X*X6X6X6X6X7XwXeXeXeXeXxXxXxXcXcXcXcXcXcXMXMXCXFXFXFXFXFXFXFXFXFXFXFXFXFXFXFXZXZXZXZXZXFXFXFXFXFXFXFXFXFXFXFXFXCXCXFXFXFXCXMXMXMXMXMXMXcXcXcXcXcXcXcXcXxXxXxXxXxXxXxXcXcXxXxXxXxXxXxXxXcXcXxXcXcXcXcXpXiXS.S.J.D.D.J.J.J.D.D.J.}.S.d.d.s.D.D.{.].e.} R J Y R J F F F F F F F F F H H H H H H H V V H B B B g g g g s s s s s s s s d s a a s s s s p p p p p p p p p p p p p p p p p y y y y y y p u u m N C Q o.%.%.@.@.@.@.@.@.@.3.3.4.3.3.9.4.5.5.4.5.5.5.5.8.8.8.8.8.8.5.5.5.5.5.5.5.5.5.5.5.5.5.9.9.9.9.5.",
"t.t.e.e.e.e.e.>.e.;.>.>.e.e.6.e.e.e.h.I.U.W.E.T.W.W.@X$X&X@X&X&X&X&X&X&X&X&X&X&X@X@X@X@X#X&X&X%X&X@X+XE.W.T.T.W.E.E.@X&X&X*X<X<X5X5X6X0X7X7X9X9X9X7X7X0X5X*X*X#X&X&X&X&X%X%X=X*X*X5X5X<X<X<X<X<X=X=X=X=X*X5X7XeXeXeXtXxXxXxXxXeXeX7X7X6X*X=X*X6X6X6X6X6X7X7X7X7X7X7X7X7X7XeXeXeXxXcXmXcXmXmXmXmXMXMXMXMXmXcXeX6X*X=X=X%X%X#X#X=X=X*X6X7XeXeXeXeXeXeXeXeXeXeXeX7X7X7X6X6X7X7X7X7XeXeXeXxXxXxXcXcXcXcXmXmXmXmXMXMXMXMXMXMXMXMXMXMXMXMXMXMXMXMXCXMXMXmXcXcXxXxXtXeXeXeXeXeX7X7X0X6X5X5X5X<X=X=X=X&X&X&X&X&X&X&X=X=X=X=X=X=X*X*X*X*X*X*X<X*X6X6X6X6X7X7X7X7X7XeXeXeXeXeXeXeXeXeXxXxXxXxXxXxXxXtXtXtXeXeXeXeXeX7X6X6X6X6X<X*X<X*X*X*X*X*X1X1X6X6X6X7XeXeXeXeXeXeXxXxXcXcXcXcXcXmXMXMXCXCXZXFXFXFXFXFXFXFXGXFXFXFXFXFXFXZXZXZXZXZXFXFXFXFXFXFXFXFXFXFXFXFXFXCXFXFXFXCXMXMXMXMXMXMXcXcXcXcXcXcXcXcXxXxXxXxXxXxXxXcXcXxXxXxXxXxXxXxXcXcXcXcXcXcXcXpXiXS.D.D.D.D.J.J.J.s.J.|.oX'.D.D.d.D.D.'.T.4.[ I Y Y J F I F F F F F F F F H H H H H H H V V H B B B B g g g s s s s s s s s s s a a s s s s p p p p p p p p p p p p p p p p y y y y y y y p p p u m B C Q o.%.O.@.@.@.@.@.@.3.3.3.3.3.3.4.5.5.4.5.4.5.5.5.5.5.5.5.5.5.5.5.5.5.5.5.5.9.9.9.9.9.9.9.9.9.9.",
"t.e.e.e.e.e.>.>.>.>.;.;.e.e.>.e.e.e.h.I.U.W.E.W.W.W.E.@X$X$X$X$X&X&X&X&X&X&X&X&X@X@X@X@X&X&X&X&X&X&X@X+XE.W.W.W.W.E.E.@X&X%X;X;X;X;X6X0X7X9X9X9X9X9X7X0X6X5X*X*X=X#X#X%X&X&X&X&X*X*X5X5X5X5X6X5X*X=X=X=X=X=X<X7XeXeXtXxXxXxXxXxXxXeXeX7X6X*X*X*X6X6X6X6X6X7X7X7X7X7X7XeX7X7X7XeXxXcXmXmXmXcXmXmXmXmXMXMXMXcXxXeX6X*X=X=X%X#X#X#X%X=X*X6X7XeXeXeXeXeXtXtXeXeXeXeXeXeX7X7X7X7X7X7X7XeXeXeXxXxXcXcXcXcXcXcXmXmXmXmXMXMXMXMXMXMXMXMXMXMXMXMXMXMXMXMXMXMXMXMXmXcXxXxXeXeXeXeXeXeX7X6X6X6X5X<X=X=X&X&X&X&X&X%X&X&X&X=X*X*X%X*X*X*X*X*X*X*X*X*X*X*X;X5X5X5X5X5X6X6X7X0X6X6X7X9XeXeXeXeXeXeXeXeXeXeXeXeXeXeX7X6X6X6X<X*X*X*X<X<X*X*X*X*X*X<X6X6X6X6X7XeXeXeXeXeXeXzXxXcXcXmXmXmXmXMXZXFXFXFXFXFXFXFXGXGXFXFXFXFXFXFXFXFXFXFXFXFXFXFXFXFXFXFXFXFXCXCXFXFXCXCXCXCXCXCXCXCXMXMXMXMXMXmXcXcXcXcXcXcXcXcXxXxXxXxXxXxXxXcXcXxXxXxXcXcXcXcXcXcXcXcXcXcXcXpXiX).D.D.D.J.J.J.D.D.S.oXiXoXD.d.s.D.V.{.v.&.E I R J P F F F F F F F F F F H H H H H H H B H H B g g s s s s s s s s s s s s s s s s p p p p s s p p p p p p p p p y y y y y y y y y y y y y y y y 8 u M V Y ~ +.%.O.@.@.@.@.@.2.3.3.3.3.3.4.4.4.5.5.5.5.5.5.5.5.5.5.5.5.5.5.5.5.5.5.5.5.5.5.9.9.9.9.9.9.",
"t.e.e.e.e.e.e.>.>.;.;.;.e.>.>.>.e.e.h.I.U.W.E.W.W.W.W.!.@X$X$X%X&X&X$X$X&X&X&X&X@X@X&X&X&X&X&X&X&X%X&X@X+XE.W.W.W.W.E.E.@X&X%X;X;X;X6X6X0X9X9X9X9X9X7X6X0X9X*X5X*X&X#X%X&X&X&X&X&X*X*X5X5X5X5X6X6X*X*X=X=X=X=X6X7XeXeXtXtXeXxXxXxXxXxXeXeX6X*X*X6X6X6X6X6X0X7X7X7XeX7XeX7X7X7X9XeXcXcXcXmXcXmXmXmXmXMXmXmXmXxXeX7X6X*X=X&X#X#X#X#X%X=X*X6X7XeXeXeXeXtXtXeXeXtXeXeXeXeXeX7X7X7X7X7XeXeXeXeXxXxXcXcXcXcXcXcXcXmXmXMXMXMXMXMXMXMXMXMXMXMXMXMXMXMXMXMXMXMXMXMXMXmXcXxXxXeXeXeXeXeX7X6X6X5X<X<X=X&X&X&X&X=X&X&X&X=X=X=X=X%X%X*X*X*X*X*X*X*X*X*X*X*X*X*X*X*X*X*X*X;X*X;X*X5X6X6X6X7X7X0X0X9X9X7X7X7X7X7X6X5X*X*X*X*X*X*X*X*X*X*X*X*X<X<X6X7X7X6X7XeXeXtXtXeXeXeXxXxXcXmXmXmXmXMXFXFXFXFXFXFXFXFXFXGXGXFXFXFXFXFXFXFXFXFXFXFXFXFXFXFXFXFXFXFXFXCXCXFXCXCXCXCXCXCXCXCXCXCXMXMXMXMXmXcXcXcXcXcXcXcXcXxXxXxXxXxXxXxXcXcXxXxXxXcXcXcXcXcXcXcXcXcXcXcXpXiX'.D.d.D.J.D.D.D.D.'.iXrXoXD.D.s.D.A.{.v.O.R I R J P F F F F F F F F F F H H H H H H H B B H B H g s s s s s s s s s s s s s s s s p p p p s s p p p p p p p p p y y y y y y y y y y y y y y y y 7 8 u M M C W o.+.%.O.@.@.@.@.2.2.3.3.3.3.4.4.4.5.4.5.5.5.5.5.5.5.5.5.5.5.5.5.5.5.5.5.5.5.9.9.9.9.9.9.",
"t.e.e.e.e.e.>.>.>.>.;.;.e.e.>.>.e.t.h.I.R.W.E.W.W.W.W.E.@X$X$X%X$X$X&X&X&X&X%X&X@X@X&X&X&X&X&X&X&X&X%X&X@X+XE.W.W.W.W.E.E.@X&X%X;X;X;X6X6X9X9X9X9XeXeXeX9X*XeX6X*X*X&X#X&X&X&X&X&X=X*X*X6X5X6X6X6X6X*X=X=X*X<X<X6X6XeXeXeXxXxXxXxXxXxXxXeX7X6X*X1X6X6X6X6X6X7X7X7XeXeXeXeX7X7X7X7XeXxXxXcXcXmXmXmXmXmXmXMXMXcXxXeX0X5X*X=X%X#X#X#X#X#X&X*X1X7XeXeXeXtXxXxXtXxXeXeXeXeXeXeX7X7X7X7XeXeXeXeXeXxXxXcXcXcXcXcXcXmXmXmXmXMXMXMXMXMXMXMXMXMXMXMXMXMXMXMXMXMXMXMXMXMXmXcXxXxXtXeXeXeXeX7X6X6X5X5X*X=X&X=X=X=X=X&X&X&X&X&X&X&X&X&X&X*X*X*X*X*X*X%X*X*X*X*X*X%X*X*X*X*X*X*X*X*X*X*X*X*X*X*X*X;X;X*X*X*X*X*X*X*X*X*X*X*X*X*X*X<X*X<X6X6X6X6X6X7X7X7XeXeXxXxXtXeXtXzXxXcXmXmXMXMXMXZXFXFXFXFXFXFXFXGXGXGXGXGXFXFXFXFXFXFXFXFXFXFXFXFXFXFXFXFXFXCXCXCXCXCXCXCXCXCXCXCXCXCXCXFXMXMXMXMXmXcXcXcXcXcXcXcXxXxXxXxXxXxXxXxXcXcXxXxXxXcXcXcXcXcXmXcXcXcXcXcXpXiX|.D.s.s.D.D.s.d.D. XiXrXXXB.D.s.D.Z.`.r.+.I I J J P F F F F F F F F F F H H H H H H H V B H B g g s s s s s s s s s s s s s s s s p p s a p p p p p p p p y p y y y y y y y y y y y y y y y y y y 8 8 u 8 u V Q o.o.o.@.@.@.@.@.@.3.3.3.3.3.3.4.4.5.4.5.5.5.5.5.5.5.5.5.5.5.5.5.5.5.5.5.5.9.9.9.9.9.9.",
"t.e.e.e.e.e.>.>.e.>.;.;.e.e.>.>.e.t.h.I.W.W.E.W.W.W.W.E.!.$X%X%X%X$X&X&X&X&X%X&X@X@X&X&X&X&X@X&X&X&X%X%X%X&X+XE.W.W.W.W.E.E.@X&X%X;X;X;X6X6X7X9X9XeXeXeX9X7X0X0X0X5X*X&X%X&X&X&X&X&X&X*X*X5X5X5X6X6X6X*X*X6X6X6X<X*X1X6XeXeXxXxXxXxXxXxXxXeXeX6X6X1X6X6X6X6X6X7X7XeXeXeXeXeX7X6X6X7XeXxXcXcXmXmXmXmXmXmXmXMXmXcXxXeX6X*X*X&X#X#X#X#X#X#X=X*X6X7XeXeXeXtXtXxXxXxXxXtXeXeXeX7X7X7X7X7XeXeXeXeXeXxXxXcXcXcXcXcXmXmXmXmXMXMXMXMXMXMXMXMXMXMXMXMXMXMXMXMXMXMXMXMXMXMXMXcXcXxXxXxXxXeXeX6X6X5X5X<X=X&X=X=X=X=X%X%X&X&X&X=X&X&X&X&X&X*X*X*X*X*X%X*X*X*X&X&X&X&X=X=X=X&X&X=X=X&X&X&X=X=X%X%X*X*X*X*X*X*X=X=X*X*X*X*X*X*X*X*X<X6X6X6X7X7X7X7X7X7XeXeXtXtXtXtXtXxXxXcXcXmXMXMXMXMXZXFXFXFXFXFXFXFXGXGXGXGXGXFXFXFXFXFXFXFXFXFXFXFXFXFXFXFXFXCXCXCXCXCXCXCXCXCXCXCXCXCXCXCXFXCXMXMXMXmXcXcXcXcXcXcXcXxXxXxXxXxXxXxXxXcXcXxXxXxXcXcXcXcXcXcXcXcXcXcXyXuXiX'.d.s.s.D.D.s.d.S.XXuXrX=XS.D.s.D.`._.y.o.I I R J P F F F F F F F F F F H H H H H H H V B B B g H s s s s s s s s s s s s s s s s p p s s p p p p p p p p p p y y y y y y y y y y y y y y y y y 7 y 7 7 7 7 u B Y W ~ o.%.@.@.@.@.@.3.3.3.3.3.3.3.4.5.4.5.5.5.5.5.5.5.5.5.5.5.5.5.5.5.5.5.9.9.9.9.9.9.",
"t.e.e.e.e.>.>.>.e.>.>.e.e.>.>.e.e.t.h.I.W.E.E.W.W.W.W.W.!.@X&X%X$X$X$X$X&X&X%X&X&X&X&X&X&X%X&X%X%X%X%X%X%X%X&X!.E.W.W.W.E.E.E.+X@X%X;X;X6X6X0X7X9XeXzXeXeX9X0X9X7X0X5X*X&X&X&X&X&X=X*X*X*X*X*X5X6X0X0X6X6X6X6X6X5X<X*X5X7XeXeXxXxXxXxXxXcXxXtXeX6X6X6X6X1X6X6X6X7XeXeXeXeXeXeX6X6X7XeXeXxXcXcXcXmXmXmXmXmXmXmXmXcXtX7X<X*X*X=X%X#X#X#X#X#X%X=X1X7XeXeXeXxXxXxXxXxXxXxXeXeXeX7X7X7X7X7XeXeXeXeXeXxXxXcXcXcXcXcXmXmXmXMXMXMXMXMXMXMXMXMXMXMXMXMXMXMXMXMXMXMXMXMXMXmXcXcXxXxXxXxXtXeX7X6X6X5X<X*X=X=X=X%X%X%X*X&X&X&X&X&X&X%X%X%X%X%X%X*X*X=X=X*X%X&X&X*X=X=X=X&X&X&X&X&X&X&X&X&X&X=X=X*X*X*X=X*X*X=X=X*X*X<X<X6X<X<X<X6X7X7X7XeXeXeXeXeXeXeXeXxXtXzXxXxXxXcXcXmXmXmXMXMXCXFXFXFXFXGXFXFXFXGXGXGXGXGXGXGXFXFXFXFXFXFXFXFXFXFXFXFXFXCXCXCXCXCXCXCXCXCXCXCXCXCXCXCXCXFXCXMXmXMXmXcXcXcXcXcXcXxXxXxXxXxXxXxXxXxXxXcXxXxXxXxXcXcXcXcXcXcXcXxXxXyXuXiX'.D.d.d.d.d.d.D.'.iXrXrXrX'.D.J.D.'.T.4.o.R I R J P F F F F F F D H H H H H H H V H H H s B s s s s s s s s s s s p s s s p p p p p p p p p p p p p p y y y y y y y y y y y y y w y y y y y y y y 7 7 y 7 7 7 y a V Y o.o.%.@.@.@.@.@.2.3.3.3.3.3.3.4.4.4.5.5.5.5.5.5.5.5.5.5.5.5.5.5.9.9.9.9.9.4.4.9.",
"e.e.e.e.e.>.>.>.>.>.>.e.e.e.>.e.e.t.g.I.W.W.E.W.W.W.W.W.E.@X$X%X$X$X$X&X&X;X@X%X%X&X&X&X%X&X;X%X%X%X%X%X%X%X%X&X@XE.W.W.E.E.E.E.].#X%X;X6X6X6X0X9XeXeXzXzXeX9X9X7X7X0X5X*X&X&X&X&X&X*X*X*X*X*X*X5X0X7X7X7X6X6X7X6X5X5X<X6X7XeXeXxXxXxXxXxXcXxXtXeX7X6X6X1X6X1X6X6X7XeXeXeXeXeXwX7X7X7XeXeXxXcXcXcXmXmXmXmXmXmXMXMXcXeX6X<X*X*X=X#X#X#X#X#X#X%X=X6X7XeXeXxXxXxXxXxXxXxXxXtXeXeX7X7X7X9XeXeXeXeXeXeXxXxXxXcXcXcXcXcXmXmXmXMXMXMXMXMXMXMXMXMXMXMXMXMXMXMXMXMXMXMXMXmXmXcXxXxXxXxXxXtXeX7X6X6X5X<X*X=X=X*X%X*X*X*X*X*X&X&X&X%X%X%X%X&X&X%X*X=X*X*X%X&X&X&X=X=X=X&X&X&X&X&X=X&X&X&X&X=X=X*X*X*X*X*X*X*X*X*X*X<X6X6X6X6X6X7XeXeXeXeXeXeXeXeXeXtXtXxXtXxXxXcXcXcXcXmXmXmXMXFXFXFXFXFXFXGXGXFXFXGXGXGXGXGXGXGXFXFXFXFXFXFXFXFXFXFXFXFXFXCXCXCXCXFXCXFXCXCXCXCXCXCXCXCXCXFXMXMXmXMXmXcXcXcXcXcXcXxXxXxXxXxXxXxXxXxXxXxXxXxXxXcXcXcXcXcXcXcXcXxXxXyXuXiX).D.d.d.d.d.d.D.{.iXrXwXrX'.D.J.D.'.Y.4.[ { I R J Y F F F F F F F H H H H H H H V H H B s B s s s s s s s s s s s p p s s p p p p p p p p p p p p p p y y y y y y y y y y y y w w y y w y y y 7 7 7 7 7 7 7 7 y 7 u B F W o.%.%.@.@.@.@.2.3.3.3.3.3.3.4.5.5.4.5.5.5.5.5.5.5.5.5.5.5.5.9.9.9.9.9.4.9.3.",
"t.e.e.e.e.e.e.e.e.e.e.e.e.e.e.e.e.e.g.I.W.W.E.W.W.W.W.W.W.!.@X$X&X%X$X%X%X@X%X&X&X%X%X&X%X;X&X%X%X%X%X%X%X%X%X%X%X+XE.E.E.E.E.E.E.].#X*X6X0X0X0X0X9XeXlXzXlXeX9X9X9X7X0X5X*X%X&X*X*X*X*X*X*X5X5X<X6X7X7X7X6X7X7X7X6X6X5X*X6X7XeXeXtXxXxXcXcXcXxXeXeXeX7X7X6X6X6X6X6X7XeXeXeXeXeXeX7X7X7XeXeXxXcXcXcXmXmXmXmXmXMXMXmXxXeX6X<X*X*X=X%X#X#X#X#X#X%X=X6X7XeXtXxXxXxXxXxXxXxXxXeXeXeXeX7X7XeXeXeXeXeXeXeXxXxXcXcXcXcXcXcXcXmXmXmXMXMXMXMXMXMXMXMXMXMXMXMXMXMXMXMXMXMXmXmXcXcXcXcXxXxXxXtXeXeX0X6X5X5X<X5X<X*X*X*X*X*X*X*X*X&X*X*X*X*X%X&X&X&X=X=X%X%X&X&X&X=X&X&X&X&X&X&X=X=X=X=X=X=X=X=X*X*X*X*X*X*X*X*X*X5X6X6X6X6X6X7XeXeXeXeXeXeXeXeXeXxXxXxXxXxXxXcXmXmXmXcXcXmXMXCXFXFXCXFXFXFXFXFXFXFXGXGXGXGXGXGXGXFXFXFXFXFXFXFXFXFXFXFXFXFXCXCXFXFXFXCXCXCXCXCXCXCXCXCXCXCXFXCXMXmXMXmXcXcXcXcXcXxXxXxXxXxXtXxXxXxXxXxXxXxXcXcXcXcXcXcXcXcXcXcXxXxXyXuXiX'.D.d.d.d.d.d.S.{.rXrXwXrX'.D.D.D.`.Y.-.W { I R J P F F F F F F F H H H H H H H H H H B B B s s s s s s s s s s s s s s s p p p p p p p p p p p p p p y y y y y y y y y y y y y y w w w w y y y y y y y y y y y y y p a F Q o.+.O.@.@.@.@.2.2.3.3.3.3.3.3.9.9.5.4.5.5.5.5.5.5.5.5.5.5.9.9.9.9.9.9.9.3.",
"t.e.e.e.e.e.>.e.>.e.e.e.e.e.e.e.e.t.g.I.W.E.W.W.W.W.W.W.W.E.!.@X&X%X$X&X&X%X&X%X%X%X%X%X%X%X%X%X%X%X%X%X&X%X*X;X%X&X+XE.E.E.E.E.E.E.+X&X;X6X0X0X0X0X9XeXlXzXlXeX9X9X7X0X5X*X*X*X*X*X5X5X5X5X5X5X<X5X6X6X6X7X7X7X7X0X0X6X6X*X*X7XeXeXxXxXxXcXcXcXxXxXeXeXeX7X7X6X6X6X6X7XeXeXeXeXeXeX7X7X7XeXeXxXcXcXcXmXmXmXmXMXMXMXcXtXeX7X<X*X=X=X%X#X#X@X#X#X&X*X6X7XeXeXtXxXxXxXxXxXxXxXeXeXeX7X7XeXeXeXeXeXeXeXeXxXxXxXcXcXcXcXcXcXcXcXmXmXmXmXMXMXMXMXMXMXMXMXMXMXMXMXMXMXmXmXcXcXcXcXcXxXxXxXxXeXeX9X7X0X5X5X5X5X*X*X*X*X*X*X*X*X*X*X*X*X%X&X&X&X=X=X%X%X&X&X&X=X&X&X&X&X&X&X=X=X=X=X=X=X=X=X*X*X*X*X*X*X*X*X*X5X6X6X6X6X7XeXeXeXeXeXeXeXeXeXtXxXxXxXxXxXcXcXmXmXmXmXmXMXMXMXZXFXFXFXFXFXFXFXFXFXFXFXFXFXGXGXGXFXFXFXFXZXZXZXZXZXCXCXCXCXFXFXFXCXCXCXFXFXCXCXCXCXCXCXCXCXFXCXMXMXMXmXcXcXcXcXcXxXxXxXxXxXtXxXxXxXxXxXcXcXcXcXcXcXcXcXcXcXcXcXxXxXyXuXiX}.D.d.d.d.d.d.'.XXrXwX7X1X'.D.D.D.`.M.&.R { I R J P F F F F F F F H H H H H H H H H H B B B s s s s s s s s s s s s s s s p p p p p p p p p p p p y y y y y y y y y y y y y y y y w w w w w w 4 w 4 w w w 4 4 4 w y y p B V R o.+.@.@.@.@.@.@.2.2.3.3.3.3.4.4.9.9.4.5.5.5.5.5.5.5.5.5.9.9.9.9.9.9.9.3.",
"t.t.e.e.e.>.>.>.>.>.>.>.e.e.e.e.t.t.L.U.W.!.W.W.W.W.E.E.E.E.E.!.@X&X&X&X%X%X&X%X%X%X%X%X%X%X%X%X%X%X;X%X%X%X*X;X;X%X&X@XE.E.E.E.E.E.].+X&X;X6X6X0X9X9X9XeXlXzXlXeX9X0X5X*X*X*X=X*X*X5X6X5X5X5X5X6X6X6X0X6X6X0X0X7X7X7X6X6X*X*X6X7XeXxXxXcXcXcXcXcXxXxXtXeXeX7X6X6X1X6X6X7XwXeXeXeXeXwXwX9X7XeXeXtXcXcXcXmXmXmXmXMXMXmXcXzXeX5X<X=X=X&X&X#X#X#X#X%X=X<X6X7XeXeXyXxXxXxXxXxXxXtXeXeXeX7X7XeXeXeXeXeXeXeXeXxXxXxXcXcXcXcXcXcXcXmXmXmXmXmXmXMXMXMXMXMXMXMXMXMXMXMXMXMXmXmXcXcXcXcXcXcXcXcXcXxXeXeX7X7X6X6X6X6X<X*X*X*X*X=X=X=X=X=X=X=X=X&X&X=X=X&X&X&X&X%X%X*X*X&X&X&X=X&X=X=X=X&X=X*X*X*X*X%X*X*X*X*X*X*X6X6X6X6X6XeXeXeXeXeXeXeXeXeXeXxXxXxXxXxXxXcXcXcXmXcXmXMXMXMXCXFXFXGXGXGXGXGXFXFXFXFXFXFXFXFXFXFXFXFXFXFXFXCXCXCXCXCXCXCXCXCXCXCXCXCXCXCXCXCXCXCXCXCXCXCXCXZXMXMXmXmXmXcXxXcXxXcXxXxXxXxXxXeXtXxXxXxXxXxXcXcXcXcXcXmXmXcXcXcXcXcXxXyXyXiX:XB.d.d.d.d.D.'.1XrXwX6X1X'.D.D.D.C.r.%.R R G R R I F P F F F F F H H H H H V B B g g s s s s s s s s s s p p s s p p d d p p p p p p p p p p y y y y y y y y y y y y y y w w y y w w y y y y y y w w 7 7 7 7 w y 7 7 y p p B J ~ o.%.@.@.@.@.2.2.3.3.3.3.3.3.9.9.9.5.5.5.5.5.5.5.9.9.9.9.9.9.9.4.9.3.",
"t.t.e.e.e.>.>.>.>.>.>.>.e.e.e.e.t.t.I.R.W.!.W.W.W.!.!.!.!.E.E.E.+X@X&X&X%X%X%X%X%X%X%X%X%X%X%X%X%X%X%X;X;X%X*X*X;X;X%X&X@XE.E.E.].E.E.].+X&X;X6X6X0X0X9X9XeXlXlXeX9X0X5X*X=X&X%X&X*X5X6X6X6X5X5X6X6X6X6X6X6X0X0X7X7X7X7X6X6X6X*X6X7XeXxXxXcXcXcXcXxXxXtXtXeXeX7X6X1X1X1X7XwXeXeXeXeXeXeXeXeX7X7XeXxXcXcXcXmXmXmXmXMXMXMXcXzX9X5X*X*X=X&X&X#X@X#X&X&X=X<X6X7XeXeXtXxXxXxXxXxXtXeXeXeXeX7X7X9XeXwXeXeXeXeXeXxXxXxXcXcXcXcXcXcXmXmXmXmXmXmXMXMXMXMXMXMXMXMXMXMXMXMXMXmXmXmXmXmXmXmXmXmXmXmXcXxXxXeXeX7X6X6X6X6X6X<X<X*X*X=X=X=X=X=X=X=X=X=X=X=X&X&X&X&X%X%X*X=X&X&X&X&X=X=X=X&X=X=X*X*X%X%X%X*X*X*X*X*X*X6X6X6X7X7XeXeXeXeXeXeXeXeXtXtXxXxXxXxXxXxXcXcXcXmXmXMXCXCXCXCXFXFXGXGXGXGXFXFXFXFXCXCXFXFXFXFXFXFXFXFXFXCXCXCXCXCXCXCXCXCXCXCXCXCXCXCXCXCXCXCXCXCXCXCXCXCXZXMXMXmXmXmXcXxXcXxXcXxXxXxXxXxXtXyXxXxXxXxXcXcXcXcXcXcXmXmXcXmXcXcXcXcXxXNXuXXXB.d.d.d.d.S. X1XrXwX6X1X'.D.D.D.V.4.o.R I G R R I F P F F F F F H H H H H V B B H g s s s a s s s s s s p p s s p p p p p p p p p p p p p p y y y y y y y y y y y w w w 4 4 w w w 4 w 4 w w 4 4 w w 4 4 4 4 7 7 7 7 7 7 7 p M V R o.%.@.@.@.@.@.2.3.3.3.3.3.3.3.4.9.5.5.5.5.9.9.5.5.9.9.9.9.9.4.9.9.",
"t.t.t.e.e.>.>.>.>.>.e.e.e.e.e.e.t.t.I.W.!.@XE.!.!.~.@X@X@X@X@X@X+X+X@X&X&X&X%X%X%X%X%X%X%X%X%X%X;X;X;X;X;X;X*X*X;X;X;X*X%X&X@X+X+X].E.E.].+X&X;X6X6X0X7X9X9XeXeXeX9X0X6X5X*X%X&X&X&X*X5X6X0X0X6X5X5X6X6X6X6X0X0X7X7X7X7X7X7X7X6X6X*X6XeXxXcXcXcXcXcXxXxXyXyXeXeX7X6X1X1X6X7XwXeXtXtXeXeXeXeXeXeX7XeXxXcXcXcXmXmXmXmXMXCXMXcXeX0X5X*X*X=X%X#X#X#X#X&X&X=X<X6X7XeXeXeXtXxXxXxXzXeXeXeXeXeXeXeX9X9XeXeXeXeXeXeXxXxXxXxXcXcXcXcXmXmXmXmXmXmXMXMXMXMXMXMXMXMXMXMXMXMXMXMXMXMXMXMXMXMXmXmXmXmXmXcXcXxXeXeXeX7X7X6X6X6X6X5X*X*X*X*X*X*X*X=X=X=X=X=X&X&X&X&X%X%X*X*X&X&X&X=X&X&X&X&X&X&X&X%X%X%X%X*X*X*X*X<X*X5X6X7XwX7XeXeXeXeXeXeXtXtXeXtXtXxXxXxXcXcXcXcXMXMXMXCXCXCXCXCXFXFXFXGXGXFXZXZXZXZXZXZXZXZXFXFXFXFXFXCXFXCXCXCXCXCXCXCXCXCXCXCXCXCXCXCXCXCXCXCXCXCXCXCXCXCXZXMXMXmXmXmXcXxXcXcXcXxXxXyXtXtXxXxXxXxXxXxXcXcXcXcXcXcXmXmXmXmXcXcXcXcXxXNXuXXXB.d.d.d.d.).XX1XuXrX6X1X'.D.D.D.A.4.o.R I I R J I F P F G F F F H H H H H D B B H g s s s s s s s s s s p s s s p p p p p p p p p p y y p y y y y y y y y y y w y y y y 4 4 4 w w w w 4 4 4 w w w w 4 4 7 7 7 7 7 7 7 7 7 7 p m C T o.%.%.@.@.@.@.2.3.3.3.3.3.3.3.4.4.4.4.4.4.9.5.5.5.9.9.9.9.4.9.9.",
"t.t.t.t.t.e.>.>.>.>.e.e.e.e.t.e.t.t.U.E.E.@X!.!.~.@X$X$X&X&X&X&X@X+X+X@X@X&X%X%X%X%X%X%X%X%X%X%X%X;X;X;X;X;X*X*X;X;X;X5X5X*X%X&X@X].].].E.].+X&X*X6X0X9X9X9X9XeX9X9X7X6X5X*X&X+X@X&X&X*X5X0X5X5X5X5X6X6X6X6X0X0X7X7X7X7X7X7XeX7X6X*X*X6XeXxXcXcXcXcXxXxXyXyXyXtXwX7X6X6X1X6XwXwXeXeXeXeXeXeXeXeXeXeXeXzXxXcXcXmXmXmXmXMXCXMXxXeX6X<X*X*X&X&X#X#X#X&X&X&X=X<X6X7XeXeXtXtXxXxXeXeXeXeXeXeXeXeXeX9X7XeXeXeXeXeXeXxXxXxXxXcXcXcXcXcXcXcXmXmXMXMXMXMXMXMXMXMXMXMXMXMXMXMXMXMXMXMXMXMXmXmXmXmXmXcXcXcXxXtXeXeXeX7X7X6X6X6X6X<X5X5X*X5X*X*X*X=X=X=X&X&X=X&X%X%X*X*X&X&X&X=X&X&X&X&X&X&X&X%X%X%X%X*X*X*X*X*X*X5X6X7X7X7XeXeXeXeXeXeXeXeXeXeXtXxXxXxXcXmXmXmXMXMXCXCXZXZXZXFXFXFXZXZXZXZXZXZXZXZXZXZXZXZXFXFXFXFXFXCXFXCXCXCXCXCXCXCXCXCXCXCXCXCXCXCXCXCXMXMXMXMXMXMXCXCXZXMXmXmXmXmXcXxXcXxXxXxXxXtXtXtXxXxXxXxXxXcXcXcXcXcXcXcXmXmXmXcXcXcXcXcXxXNXuXXXB.D.d.d.D.'.>XrXuXwX7X1X'.D.D.D.b.4.o.{ I I R J I F P F G F F F H H H H H D B B H g s s s s s s s s s s p p s s p p p p p p p p p y y y y y y y y y y y y y y w y y y y 4 4 4 w w w w 4 4 4 4 4 4 4 4 4 4 4 4 4 7 7 7 5 7 7 7 p m B J [ %.%.@.@.@.@.2.3.3.3.3.3.3.4.4.4.4.4.4.4.9.9.9.9.9.9.9.4.9.9.",
"t.t.t.t.t.t.e.e.e.e.e.e.e.e.t.e.t.h.U.W.W.W.W.!.~.@X$X%X%X%X%X&X&X@X+X@X@X@X&X%X%X%X%X%X%X%X%X%X%X%X;X;X;X-X-X-X*X*X;X5X5X5X5X;X&X@X+X].+X].E.+X&X%X;X6X9X9X9X9X9X9X9X0X5X*X%X@X].@X&X&X&X*X5X5X5X5X5X5X6X6X7X7X7X7X7X7X7X7X7X6X6X6X6X6X7XeXxXcXmXcXxXxXyXxXxXyXtXeX7X6X6X6X7XwXwXeXeXeXeXeXeXeXeXeX7XeXeXcXcXcXcXmXmXMXMXCXMXzX9X5X<X<X=X%X#X@X#X#X&X%X&X=X<X6X9XeXlXxXxXlXlXlXeXeXeXeXeXeXeXeX7X7XeXeXeXeXeXtXeXxXxXxXcXcXcXcXcXcXmXmXmXmXMXMXMXMXMXMXMXMXMXMXMXMXMXMXMXMXMXMXMXMXMXmXmXcXcXxXxXxXxXeXeXeXeX7X7X7X6X6X6X5X<X<X<X<X<X*X*X=X=X&X=X=X=X=X*X&X&X&X*X*X&X&X&X&X&X&X&X&X*X*X*X*X*X*X=X*X<X<X6X6X7X7X7X7XeXeXeXeXtXxXtXxXxXxXxXcXcXmXMXMXMXMXCXZXFXFXFXFXFXFXZXZXZXZXZXZXZXZXZXCXZXZXFXFXFXFXFXCXCXCXCXCXCXCXCXCXCXCXCXCXCXMXMXMXMXMXMXMXMXMXMXMXCXCXZXCXMXMXmXmXcXxXxXxXxXxXxXxXxXtXxXxXxXcXcXcXcXcXcXcXcXcXcXcXcXcXcXcXcXcXcXxXyX=XB.D.d.d.D.|.1XwXwXwX7X1X'.D.D.D.l.4.o.[ I I R J I F G F G F D H H V V V H H g g s s s s s s s s s s s s p p p p p p p p p p p p y y y y y y y y y y y y y y y w y w w w 4 4 4 4 4 4 4 4 4 4 4 4 4 4 4 4 5 5 5 5 7 7 7 7 7 7 7 7 y u B J ~ o.%.@.@.@.@.2.3.3.3.3.3.3.4.4.4.4.4.4.9.9.9.9.9.9.9.9.9.9.",
"=.>.t.t.t.t.t.e.e.e.e.e.e.e.t.t.e.t.I.U.U.I.U.!.@X@X$X%X%X%X%X%X&X@X@X&X@X@X&X&X%X%X;X%X%X%X%X;X%X%X%X%X%X%X%X%X%X%X;X5X5X5X5X5X;X%X@X+X+X+X].+X+X@X&X%X6X9X9X9X9X9X9X9X5X*X&X&X@X].@X@X&X&X;X5X<X5X5X5X6X6X7X7X7X7X7X7X7X7X7X7X7X7X7X7X6X6XeXxXcXcXxXxXyXxXxXxXyXtXeX7X6X6X6X7X7XwXwXwXeXeXeXeXzXeX7X7XeXzXcXcXcXmXmXmXMXMXCXcXtX7X6X<X=X&X&X#X@X#X&X&X%X&X=X<X0X9XeXlXeXeXlXlXeXeXeXeXeXeXeXeXeX7X7XeXeXeXeXeXeXzXxXxXxXxXcXcXcXcXcXcXmXmXmXmXMXMXMXMXMXMXMXMXMXMXMXMXMXMXMXMXMXMXMXmXmXcXcXcXxXxXxXxXxXeXeXeXeXeX7X7X0X0X6X6X1X1X1X1X6X<X<X=X=X=X=X=X*X*X*X&X%X%X%X%X*X*X*X*X&X&X*X*X*X*X*X*X=X=X<X<X6X6X7X7X7X7XeXeXeXeXeXeXeXxXxXxXxXcXmXMXMXMXMXCXCXZXFXFXFXFXZXZXZXZXZXZXCXCXCXCXCXCXZXZXCXCXCXCXCXCXCXCXCXCXCXCXCXCXCXCXCXCXMXMXMXMXMXMXMXMXMXMXmXMXMXCXZXZXMXMXmXmXcXxXxXxXzXzXxXxXxXyXxXxXcXcXcXcXcXcXmXmXcXcXcXcXcXcXcXcXcXcXcXxXuX=XB.D.d.D.D.}.1XrXwXwX7X1X'.D.D.D.l.3.[ [ R R R J I F G F F F F H H V V V H H s s s s s s s s s s s s s s s p p p p p p p p p p p y y y y y y y y y y y y w y y w y w w w 4 4 4 4 4 4 4 4 4 4 4 4 4 4 4 4 5 5 5 5 4 4 4 5 1 1 5 5 7 w y u C ~ %.%.@.@.@.@.2.2.2.3.3.3.3.4.4.4.4.4.9.9.9.9.3.3.3.9.9.9.",
"U E =.t.t.t.t.t.t.t.e.e.e.e.e.e.t.t.g.L.L.L.I.!.@X@X$X%X%X%X%X%X%X%X%X&X&X&X&X@X$X%X;X*X*X*X;X;X;X;X*X%X%X%X%X%X%X%X;X;X;X5X;X5X6X;X%X#X+X@X@X+X+X+X+X#X%X;X6X9X9XeXeXeX0X5X*X*X&X].].].@X&X&X*X<X<X5X5X6X6X6X7X7X7X7X7X7X7X7X7XeXwXeXeX7X6X6XeXxXcXxXxXyXxXxXxXxXyXtXeX7X6X6X6X6X7X7XwXeXeXeXeXtXtXeX7X9XeXzXcXcXcXmXmXMXMXMXCXMXzX7X<X=X=X&X&X#X@X#X#X&X%X=X=X5X0X9XeXeXeXeXeXeXtXtXeXeXeXeXeXeXeX7X7XeXeXeXeXeXeXxXxXxXxXcXcXcXcXcXcXcXcXcXmXmXMXmXMXMXMXMXMXMXMXMXMXMXMXMXMXMXMXMXmXmXcXcXcXcXcXcXxXxXxXeXeXeXeXeXeXeX7X7X6X6X6X6X6X6X6X5X5X5X5X<X<X*X*X*X*X*X*X*X%X*X*X*X*X*X*X*X*X*X*X*X*X*X*X<X<X6X6X6X6X7X7X7X7XeXeXeXzXxXxXxXxXxXcXmXMXCXCXCXCXCXZXFXFXFXZXZXCXZXZXZXZXCXCXCXCXCXCXCXZXCXCXCXCXCXCXCXCXCXCXCXCXCXCXCXCXCXCXMXMXMXMXMXMXMXMXMXMXmXMXMXCXZXCXMXMXmXmXcXxXxXzXxXxXxXxXxXxXxXxXcXcXcXcXcXcXmXmXmXmXcXcXcXcXcXcXcXcXxXxXuX=XB.D.D.D.D.}.1XrXwXwX7XrX'.A.D.D.i.@.W R R R R J I F G F F F F H H V H V H H s s s s s s s s s s s s s s p p p p p p p p y p p p y y y y y y y y y y y y w w w w w 4 4 4 4 4 4 4 4 4 4 4 4 4 4 4 4 4 4 4 4 4 5 5 4 4 5 5 1 1 5 5 4 4 7 7 u F ~ o.@.@.@.@.@.@.2.2.2.2.3.3.3.4.4.9.9.9.9.9.3.3.3.3.9.9.",
"U P U { :.t.t.t.t.t.e.e.e.e.e.t.t.e.h.t.h.L.U.W.!.@X$X%X&X%X%X-X*X;X%X%X%X&X&X@X@X$X&X%X%X*X;X;X;X;X;X;X*X%X%X*X%X*X;X;X5X5X;X5X6X6X5X%X&X&X@X+X+X+X+X@X#X%X%X;X0X9XeXlXzXeXeX9X*X&X].].].].#X&X%X<X5X5X6X6X6X6X7X7X7XeXeXeX7XeXeXeXeXeXeX7X6X7XeXyXxXcXxXxXxXyXxXxXyXtXeXwX7X6X6X6X7X7X7XeXeXeXeXtXeXeXeX7X7XeXxXcXcXmXMXMXMXMXMXMXtX6X<X=X=X&X&X#X#X#X#X#X%X=X*X5X0X9XeXeXeXeXeXtXxXzXtXeXeXeXeXeXeXeX7XeXeXeXeXeXeXzXxXxXcXcXcXcXcXcXcXcXcXcXcXmXmXmXMXMXMXMXMXMXCXCXMXMXMXMXMXMXMXmXmXcXcXcXcXcXcXcXcXxXxXxXtXtXeXeXeXeXeX7X7X7X7X7X7X6X5X5X5X5X6X6X5X5X*X*X*X*X*X*X*X*X*X*X*X*X*X*X*X*X*X*X*X*X<X<X6X6X6X6X7X7X7X7XeXeXeXxXxXxXxXxXxXcXMXMXCXCXCXCXCXZXFXFXFXZXCXCXCXCXCXCXCXCXCXCXCXCXCXCXCXCXCXCXCXCXCXCXCXCXCXCXCXCXCXCXCXCXMXMXMXMXMXMXMXMXMXMXmXMXMXCXZXCXCXMXmXmXcXxXxXtXxXxXyXxXxXxXxXcXcXcXcXcXcXcXmXmXmXmXcXcXcXcXcXcXcXcXxXyXuX=XB.D.D.D.B.}.1XwXwX7X9XwX{.A.D.B.i.@.R F I I R R I F G F F F F H H H H V D H s s B s s s s s s s s s s s p p p p p p p p y p p p y y y y y y y y y y y y w w w w w 4 4 4 4 4 4 4 4 4 4 4 4 4 4 4 4 4 4 4 4 4 5 4 5 4 4 5 1 1 5 4 4 4 4 4 7 u F ~ / ( @.@.@.@.@.@.@.2.3.3.3.3.4.4.4.9.9.9.3.3.3.3.9.9.",
"U U U U I | -.e.t.t.e.e.t.e.e.t.t.e.t.t.h.L.I.W.W.E.~.$X$X&X%X-X;X;X%X%X&X%X&X$X&X@X@X&X%X%X*X*X;X;X5X;X;X;X;X%X%X%X*X;X;X;X5X;X6X6X6X;X;X%X&X@X@X+X+X+X@X#X&X&X*X6X9XlXlXlXlXlX9X;X%X@X].E.].+X@X&X=X*X5X5X0X0X0X7X9X9XeXeXeXeXeXeXeXeXeX9X6X6X6X7XeXxXxXxXxXxXxXxXxXxXtXeXeX7X7X6X7X7X7XeXeXeXeXeXeXeXeX7X6X7XeXxXcXcXmXmXmXmXMXMXxXeX6X*X*X=X&X&X#X#X&X&X#X%X=X*X;X7XeXeXeXeXeXxXxXxXtXtXtXtXtXeXeX9X9X7X9X9XeXeXeXtXxXxXxXxXxXxXxXxXcXcXcXcXcXcXmXmXmXmXMXMXMXMXMXMXMXMXMXMXMXMXmXmXcXcXmXmXmXmXmXcXcXcXxXxXxXxXxXxXtXeXeXeXeXeXeXeX7X7X7X6X6X6X6X6X6X6X6X*X*X*X*X=X=X=X=X=X=X=X=X=X=X=X<X<X*X*X<X5X5X6X0X0X0X0X7X7XeXeXtXxXxXxXxXxXcXmXMXCXCXCXCXCXZXZXZXZXCXCXCXCXCXCXCXCXCXMXCXCXCXCXCXCXCXFXFXFXFXZXZXZXCXCXCXCXCXCXMXMXMXMXMXMXMXMXMXMXMXMXMXMXMXMXMXMXCXCXCXMXmXmXcXxXxXxXxXxXxXxXxXcXxXcXcXcXcXcXcXcXcXcXcXcXcXcXcXcXcXcXcXcXxXyXuX1XA.D.d.D.S. X1XwXwXwX7XwX{.B.B.B.u.@.R R I G G G F F F D G H H H H D D H H H H B B H H s s s s s s s p p p p p p p p p p p y y y y y y y y y y w w w w w y y y w w 4 4 4 4 4 4 4 4 4 4 4 4 4 4 4 4 4 4 4 4 4 4 4 < < < 1 5 5 4 4 4 1 4 4 4 7 7 m J ^ / ( @.@.@.2.@.@.@.@.2.3.3.3.4.4.4.4.3.3.9.3.3.3.",
"U U U U D U I | >.t.t.t.e.t.e.t.t.t.t.t.h.L.I.U.R.W.W.!.$X%X%X%X%X%X%X%X%X%X%X%X%X&X&X@X&X&X%X%X*X;X5X5X;X5X5X;X;X;X*X;X;X;X5X;X6X;X6X6X6X;X;X%X@XE.+X+X@X@X&X&X%X%X;X6X9XeXlXlXlXeX9X6X#X].W.W.Q.].@X&X&X*X5X5X6X0X7X9XeXeXeXeXeXeXeXeXeX9X6X6X6X6X6XeXyXxXxXxXxXxXxXxXxXtXeXeXeX7X7X7X7X7XeXeXeXeXeXeXeXtXeX6X6XeXxXcXcXmXmXmXmXmXMXxX7X*X*X=X&X&X#X#X#X&X&X#X%X*X*X6X9XeXlXeXlXzXxXxXtXtXtXtXtXeXeXeXeX9X7X9XeXeXeXtXtXeXtXxXxXxXxXxXxXxXcXcXcXcXmXmXmXmXMXMXMXMXMXMXMXMXMXMXMXmXmXcXcXcXcXcXcXcXcXcXcXxXxXxXxXxXxXxXxXxXeXeXeXeXeXeXeXeX7X7X7X7X7X7X7X6X6X6X6X<X<X*X*X*X*X*X*X*X*X*X=X=X<X<X*X*X<X5X5X6X6X6X0X0X7X7XwXeXtXxXxXxXxXcXmXMXCXCXCXCXCXCXZXZXZXZXCXCXCXCXMXCXCXMXMXMXMXMXCXCXCXCXCXCXZXZXZXZXZXZXCXCXCXCXCXCXMXMXMXMXMXMXMXMXMXMXMXMXMXMXMXMXMXMXCXCXCXMXmXmXcXxXxXxXxXxXxXxXxXcXcXcXcXcXcXcXcXcXcXcXcXcXcXcXcXcXcXcXcXcXxXyXuXrXA.D.d.D.S.XX1XwXwXwX7XwX{.A.B.B.r.%.R R I I G F F F F D G G H H H D D H H H H H B H H s s s s s s s p p p p p p p p p p p y y y y y y y y y y w w w w w y y y w 4 4 4 4 4 4 4 4 4 4 4 4 4 4 4 4 4 4 4 4 4 4 4 4 1 1 1 1 4 4 1 1 < < 4 4 4 4 5 7 m Y ^ ^ ( @.@.@.@.@.@.@.2.2.3.3.3.3.3.3.3.3.9.3.3.3.",
"U U U U U U U U ] #.>.t.h.t.t.t.t.t.t.t.t.g.I.U.W.W.W.W.!.&X%X%X%X%X%X%X%X%X%X%X%X%X&X&X&X@X&X&X%X*X;X;X5X5X5X5X5X5X5X5X5X5X5X5X;X;X6X6X6X6X6X;X%X@X@X@X#X#X&X&X&X&X%X%X;X6X9X9XlXlXzXzXlX6X@XE.T.W.W.].+X&X&X*X*X5X6X7X9XeXeXeXeXeXeXeXeX9X7X7X7X6X1X6XwXxXxXxXxXxXxXxXxXxXxXtXeXeX7X7X7X7XeXeXeXeXeXtXtXxXeX6X6X7XeXxXcXcXcXcXmXmXMXmXeX6X*X*X*X&X&X#X&X&X&X#X#X%X*X*X6X9XeXeXlXzXxXxXtXtXtXtXtXtXtXeXeX9X9X7X7XeXeXeXeXeXtXxXxXxXxXxXxXxXcXcXcXcXmXmXmXmXmXmXMXMXMXMXMXMXMXMXMXmXcXcXcXcXcXcXcXcXcXcXxXxXxXcXxXxXxXcXcXxXxXeXeXeXeXeXeXeXeXeXeXeX9X9XeX7X7X7X6X6X6X6X6X6X6X<X<X*X*X*X*X*X<X<X<X<X5X5X6X6X6X6X0X0X7X7XwXeXeXxXcXcXcXmXCXFXCXCXCXCXCXCXZXZXZXZXCXCXCXMXMXCXCXMXMXMXMXMXCXCXCXCXCXZXZXZXZXCXCXCXMXMXMXMXMXMXMXMXMXMXMXMXMXMXMXMXMXMXMXMXMXMXMXMXMXMXMXMXmXmXcXxXxXxXxXxXxXxXcXcXcXcXmXcXcXcXcXcXcXcXcXcXcXcXcXcXcXcXcXcXxXyXuXuX_.D.D.D.S.XXrXrXwXwX9X=X{.B.b.l.4.%.R R R I G G F F F F G H H H D D D H V H H H g g H s s s s s s s s p p p p p p p p p p y y y y y y y y y y y y y w w w w w 4 4 4 4 4 4 4 4 4 4 4 4 4 4 4 4 4 1 1 1 < < < 4 4 < 1 1 1 4 4 4 < 1 1 4 4 1 1 4 1 7 m J Q ^ %.@.@.@.@.@.@.@.@.2.2.3.3.3.3.3.3.3.3.3.9.",
"D G D D D D U D G U { $.:.>.t.t.t.t.t.t.t.h.L.U.W.!.!.!.!.+X@X$X%X%X-X%X$X%X%X%X%X%X&X&X%X%X%X&X&X%X%X;X5X5X5X5X5X5X6X5X5X5X;X;X;X;X;X6X6X6X6X6X6X6X;X%X%X&X&X&X&X&X%X%X*X*X;X6X9XeXzXzXlXlXxX9X*X].E.W.E.].+X&X&X*X5X6X7XeXeXeXeXeXeXeXeX9X0X7X7X7X1X<X6XeXyXxXcXcXxXxXxXxXxXxXxXeXeX7X7X7X7X7XeXeXeXtXxXeXeXeX7X6X7XeXxXcXcXcXcXcXcXmXcX7X<X*X*X=X&X&X&X&X&X&X#X%X%X*X;X6X9XeXlXlXxXzXtXtXtXtXtXtXtXtXeXeX9X9X7X7XeXeXeXeXeXtXxXxXxXxXxXxXcXcXcXcXcXcXcXcXcXcXmXmXmXmXmXmXMXMXmXcXcXcXcXcXcXxXcXxXcXxXxXxXxXcXxXxXxXcXcXcXxXxXxXxXxXxXxXtXeXeXeXeXeXeXeXeXeX9X7X7X7X6X6X6X6X6X6X<X<X<X<X<X<X<X<X<X5X5X6X6X6X6X0X0X7X7XwXeXeXxXcXcXMXMXZXFXCXCXCXCXCXCXZXZXZXZXCXCXMXMXMXMXMXMXMXMXMXMXCXCXCXCXCXCXCXCXCXCXCXCXMXMXMXMXMXMXMXMXMXMXMXMXMXMXMXMXMXMXMXMXMXMXMXMXMXMXMXmXmXcXcXxXxXxXxXxXxXxXcXcXmXmXmXcXcXcXcXcXcXcXcXcXcXcXcXcXcXcXcXxXxXyXuXuX`.D.D.D.).XXrXrX7X9X6X1X`.B.b.k.4.[ R R R I G G F F F F G G H H D D D H H H H H s g g s s s s s s s s s p p p p p p p p p y y y y y y y y y y y y y w w w w w 4 4 4 4 4 4 4 4 4 4 4 4 4 4 4 4 4 4 < 1 < < 4 4 4 4 1 1 1 4 4 4 1 1 1 4 4 4 4 5 5 7 7 8 B A ^ %.@.@.@.@.@.@.@.@.2.2.2.3.3.3.3.3.3.3.3.",
"G G U U U G U U U U I ] | =.,.t.t.t.t.t.t.t.g.I.W.@X@X@X@X!.!.@X@X$X%X$X%X%X%X;X%X%X&X%X%X%X%X%X%X%X%X%X*X;X5X5X6X6X5X5X5X5X6X5X6X6X6X6X6X6X6X7X9X9X7X6X6X;X*X%X%X%X%X%X%X%X%X*X6X7X9XeXlXzXzXzXzXeX&X].T.W.E.].@X&X*X*X5X0X9X9XeXeXeXeXeX9X7X7X7X7X6X*X6X6XeXtXxXxXxXxXxXxXxXxXxXeXeX7X6X7X7XeXeXeXeXeXeXeXeXeXeX7X6X7XeXxXxXcXcXcXcXMXMXeX6X*X*X=X&X&X&X&X&X&X%X%X%X%X;X;X6X9XeXeXeXeXtXtXtXzXtXtXtXtXtXeXeX9X9X9X9X9XeXeXeXeXeXxXxXxXxXcXcXcXcXcXcXcXcXcXcXcXcXcXmXmXmXmXMXmXmXmXmXmXmXcXcXcXcXcXcXxXcXcXcXcXcXcXcXcXcXcXcXcXcXxXxXcXxXxXxXxXxXeXeXeXeXeXeXeXeXeXeX7X7X7X7X0X6X6X6X6X5X5X5X6X6X6X6X6X6X6X7X7X7X7X7X7XeXeXtXxXcXmXMXCXFXFXCXCXCXCXFXFXFXCXCXCXCXCXMXMXMXMXMXMXMXMXMXMXMXMXMXCXMXMXMXCXCXCXMXMXCXCXCXCXCXCXCXCXMXMXMXMXMXMXMXMXMXMXMXMXMXMXMXMXMXMXMXmXmXcXcXxXxXxXxXxXxXxXcXmXmXmXmXmXmXcXcXcXcXcXcXcXcXcXcXcXcXcXcXxXxXyXyXuX:XA.D.D.).=X1XwX7X6X6X=X'.B.b.u.&.[ R R R R R R G G G F D H H H D H H H H B s s s s s s s s s s s p p p p p p p p p p y y y y y y y y y w w y y y y 4 4 4 4 4 4 4 4 4 4 4 4 4 4 4 4 4 3 4 4 4 4 < < 1 1 1 1 1 1 1 1 1 1 < < 1 1 1 1 1 1 4 4 4 4 1 1 7 9 m A ~ %.@.@.@.@.@.@.@.@.@.@.3.3.3.3.3.3.3.3.",
"h h G G G G U U U U U U ] { } =.>.t.t.>.t.t.h.L.R.E.@X$X$X@X@X@X+X!.@X%X%X%X;X;X5X%X&X%X*X;X*X5X5X*X%X%X%X%X;X;X5X5X6X6X6X5X6X6X7X7X6X6X6X6X0X7X9X9X9X9X9X9X6X;X;X*X%X%X*X%X%X%X%X;X;X6X9XeXzXzXzXzXxXeX5X].W.E.E.E.@X#X*X5X5X0XeXeXeXeXeX9X7X6X7XeX7X6X6X6X6X6XeXxXxXxXxXxXxXxXxXxXeXwX7X6X6X6X7XeXeXeXeXeXeXeXeXeX7X6X7XeXxXxXcXcXcXmXMXcX9X5X<X<X=X&X&X&X&X&X%X%X%X%X%X;X;X6X0X9XeXeXtXtXtXzXtXtXtXtXtXeXeX9X9X9X9X9XeXeXeXeXeXeXxXxXxXxXcXcXcXcXcXxXxXxXxXxXcXcXcXmXmXmXmXmXmXmXmXmXmXmXcXcXcXcXcXcXcXcXmXcXcXcXcXcXcXcXmXmXmXmXmXmXmXmXmXmXcXxXxXeXeXtXtXtXeXeXeXeXeXeXeX7X7X7X7X7X0X0X7X7X0X0X7X7X7X7X9X9X9X9X9X9XeXeXxXxXcXMXMXCXFXFXCXCXCXCXFXFXFXCXCXCXCXMXMXMXmXmXmXmXMXMXMXMXMXMXCXCXMXMXMXMXCXCXMXMXCXCXCXCXCXCXCXCXMXMXMXMXMXMXMXMXMXMXMXMXMXMXMXMXMXMXMXmXcXcXxXxXxXxXxXxXxXxXcXmXmXmXmXmXmXcXcXcXcXcXcXcXcXcXcXcXcXcXxXxXxXyXyXuXXXS.D.D.).=X1X6X6X6X6X=X'.b.b.r.O.[ E R R R R F G G G F D H H H D H H H H B s s s s s s s s s s s p p p p p p p y y p y y y y y y y y y w w w w y y 4 4 4 4 4 4 4 4 4 4 4 4 4 4 4 4 4 4 4 4 4 4 < < < 1 1 1 1 1 1 1 1 1 < < 1 1 1 1 1 < < < 4 4 1 1 1 5 9 m A T ^ %.@.@.@.@.@.@.@.@.2.2.2.2.3.3.3.3.",
"h h h h h h U U U U U U U U I ] | $.>.t.t.t.g.L.U.W.~.$X$X$X%X%X%X@X!.+X@X%X5X5X5X5X%X%X*X5X5X5X5X5X5X*X%X%X-X%X;X;X6X6X0X0X7X7X7X7X7X7X7X7X7X7X9X9X9X9X9X9XeX9X7X6X;X*X*X*X*X&X&X*X%X*X5X0X9XlXzXzXxXxXcXxX5XE.T.T.E.].#X&X*X5X7XeXeXeXeXeXeX7X7XeXeXeXeX7X7X6X6XeXtXxXxXxXxXxXxXxXeXeX7X7X7X7X7X7XeXeXeXeXeXeXeXeXeX7X6X7XeXxXxXcXcXcXmXmXzX7X<X5X<X=X*X&X&X%X%X&X&X%X%X%X*X;X6X7XeXeXeXtXtXtXtXtXtXtXtXtXeX9X9X9X9XeXeXeXeXeXeXeXeXxXxXxXxXxXxXxXxXxXxXxXxXxXcXcXcXcXmXmXmXmXmXmXmXmXmXmXmXmXmXmXmXmXMXMXMXmXcXcXmXmXmXmXmXmXmXmXmXmXmXmXmXmXmXcXcXxXxXxXxXxXxXxXxXtXeXeXeXeXeXeXeXeX9X9X9X9X9X9XeXeXeX9XeXeXeXeXeXeXtXyXxXcXmXMXCXFXFXFXCXCXCXCXCXCXFXCXCXCXCXMXMXMXmXmXmXmXmXmXMXMXMXMXMXMXMXMXMXMXCXCXCXMXCXCXCXCXCXCXCXCXCXCXCXMXMXMXMXMXMXMXMXMXMXMXMXMXMXMXMXmXcXcXcXxXxXcXxXxXxXcXmXmXmXmXmXmXmXcXcXcXcXcXcXcXcXcXcXcXcXcXcXcXxXyXyXuX>XS.D.D.).=X1X6X6X6X6X=X`.b.v.y.o.{ R I I I I G U G G G F D H H D H H H H s s s s s s s s a a s s p d d p p p p y y y y y y y y y y y y w w w w y w 4 4 4 4 4 4 4 4 4 4 4 4 4 4 4 4 1 1 4 1 4 4 < < 4 3 1 1 1 1 1 1 1 1 1 1 1 1 1 1 < < < < < < 1 1 1 1 5 9 m N J ^ %.%.@.@.@.@.@.@.@.@.2.2.3.3.3.3.",
"h h h h h h U U U U U U U U U I { { #.:.t.t.L.L.U.W.!.@X$X%X-X%X$X%X%X@X+X+X%X;X5X5X5X*X5X5X5X5X5X5X6X5X5X;X;X-X;X%X;X5X5X6X7X7X7X7X7X7X7X7X9X9X9X9X9X9X9X9X9X9X9X9X9X0X5X5X*X*X*X*X*X*X*X*X5X0X9XeXzXzXxXzXnXzX*X].W.T.W.].&X*X6X6X9XeXeXeXeXeXeXeXeXeXeXeXeX7X6X6X7XeXtXxXxXxXxXeXeXeXeXeX7X7X0X0X7X7XeXeXeXeXeXeXeXeX7X6X7XeXxXxXcXcXcXcXcXeX0X5X<X<X*X&X&X&X%X&X&X&X%X%X%X*X*X5X6XeXeXeXtXtXtXtXtXtXtXtXeX9X9X9X9XeXeXeXeXeXeXeXeXeXtXxXxXxXxXxXxXxXxXxXxXxXcXcXcXcXcXcXcXcXcXcXmXmXmXmXmXmXmXmXMXMXMXMXMXMXmXcXmXmXmXmXmXmXmXmXmXmXmXmXmXmXmXmXmXcXcXcXcXcXcXxXxXxXxXtXtXeXeXeXeXeXeXeXeXeXeXeXeXeXeXeXtXtXtXtXtXtXyXxXcXmXmXMXFXFXFXFXCXCXCXCXCXCXCXCXCXCXMXMXMXmXmXmXmXmXmXmXMXMXMXMXMXMXMXMXMXMXMXMXMXMXMXMXMXMXMXMXMXMXMXMXMXMXMXMXMXMXmXmXmXmXmXmXmXmXMXMXMXmXcXcXcXxXxXxXxXxXxXcXmXmXmXmXmXmXmXcXcXcXcXcXcXcXcXcXcXcXcXcXcXcXxXyXyXuXiXS.D.B.'.=XwX6X6X6X6X=X_.M.v.6.[ { R I I I G G U G G F F D H H D H H H H s s s B s s s s s a s s p d s p p p p y y y y y y y y y y y y w w w w y y 4 4 4 4 4 4 4 4 4 4 4 4 4 4 4 4 1 1 4 < 4 4 < < 4 4 1 1 1 1 1 1 1 1 1 1 1 1 1 1 1 < < < < < 1 1 1 1 5 5 6 9 m A ^ %.%.@.@.( @.@.@.@.@.@.2.2.3.3.",
"h h h h G G G G G G U U U U ] ] ] ] { I [ :.g.L.I.E.@X$X$X%X%X&X%X;X%X%X&XE.&X&X%X*X5X;X;X5X5X5X;X5X5X5X6X5X5X5X;X;X;X;X5X5X0X0X0X0X9X7X9X9X9X9X9X9X9X9XeX9XeXeX9X9X9X9X9X0X0X6X5X5X5X5X5X5X5X0X0X9XzXzXnXnXxXcXnXzX&XE.T.T.T.&X=X*X6X9XeXeXeXeXeXeXeXtXeXeXeXeX7X6X6X7XeXeXyXtXtXeXeXeXeXeXeX7X7X7X7X7XeXeXeXeXeXeXeXeXeX7X6X7XeXxXxXcXcXcXcXxXeX6X<X<X*X*X&X%X&X&X&X%X%X%X%X*X*X*X5X7XeXeXeXeXzXtXtXzXtXeXeXeXeXeXeXeXeXeXeXeXeXeXeXeXeXzXzXxXxXxXxXxXxXxXxXxXxXxXcXcXcXcXcXcXcXcXcXcXmXmXmXmXMXMXMXMXMXMXMXMXMXmXmXmXmXmXmXmXmXmXmXmXmXmXmXmXmXmXmXmXcXcXcXcXcXxXxXxXxXxXxXxXxXxXxXxXzXzXeXeXtXtXxXtXtXeXtXtXtXtXyXyXxXcXmXMXMXCXFXFXFXZXFXFXFXFXCXCXFXZXCXMXMXMXMXmXmXcXmXmXmXmXmXMXMXMXMXMXMXMXMXMXMXMXMXMXMXMXMXMXMXMXMXMXMXMXMXMXMXMXMXMXmXmXmXmXmXmXMXMXMXMXMXmXmXcXcXcXcXcXcXcXcXcXcXcXmXmXmXcXcXcXcXcXcXcXcXcXcXcXcXcXxXxXxXxXyXyXyXuXiX_.D.B.{.1XwX6X6X6X;X#Xb.M.v.:.[ { I I I I U F G G G H H H H H D H g g H B B B s s s s s s s s s p p p p y y y y y p y y y y y y y y y y y w w w w 4 4 4 4 4 4 4 4 4 4 4 4 4 4 4 4 1 1 1 < 4 1 , , , < , , , , < < < < 1 1 , , < < , , 1 1 1 1 1 1 1 1 1 1 1 5 9 x N J ^ %.%.@.%.@.@.@.@.@.( 2.3.3.",
"h h h h G G G G G G U U U U ] ] ] ] ] I { } e.L.L.E.@X$X%X&X&X&X%X;X+X5X6X$X&X@X@X%X%X%X%X*X;X5X5X5X5X5X6X6X6X6X6X6X6X6X5X5X*X5X5X6X0X7X9X9X9X9X9X9X9X9X9X9X9X9X9X9X9X9X9X9X9X9X9X9X9X9X9X9X9X9X9X9X9X9XzXxXnXxXxXxXxX0X@XT.Y.T.].#X6X9X9XeXeXeXeXeXeXzXeXeXeXeXeXeX6X6X6XeXeXeXeXeXeXeXeXeXeX9X7X7X7X7XeXeXeXeXeXeXeXeXeXeX7X6X7XeXxXxXcXcXcXcXxXeX6X<X*X*X*X&X%X%X&X&X%X%X%X%X*X*X<X6X7XeXeXeXeXzXtXzXzXeXeXtXeXeXtXeXeXeXeXeXeXeXeXeXeXeXtXxXxXzXtXtXxXxXxXxXxXxXxXxXcXcXcXcXcXcXcXcXmXmXmXmXMXMXMXMXMXMXMXMXmXmXmXmXmXmXmXmXmXmXmXmXmXmXmXmXmXmXmXmXcXcXcXcXcXcXcXcXxXxXxXxXxXxXxXxXxXxXxXxXxXxXxXxXxXxXtXtXtXyXyXxXcXmXMXCXCXZXFXFXFXZXCXCXZXFXCXCXZXCXCXMXMXMXMXmXcXcXcXcXcXcXmXmXMXMXMXMXMXMXMXMXMXMXMXMXMXMXMXMXMXMXMXMXMXMXMXMXMXmXmXmXcXmXmXmXmXmXmXmXMXMXMXmXmXcXcXcXcXcXcXcXcXcXcXcXcXcXcXcXcXcXcXcXcXcXcXcXcXxXxXxXxXxXxXxXyXyXyXuX1X_.B.A.{.1X6X6X6X6X*X].b.Y.g.-.{ I I I I U U F F G G H H H H H D H g g H H H B s s s s s s s s s s p p p y y y y y p y y y y y y y y y y y w w w w 4 4 4 4 4 4 4 4 4 4 4 4 1 1 4 4 1 1 < < 3 3 , , , < < , , , < < < < 1 1 , < < < , < 1 1 1 1 < < 1 1 1 1 5 7 6 6 9 c S ^ o./ %.%.@.@.( ( @.( 3.2.",
"h h h h G G G G G G U U U U ] ] ] ] ] { E R >.I.L.R.@X@X$X%X&X&X%X5X+X*X*X%X5X%X&X%X@X@X%X*X;X5X5X5X6X6X6X6X0X0X0X0X7X7X0X5X5X5X5X5X6X0X0X9X9X9X9X9X9XeX9XeXeXeXeX9X9XeXeXeXeXeXeXeXeXeXeXeXeXeXeX9X9X9XeXzXzXzXzXzXxXxXMX*XW.T.T.E.@X*X6X9XeXeXeXeXtXxXzXxXxXxXxXeXeX6X6X6X7XeXeXeXeXeXeXeXeXeX7X7X7X7X7X7X7X7X7XeXeXeXeXeXeX7X7X7XeXxXxXcXcXxXxXxXeX6X5X*X*X*X%X%X&X&X&X%X%X%X=X*X<X6X6X7XeXeXeXeXtXtXxXxXtXtXtXxXxXeXeXeXeXeXeXeXeXeXeXeXeXeXeXeXtXtXxXxXxXxXxXxXxXxXxXxXcXcXcXcXcXcXmXmXmXmXMXMXMXMXMXMXMXMXmXMXMXMXMXMXMXMXMXMXMXMXmXmXmXmXmXmXmXmXcXcXcXcXmXmXmXmXcXcXcXcXcXcXcXcXcXcXcXcXcXcXcXcXcXxXxXyXyXyXxXcXmXMXCXCXFXFXFXCXFXZXFXFXFXFXCXCXZXCXCXMXMXMXMXmXcXcXcXcXmXcXmXmXmXmXmXmXmXmXMXMXMXMXMXMXMXMXMXMXMXMXMXMXMXMXMXMXMXmXmXmXcXcXmXmXmXmXmXmXMXMXMXmXmXcXcXcXcXcXcXcXcXcXcXcXcXcXcXcXcXcXcXcXcXcXcXcXxXxXxXxXxXxXxXxXyXyXyXuX=XZ.B.S.XX1X1X6X6X;X#XT.b.Y.r.$.R I I U I U U F G G G H H H H H D H g g g g s s s s s s s s s p s d d d d d p d y y y y y y y y y y y y y y w w w w 4 4 4 4 4 4 4 4 4 4 4 4 1 4 4 4 < < < < < 3 , , 1 < < < , , 1 1 , , , , < < < < < < < < 1 1 1 1 1 1 1 1 1 1 5 6 6 6 9 S Q ~ / %.@.@.( ( ( @.@.@.",
"h h h h G G G G G G U U U U U ] ] ] I I R { t.I.I.U.!.@X$X%X&X&X%X%X%X%X%X%X;X&X%X%X&X@X@X%X%X*X5X5X6X6X5X5X6X0X7X7X7X7X7X0X0X5X6X5X5X6X6X7X9X9X9X9X9X9X9XeX9XeXeXeXeXeXeXeXeXeXeXeXeXeXeXeXtXtXeXeXeXeXeXeXeXeXeXlXxXcXcXZXcX@XT.T.W.+X*X6XeXeXeXeXtXxXxXxXxXxXxXxXeXeX7X7X7X7X7XeXeXeXeXeXeXeX7X7X7X7X7X6X6X6X7XeXeXeXeXeXeXeX7X7X7XeXxXxXcXcXxXxXzX9X0X5X*X*X%X&X&X&X&X%X%X%X&X&X=X<X6X7X7XeXeXeXeXtXxXxXtXtXtXzXxXeXeXeXeXeXeXeXeXeXeXeXeXeXeXeXeXeXxXxXxXxXxXxXxXxXcXcXcXcXcXcXcXcXcXmXmXmXmXmXmXmXmXmXmXmXmXmXmXmXmXmXmXmXMXMXMXMXmXmXmXmXmXmXmXmXcXcXmXmXmXmXMXMXmXmXmXmXmXmXmXmXmXmXmXmXmXmXmXmXmXmXcXxXxXxXmXmXMXCXFXCXFXFXFXCXFXCXCXCXCXCXCXCXCXMXMXMXMXmXmXmXcXcXcXcXmXmXmXmXmXcXmXmXmXmXMXMXMXMXMXMXMXMXMXMXMXMXMXMXMXMXmXmXmXmXmXmXcXcXmXmXmXmXmXmXmXMXMXmXmXcXcXcXcXcXcXcXcXcXcXcXcXcXcXcXcXcXcXcXcXcXcXcXxXxXxXxXxXxXxXxXyXtXeXrX{.A.B.).=X=X;X6X6X;X[.Y.M.Y.e.+.R I I U U U U F G G G H H H H H D H g g g g s s s s s s s s s s s d d d d d d d y y y y y y y y y y y y y y w w w w 4 4 4 4 4 4 4 4 4 4 4 4 < 4 4 4 < < < < < < < , 1 1 1 < , , 1 1 , , , , < < < < < < < 1 1 1 1 1 1 1 1 1 1 1 5 5 6 6 6 9 N T ^ / %.@.@.( ( @.@.@.",
"G G G G G G G G G G U G U U U U U I I ] { { >.I.I.I.W.@X&X$X&X&X%X%X%X%X%X%X%X%X%X%X&X@X@X&X%X$X%X;X5X5X5X5X6X6X0X7X9X9X7X7X9X9X9X7X6X6X6X6X6X9X9X9X9X9X9XeXlXzXeXeXeXeXeXeXeXeXeXeXeXeXeXeXeXeXeXeXeXeXeXeXeXeXlXzXxXxXxXnXcXcX7XW.Y.T.E.=X7XeXeXeXlXzXxXxXxXxXxXyXeXeXeXeX7X6X6X6XeXeXeXeXeXeXeXeX7X7X7X7X7X7X7X7XeXeXeXeXeXeXeX7X7XeXeXxXxXcXcXxXxXeX9X5X*X*X*X%X&X&X&X&X%X&X&X&X&X=X6X6X7XeXeXeXtXxXxXtXtXtXtXxXeXeXeXeXeXeXeXeXeXeXeXeXeXeXeXeXxXxXxXzXxXxXxXxXxXxXxXxXcXcXcXcXcXcXcXcXcXcXmXmXmXmXmXmXmXmXmXmXmXmXmXmXmXmXmXmXmXmXmXmXmXmXcXcXcXcXmXmXmXmXMXMXMXMXMXMXMXMXMXMXMXMXmXmXMXMXMXMXMXMXMXMXmXmXmXmXMXMXCXCXZXCXFXCXCXCXFXCXCXCXMXMXCXCXMXMXMXMXMXMXMXnXnXnXnXnXnXcXmXmXmXmXmXMXmXmXmXmXmXmXmXmXmXmXmXmXmXmXmXmXmXmXmXmXmXmXmXmXcXcXcXcXcXcXmXmXmXmXMXMXmXmXcXcXmXmXmXcXcXcXcXcXcXcXcXcXcXcXcXcXcXcXcXcXcXcXcXcXcXcXxXeXxXtXrXrX{.A.B.'.=X=X;X<X5X<X].n.Y.v.6.[ R I I U I U U F U F F H H H H H D H g s g s s s s s s a s s s p d p d d y y y y y y y y y y y y w w w w y y w 4 4 4 4 4 4 4 4 4 4 4 4 4 3 3 < < 3 3 < , , , , < , , , , , , , , , , , , , , , , , , , , , , , , , , , , 1 1 < 1 1 5 7 5 5 5 6 8 C Q ~ o.%.@.@.@.@.@.",
"G G G G G G G G G G U U G G U U U U I I { ] :.P.U.L.U.~.$X&X$X&X%X%X%X%X%X%X%X%X*X%X%X&X$X%X&X@X@X&X;X6X6X5X6X6X0X0X7X9X7X7X9X9XeX9XeX9X7X6X6X7X9X9XeX9X9X9XeXzXeXeXeXeXeXeXeXeXeXeXeXeXeXeXeXeXeXeXeXeXeXeXlXlXzXzXxXxXxXnXcXcXmX6XQ.I.I.E.*XeXeXeXeXlXzXxXxXxXeXeXeXeXtXeXeXeX6X6X6X7XeXeXeXeXeXeXeX7X7X7X7X7X7X7X7X7XeXeXeXeXeXeX7X7XeXeXxXxXcXcXxXxXeX0X5X*X*X%X%X&X&X&X%X%X&X&X%X=X*X6X7X7XeXeXeXzXxXxXxXtXtXeXeXeXeXeXeXeXeXeXeXeXeXeXeXeXeXeXxXxXtXzXyXyXxXxXxXxXxXxXxXxXxXxXcXcXcXcXcXcXcXcXcXcXcXcXcXcXcXcXcXcXmXmXmXmXmXmXcXcXcXcXcXmXcXcXmXmXmXmXmXmXMXMXMXMXMXMXMXMXMXMXMXMXmXmXMXMXMXMXMXMXMXMXMXMXMXMXCXCXCXCXZXZXCXCXCXCXCXMXMXMXMXMXMXMXMXMXMXmXMXmXmXnXnXxXcXnXnXcXmXmXmXMXMXMXmXmXmXmXmXmXmXmXcXcXmXmXmXmXmXmXcXcXcXcXcXcXcXcXcXcXcXcXcXcXmXmXmXcXmXmXmXmXcXcXmXmXmXcXcXcXcXcXcXcXcXcXcXcXcXcXcXcXcXcXcXcXcXcXcXcXxXeXlXtXrX1X{.A.V.{.=X=X6X6X5X*XW.I.Y.g.&.E E I I I I U U F U D F H H H H H D H g s g s s s s s s a s s s p d p d d i p y y y y y y y y y y w w w w y y w w 4 4 4 4 4 4 4 4 4 4 4 4 3 3 < < 4 4 < , , , , < , , , , , , , , , , , , , , , , , , , , , , , , , , , , 1 1 1 1 1 1 1 7 5 7 6 6 8 C T ~ / %.@.@.@.@.",
"h h G G G G G G G G U U U U U U U U ] ] { { $.L.U.L.I.!.&X&X&X$X%X%X%X%X%X%X%X%X*X%X%X&X$X%X%X&X&X@XE.!.%X5X7X0X7X7X9X9X7X7X9X9X9XeXeXeXeX9X9X9X9X9XeX9X7X9X9XeXeX9XeXeXeXeXeXtXtXeXeXtXeXeXeXeXtXeXtXtXlXlXzXzXzXzXxXxXxXxXnXxXxXxX9X+XT.T.].&X7XlXlXlXlXlXxXxXeXeXxXtXxXxXxXeXeX7X6X6X6XeXeXeXeXeXeXeX7X7X7X7X6X6X6X6X7XeXeXeXeXeXeX7XeXeXeXxXxXcXcXcXzX9X6X*X;X*X%X%X%X&X%X%X&X&X&X&X=X<X6X7XeXeXeXeXtXeXtXtXtXeXeXeXeXeXeXeXeXeXeXeXeXeXeXeXeXeXxXxXtXeXtXyXxXxXxXxXxXxXxXxXxXxXxXxXxXxXcXcXcXcXcXcXcXcXcXcXcXcXmXmXmXmXmXmXmXmXmXmXcXmXmXmXmXmXmXmXmXmXmXmXmXmXMXMXMXMXMXMXMXMXMXMXmXmXMXMXMXMXMXMXMXMXMXMXMXCXCXCXCXCXZXZXCXCXCXMXMXMXMXMXMXMXMXMXMXMXMXmXmXnXcXnXcXcXcXcXnXcXcXcXMXMXMXMXmXmXmXmXmXmXmXmXcXcXmXmXmXmXmXmXcXcXcXcXcXcXcXcXcXcXcXcXcXcXmXmXmXmXmXmXmXmXmXmXmXmXmXcXcXcXcXcXcXcXcXcXcXcXcXcXcXcXcXcXcXcXcXcXcXxXxXeXtXtXrX1X`.M.Z.{.1X1X6X5X*X&XW.T.W.t.+.E R I I I I F U F G D D H H H H D D H g s g s s s s s s s s s s p d p d d y y y y y y y y y y y y y y w y y y w w 4 4 4 4 4 4 4 4 4 < 4 4 4 4 < < 4 4 , 1 , 1 < , , , , , , , , , , , , , , , , , , , , , , , , , , , , , 1 1 1 1 < < 1 1 1 1 5 5 5 7 M C T o.%.@.@.@.",
"h h G G G G G G G G U U U U U U U U ] ] { { #.h.L.L.I.W.!.&X&X$X&X%X%X%X%X%X%X%X%X%X%X$X@X$X$X$X5X5X%X&X%X%X%X;X0X7X9X7X0X0X9X9X9XeXeXeXeXeXeX9X9XeXeX9X6X5X9X9X9X9X9X9XeXtXeXtXtXtXtXtXeXeXeXeXtXeXtXtXzXzXzXzXzXzXxXxXxXnXcXcXnXmXcXlX*XT.I.Y.#X9XlXeXlXlXlXeXeXxXxXxXxXxXxXxXtXeX7X6X6X7XeXeXeXeXeXeX7X7X7X6X6X6X6X6X6X7XeXeXeXeXeXeXeXeXeXeXxXxXcXcXxXeX0X*X;X*X*X%X%X&X&X&X&X&X&X&X=X*X<X6X7XeXeXeXeXeXeXeXeXeXeXeXeXeXeXeXeXeXeXeXeXeXeXeXeXeXxXtXeXeXeXeXtXtXxXxXxXxXxXxXxXxXxXxXxXxXcXcXcXcXcXcXcXcXcXcXmXmXmXmXmXmXmXmXmXmXmXmXmXmXmXmXmXmXmXmXmXmXmXmXmXmXMXMXMXMXMXMXMXMXMXMXmXmXMXMXMXMXMXMXMXMXMXMXMXCXZXCXCXCXZXZXCXCXCXMXMXMXMXMXMXMXMXMXMXMXMXMXmXcXcXnXcXxXcXcXnXnXcXcXMXMXMXMXmXmXmXmXmXmXmXmXmXcXmXmXmXmXmXmXcXcXcXcXcXcXcXcXcXcXcXcXcXcXmXMXmXmXmXmXmXmXmXmXmXmXmXcXcXcXcXcXcXcXcXcXcXcXcXcXcXcXcXcXcXcXcXcXcXxXxXeXtXtXrX1X`.M._.{.1X<X5X6X*X%XE.Q.T.e.+.E R I I I I F F F G D D H H H H D D H g s g g s s s s s s s s s p p y d d y y y y y y y y y y y y y y y y y y w w 4 4 4 4 4 4 4 4 4 1 4 4 4 4 1 < 4 4 , 1 1 1 < < , , , , , , , , , , , , , , , , , , , , , , , , , , , , 1 1 1 1 < < 1 1 1 1 1 1 1 1 1 8 V T ~ O.@.%.",
"h h h h G G G G G G U G G G U ] ] ] ] ] { { #.t.I.L.I.I.W.!.@X@X$X&X%X%X%X%X%X%X-X%X%X$X$X$X$X%X5X5X;X6X*X%X%X%X;X5X0X0X9X9X9XeXeXeXlXlXlXlXeXeXeXeXeXeX7X5XeX6X7XeXeX7XeXtXeXeXtXxXxXtXeXeXeXeXeXeXeXtXtXtXtXeXxXxXxXxXxXxXcXnXmXMXMXnXnXeX+XI.g.@XeX6XlXlXeXeXzXxXxXxXxXxXxXxXxXxXlXeX0X6X9XeXeXeXeXeXeX7X7X6X6X6X6X6X6X7X7XeXeXeXeXeXeXeXeXeXzXxXcXcXxXzX7X5X*X*X*X&X&X&X#X&X&X&X&X&X&X=X*X5X6X9XeXeXeXeXeXeXeXeXtXtXeXeXeXeXeXeXeXeXeXeXeXeXeXeXeXtXeXeXeXeXtXtXxXxXxXxXxXxXxXxXxXxXxXxXxXxXcXcXcXcXcXcXcXcXcXcXcXcXmXmXmXmXcXcXcXcXcXcXcXcXmXmXmXmXmXmXmXmXmXmXmXmXmXmXmXmXMXMXMXMXMXMXMXMXMXMXMXMXMXMXMXMXMXMXMXCXFXFXFXFXFXCXCXMXMXmXmXMXMXMXMXMXMXmXmXcXmXcXcXnXnXnXnXnXcXmXMXMXMXMXMXMXmXmXmXmXMXMXMXMXMXMXMXMXmXmXmXmXnXnXnXnXnXnXnXnXcXnXcXcXcXmXmXMXMXMXMXmXmXmXmXmXmXmXmXmXmXcXcXnXcXcXcXcXcXcXcXcXcXcXcXcXcXxXxXxXxXxXxXeXtXrXrX=X`.b.`.=X6X5X6X6X;X;X@XQ.Y.e.#.E R I I P I U U F G G G D H H G D D D D g s s s s s s s s s p p p p p p p y y y y y y y y y y y y e e y w w w 4 4 4 4 4 4 4 4 4 4 4 4 1 1 4 4 4 < < < 1 1 1 < < < < < < < , , < < , , < , , , , , , , , , , , , , , , , , , , , , , , , , , 1 1 1 1 , , 5 p B Y ~ o.%.",
"h h G G G G G G G G U U G G U ] ] ] ] ] { { #.t.L.L.I.I.U.E.!.@X$X$X%X%X%X%X%X%X%X%X%X$X&X$X$X%X%X&X&X*X*X5X5X%X@X@X&X6X9X9XeXeXeXeXeXlXlXlXlXlXeXeXeXtXtXeXzXeX9XtXtX9XeXxXeXeXtXtXtXeXeXeXeXeXeXeXeXeXtXtXzXzXxXxXxXxXxXxXnXxXnXcXMXMXMXxXeX6XT.I.T.*XeXlXxXlXzXzXxXxXxXxXxXxXxXxXxXxXeX0X6X7XeXeXeXeXeXeX7X7X6X6X6X6X6X6X7XeXeXeXeXeXeXeXeXeXeXeXxXcXcXxXeX0X5X;X*X&X&X&X&X&X&X&X&X#X#X&X*X*X6X7X9XeX9XeXeXeXeXeXtXtXeXeXeXeXeXeXeXeXeXeXeXeXeXeXeXeXeXeXeXeXeXeXxXxXxXxXxXxXxXxXxXxXxXxXxXxXcXcXcXcXcXcXcXcXcXcXcXcXmXmXmXmXcXcXcXcXcXcXcXcXmXmXmXmXmXmXmXmXmXmXmXmXmXmXmXmXMXMXMXMXMXMXMXMXMXMXMXMXMXMXMXMXMXmXxXxXMXZXZXCXCXMXMXMXmXmXmXmXMXMXMXMXmXmXmXcXmXcXnXnXnXnXnXnXcXmXMXMXMXMXMXMXmXmXmXmXMXMXMXMXMXMXMXMXmXmXmXmXnXnXnXnXnXnXnXnXnXnXcXcXcXmXmXMXMXMXMXmXMXmXmXmXmXmXmXmXmXmXcXcXcXcXcXcXcXcXcXcXcXcXcXcXcXxXxXxXxXxXxXeXtXrXrX=X`.b.`.1X6X0X6X6X5X5X@XW.T.h.=.E I I I P U U F F D D G D H H G D H g D g s s s s s s s s s p p p p p p p y y y y y y y y y y y y e e y w w w 4 4 4 4 4 4 4 4 4 4 4 4 < 1 4 4 4 4 < < 1 1 1 1 < < < < < < , , < < , , < < , , , , , , , , , , , , , , , , , , , , , , , , , , 1 1 1 1 1 1 5 7 9 M Y ~ ",
"h h h h G G G G G G G G G G U U U ] ] ] { { } :.L.I.I.I.I.W.W.!.@X$X%X%X%X%X%X%X%X%X%X%X%X%X%X%X%X@X@X%X%X5X5X6X5X%X@X@X%X6XeXeXeXeXlXlXeXlXeXeXlXlXeXtXzXxXzXzXtXzXzXeXeXxXeXtXeXeXeXeXeXeXeXeXeXeXtXeXxXxXxXxXxXxXxXxXxXxXxXxXxXnXcXMXMXmXnXlX*XQ.T.].=XeXeXlXlXxXxXxXxXxXxXxXxXxXxXxXxXeX0X6X7X7XeXeXeXeXeX7X6X6X6X6X6X6X7X7XeXeXeXeXeXeXeXeXeXeXtXxXcXxXzX9X6X5X*X*X%X%X&X&X&X&X&X#X#X#X&X=X<X6X9X9X9XeX9XeXeXeXtXtXeXeXeXeXeXeXeXeXeXeXeXeXeXeXeXeXeXeXeXeXeXeXxXxXyXyXxXxXxXxXxXxXxXxXxXxXxXxXcXcXcXcXcXcXcXcXcXcXmXmXmXmXcXcXcXcXcXcXcXcXmXmXmXmXmXmXmXmXmXmXmXmXmXmXmXmXMXMXMXMXMXMXMXMXMXMXCXCXMXMXMXMXMXmXtXtXcXMXMXMXMXmXmXmXmXmXcXcXmXmXmXcXcXcXcXcXnXnXnXnXnXnXcXcXcXmXMXMXMXMXMXMXmXmXMXMXMXMXMXMXMXMXMXMXmXmXMXMXmXmXnXnXcXnXcXnXnXcXcXcXcXcXMXMXMXMXMXMXMXmXmXmXmXcXcXcXmXmXmXmXcXcXcXcXcXcXcXcXcXcXcXcXcXxXxXxXxXxXxXeXeXrXrX=X`.b.`.=X6X5X0X0X5X$XE.U.W.g.:.[ R I I U U U F F D D D H H H D g g g s s s s s s s s s s d p p p p p p p y y y y y y y y y y y y e y y w y w 4 4 4 4 4 4 4 4 4 4 4 4 < < 4 4 4 4 < < < < 3 3 4 < < < < < , , < < , < < < , , , , , , , , , , , , , , , , , , , , , , , , , , 1 1 1 1 1 1 1 1 1 6 v Y ",
"h h h h G G G G G G G G G G U U U ] ] ] { ] | *.L.I.L.L.L.I.W.W.!.$X$X$X%X%X%X%X%X%X%X%X%X%X%X-X%X&X&X%X%X%X;X;X*X;X;X;X*X%X*X;X;X6XeXlXeXeXeXlXlXlXtXeXtXxXeXtXzXxXxXtXeXxXeXeXtXeXeXeXeXeXeXeXeXeXeXeXtXxXxXxXxXxXxXxXxXxXxXxXxXxXnXcXmXMXMXMXnXeX#XE.].=X6XeXlXxXxXxXxXxXcXxXxXxXxXxXxXxXeX9X6X7X7X7XeXeXeXeX7X6X6X6X6X6X6X7X7XeXeXeXeXeXeXeXeXeXtXxXzXxXxXeX9X5X*X*X%X%X&X&X&X&X&X&X&X&X&X%X=X6X7X9X9X9XeXeXeXeXtXtXeXeXeXeXeXeXeXeXeXeXeX7X7XeXeXeXeXeXeXeXeXeXtXtXtXtXxXxXxXxXxXxXxXxXxXxXxXxXxXxXcXcXcXcXcXcXcXcXcXcXcXcXcXcXcXcXcXcXcXcXmXmXmXmXmXmXmXmXmXmXcXcXmXmXmXmXMXMXMXMXMXMXMXMXMXMXMXMXMXMXMXMXMXmXcXcXmXmXmXcXmXcXcXcXcXcXcXcXcXcXcXcXcXxXxXcXnXnXnXnXnXnXnXcXcXmXMXMXMXMXMXMXMXMXMXMXMXMXMXMXMXMXMXMXmXmXMXMXmXcXcXcXcXcXcXnXcXcXcXcXcXcXMXMXMXMXMXMXmXmXmXmXmXcXcXcXmXmXmXmXcXcXcXcXcXcXcXcXcXxXxXxXxXxXxXxXxXxXtXeXeXrXrX=X`.b.`.=X1X5X6X0X-X!.W.T.E.I.e.} I I P U U F F F D D D H H D D g g g s s s s s s s s s s d p p p p p p p y y y y y y y y y y y y y y y w y w 4 4 4 4 4 4 4 4 4 4 4 3 3 1 4 4 4 4 < < < < 4 3 3 < < < < < , , < < , , < < , , , , , , , , , , , , , , , , , , , , , , , , , , 1 1 , , 1 1 1 1 1 1 6 a ",
"h h h h h h G G G G G j G G U U U U ] ] { { { #.L.P.L.I.I.L.I.W.E.@X@X$X$X%X%X%X%X%X%X%X%X-X%X%X%X%X%X%X;X*X5X%X%X6X;X;X;X;X*X%X%X%X;XwXeXlXlXlXlXeXtXtXtXzXtXzXzXxXxXtXyXxXeXxXxXeXeXeXeXeXtXeXeXeXeXeXeXlXlXtXtXtXxXxXxXxXxXxXxXxXnXnXcXnXmXMXMXxX9X#X].@X*X7XeXlXxXxXxXxXxXxXxXxXxXxXcXxXxXeX7X7X6X6X7XeXtXeXeX7X6X6X6X6X*X6X7X7XeXeXeXeXeXeXeXeXeXeXtXxXxXxXeX0X*X%X*X=X&X&X#X&X&X&X&X#X&X&X&X*X0X9X9X9XeXeXeXeXeXeXeXeXeXeXeXeXeXeXeXeXeXeXeXeXeXeXeXeXeXeXeXeXeXeXtXtXxXxXxXxXxXxXxXxXxXxXxXxXxXxXxXxXcXcXcXcXcXcXcXcXcXcXcXcXcXcXcXcXcXcXcXcXcXcXcXcXcXcXmXmXmXmXmXmXMXMXMXMXMXMXMXMXMXMXCXCXCXCXMXMXMXMXmXmXmXmXmXmXmXmXmXcXcXcXcXcXcXcXcXcXcXxXcXxXcXcXnXnXnXnXnXnXcXcXnXnXmXcXMXMXMXMXmXmXMXbXMXMXMXMXMXMXMXMXmXmXnXnXmXmXnXnXnXnXcXcXnXnXnXxXxXcXmXMXMXMXMXMXmXmXmXmXmXmXcXcXcXnXnXnXcXcXcXcXcXcXcXcXxXxXxXxXxXxXxXtXxXxXtXeXeXeXrX=X`.b.`.=X*X,X5X5X%XE.T.W.@XR.t.+.R I I U U G G G D D D D G D D g g g g s s s s s s s s s d d d p p p p p i i y y y y y y y y e e y y y w w 4 4 4 4 4 4 4 4 4 4 4 < < < 1 1 4 < < < < 1 1 < 1 < < < , , , , , , , , , , , , , , , , , , , , , , , , , , , , , , , , , , , , , , , , , 1 1 , 1 1 1 1 5 ",
"h h h h h h G G G G G G G G U U U U ] ] ] { { } t.P.L.I.I.I.L.I.W.!.!.@X@X@X$X&X%X%X%X%X%X-X%X%X%X%X%X%X*X;X;X*X;X0X%X*X6X9X6X;X*X*X%X*XwXlXlXeXeXeXtXtXzXzXzXzXzXzXxXzXyXxXtXxXxXxXeXeXxXeXeXxXeXeXeXxXxXlXlXtXyXtXxXxXxXxXxXxXxXxXxXxXxXcXcXmXmXmXxXeX6X#X+X=X6XeXlXxXzXxXxXxXxXxXxXxXxXxXxXxXeXeX6X<X6XeXeXtXeXeX7X6X6X<X*X<X6X7XeXeXeXeXeXeXeXeXeXeXtXzXzXxXxXeX6X*X*X=X&X%X#X&X@X@X@X@X@X&X&X&X*X0X9X9XeXeXeXeXeXeXeXeXeXeXeXeXeXeXeXeXeXeXeXeXeXeXeXeXeXeXeXeXeXeXeXeXxXxXzXzXxXxXxXxXxXxXxXxXxXxXxXxXxXxXcXcXcXcXcXcXcXcXcXcXcXcXcXcXcXcXcXcXcXcXcXcXcXcXmXmXmXmXmXmXMXMXMXMXMXMXMXMXMXMXCXMXCXCXCXMXMXmXmXmXMXmXmXmXmXcXmXcXcXcXcXcXcXcXcXcXcXxXcXxXcXcXnXnXnXnXnXnXcXcXnXnXmXcXMXMXMXMXmXmXMXbXMXMXMXMXMXMXMXMXmXmXnXnXmXmXnXnXnXnXcXnXnXnXnXxXxXcXmXMXMXMXMXmXmXmXmXmXmXmXmXcXcXnXnXnXcXcXcXcXxXxXxXxXxXxXxXxXxXxXtXtXtXtXeXeXeXwXrX=X_.b.`.=X*X,X5X-X@XW.T.E.$XW.h.#.R I I U U G F F D D D D G D D g D D g s s s s s s s s s s d d p p p p p i i y y y y y y y y e e y y y w w 4 4 4 4 4 4 4 4 4 4 4 < < < < 4 4 < 1 < 1 1 1 < < < < < , , , , , , , , , , , , , , , , , , , , , , , , , , , , , , , , , , , , , , , , , , , , , 1 1 1 1 ",
"h h h h h h G G G G G G G G U U U U ] ] ] { { { >.P.I.I.I.I.L.I.I.W.!.@X@X@X@X@X$X&X%X%X%X-X-X%X%X%X%X%X%X%X%X%X*X0X%X%X*X;X*X*X6X6X;X%X#X#X*X0XeXxXtXtXzXzXzXzXzXzXzXzXxXxXxXxXxXxXxXtXtXcXcXcXcXeXeXyXxXxXtXtXyXxXxXxXxXxXxXxXxXxXxXxXxXxXxXnXnXMXMXnXxX6X#X#X=X6XeXlXzXzXxXxXxXxXcXcXcXxXxXxXxXeXeX6X6X6XeXeXeXeX9X0X6X<X=X<X<X6X7X7XeXeXeXeXeXeXeXeXtXtXzXxXxXzX9X5X*X*X&X&X&X&X@X@X@X@X#X&X&X&X&X*X5X0X7X9XeXeXeXeXeXeXeXeXeXeXeXeXeXeXeXeXeXeXeXeXeXeXeXeXeXeXeXeXeXeXxXxXtXzXyXyXyXyXyXyXxXxXxXxXxXxXxXxXcXcXcXcXcXcXcXcXcXcXcXcXcXcXcXcXcXcXcXcXcXcXcXcXmXmXmXmXmXmXMXMXMXMXMXMXMXMXMXMXMXMXCXCXCXCXMXmXmXMXMXmXmXmXmXmXmXcXcXcXcXcXcXcXcXcXcXxXcXxXnXnXnXcXnXnXnXcXmXcXcXcXcXcXMXMXMXMXmXmXmXmXMXMXMXMXMXMXMXMXmXmXnXnXmXmXnXnXnXnXnXnXnXnXnXxXxXcXmXMXMXMXMXmXmXmXmXmXmXmXmXcXcXnXnXnXcXcXcXcXxXxXxXxXxXxXxXxXxXxXyXxXtXtXeXeXeXwXwX=X`.b.`.=X1X5X-X%X@XW.W.~.-XE.h.$.E I I I U G F F D D D D D D D g D D g s s s s s s s s s s p d p p p p p i i y y y y y y y e e e y y y w w 4 4 4 4 4 4 4 4 4 4 4 3 1 1 < 1 3 < 1 < < < < < < < < < , , , , , , , , , , , , , , , , , , , , , , , , , , , , , , , , , , , , , , , , , , , , , , , , , ",
"h h h h h h G G G G G j G G U U U U ] ] I ] { { :.L.U.L.I.I.I.I.I.W.W.E.!.!.!.+X@X@X$X&X-X-X-X-X%X%X%X%X%X%X%X%X%X5X*X;X6X6X;X;X;X;X6X9X6X;X*X*X6X9XeXeXtXzXxXzXxXzXzXxXxXxXxXxXxXxXcXcXcXcXcXmXcXyXyXcXcXxXxXxXtXeXtXtXzXxXxXxXxXxXxXxXxXxXxXxXcXnXmXmXcXxXeX6X*X=X6XeXeXzXxXxXxXxXnXcXcXxXxXcXxXxXeXeX7X6X6X7XeXeXeX9X6X<X=X=X*X<X6X7X9XeXeXeXeXeXeXeXtXtXtXzXxXxXeX7X*X=X&X&X&X&X#X@X@X@X#X&X&X&X&X&X*X5X6X0X7X7X9X9XeXeXeXeXeXeXeXeXeXeXeXeXeXeXeXeXeXeXeXeXeXeXeXeXeXeXxXxXtXtXyXyXyXyXyXyXxXxXxXxXxXxXxXxXxXxXcXcXcXcXcXcXcXcXcXcXcXcXcXcXcXcXcXcXcXcXcXcXcXmXmXmXmXmXmXmXMXMXMXMXMXMXMXMXMXMXMXCXMXMXMXmXmXmXmXmXmXmXmXmXmXcXcXcXcXcXcXxXxXxXcXxXcXxXnXnXcXcXnXnXnXcXcXcXcXcXcXcXMXMXMXMXmXmXmXmXmXmXmXmXcXcXcXcXmXmXnXnXmXmXnXnXnXnXnXnXnXnXnXxXxXcXmXMXMXMXmXmXmXcXmXmXcXcXcXcXcXnXnXnXxXxXcXcXxXxXxXxXxXxXxXxXxXxXxXxXtXtXeXeX7XwXwX=X_.b.`.=X6X5X%X&XE.W.W.@X5X~.g.=.E I I I U G F F D D D D D D D g H H g s g g s s s s s s s p d p p p p p p p y y y y y y y e e e w w y w w 4 4 4 4 4 4 4 4 4 4 4 < 1 1 < 3 3 1 1 < < < < < < < < < , , , , , , , , , , , , , , , , , , , , , , , , , , , , , , , , , , , , , , , , , , , , , , , , , ",
"h h h h h h G G G G G G G G U U G U U ] ] ] { { $.L.I.I.I.I.I.I.I.W.W.W.E.!.!.E.E.!.@X$X%X-X-X-X%X%X%X%X*X%X%X%X%X;X*X;X6X0X6X0X6X=X6X9X7X9X6X*X<X6X0X0X7XeXxXcXxXxXxXxXxXxXxXxXxXxXxXcXcXxXcXcXmXcXcXmXnXxXcXxXxXxXxXlXlXxXlXnXxXxXxXxXxXxXxXxXxXxXcXmXmXmXcXlX6X&X=X;X9XlXxXxXxXnXnXnXnXnXcXcXxXxXxXtXeXeX0X6X0X7XeXeX9X6X*X*X*X*X*X6X7X9XeXeXlXeXeXeXeXxXxXxXxXcXxXeX6X=X&X%X%X#X#X@X@X@X@X&X&X&X&X&X&X*X5X6X0X0X7X7XeXeXeXeXeXeXeXeXeXeXeXeXeXeXeXeXeXeXeXeXeXeXeXeXeXeXtXtXtXtXyXyXyXyXyXyXxXxXxXxXxXxXxXxXxXxXxXxXcXcXcXcXcXcXcXxXxXxXcXcXcXcXcXcXcXcXcXcXcXcXcXcXmXmXmXmXMXMXMXMXMXMXMXMXMXMXMXMXMXMXMXmXmXmXmXmXmXmXmXcXcXcXcXcXcXcXxXxXxXxXxXxXxXxXnXnXnXnXnXnXcXcXcXcXcXmXnXnXMXMXmXmXcXcXcXMXMXMXmXmXMXMXMXMXmXmXcXcXcXcXnXnXnXnXnXnXnXnXcXcXcXnXmXMXVXVXMXmXmXcXcXcXnXcXcXcXnXnXnXnXcXcXcXcXcXcXcXxXxXxXxXxXxXxXxXxXeXeXeX7X7XwX6X=XY.Y.].=X=X*X%X].W.W.~.$X8X~.L.=.{ R R I I F G G G G D G H D D g g g s s g g g s s s s p p p p p p p p p y y y y y y y y y y y y w w w w w 4 4 4 4 4 4 < < < 1 1 < < 1 1 < < < < < < < < , , , , , < < < , , , , , , , , , , , , = = = = , , , , , , , , , , , , , , , , , , , , , , , , , , , , , , ",
"h h h h h h G G G G G G G G U U G G U G ] ] { { #.L.L.I.I.I.I.I.I.U.W.W.E.E.!.E.W.W.!.@X$X%X-X-X;X;X;X;X*X*X*X*X*X*X;X;X5X0X6X0X6X=X6X6X*X6XeXeX7X7X7X6X*X<X6X7XeXxXcXxXxXxXxXxXxXxXxXxXcXcXcXcXmXmXcXcXnXnXmXmXMXMXMXnXlXlXlXxXxXxXxXxXxXxXxXxXxXxXnXnXnXmXMXmXeX*X#X%X*X9XlXxXxXnXnXnXnXnXcXcXxXxXxXxXxXtXeX7X6X5X7XeXeX9X6X*X*X*X*X*X6X7X9XeXlXlXeXeXeXeXxXxXxXxXcXeX6X*X&X%X%X#X&X#X@X@X@X@X&X&X&X&X%X&X*X5X5X6X7X7X7X7XeXeXeXeXeXeXeXeXeXeXeXeXeXeXeXeXeXeXeXeXeXeXeXeXtXtXtXtXyXyXyXyXyXyXxXxXxXxXxXxXxXxXxXxXxXxXcXcXcXcXcXcXcXxXxXxXcXcXcXcXcXcXcXcXcXcXcXcXcXcXmXmXmXmXcXcXmXMXmXmXmXmXmXmXmXMXMXmXmXmXmXcXmXmXmXmXcXcXcXcXcXcXxXxXxXxXxXxXxXxXxXxXnXnXnXnXnXnXcXcXcXcXmXmXnXnXMXMXmXmXcXcXmXMXcXnXnXnXnXnXnXnXmXmXnXcXcXcXnXnXnXnXnXnXnXnXcXcXcXnXmXMXVXMXMXcXcXnXnXnXcXcXcXcXnXnXnXnXcXcXcXcXcXcXcXxXxXxXxXxXxXxXxXxXeXeX7X6X6X6X=X].Y.`.#X=X;X=X@X].W.E.$X%X8X~.g.$.R I I I I G G G G G D G D D D g g g g s g g g s s s s p d p p p p p p p y y y y y y y e w y y y w w w w w 4 4 4 4 4 4 4 < < 1 1 < < < 1 < < < < < < < < , , < , , < < < , , , , , , , , , , , , = = , , , , , , , , , , , , , , , , , , , , , , , , , , , , , , , , ",
"h h h h h h G G h h G G G G U U U G G G G ] ] { } h.L.I.U.I.I.I.I.I.U.W.!.!.!.E.W.W.E.E.!.@X$X%X%X%X;X;X;X;X;X;X;X;X;X;X*X6X0X7X0X*X9X6X=X<XtX7X0X7X7XeXeX7X*X%X=X7XeXxXxXxXxXxXxXxXxXxXxXxXcXcXmXmXmXmXnXnXnXnXcXcXnXxXxXlXnXxXxXxXxXxXxXxXxXxXxXxXnXnXcXnXmXmXcXeX*X%X&X*X9XlXxXxXnXnXnXcXcXcXxXxXxXxXxXxXxXtX9X6X5X6X9XeX9X5X*X*X*X*X*X6X7X9XeXlXeXeXeXeXxXxXxXcXnXxXeX;X&X%X%X&X%X&X#X@X@X#X&X&X&X&X#X%X&X*X*X5X5X6X7X7XeXeXeXeXeXeXeXeXeXeXeXeXeXeXeXeXeXeXeXeXeXeXeXeXtXtXtXtXyXyXyXyXyXyXyXyXyXyXxXxXxXxXxXxXxXxXxXcXcXcXcXcXcXcXxXxXxXcXcXcXcXcXcXcXcXcXcXcXcXcXmXmXmXmXmXmXmXmXcXcXmXmXmXmXmXMXmXmXmXmXmXmXmXmXmXmXmXcXcXcXcXcXxXxXxXxXxXxXxXcXxXxXnXnXcXcXnXnXnXnXcXcXmXmXmXnXmXmXmXmXcXcXmXmXcXnXnXnXnXnXcXnXmXmXcXcXcXcXnXnXnXnXnXnXnXcXcXcXnXnXmXMXVXMXMXnXcXnXnXnXcXnXcXcXnXnXnXnXcXcXcXcXcXcXcXxXxXxXxXxXxXxXxXtXeX7X7X6X6X6X*X].T.#X;X=X=X#X].E.E.@X%X-X2X!.h.#.{ I R I I F G G D D D G G D D g H H g s g g g s s s s p d p p p p i p p y y y y y y e e w w y y w w w w w 4 4 4 4 4 4 4 < < < < < < 1 1 < < < < , , < < , , , , , < < < , , , , = = = = , , , , , , , , , , , , , , , , , , , , , , , , , , , , , , , , , , , , , , ",
"h h h h h h G G h h G G G G U U U U U G G ] ] { { e.L.L.I.I.U.U.I.I.I.W.!.!.!.W.W.W.W.W.W.E.!.@X&X%X;X;X;X;X;X;X;X;X;X;X*X5X0X0X0X6XeX0X5X<XtX5X5X9X6X7XeXeXeXeX7X6X6X7X7XtXxXxXxXxXxXxXxXxXcXcXmXcXmXmXnXnXnXnXmXmXmXmXnXxXVXMXxXnXnXxXlXxXxXxXxXxXnXnXnXnXnXcXcXxXeX*X=X&X*X9XzXxXxXnXcXcXxXxXxXxXxXxXxXxXxXzXtX7X5X5X6X9X9X0X5X*X*X*X*X*X6X7X9XeXeXeXeXeXzXxXxXcXnXxXlX6X*X%X&X&X%X&X&X@X@X@X&X&X&X&X&X#X%X&X*X*X5X5X6X7X7XeXeXeXeXeXeXeXeXeXeXeXeXeXeXeXeXeXeXeXeXeXeXeXtXtXtXtXyXyXtXtXyXyXyXyXyXyXxXxXxXxXxXxXxXxXxXxXxXxXcXcXcXcXxXxXxXcXcXcXcXcXcXcXcXcXcXcXcXcXmXmXmXmXmXmXmXmXcXcXmXmXmXmXmXmXmXmXmXmXcXcXcXcXcXcXcXcXcXcXcXcXxXxXxXxXxXxXxXcXxXxXnXnXcXcXnXnXnXnXcXcXmXmXmXmXmXmXmXmXcXcXcXmXnXnXnXnXcXcXcXcXmXmXcXcXcXcXnXnXcXnXnXnXcXcXcXcXnXnXmXMXMXMXMXnXcXnXnXnXnXnXcXcXcXnXnXnXcXcXxXcXxXxXxXxXxXxXxXxXxXtXeXeXeX7X7X*X*X6X*X@X[.;X6X;X#X+XE.Q.E.@X%X;X-X!.h.#.I I R I I F G G D G D G D D D g H H g s g s s s s s s p d p p p p i p p y y y y y y e e w w y y w w w w w 4 4 4 4 4 4 4 < < < < < < 1 1 < < < < , , < < , , , , , < , , , , , , = = = = , , , , , , , , , , , , , , , , , , , , , , , , , , , , , , , , , , , , , , ",
"g g h h h h h h h h G G G G G G U U U U U U ] { { :.L.L.I.U.I.U.U.I.I.W.!.@X!.!.E.W.W.W.W.W.W.!.@X&X%X*X;X;X5X5X;X;X;X;X*X*X5X6X6X0X9X9X7X6XeX6X0XtX5XeXeXtXeX7X7X7X7X7X6X=X*XeXeXxXcXxXzXxXcXxXxXnXnXnXmXnXnXnXnXcXMXMXmXcXMXcXnXMXMXxXxXxXxXxXzXxXxXnXcXnXnXnXcXcXxX9X*X#X&X;XeXxXxXxXxXxXxXxXxXxXxXxXxXxXxXxXtXeX0X6X0X0X9X0X5X*X*X&X*X*X*X6X9XeXeXeXeXeXeXtXxXxXnXnXxX9X*X&X%X%X&X&X&X@X@X@X@X&X&X&X&X&X&X&X*X;X*X5X6X0X9X9XeXeXeXeXeXeXeXeXeXeXeXeXeXeXeXeXtXtXeXeXeXeXeXeXeXeXtXtXtXtXyXyXyXtXyXyXxXxXxXxXxXxXxXxXxXxXxXxXxXxXxXxXxXxXxXxXcXcXcXcXcXcXcXcXcXcXcXcXcXcXcXcXmXmXmXmXcXcXmXmXmXmXmXmXmXcXcXcXcXcXcXcXcXcXcXcXcXxXxXxXxXxXxXxXcXcXnXcXnXnXnXnXcXcXcXcXnXnXnXcXmXmXcXcXcXMXMXMXMXMXMXmXcXcXcXnXcXcXcXcXmXmXcXcXcXcXnXnXxXxXxXxXxXxXcXcXcXcXmXMXMXMXmXmXcXnXnXnXnXxXxXcXxXxXxXxXcXcXxXxXxXxXxXxXxXxXxXxXxXtXeXeXeX9X7X*X*X;X*X*X*X6X6X=X@XE.W.E.@X%X-X;X-XW.t.} { I I I G F G G D D D G G G D s H H s s g s g s s s s i i i i i i i p p i i y y y y w w w w w w w w w 4 4 4 4 4 4 4 1 < < < 1 1 < < < < , , , , , , , , < < , < < , , , , , , , = = = = = = = = = = = = , , , , , , , , , , , , , , , , , , , , , , , , , , , , , , ",
"h g h h g h h h h h G G G G G G U U U U U U ] { { #.h.L.L.I.I.U.I.I.I.U.!.$X%X%X$X+X!.E.E.W.W.W.E.+X@X&X*X;X;X5X5X5X;X;X*X*X*X5X5X5X6X0X7X7XeXeXeXxX7XtXxXxX<X6X6X7XeXeXyXeXeX6X<X*X5XeXxXxXxXcXnXcXnXnXcXnXcXnXcXmXmXmXmXmXmXcXnXmXMXMXVXMXlX9XeXxXcXMXnXnXcXxXcXnXnXxX9X*X#X&X6XeXlXxXxXxXxXxXxXxXxXxXxXxXxXxXzXeX9X9X9X5X5X6X5X*X*X&X*X*X*X;X7X9XeXeXeXeXeXeXxXxXcXnXxXeX0X*X&X%X%X&X&X&X@X@X@X&X&X&X&X&X&X&X*X*X5X5X5X5X0X9XeXeXeXeXeXeXeXeXeXeXeXeXeXeXeXeXeXeXeXeXeXeXeXeXeXeXeXeXeXeXtXtXtXtXtXtXxXxXxXxXxXxXxXxXxXxXxXxXxXxXxXxXxXxXxXxXcXcXcXcXcXxXcXcXcXcXcXcXcXcXcXcXmXmXmXmXcXcXcXcXcXcXcXcXcXcXcXcXcXcXcXcXcXcXcXcXcXxXxXxXxXxXxXxXcXcXcXcXnXnXnXnXcXcXnXcXnXnXnXnXmXmXmXcXcXcXMXMXMXMXMXMXcXcXcXnXcXcXmXcXmXmXcXcXcXcXnXnXxXxXxXxXxXxXcXcXcXmXmXmXMXMXmXmXcXnXnXnXnXxXxXxXxXxXxXxXxXxXxXxXxXxXxXxXxXxXxXxXxXtXeXeX9X0X6X*X*X;X*X;X6X7X<X#XE.W.Q.[.$X%X-X;X-XW.t.} { I I I G F G G D D D D G G D g H H s s g s g s s s s i i i i i p i p p i i y y y y w w w w w w w w w 4 4 4 4 4 4 4 < < < 1 1 < < < < < , , , , , , , , < < , < < , , , , , , , = = = = = = = = = = = = , , , , , , , , , , , , , , , , , , , , , , , , , , , , , , ",
"h h h h g h h h h h G G G G G G U U U U U U ] ] { } t.L.L.I.I.U.U.U.I.I.W.@X%X;X-X%X$X!.E.W.W.W.E.W.W.E.&X;X;X5X6X6X6X6X5X*X*X;X5X5X5X5X5X6X9X9XeXeX7XeXeXcXeXcXxX7X6XeXyXeXxXxXcXxX9X<X*X<X0XeXxXnXcXmXxXcXnXnXnXnXmXmXmXmXmXmXmXnXnXMXMXmXnXmXMXMXcXxXxXxXxXxXxXcXnXxXlX7X*X#X#X6XeXlXlXxXxXxXxXxXxXxXcXcXxXxXxXzXeXeX9X0X5X5X5X5X*X&X%X*X*X*X6X9XeXeXeXtXeXeXlXxXcXnXcXxX9X5X*X=X&X%X%X&X&X&X@X@X&X&X#X&X&X&X%X*X*X*X5X6X0X0X7XeXeXeXeXeXeXeXeXeXeXeXeXeXeXeXeXeXeXeXeXeXeXeXeXeXeXeXeXtXtXtXeXeXtXtXtXeXeXeXtXtXxXxXxXxXxXxXxXxXxXxXxXxXxXxXxXxXcXcXxXxXxXxXcXcXcXcXcXcXcXcXcXcXcXcXcXcXcXcXcXcXcXcXcXcXcXcXxXxXxXxXxXxXxXxXxXxXxXxXxXxXxXxXcXcXnXnXnXnXnXnXnXnXnXnXnXnXnXnXmXmXnXnXnXnXnXnXMXMXmXmXmXmXnXnXnXmXcXcXnXcXnXnXnXnXnXnXxXxXxXxXxXxXcXcXcXcXmXmXMXMXmXmXcXmXnXnXnXcXcXcXxXcXcXcXxXxXxXxXxXxXxXxXxXxXxXxXxXtXeXeX9X6X*X;X5X;X6X6X6X6X%XE.W.R.E.@X$X%X-X;X&XR.t.| { I I I G F G G D D D G G D D g g g g s g g g g s s d i i i i i p i i p i i y y y y w w w w w w w 4 w 4 4 4 4 4 4 4 1 1 < < < < , < < < , , < < , , , , < < , < , , , , , = = = = = = = = = = = = = = = , , , , , , , , , , , , , , , , , , , , , , , , , , , , , , ",
"h h h h g h h h h h G G G G G G U U U U U ] ] ] { | t.P.L.U.I.U.U.U.I.I.I.W.@X-X5X;X%X$X!.!.E.E.W.W.W.W.].&X*X5X5X5X6X6X6X;X;X*X*X5X*X*X*X*X6X7X9X7X7X9XeXxX7XeXeX7X7XxXcX;X6XxXxXeXzXzXeX6X7X6X6X9XeXlXxXmXnXMXMXnXnXmXmXmXmXmXmXcXnXMXMXMXmXMXMXMXmXnXnXnXxXlXxXxXnXcXxXeX7X%X#X*X6XeXlXxXxXxXxXxXxXxXcXcXxXxXxXxXtXtXeX9X6X5X5X5X*X*X*X%X=X*X*X0X9XeXeXeXeXeXlXxXxXcXcXxXeX6X*X*X%X%X&X&X&X&X@X@X&X&X#X&X&X#X%X%X*X*X*X5X0X0X7X7XeXeXeXeXeXeXeXeXeXeXeXeXeXeXeXeXeXeXeXeXeXeXeXeXeXeXeXtXtXtXeXeXeXeXeXeXeXeXtXtXxXxXxXxXxXxXxXxXxXxXxXxXxXxXxXxXcXcXxXxXxXxXcXcXcXcXcXcXcXcXcXcXcXcXcXcXcXcXcXxXcXxXcXcXcXcXxXxXxXxXxXxXxXxXxXxXxXxXxXxXxXxXcXcXnXnXnXnXnXnXnXnXnXnXnXnXnXnXmXmXnXnXnXnXnXnXMXmXmXmXmXmXcXnXnXmXmXcXnXnXnXnXnXnXnXnXxXxXxXxXxXxXcXcXcXmXmXmXMXMXmXmXmXmXnXnXnXcXxXcXxXcXcXcXxXxXxXxXxXxXxXxXxXxXxXxXxXtXeXeX7X6X*X*X5X5X5X5X5X*X[.W.R.R.E.&X&X%X-X-X$XU.>.[ { I I I G F G G D D D G G D D g g g g s g g g g s s s i i i i i p i i i i i y y y y w w w w w w w 4 w 4 4 4 4 4 4 4 1 1 < < < < , < < < , < < , , , , , < < , < < , , , = = = = = = = = = = = = = = = = , , , , , , , , , , , , , , , , , , , , , , , , , , , , , , ",
"g g g g g g h h h h h G G G G G U U U U U U ] ] { { :.L.I.I.I.U.U.U.U.I.I.I.E.-X0X0X6X;X%X@X+XE.E.E.E.W.E.+X#X%X%X*X;X;X;X6X6X6X;X;X5X5X*X*X;X6X7X6X9X9XeXeX7XeXeXeXeXxXxX=X6XxXxX0XxXcXxXeXeXeX7X7X7X7XeXeXmXcXcXxXcXcXcXmXmXmXmXcXcXmXMXmXmXmXMXMXMXMXMXnXnXxXxXxXxXxXxXxXeX;X#X#X*X6XeXlXxXxXxXxXxXxXxXxXxXxXcXxXxXzXlXeXeX6X5X6X6X*X*X=X=X=X*X6X6X9X9XeXeXeXlXlXzXzXxXzXeX9X5X*X*X&X&X&X&X&X@X@X@X@X&X&X&X&X&X&X%X%X*X5X5X6X6X7XeXeXeXeXeXeXeXeXeXeXeXeXeXeXwXwXwXwXwXwXwXwXeXeXeXeXeXeXeXeXeXeXeXeXeXtXtXtXyXyXyXyXxXxXxXxXxXxXxXxXxXxXxXxXxXxXxXxXcXcXcXxXxXcXcXcXcXcXcXcXcXcXcXcXcXcXcXcXxXxXxXxXxXxXcXxXxXxXxXxXxXxXxXxXxXxXxXxXxXxXxXxXxXxXxXxXnXnXnXcXnXnXcXcXcXcXcXcXnXnXnXcXcXcXcXcXcXcXcXcXnXnXnXnXnXnXnXcXcXcXnXnXnXnXcXcXcXxXxXxXcXcXcXcXcXcXmXmXMXMXMXMXmXmXmXcXcXcXcXxXxXxXxXxXxXxXxXxXxXxXxXxXxXxXxXxXxXlXeX9X6X*X;X;X;X;X6X6X5X&XE.T.T.E.#X&X&X&X-X%X@XI.>.{ { I ] I G G G G G G H G H G G g H H g g g g g s s s s d p p p p p i y y y y e e e w w w w w w w 4 4 4 4 4 4 3 3 < < < < < < < < < < < < < < < < , , , , < < , , , , , , , , , , , , , , , , , , , , , , * * * , , , , , , , , , * * , , , * * * , , , , , , , , , , ",
"g g g g g g h h h h h G G G G G U U U U U U ] ] ] { :.P.I.I.I.U.U.U.U.R.Y.I.U.@X5X0X0X9X7X5X&X!.E.E.E.E.E.E.E.].+X&X%X*X*X;X6X6X;X;X6X6X6X;X*X6X6X6X7X9XeXeXeXeXeXeXeXeXeX7XeXxXeX6XxXeX7XeXeXeXxXxXxXeXeX=X&X6XeXxXcXxXcXmXmXMXmXmXmXmXmXmXmXmXMXMXMXMXVXMXVXVXmXxXxXlXlXxXxXeX6X&X#X*X6XeXlXxXxXxXxXxXxXxXxXxXxXxXxXxXxXlXeXeX6X5X6X6X*X*X=X=X=X*X;X6X9X9XeXeXeXeXzXzXzXzXzX9X0X5X*X&X&X&X&X&X@X@X@X@X&X&X&X&X&X&X&X&X&X*X5X5X6X7XeXeXwXwXeXeXeXeXeXeXeXeXeXeXwXwXeXwXeXwXwXwXeXeXeXeXeXeXeXeXeXeXeXeXeXtXtXtXyXyXyXyXxXxXxXxXxXxXxXxXxXxXxXxXxXxXxXxXcXcXxXxXxXcXcXcXcXcXcXcXcXcXcXcXcXcXcXcXcXcXxXxXxXcXxXxXxXxXxXxXxXxXxXxXxXxXxXxXxXxXxXxXxXxXxXxXnXnXnXnXnXnXcXcXcXcXnXnXnXnXnXnXcXcXcXcXcXcXcXcXnXnXnXnXnXnXnXnXcXcXnXnXcXcXcXcXcXxXxXxXcXcXcXcXcXcXmXmXMXMXMXMXmXmXmXcXcXcXcXxXxXxXxXxXxXxXxXxXxXxXxXxXxXxXxXxXlXeXeX6X5X*X;X5X6X;X6X6X;X&XQ.Y.R.~.&X&X%X%X%X-X~.L.:.{ ] I I G G G G G G H G G G G g g H g g g g g g s s s s d p p p p p i p y y y e e e w w w w w w w 4 4 4 4 4 4 3 3 < < < < < < < < < < < < < , < < , , , , < < < , , , , , , , , , , , , , , , , , , , , , * * * , , , , , , , , , , * , , , * * * , , , , , , , , , , ",
"g g g g g g h h h h G G G G G G G G U U U U ] ] U { :.L.L.L.I.I.U.U.U.U.U.I.I.W.$X5X0X9X9X7X;X@X+XE.E.E.E.E.].E.E.].+X&X%X*X;X;X6X6X0X0X6X6X;X;X6X6X7X7X7XwXeXeXeXeXeXeXeXxXxXxXeX7XcXeXeXmXcXxXeXmXmXxXxXxXeX6X*X=X*XeXeXtXcXmXmXmXmXmXmXmXmXmXMXMXMXmXMXMXFXGXFXMXmXxXlXcXnXlXeX6X&X%X*X6XeXlXxXxXxXxXxXxXxXxXcXcXcXcXxXxXlXeXeX6X5X6X6X*X*X=X*X*X*X;X5X0X9X9XeXeXeXeXlXxXxXeX7X6X*X*X&X&X#X&X&X&X&X&X&X&X&X&X&X&X&X&X&X&X*X5X6X6X7XeXeXeXeXwXeXeXeXeXeXeXeXeXeXeXeXeXeXeXwXwXeXeXeXeXeXeXeXeXeXeXeXeXeXeXtXtXtXtXtXtXtXzXxXxXxXxXxXxXxXxXxXxXxXxXxXxXcXcXcXcXxXxXcXcXxXxXcXcXcXcXcXcXcXcXcXcXcXcXxXxXcXcXcXcXxXxXxXxXxXxXxXxXxXxXxXxXxXxXxXxXxXxXxXxXnXnXnXnXnXcXcXcXcXcXnXnXnXnXnXnXcXcXcXcXcXcXcXcXcXnXnXnXnXnXnXnXcXcXcXnXcXcXcXcXnXnXxXxXxXxXcXcXcXcXcXmXMXMXMXMXcXcXmXcXmXcXcXxXxXxXxXxXxXxXtXtXxXxXxXxXxXxXxXxXxXeX9X6X*X*X5X;X;X;X5X;X%X@XW.I.T.&X%X&X%X%X%X$XW.g.$.I I I ] G G G G G G H H G G G g g H g g g g g g s s s d d p i p p p p y y y y e e e w w w w w w w 4 4 4 4 4 3 3 3 < < < < < < < < < < < < , , , < , , , , < < , , , , , , , , , , , , , , , , , , , = , , * , , , = = , = , , , , , , , , , , * * , , , , , , , , , , ",
"g g g g g g h h h h G G G G G G G G U U U U U U U ] $.L.L.L.L.I.U.U.U.U.U.I.U.R.E.%X5X0X6X6X6X;X@XE.E.E.E.E.].E.E.E.E.].+X#X%X*X;X6X6X6X6X6X6X6X6X6X6X6X6X7XeXeX7XeXeXeXeXxXxXxXeXeXcXeX7XxXmXeX7XcXmXxXxXxXxXeXeXtXeXeX6X6X7XeXeXxXmXmXmXMXmXmXMXmXmXmXmXmXMXMXMXVXFXMXMXMXcXlXeX9X5X%X#X=X6XeXeXxXxXxXxXxXxXxXcXcXcXcXxXxXxXlXlXeX6X6X;X6X*X*X*X*X*X*X5X5X5X0X9X9X9XeXeXxXxXzX9X6X*X*X&X%X&X&X&X&X&X&X&X&X&X&X&X&X&X&X&X&X&X*X1X6X7X7XeXwXeXwXwXwXeXeXeXeXeXeXeXeXeXeXeXeXwXwXeXeXeXeXeXeXeXeXeXeXeXeXeXeXtXtXtXtXtXtXtXtXxXxXxXxXxXxXxXxXxXxXxXxXcXxXcXcXcXcXxXxXcXcXcXcXcXcXcXcXcXxXxXxXcXcXxXxXxXxXxXxXxXxXxXxXxXxXxXxXxXxXxXxXxXxXxXxXxXxXxXxXxXxXnXnXnXnXnXcXcXcXcXcXcXcXnXnXnXnXcXcXcXcXnXnXnXnXnXnXnXnXnXnXnXnXcXcXcXcXcXcXcXcXnXxXxXxXxXxXcXcXcXcXmXmXMXMXMXMXmXcXcXcXcXcXcXxXxXxXxXxXtXeXeXeXtXxXtXxXxXxXxXlXeXeX6X;X;X;X;X;X;X;X;X%X@X].Q.T.E.&X%X%X%X%X$X@XR.t.#.U I U I G G G G G H G H G G H g g g g g g g g g s s s d d i p p p p p y y y y e e y w w w w w w w 4 4 4 4 4 3 3 3 < < < < < < < < < < < < , , , < , , < < < < , , , , , , , , , , , , , , , , , , = = , , , , , , = = = = , , , , , , , , , , , * , , , , , , , , , , ",
"g g g g g g h h h h h h h h G G G G U U U U U U ] ] #.L.L.L.L.I.I.U.U.U.U.U.U.Y.W.@X%X%X%X;X0X6X%X@XE.E.E.E.].].E.E.E.E.].].+X%X*X6X6X6X6X6X6X6X6X6X6X6X6X6X7X7X7X7X7XeXeXxXxXeXeXeXxXeXeXeXcXeXeXcXnXxXxXmX<XeXxXxXxXeX7X7X7X6X9XeXxXmXMXmXmXcXcXcXmXmXMXmXcXmXMXVXFXFXVXVXmXcXlXeX6X*X#X#X=X6X9XlXxXxXxXxXnXnXnXnXnXnXcXxXxXxXlXeX9X6X5X5X;X*X*X*X*X;X5X5X5X6X0X9X9X9XeXzXxXzX9X0X5X*X*X&X&X&X&X#X#X#X&X&X&X&X&X&X&X&X&X&X#X&X*X6X7X7XeXeXeXeXeXeXeXeXeXeXeXeXeXeXeXeXeXeXeXeXeXeXeXeXeXeXtXtXeXeXeXeXtXtXtXtXtXtXtXtXeXeXeXeXxXxXxXxXxXxXxXxXxXxXcXcXcXxXxXxXxXxXxXxXcXcXcXcXcXcXcXcXxXxXxXxXxXxXxXxXxXtXxXxXxXxXxXxXxXxXxXxXxXlXlXlXzXzXxXxXxXxXxXxXxXxXxXxXxXxXxXxXxXxXxXxXcXcXcXcXnXnXnXnXnXnXnXnXnXnXnXcXnXnXnXnXxXxXxXxXxXxXxXxXnXnXcXcXcXcXcXcXcXcXmXmXMXMXMXMXMXmXmXcXcXcXxXyXxXeXeXeXeXeXeXeXeXeXzXtXxXxXlXeXeX0X;X;X;X6X;X;X;X;X$X@X+XE.W.E.@X%X%X%X%X%X&X~.U.e. .] ] ] I G G G G G H G G D g g g g g g g g g s s s s s d p p p p p p p p y y y y e y y w w w w w 4 4 4 4 4 3 < < < < < < < < < < < < < < < , , , < < < < < , , , , , , , , , , , , = = = = , * * , * * * * , , , , * * , , , , * * , , , * , , , , , , , , , , , , , , ",
"g g g g g g h h h h h h h h G G G G U U U U U U ] ] } h.L.L.L.I.U.U.U.U.U.U.U.Y.U.W.+X$X;X0X7X8X6X;X%X@X+XE.E.].E.].].E.E.E.].+X#X*X6X6X6X6X6X6X6X6X6X6X6X6X6X6X7X7X7X7XeXeXeXeXeXtXxXeXxXxXxXxXxXnXxXxXxXmX7XtXcXxXeXtXxXxXmXcXxX9X&X&X6XeXxXxXxXcXcXcXmXMXmXmXMXMXMXMXMXVXVXVXmXxXeX6X*X#X@X%X6XeXlXlXxXxXnXnXnXnXcXnXnXxXxXxXlXeXeX6X5X5X6X;X*X*X6X6X5X5X6X0X9X9X9XeXlXxXxXzXeX0X5X*X*X=X&X&X&X&X#X#X&X&X&X&X&X&X&X&X&X&X#X&X*X6X7X7X9X9XeXeXeXeXeXeXeXeXeXeXeXeXeXeXeXeXeXeXeXeXeXeXeXeXtXtXtXtXeXeXtXtXtXtXtXeXeXeXeXeXtXtXtXeXxXxXxXxXxXxXxXxXxXxXxXxXxXxXxXxXcXxXcXcXcXcXcXcXcXxXxXxXxXxXxXxXxXzXtXeXtXtXtXtXxXxXxXxXxXxXxXxXxXlXzXzXxXxXxXxXxXxXxXxXxXxXxXxXxXxXxXxXxXxXcXcXcXcXnXnXnXnXxXxXxXcXcXcXcXcXxXxXxXxXxXxXxXxXxXxXxXxXnXnXcXcXcXcXcXcXcXcXmXmXMXMXMXMXMXmXmXcXcXcXxXxXxXzXeXeXeXeXeXeXeXeXeXzXxXxXlXeX9X6X;X;X6X6X6X6X;X%X@X+XE.W.W.@X%X%X%X%X%X%X@X!.L.:.| { ] I I G G G G G G H G G H H g g g g g g g s s s s s i i p p p p p p y y y y y y y y w w w w w 4 4 4 4 4 3 < < < < < < < < < < < < < < < , , , , < < < < , < , , , , , , , , , , = = = = , , * * * * * * , , , , * * , , , , * * , , , * , , , , , , , , , , , , , , ",
"s s g g g g h h h h h h h h G G G G U U U U U U ] ] } h.L.L.I.I.U.U.U.U.U.U.T.T.U.Y.W.@X;X0X7X8X9X0X6X*X&X+XE.E.].].].+X+X].E.].+X#X*X6X6X6X6X6X6X6X6X6X6X6X6X6X6X6X7X6X7XeXeXeXeXeXeXxXxXxXxXxXcXcXxXxXxXxXeXeXeXeXeXcXcXxXxXcXmXxXeX0X<X6X6X7XeXzXxXcXnXmXmXmXmXmXmXMXMXMXVXZXMXmXxXeX6X&X#X@X*XeXeXlXxXxXnXnXnXnXnXnXcXnXxXxXxXlXeX9X6X6X6X;X;X6X6X6X0X0X0X0X0X9X9XeXzXxXxXzXzX9X0X;X*X*X&X&X&X&X#X#X&X&X&X&X&X&X&X&X&X&X&X&X%X<X6X6X7XwXeXeXeXeXeXeXeXeXeXeXeXeXeXeXeXeXeXeXtXtXeXeXeXeXeXeXtXtXtXeXtXtXtXtXeXeXtXeXeXeXtXtXeXeXyXtXxXxXxXxXxXxXxXxXxXxXxXxXcXcXcXcXcXcXxXxXxXcXcXxXxXxXxXxXxXxXxXzXyXeXeXtXyXxXxXxXxXxXxXxXxXxXxXxXzXzXxXxXxXxXxXxXxXxXxXxXxXxXxXxXxXxXxXxXcXcXnXnXnXnXxXxXxXcXcXcXcXcXcXcXxXxXxXxXxXxXxXxXxXxXxXxXcXcXcXcXcXcXcXcXcXcXmXmXMXMXMXMXMXmXmXmXcXcXcXxXxXxXxXxXxXxXtXtXxXxXxXxXxXzXeXeX6X;X;X;X;X;X5X6X;X&X@X!.W.W.W.&X%X%X%X%X%X$X!.U.h.$.{ { ] I U U G G G G H G G D H H H H g g g g g s s s s i d p p p p p p i y y y y y y y w w w w w w 4 4 4 4 4 3 < < < 3 3 3 3 < < < < < < < < < < < < < < < < < < < < , , , , , , , , , , , , , , , , , , * * , , * * * , , , * * * * , , * * * * * * $ $ $ $ , , , , , , ",
"s s g g g g h h h h h h h h G G G G U U U U U U U U | t.L.L.I.I.I.U.U.U.U.U.T.T.T.I.Y.E.$X%X;X5X6X6X6X;X*X&X+X].E.E.].].+X].].].].@X#X*X;X6X9X7X7X7X6X6X6X6X6X6X6X6X7X6X7X7X7XeXeXeXeXeXtXxXxXxXcXxXxXxXxXeXeXeXxXeXxXxXxXxXxXcXxXxXxXxXtXeX6X7X7X7X7XeXxXnXmXmXMXmXmXmXMXMXMXMXMXMXnXxX9X*X=X&X#X6XeXeXzXxXxXnXnXnXnXcXcXnXnXxXxXxXlXeX7X6X6X6X6X6X6X7X7X0X0X9X9X9X9X9XzXxXxXzXzXeX7X6X*X*X&X&X%X&X&X#X&X&X&X&X@X@X&X&X&X&X&X&X%X=X<X5X6X7XeXeXwXwXeXeXeXeXwXwXeXeXeXeXeXeXeXeXtXtXeXeXeXeXeXeXeXeXtXtXeXeXtXtXeXeXtXtXeXeXeXeXeXeXyXtXtXtXxXyXxXtXxXxXxXxXxXxXxXxXxXxXxXxXxXxXxXxXxXxXxXxXxXxXxXxXxXxXyXeXeXeXxXxXtXtXtXxXxXxXxXxXxXzXzXzXxXxXxXxXxXxXxXxXxXxXxXxXxXxXxXxXxXxXcXcXcXnXnXnXxXxXcXcXcXcXcXcXcXcXxXxXxXxXxXxXxXxXxXxXxXxXcXcXcXcXcXcXcXnXcXcXmXmXMXMXMXMXMXMXmXmXcXcXcXcXcXxXxXxXxXxXxXxXxXxXxXxXxXxXeXeX6X;X;X;X;X;X6X;X%X#X!.T.T.W.@X&X&X&X&X%X%X$XE.I.e.#.{ ] ] U U G G G G G G G G G H H H H g g g g g s s s s i d i p p p p p i i y y y y y y w w w w w w 4 4 4 4 4 4 < < < 3 3 3 3 < < < < < < < < < < < < < < < < < < < < , , , , , , , , , , , , , , , , , , , * * * * * * * , , * * * * , , * * * * * * $ $ $ $ , , , , , , ",
"s s g g g g h h h h h h h h G G G G G U U U G G U U { >.L.L.L.I.I.U.U.U.U.U.R.R.R.U.U.T.E.@X%X%X;X5X6X5X6X;X%X&X+X].+X+X].].+X+X].].+X@X&X;X0X0X9X9X9X0X7X6X6X6X6X6X7X7X6X7X7X7X7XeXwXwXeXtXxXcXcXcXxXcXxXxXxXxXxXxXxXyXxXxXxXxXeXeXcXcXxXzXeXeXeX9X6X6XeXeXxXxXnXnXnXMXmXmXmXMXMXMXMXnXeX5X*X%X&X&X5X0XeXzXxXxXxXcXcXnXnXnXxXxXxXxXxXlXeX6X6X6X6X6X6X7X9X9XeXeXeXeXeXeXlXxXxXxXlXeXeX6X*X*X*X&X&X%X&X&X&X&X&X#X#X@X@X@X@X&X&X#X#X&X=X*X<X6X7X9X9X9X9X9XeXeXeXeXeXeXeXeXeXeXeXeXeXeXeXeXeXeXeXeXeXeXeXeXeXeXeXeXeXeXeXeXeXeXeXeXtXeXxXtXxXxXxXxXtXeXtXtXxXxXxXxXxXxXxXxXxXxXxXxXxXxXxXxXxXxXxXxXxXxXzXtXyXtXxXxXtXtXxXxXxXxXxXxXzXzXxXxXxXxXxXxXxXxXxXxXxXxXxXxXxXxXxXxXxXxXxXxXnXnXnXnXcXcXcXxXnXnXnXnXxXxXxXxXxXxXxXxXxXxXxXxXxXxXxXxXxXxXnXnXnXnXcXcXmXmXmXmXMXMXMXMXmXmXmXmXmXcXcXcXcXcXxXcXcXcXxXcXcXxXxXxXxXlXeX7X;X;X;X;X;X5X;X$X+X!.W.T.W.+X&X&X&X$X$X$X-X$XW.L.:.#.{ I I I U U U G D D H D D D D g g g g s g s g s s s s p i p p p i i y y y y y e e e w w w w w w w 4 3 3 3 3 3 3 < < 3 3 < < < < < < < - = = < < < < , , , , , , , , = = = = , , , , , , = , , , , , , , , * * * * , * * * * , , , , , , * * , , , , * * $ $ $ $ $ $ $ $ ",
"g s g g g g h h h h h h h h G G G G G U U U U G U ] { $.L.L.L.L.I.I.U.U.U.U.R.R.R.R.R.T.R.W.@X%X*X5X6X6X6X6X0X6X*X&X@X+X].].+X].].].].].@X&X&X5X0X9X9X9X9X9X7X6X6X6X6X6X6X6X6X7X7X7X7X6X7XeXeXxXxXxXxXxXxXcXcXxXcXcXcXcXcXcXcXcXcXcXcXeX9XxXmXcXcXxXlXeX7X6X*X*X6XxXMXnXcXnXmXmXmXmXMXMXxX9X5X*X&X&X@X&X0XeXzXzXxXxXxXxXcXcXxXxXxXxXxXxXlXeX6X6X6X6X6X6X9XeXeXeXeXeXeXeXlXxXxXxXlXlXeX7X5X*X*X&X%X%X&X&X&X&X&X#X#X@X@X@X@X@X&X&X&X#X%X=X*X<X6X7X7X7X7X7XeXeXeXeXeXeXeXeXeXeXeXeXeXeXeXeXeXeXeXeXeXeXeXeXeXeXeXeXeXeXeXeXeXeXeXeXeXeXzXtXtXtXxXyXtXtXxXxXxXxXxXxXxXxXxXxXxXxXxXxXxXxXxXxXxXxXxXxXxXxXxXtXxXxXxXxXeXeXtXtXxXxXxXxXzXlXxXxXxXxXxXxXxXxXxXxXxXxXxXxXxXxXxXxXxXxXxXxXnXnXnXnXcXcXcXxXnXnXnXnXxXxXxXxXxXxXxXxXxXxXxXxXxXxXxXxXxXxXnXnXnXnXmXcXmXmXmXmXMXMXMXMXmXmXmXmXmXmXmXcXcXcXcXcXcXcXcXcXnXnXxXxXlXlXeX6X;X;X;X;X6X6X&XW.T.W.T.T.!.&X&X&X$X@X@X$X$X&XW.L.$.| ] I I I U U U G D D H D D D D g g g g g s s g s s s s p i p p p i i i y y y y e e e w w w w w w w 4 3 3 3 3 3 3 < < 3 3 < < < < < < < - = = < < < < , , , , , , < , = = = = , , , , , , = = , , , , * * , , , , * * , * * * , , , , * , * * , , , , * * $ $ $ $ * * $ $ ",
"g g g g g g h h h h h h h h G G G G G U U U G G U ] { | L.L.L.P.I.I.U.U.U.U.R.R.T.R.T.R.U.T.W.@X%X%X5X5X6X6X7X7X0X6X*X#X+X].].+X].].].].@X@X@X&X*X5X9X9XeX9X9X7X7X6X7X6X0X0X7X7X6X6X6X6X7X7XeXeXeXtXtXeXxXxXcXcXcXcXcXcXcXcXcXmXMXmXxXeXxXMXnXeXeXxXnXcXcXcXxXlXeX6X6XxXxXxXxXcXcXMXMXVXcXlX6X5X*X&X+X].%X0XeXzXzXzXxXxXcXcXxXxXxXxXxXxXxXlXeX6X6X6X6X6X9XlXxXxXxXlXlXxXxXcXcXxXxXxXlXeX6X*X*X*X*X%X&X&X&X&X&X#X@X@X@X[.[.@X@X#X&X&X&X%X&X*X5X6X7X7X7X7XeXeXeXeXeXeXeXeXeXeXeXeXeXeXeXeXeXeXeXeXeXeXeXeXeXeXeXeXeXeXeXeXeXeXeXeXeXeXxXxXxXzXxXxXtXtXxXxXxXxXxXxXxXxXxXxXxXxXxXxXxXxXxXxXxXxXxXxXxXxXtXtXxXxXxXxXtXtXtXtXeXeXxXxXzXlXxXxXxXxXxXxXxXxXxXxXxXxXxXxXxXxXxXxXxXxXxXxXnXnXnXnXcXcXcXcXcXcXnXnXxXxXxXxXxXxXxXxXxXxXxXxXxXxXxXxXxXxXnXnXcXcXmXmXmXmXmXmXMXMXMXMXmXmXMXmXmXmXmXmXmXcXmXmXmXmXmXmXmXnXxXxXeXeX7X;X;X;X5X6X*X%XE.T.T.Y.T.!.&X&X%X&X$X$X$X@X&X+XI.t. .{ ] I I I U U U D G G H H D D D g g g g g s s g s s s s d p p p p i i i y e e e e e e w w w w w w w 4 4 3 3 3 3 3 3 3 3 3 < < < < < < < - = = , , = = = = = = - - < < = = = = , , , , , = = = * , , , * * , , , , * * , , * * , * , , * * * * * * , , * * $ $ $ $ , $ $ $ ",
"g g g g g g h h h h h h h h G G G G G U U U U U U ] { [ L.L.L.I.U.I.U.U.U.U.R.R.T.R.T.R.T.Y.R.W.@X&X%X5X6X6X7X7X9X9X6X%X@X+X+X].].].].].].@X@X@X&X&X*X5X6X7XeX9X9X9X9X7X7X7X7X7X6X6X6X6X7X7XeXeXwXeXeXeXeXlXxXxXxXcXcXcXcXcXcXcXmXmXcXxXxXcXxXxXzXlXeXeXlXlXxXxXxXlXeXeXeX9X9XeXxXMXMXVXMXxX9X0X5X*X@XE.].&X0XeXzXzXzXxXxXxXxXxXxXxXxXxXxXxXlXeX0X6X5X6X9XlXxXcXxXxXxXxXxXcXcXxXxXxXlXeX9X5X*X*X*X%X%X&X&X&X&X@X@X@X@X[.[.[.[.@X@X#X#X&X%X=X<X5X0X7X7X7XwX7XeXeXeXeXeXeXeXeXeXeXeXeXeXeXeXeXeXeXeXeXeXeXeXeXeXeXeXeXeXeXeXeXeXeXeXeXxXzXzXzXxXxXyXtXxXxXxXxXxXxXxXxXxXxXxXxXxXxXxXxXxXxXxXxXxXxXxXxXyXtXtXeXzXxXtXtXtXtXeXeXxXxXlXxXxXxXxXxXxXxXxXxXxXxXxXxXxXxXxXnXxXxXxXxXxXxXcXnXnXnXcXcXcXcXcXxXxXcXxXxXxXxXxXxXxXxXxXxXxXxXxXxXxXxXxXxXnXxXcXcXmXmXmXmXmXmXmXmXMXMXmXmXMXmXmXmXmXmXmXmXmXmXmXMXMXmXnXxXxXlXeX9X6X*X;X6X5X;X@XT.T.T.T.T.W.&X%X&X%X$X@X$X$X$X$X!.L.:.} { I I I I U U G G D G D D D D D g g g g s s s g s s s s p i p p p i i i y e e e e e e w w w w w 4 w 4 4 3 3 3 3 3 3 3 3 3 < < < < < < < - = , , , = = = = = = - - - < = = = = , , , , , , = = = , , , * * , , , , * * , , * * * * , , * * * * * , , , $ $ $ $ $ $ $ $ $ $ ",
"f g g g g g g g g g h h h h G G G G G G U U U U U ] { { h.L.P.U.U.U.U.U.U.U.R.W.W.T.W.T.R.U.Y.R.W.+X%X;X6X6X6X7X9X9X7X;X*X%X#X+X].].].].].].+X].@X&X&X*X*X6X7X9X9X9X9X7X9X9X7X7X7X7X7X7X7X7X7X7X7XeXeXeXeXeXeXeXeXxXxXxXcXcXcXcXcXcXxXxXxXnXcXmXnXxXxXxXlXeXeXxXxXxXxXlXeX9X7X9XeXmXmXmXcXcXzX9X5X*X&X].].@X=X0XeXzXzXzXxXxXxXxXxXxXxXxXxXxXzXeX9X6X6X6X6XeXxXxXxXxXxXxXxXxXnXxXxXxXxXlX9X6X*X*X*X*X%X%X&X&X&X&X&X@X@X[.[.[.[.[.@X@X@X@X&X*X*X5X0X9X9X9X9X9X9XeXeXeXeXeXeXeXeXeXeXeXeXeXeXeXeXeXeXeXeXeXeXeXeXeXeXeXeXeXeXeXeXeXeXeXeXeXtXtXeXeXyXxXxXxXxXxXxXxXxXxXxXxXxXxXxXxXxXxXxXxXxXxXxXxXxXxXyXeXxXxXxXxXeXeXzXzXzXzXxXxXxXxXxXzXlXlXzXzXxXxXxXxXxXxXxXxXxXxXxXxXxXxXxXxXcXcXxXxXxXxXxXxXcXcXxXxXxXxXxXxXxXxXxXxXxXxXxXxXxXxXxXxXxXxXxXxXcXcXnXmXmXmXmXmXmXmXmXmXMXMXMXMXmXmXmXmXmXcXMXMXmXmXmXmXnXxXlXeXeX6X;X;X;X;X;X&XE.Y.Y.T.T.W.@X&X%X$X&X@X#X%X%X@X&X!.g.$.| { I I I I I U G G G G D D D D g s s s s s s s f s s s s p p p i i i y y y e e y e e w w w w w 4 4 4 4 4 4 3 3 3 3 3 3 < < < < < < < < < < , , = = = = = = = - = = , , = = = = , , , , * * , , * * * * , * * * * * * , * * * * * * * * * * * * * * * * $ $ $ $ $ $ , , * * ",
"f g g g g g g g g g h h h h G G G G G G U U U U U ] ] { >.L.I.U.U.U.U.U.U.U.R.W.W.W.W.T.T.R.T.Y.T.W.@X%X;X;X6X6X0X7X9X9X9X0X6X%X@X].].].].].+X].].].&X&X&X*X*X6X6X9X9X9X9X9XeXeXeXeXeXeXeX7X7X7X7X7X7XeXeXeXeXeXeXeXeXtXxXxXxXxXxXxXxXxXcXmXMXVXVXMXMXMXxXeXeXeXeXeXlXxXxXnXxXeX0X*XeXlXxXnXcXlX7X5X*X#X@X].@X&X0XeXlXzXxXxXxXxXxXxXxXxXxXxXxXlXeX6X6X6X6X6XeXlXxXxXxXxXxXxXnXxXxXxXxXxXlX0X5X*X*X*X%X%X%X&X&X&X&X@X@X[.[.].[.[.@X@X@X@X&X&X*X5X5X0X9X9X9X9X9XeXeXeXeXeXeXeXeXeXeXeXeXeXeXeXeXeXeXeXeXeXeXeXeXeXeXeXeXeXeXeXeXeXeXeXeXeXtXeXeXeXxXxXxXxXxXxXxXxXxXxXxXxXxXxXxXxXxXxXxXxXxXxXxXxXxXxXtXeXxXtXeXeXeXeXzXzXzXzXxXxXxXxXxXxXlXlXzXzXxXxXxXxXxXxXxXxXxXxXxXxXxXxXxXxXcXcXxXxXxXxXxXxXxXxXxXxXxXxXxXxXxXxXxXxXzXzXxXxXxXxXxXxXxXxXxXxXxXxXnXmXmXmXmXmXmXmXmXmXMXMXMXMXmXmXmXmXmXmXMXMXcXcXcXcXcXxXlXeX9X;X*X;X;X;X%X&XE.T.Y.I.T.@X%X%X$X&X@X@X&X%X%X@X@XW.t.#.{ { I I I I U G G G G G D D D D H s s s s s s s f s s s s p p p i i i y y y e e y e e e w w w w 4 4 4 4 4 4 3 3 3 3 3 3 < < < < < < < < < < = = , , = = = = = - = = , , = = = = , , , , * , , , * * * * , , * * * * * , * * * * * * * * * , , * * * * * $ $ $ $ $ , , , * * ",
"f f g g g g g g g g h h h h h h G G G G U U U U U U ] { :.L.U.I.U.U.U.U.U.R.W.W.W.W.W.W.T.T.R.Y.Y.R.!.$X%X;X;X6X6X0X9X9XeX9X9X0X*X&X+X+X+X+X+X].].].].#X#X#X%X*X;X7XeXeXeXeXeXeXeXeXeXeXeXeXeX7X7X7X7X7X9X9X7X7X7X7X7XwXeXeXeXeXeXeXlXxXxXnXMXMXMXMXVXMXmXxXxXnXlXeXeXlXxXmXMXnXxXlX&X0XeXzXxXzXeX7X5X*X&X@X].@X&X0XeXlXxXxXxXxXxXxXxXxXxXxXxXxXlX9X6X6X6X6X6XeXxXxXxXcXnXnXnXnXxXxXxXxXzX9X0X5X*X*X%X%X&X&X&X&X&X@X@X[.[.].[.[.@X@X@X@X&X&X=X*X5X5X6X9X0X0X9X9XeXeXeXeXeXeXeXeXeXeXeXeXeXeXeXeXeXeXeXeXeXeXeXeXeXeXeXeXeXeXeXeXeXeXtXtXeXeXeXeXzXxXxXxXxXxXxXxXxXxXtXtXeXtXyXtXtXtXxXxXxXyXtXzXeXeXeXeXyXeXeXeXeXeXxXxXxXxXxXxXxXxXlXlXlXlXzXxXxXxXxXxXxXxXcXcXxXxXxXxXxXxXxXxXcXcXcXxXxXxXxXxXxXxXxXxXxXxXxXxXxXxXxXxXzXtXtXyXxXxXxXxXxXxXxXxXxXxXnXmXmXmXmXmXmXmXmXmXmXmXMXMXmXmXmXmXcXcXcXcXcXcXcXcXnXxXlXeX7X;X%X*X;X%X&X@XE.W.I.T.+X&X&X&X$X&X@X#X%X;X%X+X~.I.e.#.{ { ] I I I U G G G G G D D G D g g s s g s s s g s s s s p p p i i i y y y y e y e e e w w w w 4 4 4 4 4 4 3 3 3 3 3 3 < < < < < < < < < = = = , , = , = = - - , , , , = = = = , , , , * * , , , , * * , , * * * * , , * * * * * * * , * * * * * , * * $ $ $ $ $ $ , , $ * ",
"f f g g g g g g g g h h h h h h G G G G U U U U U U I { #.L.U.P.U.U.U.U.U.R.W.W.W.W.W.W.T.T.T.R.Y.Y.T.!.&X%X;X6X6X6X7X9X9X9XeX9X9X5X&X#X@X@X+X].].].].+X@X#X#X#X=X;X6X9XeXeXeXeXeXeXeXeXeXeXeXeXeXeX7X7X9X9X7X7X7X7X7X7XeXeXeXeX7XeXeXeXeXlXxXxXcXnXnXnXxXxXxXcXMXnXlXeXlXlXxXnXcXcXMXzXeX9XeXeXeXeX9X*X&X&X@X].@X%X0X9XlXxXxXxXxXxXxXxXxXxXxXxXlXeX9X6X6X6X6X9XeXxXcXcXnXnXnXnXxXxXxXxXzXeX0X5X;X*X%X%X&X&X&X&X&X@X@X[.[.].[.@X@X@X@X@X&X&X#X=X*X5X5X6X0X0X9X9X7XeXeXeXeXeXeXeXeXeXeXeXeXeXeXeXeXeXeXeXeXeXeXeXeXeXeXeXeXeXeXeXeXeXtXtXtXeXeXeXtXxXxXxXxXxXxXxXxXxXeXeXeXtXtXtXtXtXyXxXxXtXtXtXtXeXeXeXyXeXeXeXeXeXxXxXxXxXxXxXxXlXlXlXlXlXzXxXxXxXxXxXxXcXcXcXxXxXxXxXxXxXxXxXcXcXcXcXxXxXxXxXxXxXxXxXxXxXxXzXxXxXxXxXzXzXtXyXxXxXxXxXxXxXxXxXxXxXnXmXmXmXmXmXmXmXmXmXmXmXMXMXmXmXmXmXcXcXcXcXcXcXcXnXxXxXeXeX6X*X%X%X%X&X&X+XT.T.W.!.&X&X&X&X&X@X&X$X%X;X$X!.!.L.*.} { { ] I I U U G G G G G D D G D g g g s g s s s f s s s s d p p i i i y y y y e y e y y w w w w 4 4 4 4 4 4 3 3 3 3 3 3 < < < < < < < < < = = = , = = , = = - - , , , , = = = = , , , , * * , , , , * * * * * $ * * , , * * * * * * * , , , * * * * * * $ $ $ $ $ $ $ $ $ * ",
"d d s s g g g g g g h h h h h G G G G G U U U U U U ] { #.h.I.L.I.I.U.U.Y.R.W.W.W.W.W.W.W.W.W.W.T.Y.R.W.+X%X;X5X6X6X0X0X7X9XeX9XeXeX6X=X%X#X#X@X+X].].].@X@X#X#X#X%X*X6X7XeXeXeXeXeXeXeXeXeXeXeXeXeXeX7X7X7X7X7X6X0X7X7X7X7X7X7X7X7XeXeX7X7XeXeXeXeXeXeXlXeXlXxXmXMXcXxXlXlXlXxXnXnXmXMXcXlX9X7XeXeX9X;X*X&X#X].].@X*X7XeXlXlXxXxXxXxXxXxXxXxXxXxXlXeX9X6X6X6X6X7XlXcXcXcXnXnXcXxXxXxXxXxXzX9X0X5X*X*X&X&X&X&X&X&X@X@X@X[.[.[.[.@X@X@X@X&X&X&X%X%X;X5X6X0X7X7X9XeXeXeXeXwXwXeXeXeXeXeXeXeXeXeXeXeXeXeXeXeXeXeXeXeXeXeXeXeXeXeXeXeXeXeXeXeXeXtXtXxXzXzXzXxXxXtXeXeXeXxXxXxXxXzXtXzXzXxXtXeXeXxXxXxXxXxXeXlXlXlXlXlXlXxXxXxXxXxXxXlXlXxXlXlXlXxXxXxXxXxXxXxXxXxXcXxXxXxXxXxXxXxXxXxXxXxXxXxXxXxXxXxXxXzXzXxXxXxXxXxXxXtXtXtXtXxXxXxXxXxXxXxXxXxXxXcXnXnXmXnXnXcXcXcXcXmXmXmXmXmXmXmXmXmXmXcXnXnXnXnXnXxXxXxXlXeX9X;X%X%X%X%X%X&XE.T.T.E.@X%X%X%X&X@X@X&X%X%X-X&XE.W.t.#.[ { { ] I U U U G G G G G G G G g g g g g g g s s s s s s d d d p p i i i y e e e e w w w e w w w w w w 4 4 4 4 4 < < < < < < < < < < < < = = - - = = = = = = = = = = = = = = = = = = = * * * * * * * * * * * * * * * * * * * * * * * * * * * $ $ $ $ $ $ * * , , , , * * * * ",
"d d s s g g g g g g h h h h h G G D G G U U U U U U ] { } t.L.L.L.I.U.U.Y.U.W.W.W.W.E.!.!.W.W.W.W.R.Y.R.E.$X%X;X6X6X6X0X0X0X9X7XeXeXeX6X6X*X=X%X#X+X].].+X@X@X@X@X@X#X%X*X6X9XeXeXeXeXeXeXeXeXeXeXeXeXeXeXeX7X7X7X7X7X7X7X7X7X7X7X7X7X7X7X7XeXeXeXeXeXeXeXeXlXlXxXnXMXnXxXlXeXxXxXlXxXmXMXmXxXlX9X6X*X6X6X*X&X@X].].#X;X7XeXlXxXxXxXxXxXxXxXxXxXxXxXeXeX9X6X6X;X;X6XxXcXcXnXnXcXxXxXxXxXxXzXeX9X6X5X*X*X&X&X&X&X&X#X@X@X[.[.[.[.@X@X@X@X@X@X&X&X%X%X;X5X0X7X0X7X9X9X9XeXwXwXeXeXeXeXeXeXeXeXeXeXeXeXeXeXeXeXeXeXeXeXeXeXeXeXeXeXeXeXeXeXeXeXtXtXzXzXtXzXxXxXtXeXeXeXxXxXxXxXtXtXzXzXzXtXtXeXxXyXxXxXtXeXlXlXlXlXxXlXxXxXxXxXzXzXlXlXxXlXlXlXxXxXxXxXxXxXxXxXxXcXxXxXxXxXxXxXxXxXxXxXxXxXxXxXxXxXxXxXxXzXxXxXxXxXxXxXxXtXeXtXxXxXxXxXxXxXxXxXxXxXcXnXnXmXnXcXcXcXcXcXmXmXmXmXmXmXmXmXmXmXcXnXnXnXnXnXxXlXeXeX7X6X;X%X%X%X%X%X&XE.W.E.@X@X&X%X&X@X@X@X&X$X-X-X@XW.I.:.| { { { I U U U U G G G G G G G G g g g g g g g s s s s d s d d d p p p i y y e e e e w w w e w w w w w w 4 3 3 4 4 < < < < < < < < < < < < = = - - = = = = = = = = = = = = = = = = = = = = * * * * * * * * * * * * * * * * * * * * * * * * * * $ $ $ $ $ $ * * , , , , * * * * ",
"d d s s g g g g g g h h h h h h G G G G G U U U U U ] { { *.L.L.L.I.U.U.Y.U.W.W.W.E.E.!.+X+X!.W.W.W.R.T.W.@X%X;X5X6X6X6X0X0X7X6X7XeXeXeXeX9X6X*X=X#X+X].@X@X@X@X@X@X@X#X#X*X;X6X9XeXeXeXeXeXeXeXeXeXeXeXeXeXeXeXeX7X7X7X7X7X7X7X7X7X7X7X7X7XeXeXeXeXeXeXeXeXlXlXlXxXnXMXZXVXMXnXVX7XlXxXlXxXcXcXxX6X*X6X6X*X*X#X].].@X*X6X7XeXeXxXxXxXxXxXxXxXxXxXxXlXeXeX9X6X6X;X;XeXxXcXnXnXnXnXxXxXxXxXxXzXeX0X6X5X*X%X&X&X&X&X#X@X@X@X@X[.[.@X@X@X@X@X@X&X&X&X&X%X;X5X5X6X0X7X7X9X9X7X7XwXeXeXeXeXeXeXeXeXeX7X7X7X7XeX7XeXeXeXeXeXeXeXeXeXeXeXeXeXeXeXeXtXtXtXeXtXeXxXxXxXxXeXtXeXeXeXeXeXeXtXtXxXtXeXeXeXeXeXeXeXeXlXlXzXzXzXxXxXxXlXlXzXzXlXlXlXlXlXxXxXxXxXxXxXxXnXnXnXnXxXxXxXxXxXxXxXxXxXxXxXxXxXxXxXxXxXxXlXlXxXxXxXzXxXeXeXeXeXeXxXxXzXzXxXxXxXxXxXxXcXcXnXnXnXnXnXnXcXcXmXmXmXmXmXmXmXmXmXmXcXnXnXnXcXxXlXeXeX9X6X;X;X%X%X%X%X%X&X+XE.@X@X&X&X&X@X@X@X@X&X$X%X%X@XW.L.=.[ { R R I U U U U U G G G G G H H g g g g g g g g s s s d d d d d p p i i y y e e e e w w w e w w w w w w 4 < 3 < < < < < < < < < < < < < < = = - - = = = = = = = = = = = = = = = = = = = = * * * * * * * * * * * * * * * * * * * * * * $ * $ $ $ $ $ $ $ $ * * * * * * * * * * ",
"d d g g g g g g g g h h h h h h G G G G G G U U U U ] ] { #.g.L.L.I.I.U.Y.U.W.W.E.!.!.+X@X@X!.W.W.W.W.T.R.!.@X%X*X;X;X5X6X6X6X6X6X7XeXeXeXeX9X0X6X*X&X@X+X+X+X+X@X@X@X@X#X#X%X*X;X6X7XeXeXeXeXeXeXeXeXeXeXeXeXeXeX7X7X7X7X7X7X7X7X7X7XeX7X7XeXeXeX9XeXeXeXeXlXlXlXlXxXnXMXMXMXMXnXeXmXxXeXxXxXxXxXxXeX6X*X*X*X#X#X].].#X=X;X7XeXzXxXxXxXxXxXxXxXxXxXxXeXeXeX9X6X;X;X6XeXxXcXnXnXnXxXxXxXxXzXzXeX9X9X6X5X*X&X&X&X&X#X@X@X@X@X[.[.@X@X@X@X@X@X&X&X&X&X%X%X*X*X;X5X6X6X7X7X7X7XwXwXeXeXeXeXeXeXeXeX7X7X7X7XeXeXeXeXeXeXeXeXeXeXeXeXeXeXeXeXeXeXtXtXtXeXeXeXxXxXxXxXeXeXeXeXeXeXeXeXtXtXtXtXeXeXeXeXeXeXeXeXlXlXzXzXzXxXxXxXlXzXzXzXlXlXlXlXlXxXxXxXxXxXxXxXnXnXnXnXxXxXxXxXxXxXxXxXxXxXxXxXxXxXxXxXxXxXeXeXlXlXxXtXeXeXeXeXeXeXxXxXzXzXxXxXxXxXxXxXcXcXnXnXnXnXnXnXcXcXcXcXcXcXcXcXmXmXmXcXnXnXnXcXxXeXeXeX9X6X;X*X%X%X%X%X%X&X&X@X@X@X@X@X&X@X@X@X@X@X@X$X%X-X~.U.t.#.[ [ R I I U U U U U G G G G G G H g g g g g g g s s s s d d d d d p p p i y y e e e e w w w e w w w w w w 4 < < < < < < < < < < < < < < < < = = - - = = = = = = = = = = = = = = = = = = = = * * * * * * * * * * * * * * * * * * * * * * $ $ $ $ $ $ $ $ $ $ * * * * * * * * * * ",
"f f f f g g g g g g h h h h h h G G G G G G U U U U I ] { | e.L.L.I.I.U.U.U.R.W.W.!.!.@X$X&X+X!.W.W.W.T.R.W.+X&X%X%X;X5X5X5X6X6X6X7XwXeXeXeXeXwX9X6X*X%X#X@X+X+X@X@X@X@X@X@X#X#X&X*X5X7XeXeXeXeXeXeXeXeXeXeXeXeXeXeX7X7X7X7X7X7X7X7XeXeXeXeXeXeXeXeXeXeXlXzXzXxXxXxXxXxXnXmXMXMXmXnXMXxXxXxXlXlXlXxXlX9X*X=X%X#X#X].].].@X=X6X9XeXzXxXxXxXxXxXxXxXxXxXlXeXeXeX9X6X*X6XeXxXnXnXnXnXxXxXxXxXzXzXeX9X9X7X5X*X&X&X&X#X@X@X@X@X@X@X@X@X@X@X@X@X&X&X&X&X&X%X%X*X*X5X5X5X5X6X0X9X9X7X9XeXeXeXeXeXeXeXeX7X7XeXeXeX9XeXeXeXeXeXeXeXeXeXeXeXeXeXeXeXeXeXeXeXeXeXeXtXtXtXeXeXeXeXeXeXeXeXeXeXeXeXeXeXeXeXeXeXeXeXeXlXlXxXzXlXlXzXlXlXxXxXxXxXxXzXlXlXzXxXxXxXxXxXxXxXxXxXxXxXxXxXxXxXxXxXxXxXxXxXxXxXtXyXtXzXlXlXeXzXzXtXtXeXeXeXeXeXeXxXyXlXlXxXxXxXxXxXxXcXcXnXnXxXcXcXcXcXcXcXcXcXcXcXcXnXnXnXnXxXxXxXxXlXeX9X9X9X6X%X%X%X&X%X%X&X&X&X@X@X&X&X&X&X&X&X@X@X@X@X$X%X%X!.I.:.o.[ { R ] ] U U G U U G G G G G G H g g g g g g g g s s d d d d d d p i i i y i e e e e e e e e w w w w w w 3 4 3 3 3 < < < < < < < < < < < < < < - - - = = = = = = = = = = = = = = = = = * * * * * * * * * * * * * * * * * * * * * * * * $ $ $ * * $ $ $ * * , , * * * * , , * * ",
"f f f f g g g h g h h h h h G h G G G G G G U U U U I ] { | :.L.L.I.I.U.U.Y.U.R.W.!.~.@X@X@X@X@X!.W.W.W.T.T.T.E.&X%X;X;X5X5X6X6X6X6X7XwXwXwXwXwXeXeX9X0X*X#X@X@X@X@X@X@X@X@X@X@X#X#X=X*X6X7XeXeXeXeXeXeXeXeXeXeXeXeXeXeX7X7X7X7X7XeXeXeXeXeXeXeXeXeXtXxXxXxXxXxXxXxXxXxXnXnXmXMXMXMXmXMXnXlXeXeXeXeXeXeX6X&X#X#X#X+X+X].].#X*X7XeXeXlXxXxXxXxXxXxXxXxXxXlXeXeXeX6X;X6X9XlXnXnXnXnXxXxXxXzXzXzXeXeX9X9X6X5X*X&X&X&X#X@X@X@X@X@X@X@X@X@X@X@X@X&X&X&X%X%X;X*X*X5X5X5X5X5X6X6X0X7X7X9X9XeXeXeXeXeXeXeXwXeXeX7X7XeXeXeXeXeXeXeXeXeXeXeXeXeXeXeXeXeXeXeXeXeXeXeXeXeXeXeXeXeXeXeXeXeXeXeXeXeXeXeXeXeXeXeXeXeXeXlXlXxXxXlXlXzXlXxXxXxXxXxXxXzXlXzXzXxXxXxXxXxXxXxXxXxXxXxXxXxXxXxXxXxXxXxXxXyXyXtXeXeXeXeXeXeXeXlXeXeXeXeXeXeXeXeXeXxXyXlXlXxXxXxXxXxXxXxXxXcXcXxXxXcXcXcXcXcXcXcXcXxXcXnXnXnXxXxXxXxXzXeX9X6X6X;X*X&X&X&X&X%X%X&X&X&X@X@X&X&X&X&X&X&X@X@X@X@X&X%X-XW.g.$.| { { ] ] ] U U G U G G G H G G G H g g g g g g g g s s d d d d d d p i i i y y y e e e e e e w w w w w w w 3 4 4 3 3 < < < < < < < < < < < < < < - - - = = = = = = = = = = = * * = = = = * * * * * * * * * * * * * * * * * * * * * * * * $ $ * * * * $ $ * * , , * * * * , , * * ",
"f d g g g g g g g g h h h h h h h h G G G G U U U U I I { { :.L.L.P.I.I.U.U.U.R.W.E.~.@X@X@X@X@X@X!.W.W.W.T.T.T.E.&X%X*X*X*X*X;X6X6X6X7X9XeXeXeXeXeX9X9X9X*X&X&X#X@X@X@X@X@X@X@X@X#X&X&X=X<X6X7XeXeXeXeXeXeXeXeXeXeXeXeXeXeX7X7XeXeXxXxXxXeXzXzXxXxXxXxXxXxXxXxXxXxXxXxXcXnXnXmXmXmXmXMXVXmXxXxXxXlXlXeX7X6X=X#X&X@X+X].E.].&X5X7XeXeXlXxXxXxXxXxXxXcXxXxXlXlXeX9X6X*X6XeXxXmXmXmXnXxXxXzXtXtXeXeXeX9X0X0X5X&X&X&X&X@X@X@X@X@X@X@X@X+X+X@X@X@X&X&X%X*X;X*X*X5X5X5X5X6X5X6X6X7X7X7X7XeXeXeXeXeXeXeXeXeXeX7X7XeXeXeXeXeXeXeXeXeXeXeXeXeXeXeXeXeXeXeXeXtXtXeXeXeXtXeXeXeXeXeXeXeXeXeXeXeXeXeXeXeXeXeXeXtXtXlXlXzXxXlXlXlXlXxXxXxXxXxXxXxXxXxXxXxXxXxXxXxXxXxXxXxXxXxXxXxXxXxXxXxXtXtXeXtXeXeXeXeXeXeXeXeXeXeXeXeXeXeXeXeXeXeXeXzXzXlXlXxXxXxXxXxXxXxXxXxXxXxXxXcXcXcXcXcXcXcXcXcXcXcXcXxXzXzXzXeXeX9X6X;X*X%X&X&X&X&X&X%X%X&X&X&X&X&X&X&X&X&X&X&X@X@X@X&X&X%X@XI.t.o.{ { R ] ] ] ] U G G G G G G G G G H g g g g g g g g s s s d d d d d p i i i y y e e e e e e e e w w w w 4 w 3 4 4 4 4 < < < < < < < < < < < < < < - - = = = = = = = = = = = = * * = = = = * * * * * * * * * * * * * * * * * * * * * * * * $ $ * * * * $ $ $ * , , * * * * * * * * ",
"f f g g g g g g g g h h h h h h h h G G G G U U U U U I I { *.g.L.I.I.I.U.U.Y.U.R.W.~.+X@X@X@X&X@X+X!.W.W.W.T.T.W.E.#X%X&X&X*X*X;X6X6X7X9X9XeXeXeXeX9XeXeX9X5X*X=X#X@X@X@X@X@X@X@X@X@X&X#X%X=X*X6X7XeXeXeXeXeXeXeXeXeXeXeXeX7XeXeXtXxXxXxXxXxXxXxXxXxXxXxXxXxXxXxXxXxXxXxXxXnXnXnXnXnXnXMXMXMXnXxXlXeXeX9X6X*X&X&X#X+XE.E.E.@X&X;X7XeXeXxXxXxXxXxXxXxXxXxXxXzXlXeX7X6X6X9XxXmXmXmXnXcXxXzXzXzXtXeXeX9X9X0X5X*X&X&X&X#X@X@X@X[.[.@X@X+X+X+X+X@X@X&X%X*X;X*X*X5X5X5X5X5X5X6X6X6X7X7X7X7X7XeXeXeXeXeXeXeXeX7X7XeXeXeX7XeXeX7X7XwX7XeXeXeXeXeXeXeXeXeXeXtXtXeXeXeXeXeXeXeXeXeXeXeXeXeXeXeXeXeXeXeXeXtXtXtXtXlXlXzXzXlXlXlXxXxXxXxXxXxXxXxXxXxXxXxXxXxXxXxXxXxXxXxXxXxXxXxXxXxXxXxXeXeXeXeXeXeXeXeXeXeXeXeXeXeXeXeXeXeXeXeXeXeXeXzXzXlXlXxXxXxXxXxXxXxXxXxXxXxXxXcXcXcXcXxXxXcXcXcXcXxXxXzXzXlXeX9X9X6X;X*X%X&X&X&X&X&X&X%X%X&X&X&X&X&X&X&X&X&X&X@X@X@X@X@X$X%X~.L.:.} { { R { ] ] U U G G G G G G G G G H g g g g g g g g s s d d d d d d p i i i y y e e e e e e e e w w w w 4 4 3 4 4 4 4 < < < < < < < < < < < < < < - - = = = = = = = = = = = = * = = = = * * * * * * * * * * * * * * * * * * * * * * * * * $ $ * * * * $ $ $ * * , * * * * * * * * ",
"d d d d f f g g g g g g h h h h h h G G G G G G G G U U ] { *.g.L.L.I.U.U.U.U.U.R.W.E.!.+X!.+X+X@X+X+XE.W.W.W.R.T.W.@X&X%X*X*X;X*X5X6X7X7X7XeXeXeX9X9XeXeXeX9X0X*X=X#X@X#X@X@X@X@X@X@X@X+X@X#X#X*X*X6X9XeXeXeXeXeXeXeXeXeXeX9X9XeXlXxXxXxXxXxXxXxXxXxXxXxXxXxXxXxXxXxXxXxXxXxXxXxXxXxXnXnXMXMXmXnXxXlXeX9X6X5X&X#X&X@X].E.W.Q.@X=X6X9XeXeXxXxXxXxXxXxXxXxXxXxXzXeXeX6X6X6XlXmXmXcXcXcXxXxXxXxXxXlXeXeX9X0X5X*X&X&X&X&X&X@X@X@X@X@X@X+X+X].].+X@X@X&X%X%X*X;X;X;X;X6X6X6X6X6X6X6X7X9XeXeXeXeXeXeXeXeXeXeXeXeXeXeX7X7XeXeXeX7XeXeXeXeXeXeXeXeXeXeXeXeXtXtXtXeXeXeXeXeXeXeXeXeXeXeXeXeXeXeXeXeXeXeXeXeXeXeXeXeXzXzXyXyXxXxXxXxXxXxXxXxXxXxXxXxXxXxXxXxXxXxXxXxXxXxXxXxXxXxXeXeXeXeXeXeXeXeXeX7XeXeXeXeXeXeXeXeXeXeXeXeXeXeXtXtXeXeXlXlXxXxXxXxXxXxXxXxXxXxXxXxXxXxXxXxXxXxXxXxXxXxXzXzXeX9X9X9X6X;X;X*X&X#X#X&X&X&X&X&X&X&X&X&X&X&X&X&X&X@X@X@X@X@X@X@X&X$X&X!.L.=.| { { ] ] ] ] I G G G G G G G G G G G H g g g g g g g s s s d d d d d p i i i i i r r e e e e e e w w w w w w 4 < < < < 3 3 3 3 < < < < < < < < , , - - - = = = = = = = = = = = * * * * * * * * * * * * * * * * & & * * * * * * * * * * * * * * & * $ $ $ $ * * $ $ * * * * * * , * ",
"d d d d f f g g g g g g h h h h h h G G G G G G G G G U ] { $.g.L.L.I.I.U.U.U.R.R.W.W.!.+X+X+X+X+X+X+X+X!.W.W.T.T.W.E.&X%X*X5X5X5X5X9X9X7X7XeXeXeX9X9XeX9X9X9X9X7X6X*X=X#X#X@X@X@X@X@X+X+X+X+X@X#X%X*X*X6X9XeXeXeXeXeXeXeXeXeXeXeXeXlXxXxXxXxXxXxXxXxXxXxXxXxXxXxXxXxXxXxXxXxXxXcXcXxXxXnXnXmXmXmXmXmXxX9X6X*X*X&X&X&X@X].W.T.E.@X*X6X7XeXxXxXxXxXxXxXxXxXxXxXxXlXeX9X6X;XeXcXcXmXmXcXxXxXxXxXxXlXeXeXeX7X5X5X*X&X%X&X#X&X@X[.@X@X@X+X+XE.E.E.E.+X@X&X%X%X*X*X;X;X;X6X6X6X6X6X6X7X7X7X7X7X7XeXeXeXeXeXeXeXeXeXeX7X7XeXeXeXeXeXeXeXeXeXeXeXeXeXeXeXeXtXtXeXeXeXeXeXeXeXeXeXeXeXeXeXeXeXeXeXeXeXeXeXeXeXeXeXeXtXxXyXyXxXxXxXxXxXxXxXxXxXxXxXxXxXxXxXxXxXxXxXxXxXxXzXzXeXeXeXeXeXeXeXeXeXeXeX7XeXeXeXeXeXeXeXeXeXeXeXeXeXeXeXeXeXeXlXlXxXxXxXxXxXxXxXxXxXxXxXxXxXxXxXxXxXzXxXlXzXzXlXeX9X9X0X6X;X*X%X&X@X@X#X&X&X&X&X&X&X&X&X&X&X&X&X&X&X@X@X@X@X@X@X@X@X@X~.R.t.#.| { { ] ] ] ] I G G G G G G G G G G G H g g g g g g g s s s d d d d d p i i i i i r r e e e e e e w w w w w w 4 < < < < 3 3 3 3 < < < < < < < - = = - - = = = = = = = = = = = = * * * * * * * * * * * * * * * * & & * & * * * * * * * * * * * * & * $ $ $ $ * * $ $ * * * * * * , * ",
"d d d d s s g g g g g g h h h h h h h h G G G G U U G G I | #.L.L.L.L.I.U.U.Y.U.R.R.W.E.~.+X+X@X@X@X@X@X+X!.W.W.T.T.E.@X&X%X%X*X6X9X9X9X0X7XeXeXeXeXeXeX9X9X7X7X9X9X7X6X*X=X#X#X@X@X#X@X@X@X#X#X#X#X#X#X*X6X9XeXeXeXeXeXeXeXeXeXeXeXeXlXxXxXxXxXxXxXxXxXxXxXxXxXxXxXxXxXxXxXxXxXcXcXcXcXnXnXnXnXnXmXMXnXeX6X*X*X*X&X&X&X].W.T.T.E.&X*X5X9XlXxXxXxXxXxXxXxXxXxXxXxXlXeX6X6X6XeXmXmXmXcXxXxXxXxXxXxXeXeXeX9X0X5X*X=X&X&X&X#X#X@X[.@X@X+X+XE.E.E.E.E.+X@X&X%X%X%X*X;X;X6X6X6X6X7X6X7X7X7X7X7X7XwXwXeXeXeXeXeXeXeXeXeX7XeXeXeXeXeXeXeXeXeXeXeXeXeXeXeXeXtXtXeXtXeXeXeXeXeXeXeXeXeXeXeXeXeXeXeXeXeXeXeXeXeXeXeXeXxXxXyXyXxXxXtXtXxXxXxXxXxXxXxXxXxXxXxXxXxXzXeXeXeXeXeXeXeXeXeXeXeXeXeXeXeXeXeX9XeXeXeXeXeXeXeXeXeXeXeXeXeXeXeXtXtXeXlXlXlXxXzXzXxXyXxXxXtXtXxXxXxXxXxXxXxXeXeXeXeXeXeX9X0X0X6X;X%X%X&X@X@X@X&X&X&X&X&X&X&X&X&X&X&X&X&X&X&X@X@X@X@X@X@X@X@X@XE.I.:.| { { { { { ] ] G U U U G G G G H G G G H g g g g g s s s s s d d d d d p i i i i i r r e e e e e e w w w w w w 3 4 4 < < 3 3 3 3 < < < < < < < - = = = - = = = = = = = = = = = * * * * * * * * * * * * * * * * * & & & & & & * * * * * * * * * * & & $ $ $ $ * * $ $ * * * * * * , , ",
"d d d d s s g g g g g g h h h h h h h h G G G G U U G G I } +.L.L.L.L.I.U.U.Y.U.R.R.W.W.!.+X@X@X@X$X$X$X@X+X!.W.W.T.W.E.@X%X*X5X6X9X9X7X0X7X9X9X9X9X9X9X9X9X7X7X9X9X9X7X6X5X*X=X#X#X#X#X#X&X#X#X#X#X#X#X#X=X6X7XeXeXeXeXeXeXlXlXlXeXeXeXlXxXnXxXxXxXxXxXxXxXxXxXxXxXxXxXxXxXxXxXcXcXcXcXxXxXxXxXcXnXnXnXxX7X5X*X*X&X&X&X@XE.T.T.T.].&X*X6XeXlXxXxXxXxXxXxXxXxXxXxXxXeX9X6X*X7XcXmXmXcXxXcXxXxXxXxXeXeXeX9X9X6X5X*X&X&X&X&X#X@X@X+X@X+X+XE.E.E.E.E.E.@X@X#X&X&X%X*X;X;X;X6X6X6X6X6X7X7X7X7X7XeXwXeXeX7X7XwXwXeX7X9X7XeXeXeXeXeXeXeXeXeXeXeXeXeXeXeXeXeXeXeXeXeXeXeXeXeXeXeXeXeXeXeXeXeXeXeXeXeXeXeXeXeXeXeXeXxXxXyXtXxXxXzXtXxXxXxXxXxXxXxXxXxXzXlXlXlXlXeXeXeXeXeXeXeXeX7X7XeXeXeXeXeXeXeX7XeXeXwXwXeXeXeXeXeXeXeXeXeXeXtXtXtXtXlXlXlXzXlXeXeXeXeXeXzXtXtXeXtXxXxXxXxXeXeXeX9X9X0X6X5X;X*X%X%X&X@X@X@X@X&X@X&X&X@X@X&X&X&X&X&X&X&X&X&X@X@X@X@X@X@X@X@X@XW.g.=.{ { { { ] { ] I G U U U G G G G H G G G H g g g g g s s s s s d d d s d p i i i i i r r e e e e e e w w w w w w 3 4 < < < 3 3 3 3 < < < < < < < < = = = - = = = = = = = = = = = = * * * * * * * * * * * * * * * * & & & & & & & & * * * * * * * * * * $ $ $ $ * * * $ $ $ * * * * $ $ ",
"d d d d s s g g g g g g h h h h h h h h h G G G U U U U G [ | L.L.L.L.I.I.U.Y.U.R.R.W.W.+X+X~.~.@X$X$X$X&X@X+XE.W.W.W.W.E.@X%X%X6X7X7X0X0X0X7X9X7X7X9X7X9X7XeXeXeXeXeXeX9X9X6X6X*X*X=X%X#X#X#X#X#X#X#X@X@X#X=X;X6X7X9XeXeXeXeXeXeXlXeXeXeXxXxXxXxXxXxXzXxXlXxXxXxXxXxXxXxXxXxXxXxXxXxXxXxXxXxXxXxXnXcXcXxXeX0X;X*X&X%X#X&X].E.T.T.W.+X%X;X6XeXlXzXzXxXxXxXxXxXxXxXxXlXeX9X6X6XeXmXmXcXcXcXxXxXxXtXeXeXeX9X9X0X5X*X&X&X&X&X&X#X@X@X+X+XE.+XE.E.E.E.E.+X@X@X#X&X&X%X*X;X;X6X6X6X6X6X7X9X9X9X9XwXwXeX7X7X7XeXeXeX9XeXwXeXeXeXeXeXeXeXeXeXeXeXeXeXeXeXeXeXeXeXeXeXeXeXeXeXeXeXeXeXeXeXeXeXeXeXeXeXeXeXeXtXtXeXeXxXxXeXeXtXtXzXzXxXxXxXxXxXxXxXxXxXxXlXlXlXlXeXeXeX7X7XeXeXeX7X7X7X7XeXeXeXeXeXeXeX9XeXeXeXeXeXeXeXeXeXeXeXeXeXeXlXzXzXzXzXzXlXeXeXeXeXeXtXtXtXtXtXtXtXtXeX9X9X6X6X;X;X*X%X%X$X&X&X$X@X@X@X&X@X@X@X&X@X@X@X@X@X@X@X@X@X@X&X@X@X@X@X@X@XE.E.W.L.:.} { { { { ] ] ] U G U U U G G G H H G G H g g g g g g g g s s s d d d d d p i i i i i r r e r e e e e w w w w w 4 3 4 4 < < < < 3 3 < < < < < < < < < < < < = = = = = = = = = = = = * * * * * * * * * * * * * * * * & & & & & & & & * * * * * * * * * * $ $ & & & $ $ $ * * * * * * $ $ ",
"d d d d s s g g g g g g h h h h h h h h h h G G U U U U G { [ L.L.L.L.I.I.U.Y.U.U.R.T.W.!.+X~.~.!.@X$X$X&X@X+X!.E.W.W.W.W.E.@X%X*X0X0X6X0X0X7X7X7X7X7X7X9X9XeXeXeXeXeXeXeXeXeX9X9X6X6X*X=X&X#X#X#X#X#X@X@X@X#X=X*X;X6X7X9XeXeXeXeXeXeXlXeXlXlXxXxXlXlXlXlXeXeXeXeXeXeXeXlXlXzXzXzXlXxXxXxXxXxXxXxXcXnXcXcXlX9X5X*X&X&X&X&X&X].W.T.Y.W.+X%X;X9XeXlXlXxXxXxXxXxXxXxXxXxXeXeX9X6X7XxXmXcXcXcXcXxXxXtXeXeXeXeX9X9X6X*X&X&X&X&X&X#X#X@X@X+XE.+XE.E.E.E.E.E.+X@X#X&X&X%X%X*X;X;X;X;X;X6X6X7X9X9X9X7X9X7X7X7X7X7X7XeXeX7X7XeXeXeXeXeXeXeXeXeXeXeXeXeXeXeXeXeXeXeXeXeXeXeXeXeXeXeXeXeXeXeXeXeXeXeXeXeXeXeXeXeXtXeXeXxXyXeXeXtXtXzXzXxXxXxXxXxXxXxXxXxXzXlXeXeXlXeXeXeX7X7XeXeXeX7X7X7X7XwXeXwX7X7X7X7X7X7X7XeXeXeXeXeXeXeXeXeXeXeXeXeXeXeXlXlXlXeXeXeXeXeXeXeXeXeXeXeXeXeXeX7X0X6X6X;X*X%X&X$X$X$X$X$X@X@X@X&X&X&X@X@X@X@X@X@X@X@X@X@X@X@X@X@X@X@X+X].+X!.E.U.g.-.} { { { { ] ] ] U G G U U U G G G H H D D H g g g g g g g g s s s d d d d d p i i i i i i e e r e e e e w w w w w 4 4 4 4 < < < < 3 3 < < < < < < < < - < < < = = = = = = = = = = = = * * * * * * * * * * * * * * * * & & & * & & * & * * * * * * * & * * $ $ & $ & & $ $ $ $ $ $ $ $ $ $ ",
"d d d d s s g g g g g g h h h h h h h h h h G G U U U G G { [ L.P.L.L.I.I.U.Y.U.U.R.W.W.!.~.~.~.+X!.@X$X&X&X@X+X!.E.W.W.W.W.E.&X=X5X0X5X0X9X7X7X7X7X7X7X7X7X9X9XeXeXeXeXeXeXeXeXeXeX7X6X6X*X=X&X#X#X#X@X@X+X@X#X#X&X*X;X6X7X9XeXeXeXeXeXeXeXeXeXeXeXeXeXeXeXeX9X9X9X9X9X9X9XeXeXeXeXlXeXlXlXxXxXxXxXcXnXcXxX9X5X*X&X&X#X#X#X@XE.T.Y.T.W.+X*X6X9XeXlXxXxXxXxXxXxXxXxXxXlXeXeX7X6XeXmXmXcXcXcXxXxXxXeXeXeXeXeX9X7X5X*X&X&X&X&X&X&X@X@X+X+X+XE.E.E.E.E.E.].+X#X&X&X&X%X%X*X;X;X;X5X;X6X6X7X9X7X7X7X7X7X7X7X7X7XeXeX7X7XeXeXeXeXeXeXeXeXeXeXeXeXeXeXeXeXeXeXeXeXeXeXeXeXeXeXeXeXeXeXeXeXeXeXeXeXeXeXeXeXeXeXeXeXeXeXtXtXyXyXyXxXxXxXzXzXxXxXxXxXxXzXlXeXeXlXeXeXeX7X7XeXeX7X7X7X7X7X7X7X7X6X6X6X6X6X7X7X7XeXeXeXeXeXeXeXeXeXeXeXeXeXeXeXeXeXeXeXeXeXeXeXeXeXeXeX9X9X9X0X5X6X6X;X*X%X&X#X@X@X@X@X@X@X@X&X&X&X&X@X@X@X@X@X@X@X@X@X@X@X@X@X@X@X@X+X!.@XE.W.L.>.[ { { { { { ] ] ] U G G U G G G G G G G G G H g g g g g g g g s s d s s d d d p i i i i i e e e r e e e e w w w w w 4 4 4 4 4 3 3 3 3 3 < < < < < < - - - - < < = = = = = = * * = = = = * * * * * * * * * * * * * * * * & & * * * * * * * * * * * * * & * * $ $ $ $ $ $ $ $ $ $ $ $ $ $ $ $ ",
"d d f f s s g g g g g g h h h h h h h h h h G G U G U G I { [ L.I.L.L.L.I.U.Y.U.R.R.W.W.!.+X~.~.+X+X+X@X&X@X@X@X+X!.E.W.W.W.W.+X%X*X6X5X0X0X7X7X7X7X7X7X7X7X9X9XeXeXeXeXeXeXeXeXeXeXeXeX7X6X6X<X=X#X#X@X@X+X+X@X@X#X#X%X*X*X6X7XeXeXeXeXeXeXeXeXeXeX9X9X9X7X0X6X6X6X6X6X6X6X7X9X9XeXeXeXlXlXxXxXxXxXxXcXnXcXzX9X*X&X%X&X@X].].E.W.T.T.T.E.%X;X6X9XlXxXxXxXxXxXxXxXxXxXxXlXeXeX6X6XeXcXMXmXcXcXxXtXeXeXeXeX9X9X9X0X*X&X&X&X&X&X&X&X@X@X+X+XE.E.E.E.E.E.E.].@X#X&X&X&X%X*X*X;X;X5X;X;X6X6X6X6X7X7X7X7X7X7X7X7XeXeX7X7XeXeXeXeXeX7XeXeXeXeXeXeXeXeXeXeXeXeXeXeXeXeXeXeXeXeXeXeXeXeXeXeXeXeXeXeXeXeXeXeXeXeXeXeXeXeXzXzXyXyXyXxXxXxXzXzXxXxXxXxXxXzXlXeXeXeXeXeXeXeX7X7XeX7X7X7X7X6X6X6X6X6X6X6X6X6X6X7X7XeXeXeXeXeXeXeXeXeXeXeXeXeX9X9X9X9X9XeXeXeXeXeXeX9XeX9X9X9X0X5X5X5X;X;X%X&X#X@X@X@X@X@X$X$X&X&X&X&X&X@X@X@X@X@X@X@X@X@X@X@X@X@X@X@X+XE.E.E.W.I.h.=.} { { ] ] { ] ] G U G G U G G G G G G G G D H g g g g g g g g s s d d s d d d p i i i i i e e e r e e e e w w w w w 4 4 4 4 4 3 3 3 3 3 < < < < < < < - = - < < = = = = = = * * = = = = * * * * * * * * * * * * * * * * & & * * * * * * * * * * * * * * * * $ $ $ $ $ $ $ $ $ $ $ $ $ $ $ $ ",
"d d d d d d g g g g g g h h h h h h h h G G G G G U U U I { { L.I.L.L.L.I.U.U.U.U.R.W.W.E.!.+X+X+X+X@X&X$X&X&X@X@X@XE.E.W.W.W.E.@X*X;X6X6X0X0X0X9X9X7X7X7X7X9X9XeXeXeXeX9X9XeXeXeXeXeXeXeXeX7X7X6X*X&X#X#X#X#X+X].].+X#X#X&X*X6X7X9XeXeXlXeXeXeXeX9X7X6X6X6X6X6X6X6X*X*X<X6X6X6X7X7XeXeXeXeXtXeXtXxXxXxXcXcXxXeX6X&X%X&X+X].].E.W.W.T.Y.T.@X%X;X6XeXzXzXxXxXxXxXxXxXxXxXlXeXeX7X6X6XeXmXMXnXnXxXxXlXeXeXeX7X0X6X5X*X%X&X&X&X&X&X&X&X@X+X].E.E.E.E.E.E.E.].@X@X&X&X%X&X%X%X*X;X;X5X;X5X5X5X5X0X0X7X7X9X9X9X9X7X7XeXeXeXeXeXwX7XwX7XeX7X7X7XeXeXeXeXeXeXeXeXeXeXeXeXeX9XeXeXeXeXeXeXeXeX7XwXeXeXeXeXeXeXeXeXeXeXeXeXeXyXyXxXyXxXxXxXxXzXxXlXzXxXxXlXeXeXeXeXeXeX9X9X9X7X0X7X6X6X6X6X6X6X6X6X6X6X0X7X9X9X9XeXeX9X9X9X9X9X9X9X9X9X9X9X9X9X9X9X9X9X9X9X9X9X9X9X9X7X6X5X*X*X*X*X%X%X&X@X@X@X@X@X@X@X@X@X@X$X$X@X@X@X@X@X@X@X@X@X@X+X+X@X@X@X@X!.!.E.E.W.I.g.t.#.{ E I { { ] U G G ] G G G G G G G G G G G G h h h h g g g g g g s s s d d d i i i i i i i r r e e e e t w w w w q q 3 3 3 3 3 < < < < < < < < < - - - = = = = = = = = = = = = * * * * * * * * * * * * & & * * * * * & $ $ $ # & & & $ & & * * * * $ $ $ $ $ $ * $ $ $ $ $ $ $ $ $ $ $ $ $ ",
"d d d d d d g g g g g g h h h h h h h h G G G G G G U U I { { L.I.L.L.L.L.I.I.U.U.U.W.W.W.!.~.+X+X@X&X&X%X&X&X&X&X@X@XE.E.W.W.E.+X&X;X;X5X6X0X0X9X9X7X7X7X7X9X9XeXeXeXeXeXeXeXeXeXeXeXeXeXeXeXeXeX9X7X6X*X%X&X@X+X].].].+X@X#X=X;X6X9XeXeXlXxXlXeXeX9X7X6X6X6X6X6X*X=X=X=X6X6X6X7X7XeXeXeXeXtXeXtXxXxXxXxXxXxXxX7X=X%X&X@X+X].E.W.T.T.Y.Y.W.+X%X;X9XeXzXxXxXxXxXxXxXxXxXzXlXeXeX6X;X7XcXMXmXnXxXxXlXeX9X6X6X*X*X5X*X%X&X&X&X&X&X&X&X&X@X+X+XE.E.E.E.].E.E.+X@X&X&X&X&X&X%X*X;X;X;X;X*X5X5X5X0X0X0X0X9X9X9X9X7X7XeXeXeXeXeXwXwX7X7XeX7X7XeXeXeXeXeXeXeXeXeXeXeXeXeXeXeX7XeXeXeXeXeXeXeXeXeXeXeXeXeXeXeXeXeXeXeXeXeXeXyXyXxXyXxXxXxXxXzXeXlXeXlXlXeXeXeX9X9X9X9X9X0X0X6X6X6X6X6X6X6X6X6X6X6X6X7X0X7X7X9X9X9X9X9X9X9X9X9X0X0X0X0X0X0X0X9X9X9X9X9X9X9X0X7X7X7X0X6X;X*X*X*X*X%X&X@X@X@X@X@X@X@X@X@X@X@X@X@X@X@X@X@X@X@X@X@X@X@X@X@X@X@X@X@X!.!.!.E.E.W.W.U.L.-.+.{ I { { ] ] I ] ] G G G G G G G G G G G G h h h h g g g g s s s s s s s d i i i i i i i r r e e e t e w w w w q q 3 3 3 3 3 < < < < < < < < < - - - = = = = = = = = = = = = * * * * * * * * * * * * & & * * * * & & $ $ $ $ & & & & & & * & * * $ $ $ $ $ $ $ $ $ $ $ & $ $ $ $ $ $ $ $ ",
"d d d d d d g g g g g g h h h h h h h h G G G G G G G G I { [ L.U.L.L.L.L.U.I.U.U.U.R.W.W.E.+X+X@X@X$X%X%X%X%X%X%X&X@X@X!.W.W.W.].#X*X;X5X6X0X0X7X7X7X7X7X7X7X7XeXeXeXeXeXeXeXeXeXeX7XwX9XeXeXeXeXeXeXeX9X6X*X#X#X+X].].].].+X#X&X*X5X6XeXeXlXxXxXxXxXlXeX7X6X6X6X6X*X=X=X*X1X6X7X7XeXeXeXeXeXeXeXxXxXxXxXxXxXxXeX*X&X&X@X+X].W.T.T.Y.I.I.Y.W.@X*X9XeXlXxXxXxXxXxXxXxXxXxXlXeXeX9X6X6XeXcXMXnXcXxXzXeX9X6X6X*X*X*X6X*X&X&X&X&X&X%X&X&X&X@X@X+XE.E.E.E.E.E.+X@X@X#X&X&X&X&X%X*X;X*X*X*X*X*X5X5X5X6X6X6X7X7X7X7X7XeXeXwXeXeXwX7X7XeXeXeXeXeXeXeXeXeXeXeXeXeXeXeXeXeXeXwX7XeXeXeXeXeXeXeXeXeXeXeXeXeXeXeXeXeXeXeXeXeXeXzXtXxXzXxXxXlXlXeXeXeXeXeXeXeXeX9X0X6X6X6X6X6X6X6X6X6X6X6X6X6X6X6X6X6X6X6X6X7X7X9X7X7X6X6X6X6X6X6X6X5X5X5X5X6X6X0X0X0X0X0X6X6X6X6X6X;X;X%X%X&X&X%X&X&X@X@X@X+X+X@X@X@X@X@X@X@X@X@X@X@X@X@X@X@X@X@X@X@X@X@X@X+X+X+X!.!.E.E.E.W.W.W.U.h.$.{ { { { { ] I I U G G G G G G G G G G G G h h h h g g g g s g s s s s s d i i i i i i i r r e e e t e w w w w q q 3 3 3 3 3 < < < < < < < < < = - = = = - - = = = = = = = = * * * * * * * * * * * * & * * * & & & & & $ & & & & & & & & & & & & $ $ $ $ $ $ $ * * $ & $ $ $ $ $ $ $ $ $ ",
"d d d d d d g g g g g g h h h h h h h h G G G G G G G G I { { g.U.L.L.L.L.I.I.I.U.U.U.R.T.E.!.!.@X&X%X%X%X*X*X*X%X%X&X@X+XE.W.W.E.+X%X*X5X5X5X0X0X0X7X7X6X6X7X7X9X9X9X9X9X9X7X7X7X7X7X7X7X7XeXeXeXeXeXxXeXeX7X;X=X#X@X].].].].+X#X#X&X*X6X9XeXeXxXxXxXxXxXeXeXeXeXeX7X6X<X*X<X6X6X6X6X6X7XeXeXeXeXeXyXxXxXxXxXxXeX6X&X&X@X+XE.W.T.Y.I.I.I.I.Y.E.&X6X9XeXlXlXxXxXxXxXxXxXxXxXlXeXeX9X6X6XeXMXmXcXxXxXeXeX9X9X0X5X*X5X*X%X&X&X&X&X%X%X&X&X&X@X@X+XE.E.E.E.E.+X+X@X@X#X#X&X&X%X%X%X%X%X*X*X*X*X5X5X6X6X6X7X7X7X7X7XeXeXwXeXeXwXwX7X7X7XeXeXeXeXeXeXeXeXeXeXeXeXeXeXeXeX7X7XeXeXeXeXeXeXeXeXeXeXeXeXeXeXeXeXeXeXeXeXeXeXzXtXxXzXzXtXeXeXeXeXeXeX9XeXeX9X0X6X6X6X6X6X;X;X*X;X6X6X6X6X6X6X6X6X6X6X6X6X6X6X6X6X6X6X5X5X5X5X5X*X*X*X*X5X5X5X5X5X6X6X5X5X5X*X*X*X*X%X&X#X#X#X#X#X@X+X@X@X+X+X+X+X@X@X@X@X@X@X@X@X@X@X@X@X@X@X@X@X@X@X@X+X!.!.!.!.E.E.E.W.W.W.W.W.U.:.#.{ { { { ] I I U G G G G G G G G G G G h h h h h g g g g s g s s s s s d i i i i i i i r r e e e t t w w w w q q 3 3 3 3 3 < < < < < < < < < = = = = = - - = = = = = = = = * * * * * * * * * * * * & & * * & & & & & & & & & & & & & & & & & & $ $ * $ $ $ $ * $ $ $ & $ $ $ $ $ $ $ $ ",
"d d d d d d g g g g g g h h h h h h G G h h j j G G U G ] { { t.I.I.L.g.L.L.I.I.U.U.U.R.T.W.E.!.@X$X%X%X%X*X*X*X*X%X&X&X@X!.W.W.W.].#X%X*X;X5X6X0X0X7X7X7X0X9X9X9X9X9X0X7X0X6X6X6X6X7X7X7X7XwXeXeXeXeXlXlXeXeX6X*X*X#X#X@X+X].].+X@X#X&X*X5X6XeXeXeXzXxXxXxXxXzXeXeXeXeXeX7X7X7X7X6X6X6X6X0X9XeXeXeXtXyXxXxXxXxXtXeX*X#X@X+XE.W.T.Y.I.I.L.L.v.Y.+X%X6X9XeXlXzXxXxXxXxXxXxXlXxXeXeXeX6X*X0XnXcXcXxXxXxXlXeXeX9X0X5X5X5X%X&X#X&X&X&X&X&X&X&X@X@X+X+X].E.E.E.].@X@X@X@X#X&X&X&X#X&X&X%X*X*X*X;X;X;X6X6X6X6X6X6X7X7X7XeXeXeXeXeXeXeX7XeXeXeXeXeXeXeXeXeXeXeXeXeXeXeXeXeXwXwXeXeXeXeXeXeXeXeXeXeXeXeXeXeXeXeXeXeXeXeXlXlXlXzXxXlXeXeXeXeXeXeX9X9X7X6X6X6X6X6X6X;X;X;X;X;X;X;X;X6X6X6X6X6X6X6X6X;X6X6X6X6X6X6X;X;X;X*X*X;X;X;X;X;X;X5X;X;X*X%X*X*X*X%X%X%X%X%X%X&X@X@X@X@X@X@X@X@X+X+X+X+X@X@X+X+X+X+X+X+X@X@X@X@X@X@X@X@X@X@X@X@X+X!.E.E.E.E.E.W.W.W.W.W.W.E.R.L.:.} { { { I I I ] G G G G G G G G G G G h h g g h g g g g g g s s s f f s i i i i i i i r r e e e e t w w w w w w 3 3 3 3 3 3 3 < < < < < < < , < < = = = - = = = = = = = = * * * * * * * * * * * * * * & & * * * * & & & & & & & & & & & & & & $ $ $ $ $ $ $ $ $ $ $ $ $ $ $ $ $ $ $ $ ",
"d d d d d d g g g g g g h h h h h h G G h h j j G G U U ] { { e.I.U.L.g.L.L.I.I.I.U.U.U.T.W.W.E.@X$X%X%X%X%X*X*X*X%X%X%X@X+XE.W.W.E.+X%X*X*X;X5X6X6X0X0X0X0X7X7X7X0X7X7X7X7X7X7X6X6X6X6X6X7X7XeXeXeXeXeXlXeXeX9X6X6X6X*X&X&X@X+X+X].].@X#X=X*X;X6X6X9XeXeXzXxXxXxXxXxXxXxXxXxXeXeXeX7X7X0X6X6X6X7XeXeXeXeXeXxXxXyXeX7X*X&X@XE.W.T.R.I.I.L.L.g.I.T.#X;X7XeXlXlXzXxXxXxXxXlXxXxXlXeXeX9X;X5XeXnXnXcXxXxXxXlXeX9X9X0X*X5X*X*X&X&X&X&X&X&X@X&X@X@X+X+X!.E.E.E.].@X@X+X@X#X#X&X#X#X#X&X&X%X*X*X;X;X;X6X6X6X6X6X6X7X7X7X7XwX7XeXeXeXeX7X7XeXeX7XeXeXeXeXeXeXeXeXeXeXeXeXeXeXwXeXeXeXeXeXeXeXeXeXeXeXeXeXeXeXeXeXeXeXeXlXlXlXlXlXeXeX9X9X9X9X7X6X6X6X6X6X;X5X;X;X;X;X;X*X*X;X;X;X;X6X6X6X6X6X;X;X;X;X;X;X;X;X;X*X*X%X%X*X*X;X;X;X;X;X;X*X*X%X%X%X%X%X%X%X&X&X&X@X@X+X+X+X+X+X+X+X+X+X+X+X+X+X+X+X+X+X+X+X+X+X+X@X@X@X@X@X@X@X@X@X@X+XE.W.W.W.W.W.W.W.W.W.W.W.E.R.U.t.#.{ { { I I I ] U G G G G G G G G G G h h g g h g g g g f g s s s f f s i i i i i i i r r e e e e e w w w w w w 3 3 3 3 3 3 3 < < < < < < < , < < = = = = = = = = = = = = * * * * * * * * * * * * * & & & * * * * & & & & & & & & & & & & & & $ $ $ $ $ $ $ $ $ $ $ $ $ $ $ $ $ $ $ $ ",
"d d d d d d g g g g g g h h h h h h G G h h j j G G G G U { { :.U.U.I.L.L.L.I.I.I.Y.U.U.U.T.T.E.!.&X$X%X%X%X*X*X*X;X%X&X$X@X!.W.W.W.].@X%X*X*X5X5X6X0X0X0X0X7X7X7X7X7X7X7X7X7X7X6X6X6X6X6X7X7XeXeXeXeXeXeXlXeXeXeXeX9X9X6X*X&X&X@X@X@X+X@X#X#X&X*X*X6X0X7XeXeXeXtXeXxXxXxXxXxXxXxXxXyXyXeXeX7X6X6X6X6X6XeXeXxXxXyXeXeX6X%X@X].E.W.T.Y.I.L.L.g.g.I.+X%X6X9XeXlXlXlXxXxXxXlXlXzXxXlXeXeX6X*X6XcXmXmXnXxXxXxXeX9X9X9X5X<X5X*X=X&X&X&X&X&X&X@X@X@X+X@X+XE.E.E.E.@X@X@X@X@X@X@X@X&X%X%X%X%X*X;X;X;X5X5X5X6X0X6X6X7X7X7X7X7X7X7X7XeXeX7X7X7X7XeXeXeXeXeXeXeXeXeXeXeXeXeXeXeXeXeXeXeXeXeXeXeXeXeXeXeXeXeXeXeXeXeXeXeXeXlXeXlXlXeXeX9X6X6X6X6X6X5X5X*X*X*X*X*X*X*X*X*X*X*X*X;X;X;X;X;X;X;X;X;X;X;X;X;X;X;X;X;X*X%X%X&X&X%X%X%X%X%X%X%X%X%X%X&X&X&X@X@X@X@X@X@X@X@X+X!.!.!.!.!.!.!.+X+X+X+X+X+X+X+X+X+X+X@X@X+X+X@X@X@X@X@X@X@X@X@X@X+XE.W.W.W.W.W.W.W.W.W.W.E.E.!.W.L.=.{ { ] U I I ] U G G G G G G G G G G D h g g g g g g g g f s s s f f d i i i i i i i r r e e e e e w w w w w w 3 3 3 3 3 3 3 < < < < < < - - - - = = = = = = = = = = = = * * * * * * * * * * * * * * & & & * * * # # $ $ & & & & & & * * * * $ $ $ $ $ $ $ * $ $ $ $ $ $ $ $ $ $ $ $ ",
"d d d d d d g g g g g g h h h h h h G G h h j j G G G G U { R $.U.U.U.L.L.L.I.I.I.I.U.U.U.U.W.W.E.@X&X$X%X%X%X%X;X;X%X%X%X$X+XE.W.W.E.+X#X%X*X*X5X6X0X0X0X0X7X7X7X7X7X7X7X7X6X7X6X6X6X6X6X7X7XeX7XeXeXeXeXeXeXeXeXeXeXeXeX7X6X*X=X#X#X@X@X@X#X#X#X#X*X*X*X6X7XeXeXeXeXeXxXxXxXxXxXxXxXxXxXxXxXeXeX7X6X6X6X6XeXeXeXeXeXeX5X&X+X].W.T.Y.I.L.L.g.t.g.T.#X;X6X9XeXlXlXlXlXlXlXlXzXzXlXeXeX7X<X*XeXxXmXnXcXxXxXlXeXeX9X6X<X5X*X*X&X&X&X&X@X&X@X@X+X+X@X+XE.E.E.E.+X@X+X@X@X@X@X@X&X&X&X%X%X*X;X;X6X6X5X5X6X0X6X6X7X7X7X7X7X7X7XwX9XeXeX7X7X7X7X7XeXeXeXeXeXeXeXeXeXeXeXeXeXeXeXeXeXeXeXeXeXeXeXeXeXeXeXeXeXeXeXeXeXeXeXeXeXeXeX9X6X6X6X6X;X*X*X*X*X&X=X&X=X%X%X%X%X*X*X*X*X;X;X;X*X*X*X*X;X;X;X;X*X*X%X%X*X%X&X&X&X&X%X&X%X&X%X%X%X%X&X&X&X@X@X@X@X+X@X+X+X+X+X!.!.!.!.!.!.!.!.!.+X+X+X+X+X+X+X+X+X+X@X@X+X+X@X@X@X@X@X+X@X@X&X&X@XE.W.U.W.T.W.W.W.W.W.W.!.!.E.!.U.>.{ R { U I I ] U G G G G G G G G G G G h g g h g g g g f f s s s s s d i i i i i i i r r e e e e e w w w w w w 3 3 3 3 3 3 3 < < < < < < - - - - = = = = = = = = = = = = * * * * * * * * * * * * * * & & & * * * $ $ $ $ $ $ & & * & * * & * $ $ $ * $ $ * * $ $ $ $ $ $ $ $ $ $ $ $ ",
"i i d d f f g s g g g g g g h h h h h h G G G G G G U D U I E #.U.U.U.L.L.L.L.I.I.I.U.U.U.U.R.T.W.!.@X$X$X%X%X%X-X;X;X%X%X$X@X!.E.W.E.].+X&X%X;X6X0X0X0X6X6X6X6X6X7X7X7X6X6X6X6X6X6X6X6X6X6X7X7X7X7X9X7XeXeXeXeXeXeXeXeXeXeX7X7X6X<X=X=X#X#X#X#X#X#X%X=X=X*X*X6X7X9XeXeXeXlXxXxXxXxXxXxXxXcXxXxXxXeXeX7X6X6X6X7X7X7X7XeX0X%X].].W.T.Y.I.L.g.g.t.t.I.W.%X;X0X9XeXeXlXzXzXlXlXtXyXtXeXeXeX6X*X5XeXnXcXnXxXxXzXeXeX9X0X5X5X*X*X&X&X&X@X&X@X@X@X@X@X@X+XE.E.E.E.+X+X+X+X@X@X@X@X&X&X&X%X&X%X*X;X6X6X5X5X6X6X0X0X0X0X9X9X9X9XeXeXeXeXeXeX7X6X6X6X7XeXeXeXeXeXeX7XeXeX9X9XwXwXeXeXeXeXeXeXeXeXeXeXeXeXeXeXeXeXeXeXeXeXeXeXeXeX9X0X6X;X*X*X*X&X%X&X&X%X&X&X%X&X%X%X%X%X*X;X%X%X*X*X%X%X%X*X*X*X*X*X%X%X%X&X&X&X&X&X%X%X&X&X&X&X@X@X@X@X&X@X@X@X+X+X+X+X!.!.!.!.!.+X!.!.!.!.!.+X+X+X!.!.!.!.+X+X+X+X+X+X@X@X@X@X@X@X@X@X@X+X@X@X%X;X;X@XW.I.U.U.W.W.W.E.E.E.!.!.!.!.U.t.{ R { I U U U U U G G G G G G G G G G G h h h h h g g g g s s s f f f d d i d i d i i r r e e e e e e w w w w q q 3 3 3 3 3 3 3 < < < < < < < < = = = = = = = = = = = = * * * * * * * * * * * * * * * * & & & & # # # # $ $ $ # $ $ $ $ $ $ $ # # # # # $ $ $ $ $ $ & & & & $ $ $ $ ",
"i i d d f f g g g g g g g g h h h h h h G G G G G G G G U I R #.I.U.U.U.L.L.L.I.I.I.U.U.U.U.R.W.W.E.!.@X&X&X%X%X%X-X;X%X%X%X&X@X].E.E.E.].+X&X%X;X6X0X0X6X6X6X6X7X7X7X7X6X6X6X6X6X6X6X6X6X6X7X7X7X7X7X7X7XeXeXeXeXeXeXeXeXeXeXeXeX7X6X6X*X*X*X*X*X=X=X#X#X#X&X=X%X*X*X6X7XeXeXeXlXlXlXlXeXxXxXxXcXxXxXeXeXeXeX7X6X*X=X6X5X&X].E.W.T.Y.I.L.L.g.t.t.t.I.@X*X5X7X9XeXeXlXlXlXlXtXtXtXeXeXeX9X6X*X6XlXcXcXnXxXxXzXeX9X9X0X5X*X*X*X&X&X@X@X@X@X@X@X@X@X+XE.E.E.E.!.!.+X+X@X@X@X@X&X&X&X&X&X%X*X;X;X;X5X5X5X5X5X5X0X0X0X9X7X9XeXeXeXeXeX7X7X6X7X7X7XeXeXeXeXeX7X7X7X7X9X9XwXwXeXeXeXeXeXeXeXeXeXeXeXeXeXeXeXeXeXeXeXeXeXeX9X9X7X6X;X*X*X&X%X&X%X&X&X&X&X&X%X%X&X&X%X%X*X*X%X&X@X#X&X%X%X%X%X%X%X%X&X#X#X#X#X#X#X#X&X&X@X@X@X@X@X@X@X@X@X@X@X+X+X+X+X!.!.E.E.E.E.E.E.E.!.!.!.!.+X+X!.+X!.!.+X+X+X+X+X+X@X@X@X@X@X@X@X@X@X@X&X%X;X0X6X%X!.W.R.W.W.W.W.E.E.!.!.!.!.!.U.e.{ R { I U U U U U G G G G G G G G G G G h h h h h g g g g s s s f f s i s i d i d i i r r e e e e e e w w w w q q 3 3 3 3 3 3 3 < < < < < - < < = = = = = = = = = = = = * * * * * * * * * * * * * * & * & * & & # # $ # $ $ # # $ $ $ $ $ $ $ $ # # # # $ $ $ $ $ $ & $ & & $ $ $ $ ",
"i i d d f f f f g g g g g g h h h h h h j G G G G G G G U I I } L.U.U.I.I.L.L.I.I.U.U.U.U.U.U.R.W.W.!.+X@X&X$X$X%X;X;X;X;X%X%X&X+XE.W.E.E.].+X&X*X5X0X0X6X6X6X6X7X7X7X7X7X7X7X6X6X6X6X6X6X6X7X7X6X6X7X7X7X7XeXeX9X7X7XeXeXeXeXeXeXeXeX7X6X6X6X6X6X6X*X=X%X#X#X#X#X#X#X*X*X6X9XeXeXeXeXeXeXeXeXxXxXxXxXxXxXxXxXtX7X*X=X*X*X#X].W.T.T.Y.Y.I.n.g.h.t.e.h.T.&X*X6X9X9XeXlXlXlXlXlXtXtXtXtXtXeX9X6X<X7XcXcXcXxXxXzXlXeX9X0X5X5X5X*X&X&X&X@X@X@X&X@X@X+X+XE.E.E.E.+X+X!.+X@X@X@X@X@X@X&X&X%X%X%X%X*X*X*X*X5X5X5X5X0X0X6X0X7X7XwXwX7X7X7X7XeXeXeXeXeXeXeXeXeXeXeX7XeXeXeXeXeXeXeXeXeXeXeXeXeXeXeX7XeXeXeXeXeXeXeXeXeXeX9X6X6X6X6X;X*X%X%X&X&X&X&X&X&X&X&X&X&X&X&X&X%X%X%X%X&X@X@X@X&X&X%X&X&X&X&X&X@X@X@X@X@X@X@X@X@X@X@X@X@X+X+X+X+X+X+X+X].E.!.!.!.E.E.E.E.E.E.E.E.E.E.!.!.!.+X+X+X+X+X+X@X@X@X@X@X@X@X@X@X@X@X@X@X@X&X%X*X5X6X9X9X6X%XW.W.W.W.W.W.E.!.!.~.~.!.!.U.t.{ R { I U U U U U G G G G G G G G G G h h h h h h g g g g g s s f f s d s i d i d i i r r e e e e e e w w w w q 3 3 3 3 3 3 3 3 < < < < < - = = = = = = = = = = = = = = * * * * * * * * * * * * & & & & * * * * & & $ $ $ $ $ # # # # # $ $ # # $ $ # # $ $ $ $ $ $ $ $ $ $ $ $ $ $ ",
"i i d d f f f f g g g g g g h h h h h h j j G G G G G G U U R | L.U.U.I.I.L.L.L.I.I.U.U.U.U.U.R.U.W.E.!.@X&X&X$X%X-X;X;X;X;X-X%X#XE.E.E.E.E.].@X%X;X5X0X0X6X6X6X6X6X6X7X7X7X7X6X6X6X6X6X6X7X7X7X6X6X6X6X7X7X7X7XeX7X7X7X7XeXeXeXeXeXeXeXeXeXeXeXeX7X7X6X*X=X%X#X%X%X%X=X*X*X;X6X6X7X7X7X7XeXeXeXeXeXtXtXxXxXxXxXtXeXeX6X*X=X@XT.T.Y.Y.I.I.L.g.t.e.e.e.g.].%X;X0X9XeXeXlXlXlXlXzXtXtXtXtXeXeX7X5X5XtXcXcXcXxXxXzXeX9X9X0X5X5X*X=X%X&X&X@X@X@X@X@X@X].E.E.E.E.E.].E.+X@X@X@X@X&X&X&X&X%X%X&X&X%X%X&X%X*X*X5X5X5X5X5X0X7X7X7X7XwX7X6X7XeXeXeXeXeXeXeXeXeXeXeX7XeXeXeXeXeXeXeXeXeXeXeXeXeXeX7X7X7XeXeXeXeXeXeXeXeX7X6X;X*X*X;X%X&X&X&X&X&X&X&X&X&X&X&X&X%X%X&X&X%X%X&X&X&X%X%X%X%X&X$X$X$X&X$X@X@X+X+X+X+X+X+X+X+X+X@X@X+XE.+X+X+X+XE.E.].E.!.E.!.E.E.E.E.E.E.E.E.E.E.!.!.!.+X+X+X+X+X+X@X@X@X@X@X@X@X@X@X@X@X@X@X&X%X;X5X0X9X9X9X9X5X@XW.W.W.W.W.W.!.!.@X~.~.!.U.t.{ { { I U U U U U G G G G G G G G G G h h h h h h g g g g g s s f f s s s i d i d i i r r e e e e e e w w w w q 3 3 3 3 3 3 3 3 < < < < < - - = = = = = = = = = = = = = * * * * * * * * * * * * & & & & * * * * & & & $ $ $ $ # # # # # $ $ # # $ # # # $ $ $ $ $ $ $ $ $ $ $ $ $ $ ",
"i i f f f f s s g g g g g g h h h h h h G G G G G G G G U I ] { L.U.U.U.I.L.L.L.I.I.U.U.U.U.U.R.T.W.W.!.+X@X&X$X%X%X;X;X;X;X;X;X&X+XE.E.E.E.E.+X#X*X5X6X6X6X6X5X<X6X6X7X7X7X7X7X6X6X6X6X6X6X6X6X6X6X6X6X7X7X7X7X7X7X7X7XeXeXeXeXeXeXeXeXxXxXxXtXeXeXeXeX9X6X*X*X*X*X=X&X&X*X*X*X6X6X6X6X7X7X7XeXeXeXeXtXxXxXxXxXxXxXxXeXeX0X*X#XE.T.I.v.v.v.v.g.t.r.e.e.T.;X*X6X0X9XeXeXlXzXtXtXtXtXtXtXtXeX9X6X5X5XeXcXcXxXxXzXeXeX9X0X5X5X*X*X&X&X&X#X@X@X@X@X@X+XE.E.E.E.E.E.E.!.@X@X@X@X&X&X&X&X&X&X&X&X*X%X&X&X%X*X*X;X5X5X5X5X7X7X0X0X0X9X7X7X7XeXeXeXeXeXeXeXeXeXeXeXeXeXeXeXeXeXeXeXeXeXeXeXeX7X7XeXeXeXeXeXeXeXeX9X0X5X;X*X%X%X&X&X&X&X#X&X&X&X&X&X&X&X&X&X&X&X&X&X&X@X@X@X&X%X;X;X%X$X@X@X@X@X@X@X+X+X@X@X@X+X+X+X+X+X!.E.E.!.!.!.!.!.!.!.!.E.E.E.E.E.E.E.E.E.E.E.E.!.!.!.+X+X+X+X+X+X+X@X@X@X@X@X@X@X@X@X@X@X@X@X&X%X;X6X0X9X9XeXlX9X0X%X!.W.W.W.W.W.E.@X@X@X~.~.U.t.{ { { I U U ] U U G G G G G G G G G h h h h h h h h g g g g f f f f s s d i d i d i i i r e e e e e e t e w w w w w w w 3 3 3 3 3 < < < < - = = = = = = = = = = = = = * * * * * * * * * * * * * & & * * & & * * & & $ $ $ $ # # # # # # $ $ # # $ $ # # $ $ $ $ $ $ $ $ $ $ $ $ $ $ ",
"i i f f f f s s g g g g g g h h h h h h G G G G G G G G U I ] { g.U.U.U.I.L.L.L.I.I.U.U.U.U.Y.R.W.T.W.E.+X+X@X&X$X%X;X;X;X;X;X;X%X@X].E.E.E.E.E.+X&X;X6X6X6X0X5X6X6X7X7X7X7X7X7X7X6X6X6X*X*X*X6X6X6X6X6X6X6X7X7X7X7X7X7XeXeXeXeXeXeXeXeXxXxXxXxXtXtXtXxXxXeXeX9X7X6X6X*X=X&X&X*X*X6X0X0X7X7XeXeXeXeXeXeXtXxXxXxXxXxXxXxXxXxXzX9X7X*X@XW.Y.Y.I.h.t.e.e.;.r.@X#X;X0X0X9XeXlXlXeXtXtXtXyXtXtXeXeX9X6X=X5XzXcXxXxXzXeXeX9X0X0X5X5X*X%X&X&X@X@X@X@X@X@X+XE.E.E.E.E.E.E.!.@X@X@X@X@X@X&X&X&X&X&X&X*X%X&X&X&X&X*X*X5X5X*X5X5X6X5X5X0X0X7X7X7X7X7XeXeXeXeXeXeXeXeXeXeXeXeXeXeX7XeXeXeXeXeXeX7X7X7X7XeXeXeXeXeXeX9X0X5X*X%X%X%X&X#X#X#X#X&X&X&X&X@X@X@X@X&X&X@X&X@X@X$X@X@X&X%X;X%X&X@X@X+X+X+X+X+X+X+X+X+X+X+X+X+X!.!.!.E.E.W.E.E.E.E.E.E.E.E.E.E.E.E.E.E.E.E.E.E.!.!.!.!.!.+X+X+X+X@X@X@X@X@X@X@X@X@X@X@X@X@X@X@X@X%X%X;X6X9X9XeXeXeXeX9X0X%XE.W.W.W.W.E.E.@X@X@X~.U.t.{ { { I U U ] U U G G G G G G G h G G h h h h h h h g g g g f f f f s s d i d i d i i i r e e e e e e e e w w w w w q w 3 3 3 3 3 < < < < - - - = = = = = = = = = = = = * * * * * * * * * * * * * * * * & & * * & & $ $ $ $ # # # # # # $ $ # # $ $ # # $ $ $ $ $ $ $ $ $ $ $ $ $ $ ",
"i i d f f f f s g g g g g g h h h h h h G G G G G G G G U I ] { h.U.U.U.I.L.L.L.I.I.I.U.Y.Y.U.R.W.T.W.W.!.+X@X&X$X%X%X-X;X;X;X;X*X&X+X].E.E.E.E.].&X*X6X6X6X5X5X6X7XeXeXeXeXeX7X7X6X6X6X*X<X*X6X6X6X6X6X7X7X7X7X7X7XeXeXeXeXeXeXeXeXeXeXeXeXxXzXxXzXxXxXxXxXxXlXeXeXeX7X6X*X=X&X*X*X6X6X7X7XeXeXeXeXeXeXeXeXeXeXeXeXxXxXxXxXxXxXxXzXlX0X6X6X#XT.I.g.e.y.6.I.;X%X5X0X9XeXeXlXeXeXeXtXyXyXtXtXeXeX9X5X=X0XzXxXxXzXeXeX9X0X0X6X5X*X*X%X&X#X@X@X@X@X@X@XE.E.E.E.E.E.E.E.+X@X@X@X&X@X&X&X&X&X&X&X&X&X&X&X&X&X=X=X*X*X*X*X*X*X*X5X0X0X6X6X7X7X7X7X7X7X7X7XeX7X7XeXeXeXeXeXeXeXeXeXeXeXeX7X7X7X7X7X7X7X9X9X9X9X7X5X*X&X*X%X&X#X@X#X#X#X&X&X&X&X@X@X@X@X@X@X@X@X@X@X@X@X@X@X&X&X@X@X+XE.E.!.!.!.!.!.!.!.!.!.!.E.!.E.E.E.W.W.W.W.W.W.W.W.W.E.E.E.E.E.E.E.!.!.!.!.!.+X+X+X+X+X@X@X@X@X@X@X@X@X$X$X@X@X@X+X+X+X+X+X@X$X&X;X6X9X9XeXlXeXeXeXeX9X5X&XE.W.W.W.E.E.!.@X@X~.U.t.{ { { I U I ] U U G G G G G G G G G h h h h h h h g g g g s f f f f s d d i d i i i i i i r r r e e e e e w w w w q q q 3 3 3 3 3 < < < < < < < < < < < = = = = = = = = * * * * * * * * * * * * * * * * & & & * & & & $ # # # # # # # # $ # # # $ $ # # $ $ $ $ $ $ $ $ $ $ $ $ $ $ ",
"i i d d f f f s g g g g g g h h h h h h G G G G G G G G U I ] { t.R.U.U.I.L.L.I.I.I.I.U.Y.Y.U.R.W.W.W.W.W.+X+X$X&X&X%X-X;X;X;X;X*X%X#X+X].E.E.E.E.+X&X;X5X5X5X5X6X7XeXeXeXeXeX7X7X7X7X6X6X6X6X6X6X6X6X6X7X7X7X7X7X7XeXeXeXeXeXeXeXeXeXeXeXeXeXeXtXxXcXcXnXcXcXxXxXxXeXeXeX6X6X*X*X*X*X6X7X7XeXeXeXeXeXeXeXeXeXeXeXeXxXxXzXzXxXzXzXzXzXzXlXlXlX9X;X+XY.I.t.g.W.;X*X6X0X9XeXeXeXeXeXtXtXtXtXtXeXeXeX6X<X6XeXzXxXzXeXeX9X0X0X6X5X5X;X%X&X&X@X@X@X@X@X@XE.E.E.E.E.E.E.E.+X@X@X@X@X@X@X@X&X&X&X&X&X&X&X&X%X%X&X&X*X*X&X&X=X*X*X*X*X5X6X6X6X6X6X6X6X6X6X6X7X7X7XeXeXeXeXeX7X7XeXeXeX7X7X7X7X7X7X7X7X7X0X0X6X6X5X*X*X&X&X&X#X@X#X@X#X#X&X&X&X&X@X@X@X@X@X@X+X+X+X+X+X+X!.+X!.!.!.!.E.E.E.E.E.E.E.E.E.E.E.E.E.E.E.W.W.W.W.W.W.W.W.W.W.W.W.E.E.E.E.E.!.!.!.+X+X+X+X+X+X+X@X@X@X@X@X@X@X@X+X@X$X&X@X@X+X+X!.!.!.!.@X&X%X5X9X9XeXzXlXeXeX9X9X9X0X-X$XE.W.W.E.E.E.!.@X~.U.t.{ { { I U I ] U U G G G G G G G G h G h h h h h h g g g g s s f f f s d d i d i i i i i i r r r e e e e e w w w w q q q 3 3 3 3 3 < < < < < < < < < < < = = = = = = = = * * * * * * * * * * * * * * * * & & & & & & & $ # # # # # # # $ $ # # # $ $ # $ $ $ $ $ $ $ $ $ $ $ $ $ $ $ ",
"i i d d d d d g g g g g g g g h h h h G G G G G G U U U U I { { >.R.U.U.U.I.L.L.I.I.I.I.U.U.U.W.W.W.W.W.W.!.!.@X@X$X&X%X%X%X*X;X;X*X%X&X@X].E.E.W.E.@X%X*X5X5X5X6X9XeXeXeXeXeX7X7X7X7X7X7X7X7X7X7X7X7X7X7X7X7X7XeXeXeXeXeXeXeXeXeXrXrXrXrXrXrXeXtXxXxXcXcXcXcXcXcXcXxXxXxXeX9X6X*X=X*X*X6X7XeXeXeXeXeXeXeXeXeXeXeXeXtXtXzXzXxXxXxXxXxXzXzXzXxXxXzX9X&XE.E.Y.T.;X*X6X6X9XeXeXeXeXeXeXxXxXxXtXeXeXeXeX6X6X7XxXzXtXeXeX9X9X0X0X5X5X;X*X%X&X@X@X@X@X@X@X+X+XE.E.E.E.E.E.+X@X@X@X@X@X@X@X&X&X&X&X%X%X&X%X%X%X%X%X%X%X%X%X%X%X*X;X;X6X5X0X6X6X6X5X5X5X5X5X0X0X9X9X7X9X9X9X9X9X9X9X9X7X7X6X7X7X0X0X5X*X*X*X*X*X*X%X%X%X#X@X@X@X@X@X@X@X&X&X&X&X@X@X@X@X@X@X@X@X@X+X].E.E.E.E.E.!.E.E.E.E.E.E.E.E.E.E.E.E.E.E.E.E.W.W.W.W.W.W.W.W.W.!.!.E.E.E.E.!.!.+X+X+X!.+X+X@X@X@X@X@X@X@X@X@X@X@X@X+X@X&X&X$X@X!.W.W.W.E.+X&X;X6X9XlXlXzXzXlXlXeX9X9X8X7X6X%X@XE.E.!.E.E.!.@X~.U.t.{ { { I U U U U U G G G G G G G G G G j h h h h h g g g g g g g f f f s d i i i i i i i i r r r e e e e e e e w w w w q q 3 3 3 3 3 3 < < - - - < < < < = = = = = = = = = * * * * * * * * * * * * * $ $ & & & & # # # # # # # # # # # # $ $ $ $ # # # # $ $ $ $ $ $ $ $ $ $ $ $ $ $ ",
"i i d d d d d g g g g g g g g h h h h G G G G G G G U U U I { { :.U.U.U.U.I.I.L.L.I.I.I.U.U.U.R.W.W.W.W.W.E.!.!.@X@X&X%X%X%X%X%X*X;X;X%X&X+XE.W.W.W.].#X*X5X5X5X6X7XeXeXeXeXeXeX7X7X7X7X7X7X7X7X7X7X7X7X7X7X7X7XeXeXeXeXeXeXeXeXrXrXrXrXrXrXrXeXeXxXxXxXcXcXcXcXcXcXcXcXcXxXxXeXeX6X6X6X6X6X7XeXwXeXeXeXeXeXeXeXeXeXeXeXlXlXzXxXxXxXxXxXxXxXzXxXnXlX7X&X].Y.T.#X*X;X6X7X7XeXeXeXeXeXxXxXxXtXtXeXeXeX7X6X6XeXzXtXtXeXtXeX9X0X5X5X5X;X%X%X&X&X@X@X@X@X+X+X+XE.E.E.E.E.+X+X@X@X@X@X@X@X&X&X&X&X%X%X%X%X%X%X%X%X%X%X%X%X%X%X*X;X;X;X*X5X5X5X5X*X5X5X5X5X5X0X0X6X0X0X9X9X7X7X6X6X6X6X6X6X7X6X0X5X*X*X&X&X&X&X%X&X#X&X@X@X@X@X@X@X&X@X&X&X&X@X@X@X@X@X@X@X@X@X@X+X].E.E.E.E.E.!.!.E.E.E.E.E.E.E.E.E.E.E.E.E.E.E.E.E.E.W.W.E.E.E.E.!.!.+X!.!.!.+X+X+X+X+X+X+X+X@X@X@X@X@X@X@X@X@X@X@X@X@X@X@X@X+XE.W.R.R.W.!.@X;X6X9XlXzXzXzXzXlXlXeX9X9X9X9X0X-X$X@X+X+X!.!.!.@X!.U.t.{ { ] I I U U U U G G G G G G G G G G j h h h h h g g g g g g g f f f s s i i i i i i i i r r r e e e e e e e w w w w q q 3 3 3 3 3 3 < < - - - - < < < = = = = = = = = = * * * * * * * * * * * * * $ & & & & & # # # # # # # # # # # # $ $ $ # # # # # $ $ $ $ $ $ $ $ $ $ $ $ $ $ ",
"i i d d d d f g g g g g g g g h h h h G G G G G G G U U U I E { =.U.U.U.U.U.I.L.L.I.I.I.U.U.R.W.W.W.W.W.W.W.!.!.+X@X@X$X%X%X%X%X*X5X5X*X%X#X].E.W.W.E.+X#X*X5X5X6X9XeXeXeXeXeXeX7X7X7X7X7X7X7X7X7X7X7X7X7X7X9X9XeX9XeXeXeXeXeXeXeXeXrXrXrXeXrXrXeXtXxXcXxXxXxXxXxXcXcXcXcXcXcXxXxXeX6X6X6X6X6X7X7X7X7X7X7X9XeXeXeXeXeXeXeXeXeXlXzXxXxXxXxXxXxXxXnXxXeX6X#XW.T.].#X;X6X7X7XeXeXeXeXeXxXxXxXtXxXeXeXeXeX<X*X7XxXzXtXeXtXtX9X0X0X5X6X5X*X%X%X&X&X@X@X@X@X@X+X+XE.E.E.E.E.+X@X@X@X@X@X@X&X&X&X&X%X%X&X%X&X&X&X&X%X%X%X%X%X%X;X;X;X;X*X*X*X*X*X*X*X*X*X5X5X5X6X6X6X6X6X6X7X6X6X6X6X6X6X6X6X6X5X*X*X&X&X&X&X&X&X#X@X#X@X@X@X@X@X@X&X@X&X&X&X@X@X@X@X@X@X@X@X@X@X@XE.E.E.E.E.E.E.E.E.E.E.E.E.E.E.E.E.E.E.E.E.E.E.E.E.E.E.E.E.E.!.!.!.!.!.!.!.!.+X+X+X+X+X+X+X@X@X@X@X@X@X&X&X&X&X@X@X@X@X@X@XE.E.T.T.U.T.W.@X$X;X7XeXlXzXzXzXzXlXlX9X9X8X9X7X7X0X%X$X@X@X@X@X~.!.!.U.e.{ { ] I U U U U U G G G G G G G G G G h h h h h h g g g g g g g f f f s s i i i i i i i i i i i r e e e e e e w w w w q q 3 3 3 3 3 3 < < < < < < < < < < < = = = = = = = * * * * * * * * * * * * * & & & & & & # # # # # # # # # # # # $ $ # # # # # # $ $ $ $ $ $ $ $ $ $ $ $ $ $ "
};
