/* XPM */
static char *a64c3b33873f44a1b9a8d11fdb04a875LbH37sQcjwSHzATC[] = {
/* columns rows colors chars-per-pixel */
"554 739 256 2 ",
"   c #030200",
".  c #0B0401",
"X  c #0D0B0A",
"o  c #110E0D",
"O  c #150903",
"+  c #18120D",
"@  c #120F10",
"#  c #141313",
"$  c #191515",
"%  c #1C1A1B",
"&  c #1C1916",
"*  c #0F1010",
"=  c #221D1C",
"-  c #251B15",
";  c #2E1A0A",
":  c #3B240C",
">  c #29221C",
",  c #392817",
"<  c #3B2F1C",
"1  c #252223",
"2  c #2A2524",
"3  c #2D2B2B",
"4  c #2A2827",
"5  c #322E2D",
"6  c #362C24",
"7  c #3A322A",
"8  c #322E32",
"9  c #353333",
"0  c #3A3633",
"q  c #3D3B3B",
"w  c #3C3836",
"e  c #2F2A30",
"r  c #201F20",
"t  c #44290D",
"y  c #442C13",
"u  c #472D17",
"i  c #4B3215",
"p  c #4C341B",
"a  c #47331B",
"s  c #543A1C",
"d  c #5B3C1B",
"f  c #533618",
"g  c #522F13",
"h  c #483828",
"j  c #543C23",
"k  c #573C27",
"l  c #443B33",
"z  c #463D37",
"x  c #4E372C",
"c  c #653C20",
"v  c #5E411D",
"b  c #64431D",
"n  c #764619",
"m  c #5D4224",
"M  c #5C432B",
"N  c #56422C",
"B  c #4C433C",
"V  c #47413A",
"C  c #544334",
"Z  c #5B4B3C",
"A  c #574738",
"S  c #594C38",
"D  c #634524",
"F  c #6B4D2B",
"G  c #674928",
"H  c #734C28",
"J  c #73532C",
"K  c #7A562C",
"L  c #644C33",
"P  c #674B36",
"I  c #744D37",
"U  c #6B543C",
"Y  c #695238",
"T  c #735433",
"R  c #7B5B33",
"E  c #7B5C3B",
"W  c #76573A",
"Q  c #6E512C",
"!  c #7D613D",
"~  c #423D45",
"^  c #4A4644",
"/  c #544B43",
"(  c #5B4D43",
")  c #544D49",
"_  c #5C534C",
"`  c #585149",
"'  c #5B5653",
"]  c #595755",
"[  c #504C52",
"{  c #635343",
"}  c #63554B",
"|  c #6A5948",
" . c #735B43",
".. c #785B46",
"X. c #645B54",
"o. c #6B5D54",
"O. c #645D59",
"+. c #6D574C",
"@. c #7C634C",
"#. c #7A6247",
"$. c #6C625B",
"%. c #696159",
"&. c #72655C",
"*. c #796656",
"=. c #746854",
"-. c #6A6664",
";. c #746A64",
":. c #7B6D64",
">. c #756B67",
",. c #7C726B",
"<. c #797169",
"1. c #7B7774",
"2. c #716F70",
"3. c #5F5B61",
"4. c #3C3643",
"5. c #B8681C",
"6. c #845B38",
"7. c #8A572C",
"8. c #84633B",
"9. c #89653A",
"0. c #94693A",
"q. c #B86B24",
"w. c #AF6D2F",
"e. c #9B561B",
"r. c #C77627",
"t. c #C7792E",
"y. c #C06D1E",
"u. c #865C46",
"i. c #935C49",
"p. c #836443",
"a. c #896749",
"s. c #956949",
"d. c #987449",
"f. c #866B55",
"g. c #9B6D53",
"h. c #956A54",
"j. c #8B725A",
"k. c #987558",
"l. c #8E714B",
"z. c #A3755B",
"x. c #AB7B5C",
"c. c #A57757",
"v. c #B27C5C",
"b. c #A6734F",
"n. c #83756C",
"m. c #887667",
"M. c #977C65",
"N. c #847A74",
"B. c #8B7C74",
"V. c #857C78",
"C. c #8C756B",
"Z. c #AC7C62",
"A. c #A57B63",
"S. c #B47D63",
"D. c #AF7063",
"F. c #A15E4D",
"G. c #C57966",
"H. c #C37755",
"J. c #D68835",
"K. c #E5953C",
"L. c #EEA53D",
"P. c #A98458",
"I. c #B4855B",
"U. c #B4864F",
"Y. c #9B8269",
"T. c #8C827B",
"R. c #95857A",
"E. c #918673",
"W. c #A88568",
"Q. c #B48364",
"!. c #BC8B6C",
"~. c #B88768",
"^. c #A78B75",
"/. c #B79678",
"(. c #B49071",
"). c #AD8F6A",
"_. c #CE8E4B",
"`. c #E89B44",
"'. c #F3AB4F",
"]. c #C38C6C",
"[. c #C6886A",
"{. c #C7926D",
"}. c #C78C72",
"|. c #CB9473",
" X c #CA9776",
".X c #D39B75",
"XX c #D49C7B",
"oX c #D79A79",
"OX c #D38D71",
"+X c #DCA27D",
"@X c #D6A17C",
"#X c #C9A279",
"$X c #E5A97A",
"%X c #E19D72",
"&X c #F9C063",
"*X c #827F80",
"=X c #8A8684",
"-X c #978B85",
";X c #9B928B",
":X c #9A9695",
">X c #948F90",
",X c #A6958A",
"<X c #B69B87",
"1X c #A79B95",
"2X c #AD988E",
"3X c #ABA29B",
"4X c #B6A59A",
"5X c #BAA28B",
"6X c #AAA6A4",
"7X c #B7ABA5",
"8X c #BBB2AB",
"9X c #BBB7B3",
"0X c #A39FA0",
"qX c #D49D81",
"wX c #C8A687",
"eX c #DAA583",
"rX c #C5AB99",
"tX c #D3B497",
"yX c #E4AA84",
"uX c #E6AA87",
"iX c #ECB28C",
"pX c #E9B188",
"aX c #F1B58D",
"sX c #EDB593",
"dX c #F4BB94",
"fX c #F4B997",
"gX c #E8AE91",
"hX c #C6B5AA",
"jX c #C8BBB4",
"kX c #D1B8AB",
"lX c #EEB59A",
"zX c #F9C29B",
"xX c #E6C29E",
"cX c #CBC2BA",
"vX c #D7C5B9",
"bX c #D7C2AC",
"nX c #FBC6A4",
"mX c #E7CBB7",
"MX c #DFC19E",
"NX c #D7CCC5",
"BX c #DAD2CA",
"VX c #D5D0CB",
"CX c #E8D4C8",
"ZX c #F5DACB",
"AX c #E6DCD5",
"SX c #EDD5C9",
"DX c #EAE3DB",
"FX c #F9E5D7",
"GX c #F9E2CF",
"HX c #F4EDE6",
"JX c #FCF4EC",
"KX c #F9F2E8",
"LX c #FEFAF4",
"PX c #FDF9F5",
"IX c #EDE8E2",
"UX c #E9DFE1",
/* pixels */
"w w w w q q q q z z z z z z ~ ~ ~ ~ ~ ~ ~ ~ ~ ~ ~ ~ ^ ^ ^ ^ ^ ^ ^ ^ ^ ^ ^ ^ ^ ^ ^ ^ ^ ^ ^ ^ ^ ^ ^ ^ ^ ^ ^ ^ [ [ [ ^ ^ ~ ^ [ ] -.2.2.1.1.*X*X*X*X*X*X=X=X=X=X=X=X=X=X=X=X=X=X>X>X>X>X>X>X>X>X:X>X>X>X:X:X:X:X:X:X:X:X:X:X:X:X:X:X0X0X6X6X6X6X6X6X6X6X6X6X6X6X6X6X6X6X6X6X6X6X6X6X6X6X8X8X6X6X8X8X8X8X8X8X9X9X9X8X9X8X9X9X9X9X9X9X8X8X8X8X8X8X8X8X8X8X6X6X6X7X7X7X8X8X8X8X8X8X6X6X6X8X8X8X8X6X6X1X:X>XT.1.1.1.V.V.1.1.T.=X=X>X:X6X7X8X8X8X8X8X8X8X9X9X9X9X9X9X9X9X9X9X9X9X9X9X9X9X9X9X9X9X9X9X9X9X9X9XjXjXjX9XjXjXjXjXjX9X9X9XjXcXcXcXcXcXcXcXcXcXcXcXcXcXcXNXNXcXcXcXcXcXNXNXcXjX9XjXjX9XjX9X9X9X9X9X9X9X9X9X8X8X8X8X8X8X7X7X6X6X6X6X6X6X6X6X3X1X1X:X:X:X:X>X>X>X=X=X=XT.V.1.1.1.2.2.-.3.3.3.~ ~ 4.~ ~ ~ ~ 4.4.4.4.4.4.q 8 8 8 e e e 8 8 8 8 9 9 9 q z z z z z z z l l l l l l l l l l l l l z z z z z z z z z z z z z z z z z z z z l l l 7 7 5 5 5 6 6 2 2 2 2 2 2 2 2 2 2 2 2 6 6 2 = = - & & & & & & % & & & % % % % % % & & % % % % % % % % % % % % % % % % = % % % % % = = = = % % % = % % % % = % = = = = r r = = 1 1 1 r 1 1 1 1 1 1 1 1 1 1 1 1 1 1 1 1 1 1 2 2 2 2 1 1 1 2 2 2 2 2 2 2 1 1 1 1 1 1 1 1 1 1 1 1 1 1 2 1 1 1 1 1 1 1 1 1 1 1 ",
"w w w w w w q q q q q q q q z q q q q q q q q q q q z z z ~ ~ ~ ~ ~ ~ ~ ~ ~ z z ~ ~ ~ ~ ~ ~ ~ ~ ~ ~ z z ^ ^ ^ [ [ ^ ^ ^ ^ [ ] 3.2.2.1.1.*X*X*X*X*X*X=X=X=X=X=X=X=X=X=X=X=X=X>X>X>X>X>X>X>X>X>X>X>X>X:X:X>X>X:X:X:X:X:X:X:X:X:X:X:X:X0X0X0X0X6X6X6X6X6X6X6X6X6X6X6X6X6X6X6X6X6X6X6X6X6X6X6X6X6X6X6X6X8X8X8X8X8X8X8X8X8X8X8X8X8X8X8X8X6X6X8X8X8X8X8X8X6X6X6X6X7X7X7X7X7X8X8X8X6X6X6X6X8X6X6X6X:X>X=X=XT.V.T.=X=X>X>X>X=X=XT.=X>X:X3X6X7X8X8X7X8X8X8X8X8X8X8X8X8X8X9X9X9X9X9X9X9X9X9X9X9X9X9X9X9X9X9X9X9X9X9X9X9X9X9X9X9X9X9X9XjXjXjXjXjXjXjXjXjXjXjXjXjXjXjXcXjXjXjXjXjXjXjXjX9X9X9X9X9X9X9X9X9X9X9X9X9X9X8X8X8X8X7X7X7X6X6X6X6X6X6X6X6X6X6X3X1X:X:X:X:X:X:X>X>X=X=X=XT.T.V.1.1.1.2.2.-.3.3.~ 4.~ ~ ~ ~ ~ ~ 4.4.4.4.4.4.4.8 8 8 e e e 8 8 8 8 9 9 9 q z z z z z z z l l l l l l l l l l l l l z z z z z z z z z z z z z z z z z z z l l 0 7 5 5 6 6 2 2 2 2 2 2 2 2 2 2 2 2 2 2 2 6 6 2 = = - & & & & & & % & & & & & % % % % & & % % % % % % % % % % % % % % % % = = % % % % = = = = % % % % % % % % = = = = = = r r = = 1 1 1 1 1 1 1 1 1 1 1 1 1 1 1 1 1 1 1 1 1 1 2 2 2 2 1 1 1 2 2 2 2 2 2 2 1 1 1 1 1 1 1 1 1 1 1 1 1 1 1 1 1 1 1 1 1 1 1 1 1 1 ",
"w w w w w w w w w w w w w w q w w w w w q q q q q q q q q q q q q q q q q q q q q q q q q q q q q q q q 4.~ ^ [ [ [ [ ^ ^ [ ] 3.2.2.1.1.1.*X*X*X*XV.=X=X=X=X=X=X=X=X=X=X=X=X=X=X=X=X>X>X>X>X>X>X>X>X>X>X>X>X>X>X:X:X:X:X:X:X:X:X:X:X:X:X:X:X0X0X0X:X0X0X0X0X6X6X6X6X6X6X6X6X6X6X6X6X6X6X6X6X6X6X6X6X6X6X6X6X6X6X8X8X6X6X6X6X6X6X6X6X6X6X6X6X6X6X6X6X6X6X6X6X6X6X6X6X6X6X6X6X6X6X6X6X6X6X1X:X>X=XT.=X=X>X:X:X1X3X3X1X>X=X=X=X=X=X>X:X6X6X7X7X7X7X8X8X8X8X8X8X8X8X8X8X9X9X8X8X9X9X9X9X9X9X9X9X9X9X9X9X9X9X9X9X9X9X9X9X9X9X9X9X9XjX9X9XjXjXjXjX9XjX9X9X9X9X9X9XjXjX9XjX9X9X9X9X9X9X9X9X9X9X9X9X9X9X9X9X9X8X8X8X8X8X7X6X6X6X6X6X6X6X6X6X6X6X3X3X1X1X:X:X:X:X>X>X=X=X=X=XT.T.1.1.1.1.2.2.-.3.[ ~ 4.~ ~ ~ ~ 4.~ 4.4.4.4.4.4.4.8 8 e e e e 8 8 8 8 9 9 9 q z ~ ~ z z z z l l l l l l l l l l l l l z z z z z z z z z z z z l l z z z z l l 0 7 6 6 2 2 2 2 2 2 2 2 2 2 2 2 2 2 2 2 2 2 2 2 2 > = - & & & & & & & & & & & & & & % & & & % % % % % % % % % % % % % % % % = = % = % % % = % % % % % = = = = % = % = = % = r r r r 1 1 1 1 1 1 1 1 1 1 1 1 1 1 1 1 1 1 1 1 1 1 2 2 2 2 2 1 2 2 2 2 2 2 2 2 1 1 1 1 1 1 1 1 1 1 1 1 1 1 1 1 1 1 1 1 1 1 1 1 1 1 ",
"w w w 9 9 9 9 9 9 9 0 0 0 9 w w w w w w w w w w w w w w w w q q w w w w w w w w w w w w w w w w w w w w q 4.^ ^ [ [ [ [ ^ [ ] 3.2.2.1.1.1.1.1.1.1.1.*X*X*X=X=X=X=X=X=X=X=X=X=X=X=X=X=X=X=X=X>X>X>X>X>X>X>X>X>X>X>X>X>X:X>X:X:X:X:X:X:X:X:X:X:X:X:X:X:X:X:X:X0X6X6X6X6X6X6X6X6X6X6X6X6X6X6X6X6X6X6X6X6X6X6X6X6X6X6X6X6X6X6X6X6X6X6X6X6X6X6X6X6X6X6X6X6X6X6X6X6X6X6X6X6X6X6X6X6X6X6X6X6X6X:X>X=X=XV.=X:X6X6X6X6X6X6X6X3X:X:X>X=X=X=X>X:X6X6X7X7X7X6X6X8X8X7X8X7X7X8X8X8X8X8X8X8X8X8X8X8X8X9X9X9X9X9X9X9X9X9X9X9X9X9X9X9X9X9X9X9X9X9X9X9X9X9X9X9X9X9X9X9X9X9X9X9X9X9X9X9X9X9X9X9X9X9X9X9X9X9X9X8X8X8X8X8X7X6X7X6X6X6X6X6X6X6X6X6X6X3X6X6X3X3X1X:X:X:X:X>X>X>X>X=X=X=XT.V.V.1.1.1.1.<.2.-.3.[ ~ ~ ~ ~ ~ ~ 4.~ 4.4.4.4.4.4.4.8 8 8 e e e 8 8 8 8 8 8 9 q z ~ ~ z z z z l l h l l l l l l l l l l z z z z z z z z z z l l l l z z z l l 0 7 5 2 2 2 2 2 2 2 2 2 2 2 2 2 2 2 2 2 2 2 2 2 2 2 = - & & & & & & & & & & & & & & & & & & & % % % % % % % % % % % % % % % % = = % % % % % = % % % % % % = = = = = = = % = = r r r r 1 1 1 1 1 r r r 1 1 1 1 1 1 1 1 1 1 1 1 1 1 1 1 1 1 1 1 1 1 1 1 1 1 1 1 1 1 1 1 1 1 1 1 1 1 1 1 1 1 1 1 1 1 1 1 1 1 1 1 1 1 ",
"9 9 9 9 9 9 9 9 9 9 9 9 0 0 w w w w w w w w q q q q q q q q q q q q w w q q q q w w w w w w w w w w 9 9 w q ~ ^ [ [ [ [ [ [ ] 3.2.2.2.1.1.1.1.1.1.1.*X*X*X*X=X=X=X=X=X=X=X=X=X=X=X=X=X=X=X=X=X=X=X>X>X>X>X>X>X>X>X>X>X>X:X>X:X:X:X:X:X:X:X:X:X:X:X:X:X:X:X:X0X6X0X6X6X6X6X6X6X6X6X6X6X6X6X6X6X6X6X6X6X6X6X6X6X6X6X6X6X6X6X6X6X6X6X6X6X6X6X6X6X6X6X6X6X6X6X6X6X6X6X6X6X6X6X6X6X6X6X6X6X6X:X=X=X=X:X1X3X6X6X6X6X6X6X6X6X3X3X:X=X=X=X=X:X1X6X6X6X6X6X6X6X6X6X6X6X6X7X7X8X8X7X7X8X8X8X8X8X8X8X8X8X8X8X8X9X9X9X9X9X9X9X9X9X9X9X9X9X9X9X9X9X9X9X9X9X9X9X9X9X9X9X9X9X9X9X9X9X9X9X9X9X8X9X9X9X8X8X8X8X8X7X7X6X6X6X6X6X6X6X6X6X6X6X6X3X3X3X1X3X3X1X:X:X:X:X:X>X>X>X=X=X=X=XT.V.1.1.1.1.,.1.2.-.3.[ ~ ~ ~ ~ ~ ~ ~ ~ 4.4.4.4.4.4.4.9 8 8 8 e e e e 8 8 8 8 0 q z z ~ z z z z z l h l l z z l l l l z z z z z z z z z z z z z l l l z z l l 0 7 5 2 - - = 2 > > 2 2 2 2 2 2 2 2 2 > > 2 2 2 2 4 2 = - & & & & % $ $ & & & & & & & & & & & & & & & % % % & & % % % % % % % % % % % % % % % % % % % % % % % % % % % % % % % % = = = = r r r r r r 1 1 1 1 1 1 1 1 1 1 1 1 1 1 1 1 1 1 1 1 1 1 1 1 1 1 1 1 1 1 1 1 1 1 1 1 1 1 1 1 1 1 1 1 1 1 1 1 1 1 1 1 1 1 1 1 ",
"9 9 9 9 9 9 9 9 9 9 0 0 w w q q w w q q q q q q q q q q z z z z q q q q q q q q w w w w w w w w w w 9 9 w q 4.~ ^ [ [ [ [ ] ] 3.2.2.2.1.1.1.1.1.1.1.1.1.1.*X*X*X=X=X=X=X=X=X=X=X=X=X=X=X=X=X=X=X=X=X>X>X>X>X>X>X>X>X>X>X>X>X:X:X:X:X:X:X:X:X:X:X:X:X:X:X:X:X0X6X0X6X6X6X6X6X6X6X6X6X6X6X6X6X6X6X6X6X6X6X6X6X6X6X6X6X6X6X6X6X6X6X6X6X6X6X6X6X6X6X6X6X6X6X6X6X6X6X6X6X6X6X6X6X6X6X6X6X6X6X6X:X:X:X:X3X3X6X6X6X6X6X6X6X3X3X6X6X:X>X=X=X=X>X6X6X6X6X6X6X6X6X6X6X6X6X6X6X7X7X6X6X6X6X8X8X8X8X8X8X8X8X8X8X8X8X9X9X9X9X8X9X9X8X8X8X9X9X9X9X9X9X9X9X9X9X9X9X9X9X9X9X9X9X9X9X9X9X8X8X8X8X8X8X8X8X8X8X6X6X6X6X6X6X6X6X6X6X6X6X6X6X6X3X3X1X1X1X:X:X:X:X:X:X>X>X>X=X=X=XT.T.T.V.1.1.1.1.,.1.1.2.-.] [ ~ 4.~ ~ ~ ~ ~ ~ 4.4.4.4.4.q 8 8 8 8 e e e e e e e 8 8 0 w z z z z z z z l l l z h z h l l l l z z z z z z z z z z z z l l l l l l l 7 5 6 2 = - - = > > > 2 2 2 2 2 2 2 2 2 = > > 2 2 2 2 2 = & & & & $ $ $ $ & & & & & & & & & & & & & & & & % % & & % % % % % % % % % % % % % % % % % % % % % % % % % % % % % % % % = = = = r r r r = = = = r r = = r r r r 1 1 1 1 1 1 1 1 1 1 1 1 1 1 1 1 1 1 1 1 1 1 1 1 1 1 1 1 1 1 1 1 1 1 1 1 1 1 1 1 1 1 1 1 1 1 ",
"9 9 9 9 9 9 9 9 9 9 9 9 w w w w w w q q q q q q q q q q ~ q ~ ~ ^ ~ ~ z q q ~ q q q q w q w w w w w 9 9 9 w q ~ ^ ^ [ [ ] ] ] -.-.2.2.2.1.1.1.1.1.1.1.1.V.*X*X*X=X=X=X=X=X=X=X=X=X=X=X=X=X=X=X=X=X=X=X>X>X>X>X>X>X>X>X>X>X>X>X:X:X:X:X:X:X:X:X:X:X:X:X:X:X0X0X6X0X6X6X6X6X6X6X6X6X6X6X6X6X6X6X6X6X6X6X6X6X6X6X6X6X6X6X6X6X6X6X6X6X6X6X6X6X6X6X6X6X6X6X6X6X6X6X6X6X6X6X6X6X6X6X6X6X6X6X6X6X6X6X6X3X3X6X6X6X6X6X6X6X6X6X6X6X6X6X1X>X=XT.=X:X6X6X6X6X6X6X6X6X6X6X6X6X6X6X6X6X6X6X6X6X6X6X6X7X7X7X6X6X7X8X8X8X8X8X8X8X8X8X8X8X8X8X9X9X9X9X9X9X9X9X9X9X9X9X9X9X9X9X9X8X9X8X8X8X8X7X7X8X8X8X7X6X6X6X6X6X6X6X6X6X6X6X6X3X3X3X3X3X3X1X:X:X:X:X:X:X:X>X>X>X>X=X=X=X=XT.V.V.V.1.1.1.1.,.,.2.2.O.] [ ~ ~ ~ ~ ~ ~ ~ ~ 4.4.4.4.4.8 8 8 8 e e e e e e e e e 8 0 z z z z z z z l l l l l l z z z z z l z z z z z z z z z z z z l l l l l 7 5 6 2 > - - - - = > > > 2 2 2 2 2 2 2 2 2 = = > 2 2 2 2 > = & & & & & & & & & & & & & & & & & & & & & & & & % % % & % % & % & % % % % % % % % % % % % % % % % % % % % % % % % % % % = = = = r r r r = = = = r r r = r r 1 1 1 1 1 1 1 1 1 1 1 1 1 1 1 1 1 1 1 1 1 1 1 1 1 1 1 1 1 1 1 1 1 1 1 1 1 1 1 1 1 1 1 1 1 1 1 1 ",
"9 8 9 9 8 9 9 9 9 9 9 9 w w w w w q q q q q q q q q q ~ ~ ~ ~ ~ ^ ^ ^ ~ z q ~ q q q w w q w w w w w 9 9 9 9 w q ~ ^ ^ [ ] ] 3.-.-.2.2.1.1.1.1.1.1.1.1.1.1.V.*X*X*X*X*X*X=X=X=X=X=X=X=X=X=X=X=X=X=X=X=X=X>X>X>X>X>X>X>X>X>X>X>X:X:X:X:X:X:X:X:X:X:X:X:X:X:X:X:X:X:X0X0X0X0X0X6X6X6X6X6X6X6X6X6X6X6X6X6X6X6X6X6X6X6X6X6X6X6X6X6X6X6X6X6X6X6X6X6X6X6X6X6X6X6X6X6X6X6X6X6X6X6X6X6X6X6X6X6X6X3X6X7X6X3X6X6X6X6X6X6X6X6X6X6X6X6X6X6X3X:X=XT.V.=X:X3X6X6X6X6X6X6X6X6X6X6X6X6X6X6X6X6X6X6X6X6X6X6X6X6X6X6X6X6X6X6X7X7X7X7X7X7X6X6X6X8X8X8X9X9X9X8X8X8X8X8X8X8X8X8X9X8X8X8X8X8X8X8X7X7X7X7X7X6X6X6X6X6X6X6X6X6X6X6X6X6X3X3X3X1X1X1X1X:X:X:X:X:X:X:X:X>X>X>X>X=X=X=XT.V.V.V.1.1.1.1.,.1.2.2.-.O.] [ ~ ~ ~ ~ ~ ~ ~ 4.4.4.4.4.9 8 8 8 8 e e e e e 5 e e 8 8 w q z z z z z l h h z z &.;.B ( z z z l z z z z z z l l z l l l l l l h 5 6 6 2 - - - - - - = = = > 2 2 2 2 2 2 2 2 2 = = > 2 2 2 2 > = & & & & & & & & & & & & & & & & & & & & & & & & % % & & % % & & & % % % % % % % % % % % % % % % % % % % % % % % % % % % % % % % = = = = = = = = r r r = 1 r 1 1 1 1 1 1 1 1 1 1 1 1 1 1 r r 1 1 1 1 1 1 1 1 1 1 1 1 1 1 1 1 1 1 1 1 1 1 1 1 1 1 1 1 1 1 r r ",
"3 3 3 3 8 9 9 8 9 9 9 9 w w w q q q q q q q q q q q q q ~ ^ ^ ^ ^ ^ ~ ^ z z q q q q q q q q w w w w 9 9 9 9 9 0 q ^ ^ ^ [ ] 3.-.-.2.2.2.1.1.1.1.1.1.1.1.1.1.V.V.T.T.=X=X=X=X=X=X=X=X=X=X=X=X=X=X=X=X=X=X=X=X=X>X>X>X>X>X>X>X>X>X>X:X:X:X:X:X:X:X:X:X:X:X:X:X:X:X:X0X6X6X6X6X6X6X6X6X6X6X6X6X6X6X6X6X6X6X6X6X6X6X6X6X6X6X6X6X6X6X6X6X6X6X6X6X6X6X6X6X6X6X6X6X6X6X6X6X6X6X6X6X3X3X3X:X:X:X:X3X6X6X6X6X6X6X6X3X3X6X6X6X3X3X3X3X3X3X:X>X=XV.=X:X1X3X6X6X6X6X6X6X6X6X6X6X6X6X6X6X6X6X6X6X6X6X6X6X6X6X6X6X6X6X6X6X6X6X6X6X6X7X6X6X7X7X7X7X7X7X7X7X6X6X6X7X7X7X7X7X7X7X6X6X6X6X6X6X6X6X6X6X6X6X6X6X6X6X6X6X6X6X3X3X3X3X3X1X:X:X:X:X:X:X:X:X:X:X:X>X>X>X>X=X=X=XT.T.V.V.V.1.1.1.1.1.1.2.2.-.3.] [ ~ ~ ~ ~ ~ ~ ~ 4.4.4.4.4.9 8 8 8 8 e e e 3 3 3 3 e 8 8 0 q z z z z z z h ( &.;.z z z z z z z z z z z z x x z z z z z z l x h 6 6 2 2 = - - - - - - = = = = 2 2 2 2 2 2 2 2 2 = 2 2 4 2 4 1 = & & & & & $ $ $ $ $ $ $ $ $ $ $ $ $ $ $ $ & & & & & & & & & & & % % % % % % % % % % % % % % % % % % % % % % % % % % % % % % % % % = = = = = = = = = = % % % % r r 1 r r r 1 1 1 1 1 1 1 1 1 1 1 1 1 1 1 1 1 1 1 1 1 1 1 1 1 1 1 1 1 1 1 1 1 1 1 1 1 1 1 1 r r ",
"3 3 3 3 3 8 9 8 8 8 9 9 w w w w q q q q q q q q q q q q ~ ~ ^ ^ ~ ~ ~ ~ z z q q q q q q q q q w w w 9 9 9 9 9 9 w ~ ^ ^ [ [ ] 3.-.-.2.2.1.1.1.1.1.1.1.1.1.1.1.1.V.V.T.V.=X=XT.T.=X=X=X=X=X=X=X=X=X=X=X=X=X=X=X=X=X=X>X>X>X>X>X>X>X>X>X>X>X>X:X:X:X:X:X:X:X:X:X:X:X:X:X:X0X0X6X0X0X0X0X0X6X6X6X6X6X6X6X6X6X6X6X6X6X6X6X6X6X6X6X6X6X6X6X6X6X6X6X6X6X6X6X6X6X6X6X6X6X6X6X6X6X1X1X1X:X:X>X>X>X:X1X3X3X3X3X3X1X1X1X3X1X1X1X1X1X1X1X1X:X>X=XV.T.=X:X3X3X3X3X3X6X6X6X6X6X6X6X6X6X6X6X6X6X6X6X6X6X6X6X6X6X6X6X6X6X6X6X6X6X6X6X6X6X6X6X6X6X6X6X6X6X6X6X6X6X6X6X6X6X6X6X6X6X6X6X6X6X6X6X6X6X6X6X6X6X6X3X3X3X3X3X3X1X1X1X1X1X:X:X:X:X:X:X:X>X>X>X>X>X>X>X>X=X=X=XT.T.V.1.1.1.1.1.1.1.1.1.-.2.-.3.] [ ~ ~ ~ ~ ~ ~ 4.4.4.4.4.q q 8 8 8 8 e e 3 3 3 3 3 e 8 8 0 w z z z z h z C.} z z z z z z z z z z z z z z z z z z z z z z x x h 6 2 > = - - - - - - - = = = = 2 2 2 2 2 2 2 > 2 = 2 2 4 2 4 1 = & & & $ $ $ $ $ $ $ $ $ $ $ $ $ $ $ $ $ $ & & & & & & & & & & & & % % % % & & % % % % & & & & & & & & & & & & & & & & % % % % % % % % = = = = = = = = % % % % r r r r r r r r r r % % r r r % % % r 1 r r % % % % r r r r % r % % r r r r r r r r r r r r r r ",
"3 3 3 3 3 8 9 5 5 8 9 9 w 9 9 9 w w w w q q q q q q q q q q ~ ~ ~ ~ ~ ~ z q q q q q q q q q q q w w 9 9 9 9 9 9 w q ^ ^ ^ [ [ ] 3.-.2.2.2.1.1.1.1.1.1.1.1.1.1.1.1.1.T.T.=XT.=XT.=X=X=X=X=X=X=X=X=X=X=X=X=X=X=X=X=X=X=X>X>X>X>X>X>X>X>X>X>X>X:X:X:X:X:X:X:X:X:X:X:X:X:X:X:X:X:X:X:X:X:X:X0X0X6X6X0X0X0X0X6X6X6X6X0X0X0X0X6X6X6X6X6X6X6X6X6X6X6X6X6X6X6X6X6X6X3X3X0X0X1X1X1X:X:X:X:X>X=XT.T.=X>X:X:X:X:X:X:X:X:X:X:X:X:X:X:X:X:X:X:X>X=XV.V.=X:X3X3X3X3X3X1X1X3X3X6X6X6X6X3X3X3X6X6X6X6X6X6X6X6X6X6X6X6X6X6X6X6X6X6X6X6X6X6X6X6X6X6X6X6X6X6X6X6X6X6X6X6X6X6X6X6X6X6X6X6X6X6X6X6X6X6X3X6X3X3X3X1X1X1X1X1X:X:X:X:X:X:X:X:X>X:X;X>X>X>X>X>X>X>X>X=X=X=X=XT.V.V.T.T.V.V.1.1.1.1.1.2.2.2.-.3.] [ ~ ~ ~ ~ ~ ~ 4.4.4.4.4.4.0 8 8 8 8 e e 3 3 3 3 3 5 8 8 9 w z z z z ` _ l z z z x x x x l l x x x x z z z z z z A Z Z A x x h 6 > = - - - - - - - - = = = > 2 2 2 2 2 > > > = = 2 2 2 2 4 1 = & & & & & $ $ $ $ $ $ $ $ $ $ $ $ $ $ $ $ & & & & & & & & & & & & & & % & & & & & % & & & & & & & % % & & & & & & & & % % % % % % % % % % = = = = = = % % % % r r r r r r r r r r % % % % r r % % r r r r % % % % 1 r 1 1 % % % % r r r r r r r r r r r r r r ",
"3 3 3 3 3 3 5 3 3 8 9 9 9 9 9 9 9 9 w w w q w w q q w q q q q q q q q q q q q q q q q q q q q q q w 9 9 9 9 9 9 9 q ~ ^ ^ ^ [ ] ] -.-.2.2.2.1.1.1.1.1.1.1.1.1.1.1.1.1.1.1.1.1.1.1.1.T.T.=X=X=X=X=X=X=X=X=X=X=X=X=X=X=X=X=X=X>X>X>X>X>X>X>X>X>X>X>X>X:X:X:X:X:X:X:X:X:X:X:X:X:X:X:X:X:X:X:X:X:X:X1X1X1X1X0X0X0X0X0X0X0X0X6X6X6X6X3X3X6X6X6X6X6X6X6X6X6X6X1X1X6X1X1X:X:X:X:X:X:X:X:X=XT.1.V.T.=X=X>X>X>X>X>X>X>X>X>X>X>X>X:X:X:X>X:X:X=XT.V.T.=X:X1X1X1X1X:X:X:X:X1X1X3X3X3X1X3X3X3X6X3X3X3X3X6X6X6X6X6X6X6X6X6X6X6X6X6X3X3X6X6X6X6X6X6X6X6X6X6X6X6X6X6X6X6X6X6X6X6X6X6X6X6X3X6X6X3X3X3X3X3X3X1X1X1X1X1X:X:X:X:X:X:X:X:X>X>X>X>X>X>X>X>X>X>X>X=X=X=XT.T.T.T.T.T.T.>X=X1.2.2.V.2.2.2.-.3.] [ ~ ~ ~ ~ ~ ~ 4.4.4.4.4.q 8 8 8 8 8 e e 3 3 3 3 3 3 5 7 9 w z ~ / ( ( z l z z z x x x x l x x x x x x x k k k k ( { { { x x h 6 = = - - - - - - - - = = = = 2 2 2 2 2 = = = = = > 2 2 2 1 = % & & & & & $ $ $ $ $ $ $ $ $ $ $ $ $ $ $ $ & & & & & & & & & & & & & & & & & & & & % & & & & & % % % % & & & & & & % % % % % % % % % % % % % % % % % % % % % % % % % % % r r r r r % % % % r r % % r r r r % % % % % % % % % % % % r r r r r r r r r r r r r % ",
"3 3 3 3 3 3 5 3 3 9 9 9 9 9 9 9 9 9 9 0 w w w w w w w w w w q q q q q q q q q q q q q q q q q w w w w 9 9 9 9 9 9 w q ^ ^ ^ ^ [ ] -.-.2.2.2.2.2.1.1.1.1.1.1.1.1.1.1.1.1.1.1.1.1.1.1.T.T.=X=X=X=X=X=X=X=X=X=X=X=X=X=X=X=X=X=X>X=X=X>X>X>X>X>X>X>X>X>X>X>X:X:X:X:X:X:X:X:X:X:X:X:X:X:X:X:X:X:X:X:X:X:X1X0X0X0X0X0X1X1X0X0X0X0X0X6X1X1X0X0X6X6X6X6X1X1X1X1X0X0X0X0X0X1X:X:X:X:X:X1X:X=XV.T.V.T.T.1.1.T.=X=XV.V.V.V.V.1.T.=X=X=X=X=X=X>X=X=XV.V.=X>X:X:X:X1X:X:X:X:X1X1X1X1X1X1X3X3X3X3X3X3X3X3X3X3X3X3X3X3X3X3X3X3X3X3X1X:X:X1X6X6X3X6X3X6X6X6X6X6X6X6X6X6X6X6X6X3X3X3X3X3X3X3X3X3X1X1X1X:X1X:X:X:X:X:X:X:X:X:X:X:X:X:X:X>X>X>X>X>X>X>X>X>X=X=X=X=X=XT.T.=XT.V.V.1.1.,.,.2.2.V.2.2.2.-.] ] [ ~ ~ ~ ~ ~ ~ 4.4.4.4.q 9 9 8 8 8 8 e e 3 3 3 3 3 3 5 5 0 0 z ) / ( z z x z z z z z x x x k k k A A P P P P { { +.....+.{ z h , - - = = - - = = = = = = > 2 2 2 2 2 = = = = = = 2 2 4 2 1 = & & $ & $ $ $ $ $ $ $ $ $ $ $ $ $ $ $ $ $ $ $ $ $ $ $ $ $ $ & & & & & & & & & & & & & & & & & & & & & & & & & & & & & & % % % % % % % % % % % % % % % % % % % % r r % r r r r % % % % % % % % % % % % % % % % % % % = = % % % % % % r r r % r r r r r r r r % % ",
"3 3 3 3 3 3 3 5 9 9 9 9 9 9 9 9 9 9 9 9 0 0 w w w w w w w w w w q q q q q q q q q q q q q q w w w w w 9 9 9 9 9 9 9 q ~ ^ ^ ^ [ ] ] -.-.2.2.2.2.2.1.1.1.1.1.1.1.1.1.1.1.1.1.1.1.1.1.V.V.=X=X*X*X=X=X=X=X=X=X=X=X=X=X=X=X=X=X=X=X>X>X>X>X>X>X>X>X>X>X>X>X>X>X:X:X:X:X:X:X:X:X:X:X:X:X:X:X:X:X:X:X:X:X:X:X1X1X1X1X1X:X1X1X1X1X1X1X1X1X1X1X0X0X1X1X1X1X1X1X:X:X:X:X1X6X6X6X6X8X6X1X=X=XT.1.1.1.1.2.2.1.1.,.2.2.2.2.2.2.2.1.T.T.T.T.=X=X=X=XV.V.=X>X:X:X:X:X:X:X:X:X:X:X1X1X1X1X1X1X1X1X1X1X1X1X1X1X3X3X1X1X3X1X3X3X3X3X:X:X1X1X:X:X:X1X6X6X3X6X6X6X3X3X3X3X3X3X3X3X3X3X3X1X1X1X1X1X:X:X:X:X:X:X:X:X:X:X:X:X:X:X:X:X>X>X>X>X>X>X>X>X=X=X=X=X=X=X=XT.V.1.1.V.1.1.1.1.1.,.2.2.2.1.-.2.-.-.] ] [ ~ ~ ~ ~ ~ 4.4.4.4.q 9 8 8 8 8 8 8 e e 3 3 3 5 5 5 5 5 7 z _ ) / z z z z x z z z x x x x k M L P P { +.......u.u.i.f.u.+.A h 2 - - = = = = = = = - = = = 2 2 2 2 > = = = = = = 2 2 2 1 = = & $ $ & $ $ $ $ $ $ $ $ $ $ $ $ $ $ $ $ $ $ $ $ $ $ $ $ $ $ & & & & & & & & & & & & & & & & & & & & & & & & & & & & & & % % % % % % % % % % % % % % % % % % % % % % % % % % r r % % % % % % % % % % % % % % % % % % % % % % % % % % r r r r % % % % % % % % % % ",
"3 3 3 3 3 3 3 3 9 9 9 9 9 9 9 9 9 9 9 9 9 9 w w w w w w w w w w w w w w q q q q w w w w w w w w w w w 9 9 9 9 9 9 9 w q ~ ^ ^ ^ [ ] -.-.-.2.2.2.2.1.1.1.1.1.1.1.1.1.1.1.1.1.1.1.1.1.1.1.*X*X=X=X=X=X=X=X=X=X=X=X=X=X=X=X=X=X=X=X=X=X=X=X=X=X>X>X>X>X>X>X>X>X>X>X>X>X>X>X:X:X:X:X:X:X:X:X:X:X:X:X:X:X:X:X:X:X:X:X:X:X:X:X:X:X:X:X:X:X:X:X:X:X1X1X:X:X:X:X:X0X8X9X9X8X6X6X6X1X3X8X6X6X3X:XV.=XV.2.2.1.,.-.-.-.-.-.-.-.-.2.1.1.1.1.1.=X=X=XV.V.=X>X:X:X:X:X:X:X:X:X:X:X:X:X:X:X:X:X:X:X:X:X1X1X1X1X1X:X1X1X1X1X3X3X3X3X:X:X:X:X1X3X:X:X3X3X1X1X1X1X1X1X1X1X1X1X1X1X:X:X:X:X:X:X:X:X:X:X:X:X:X:X:X:X:X:X:X:X>X>X>X>X>X>X>X>X=X=X=X=X=X=X=X=X=X=XT.V.1.1.1.1.1.1.1.1.1.,.2.2.2.1.2.2.-.-.] [ [ ~ ~ ~ ~ 4.4.4.9 9 9 8 8 8 8 8 8 e e e 3 3 3 3 3 5 5 9 z [ ~ z z z z z x x x x z k A A P U +.....u.u.i.i.h.h.h.h.h.h.j...( l 2 - - - = = = = = - - = = = > 2 2 2 > = = = - = = 2 2 2 1 = = & $ $ & $ $ $ $ $ $ $ $ $ $ $ $ $ $ $ $ $ $ $ $ $ $ $ $ $ $ & & & & & & & & & & & & & & & & & & & & & & & & & & & & & % % % & & & & % % % % % % % % % % % % % % % % % % % % % % % % % % % % % % % % % % % % % % % % % % % % % % % % r r r r % % % % % % % % % % ",
"3 3 3 3 3 3 3 9 9 9 8 5 8 8 9 9 9 9 9 9 9 9 9 w w w w w w w w w w w w w w w w w w w w w w w w w w w w 9 9 9 9 9 9 9 9 q q ~ ^ ^ [ ] ] -.-.2.2.2.2.1.1.1.1.1.1.1.1.1.1.1.1.1.1.1.1.1.V.V.*X*X=X=X=X=X=X=X=X=X=X=X=X=X=X=X=X=X=X=X=X=X=X=X=X=X=X>X>X>X>X>X>X>X>X>X>X>X>X>X>X>X:X:X:X:X:X:X:X:X:X:X:X:X:X:X:X:X:X:X:X:X:X:X:X:X:X:X:X:X:X:X:X:X:X:X:X:X:X6X6X6X1X>X:X:X:X:X:X:X:X:X>X=X1.V.:X1X>X1.1.1.2.-.%.%.%.%.-.%.-.2.2.1.,.1.1.T.=X=XV.V.=X>X:X1X1X1X1X:X:X:X:X:X:X:X:X:X:X:X:X:X:X:X:X:X:X:X1X:X:X:X:X1X1X1X1X3X:X:X:X1X1X1X:X1X:X:X1X1X1X1X:X:X:X:X:X:X:X:X:X:X:X:X:X:X:X:X:X:X:X:X:X:X:X:X:X:X:X:X>X>X>X>X>X>X>X>X=X=X=X=X=X=X=X=X=XT.T.1.1.T.V.1.1.2.2.2.1.2.2.2.-.1.2.-.-.-.] [ [ ~ ~ ~ 4.4.4.4.8 8 8 8 8 8 8 8 8 e e e 3 3 3 4 2 3 9 ~ ~ 9 z z z z z x x k k k { { { P ..u.f.h.h.h.z.z.z.z.D.A.z.A.A.M.f.{ l 2 - = - = - = - - - - = = = > 2 2 2 = = = = - = = 2 2 2 1 = = & $ $ & $ $ $ $ $ $ $ $ $ $ $ $ $ $ $ $ $ $ $ $ $ $ $ $ $ $ & & & & & & & & & & & & & & & & & & & & & & & & & & & & & % % % & & & & % % % % % % % % % % % % % % % % % % % % % % % % % % % % % % % % % % % % % % % % % % % % % % % % r r r r % % % % % % % % % % ",
"3 3 3 3 3 3 3 5 8 9 3 3 3 9 9 9 9 9 9 9 8 8 9 9 w w w w w w w w 0 0 0 0 0 0 w w w w w w 0 0 9 9 0 0 9 9 9 9 9 9 9 9 9 w q q ~ ^ ^ [ ] -.-.-.2.2.2.2.2.2.2.2.1.1.1.1.1.1.1.1.1.1.1.1.1.1.1.1.=X=X=X=X=X=X=X=X=X=X=X=X=X=X=X=X=X=X=X=X=X=X=X=X=X=X=X=X>X>X>X>X>X>X>X>X>X>X>X>X>X>X>X>X>X>X>X>X>X>X>X>X:X:X:X:X:X:X:X:X:X:X:X:X:X:X:X:X:X:X:X:X:X:X:X:X8X9X1X:X:X:X:X:X:X:X:X:X:X>X=X=XV.1.T.1.V.>X>X1.2.-.-.-.-.O.-.O.%.2.2.2.2.2.>.V.=X=XT.V.=X:X1X1X1X1X1X1X1X1X3X3X3X3X3X1X:X:X:X:X:X:X:X:X:X:X1X:X:X:X1X1X1X1X1X1X:X:X:X1X1X1X1X1X:X:X:X1X1X1X1X:X:X:X:X:X:X:X1X1X1X:X:X:X:X:X:X:X:X:X:X>X>X>X>X>X>X>X>X>X>X>X=X=X=X=X=X=X=X=X=XT.=XT.T.V.V.1.1.V.1.1.1.1.1.1.2.>.>.2.2.>.-.-.-.-.] ] ] ~ q q 4.q 9 8 8 8 8 8 8 8 8 8 8 8 8 8 e 3 8 4 8 q ] z 8 q ~ ~ / Z P P P { +.....u.u.i.h.g.A.Z.Z.S.S.S.S.S.S.S.S.~.Z.z.f.| x 2 > = = = = - = = = = 2 2 2 > 2 2 > > = = - - = = > 2 2 2 = & $ $ $ $ $ $ $ $ $ $ $ $ $ $ $ $ $ $ $ $ $ $ $ $ $ $ $ $ $ $ $ $ $ $ $ $ $ $ $ $ $ $ $ $ $ $ $ $ $ $ $ $ $ $ $ $ $ $ & & & & & & & & % % % % % % % % & % % % % % % % % % % % % % % % % % % % % % % % % % % % % % % % % % % % % % % % % % % % % % % % % % % % % % ",
"3 3 3 3 3 3 3 3 3 8 3 3 3 3 9 9 9 9 9 8 8 8 9 9 0 w w 0 w 9 9 9 9 9 9 9 9 9 9 9 w w w w 9 9 9 9 9 9 9 9 9 9 9 9 9 9 9 0 w q q ~ ^ [ ] -.-.-.2.2.2.2.2.2.,.,.1.1.1.1.1.1.1.1.1.1.1.1.1.1.1.1.V.V.*X*X*X*X*X*X=X=X=X=X=X=X=X=X=X=X=X=X=X=X=X=X=X=X=X=X>X>X>X>X>X>X>X>X>X>X>X>X>X>X>X>X>X>X>X>X>X>X>X>X:X:X:X>X:X:X:X:X:X:X:X:X:X:X:X:X:X:X:X:X:X:X6X8X:X>X>X>X>X>X>X:X>X>X>X>X>X>X=X=XV.1.1.1.1.1.2.=X=X2.2.2.-.-.-.-.-.2.2.2.2.2.2.1.V.1.1.,.N.=X>X>X>X>X>X>X>X>X:X:X:X>X>X:X1X3X1X:X:X:X:X:X:X:X>X:X:X:X:X:X:X:X:X:X:X:X:X:X:X:X:X:X1X:X:X:X:X:X:X:X:X:X;X;X:X:X:X:X1X:X:X:X:X:X:X:X:X:X;X>X>X>X>X>X>X>X=X=X=X=X=X=X=X=X=X=X=X=X=XT.T.T.T.V.V.1.1.1.1.1.1.1.1.,.>.2.2.>.>.>.;.-.-.-.O.] [ 2.w 9 0 9 9 8 8 8 8 8 8 8 8 8 8 8 8 8 e 3 5 8 9 O.5 9 9 z ~ ( { +.....u.u.i.h.h.z.z.D.S.S.!.}.}.}.}.].}.}.}.].}.}.!.A.f.+.z 2 > = = = - - = = = = 2 2 > > 2 = > > = = - - = = > 2 2 2 = & $ $ $ $ $ $ $ $ $ $ $ $ $ $ $ $ $ $ $ $ $ $ $ $ $ $ $ $ $ $ $ $ $ $ $ $ $ $ $ $ $ $ $ $ $ $ $ $ $ $ $ $ $ $ $ $ $ $ & & & & % & & & % % % % % % % % & & % % % % % % % % % % % % % % % % % % % % % % % % % % % % % % % % % % & % % % % % % % % % % % % % % % % % ",
"3 4 3 3 3 3 3 3 3 3 3 3 3 3 9 9 5 5 5 3 3 8 9 9 9 9 9 9 9 9 9 9 9 9 9 9 9 9 9 9 9 9 9 9 9 9 9 9 9 9 9 9 9 9 9 9 9 9 9 9 w w q q ~ [ ] -.-.-.-.2.2.2.2.2.2.,.2.2.2.1.1.1.1.1.1.1.1.1.1.1.1.1.1.1.*X*X1.1.1.1.=X=X*X*X=X=X=X=X=X=X=X=X=X=X=X=X=X=X=X=X=X=X=X=X=X=X=X>X>X>X>X>X>X>X>X>X>X>X>X>X>X>X>X>X>X>X>X>X:X:X>X>X>X>X>X:X>X>X:X:X:X>X>X:X:X:X1X:X>X:X>X>X>X>X>X>X>X>X>X>X>X=X=X=XV.1.2.1.1.2.1.1.1.=XV.1.2.2.2.2.2.2.2.>.2.2.2.,.1.>.2.>.1.=X-X-X-X-X-X-X-X-X-X-X-X>X>X>X>X>X>X>X>X>X;X:X:X:X:X1X1X1X:X:X:X:X:X:X:X>X>X:X:X:X:X:X:X:X;X;X>X>X;X;X;X;X;X:X:X1X1X1X1X1X1X1X1X1X:X:X;X;X>X>X>X>X>X>X>X=X=X=X=X=X=X=X=X=X=X=XT.T.T.T.V.V.V.V.1.1.1.1.1.1.1.1.,.>.2.>.>.>.>.>.>.;.-.-.-.O.) ` O.q 9 9 9 8 8 8 8 8 8 8 8 8 8 8 8 8 4 w 1 z [ 4 3 5 0 ~ _ +.f.j.h.g.z.D.D.S.S.S.[.}.}.|. X X X|.|.|.}.}.}.}.}.}.!.Z.h.+.z 6 2 = = = = = = = = = > > > > 2 = > = = = - - - = 2 2 2 2 = & $ $ $ $ $ $ $ $ $ $ $ $ $ $ $ $ $ $ $ $ $ $ $ $ $ $ $ $ $ $ $ $ $ $ $ $ $ $ $ $ $ $ $ $ $ $ $ $ $ $ $ $ $ $ $ $ $ $ & & & & & & & & & & & & % % % % & & % % % % % % % % % % & & & & % % % % % % % % % % % % & & % % % % % % & & % % % % % % % % % % % % % % % % ",
"4 4 3 3 4 4 3 3 3 3 3 3 3 3 3 3 3 3 3 3 3 5 9 9 9 9 9 9 9 9 9 9 9 9 9 9 9 9 9 9 9 9 9 9 9 9 9 9 9 9 9 9 9 9 9 9 9 9 9 9 9 w w q q ^ ] ] -.-.-.2.2.2.2.2.2.2.2.,.2.2.2.2.1.1.1.1.1.1.1.1.1.1.1.1.1.1.1.1.1.1.*X=X*X*X*X*X=X=X=X=X=X=X=X=X=X=X=X=X=X=X=X=X=X=X=X=X=X=X=X=X=X=X>X>X>X>X>X>X>X>X>X>X>X>X>X>X>X>X>X>X>X>X>X>X>X>X>X>X>X>X>X>X>X>X:X:X>X>X:X>X>X>X>X>X>X>X>X>X>X>X>X=X=X=XV.1.2.1.V.T.V.1.V.=X=X=X=X1.1.V.V.1.1.1.1.1.1.1.1.>.,.,.1.=X>X>X>X-X-X-X-X-X-X-X-X>X>X>X>X>X>X-X-X>X>X:X:X:X:X:X:X:X;X;X:X:X>X;X>X>X>X>X:X:X:X:X:X;X>X>X>X>X>X>X;X:X:X1X1X1X:X:X:X:X:X>X:X>X:X>X>X>X>X>X>X>X>X>X=X=X=X=X=X=X=X=X=X=X=XT.T.T.T.V.V.V.V.1.1.1.1.1.1.2.,.,.>.2.>.>.>.>.-.-.-.;.;.-.-.O.X.z ^ z 7 7 7 8 8 8 8 8 8 8 8 8 8 8 8 8 e 4 ~ ~ 8 5 5 7 l A +.*.A.A.W.~.!.}.}.}.}.OXoXoXoXoX.X|.|.OX}.}.OXOX}.|.}.}.!.A.h.+.z 6 > = = = = = = = = = = = = = = = = = = = - - - = 2 2 2 > = & $ # $ $ $ $ $ $ $ $ $ $ $ $ $ $ $ $ $ $ $ $ $ $ $ $ $ $ $ $ $ $ $ $ $ $ $ $ $ $ $ $ $ $ $ $ $ $ $ $ $ $ $ $ $ $ $ $ & & & & & & & & & & & & & & & & & & & & % & % % % % % % & & & % % % % % % % % % % % % % % & % % % % % % % & % % % % % % % % % % % % % % % % ",
"4 4 4 4 4 4 3 3 3 3 3 3 3 3 3 3 3 3 3 3 3 3 9 9 8 8 9 9 9 9 9 9 9 9 9 9 9 9 9 9 9 9 9 9 9 9 9 9 9 9 9 9 9 9 9 9 9 9 9 9 9 9 w q q ^ [ ] -.-.-.-.-.2.2.2.2.2.2.2.2.2.2.2.1.1.1.1.1.1.1.1.1.1.1.1.1.1.1.1.*X*X=X=X*X*X*X*X=X=X=X=X=X=X=X=X=X=X=X=X=X=X=X=X=X=X=X=X=X=X=X=X=X=X=X=X>X>X>X>X=X>X>X>X>X>X>X>X>X>X>X>X>X>X>X>X>X>X>X>X>X>X>X>X>X:X>X>X>X>X>X>X>X>X>X>X>X>X>X>X=X>X=X=X=X=XV.1.,.1.V.V.T.=X=X=XV.=X=X=XV.=XV.V.1.V.V.=XV.V.1.1.,.,.1.=X=X=X=X=X-X-X=X=X=X=X=X=X-X>X-X-X=X=X-X-X>X:X3X:X>X>X>X>X>X>X>X>X>X>X>X-X-X>X:X:X;X;X;X>X>X>X>X-X>X;X:X1X3X1X:X>X>X>X>X>X>X>X>X>X>X-X-X-X>X>X>X>X=X=X=X=X=X=X=X=XT.T.T.T.T.T.V.V.V.V.V.V.1.1.2.1.1.1.1.,.,.,.2.2.>.>.>.;.;.;.-.-.;.;.;.$.o.) z X.0 7 8 8 8 8 8 8 8 8 8 8 8 8 8 8 4 z z 5 2 3 5 7 z { f.^.wXqXqXeXeXeXeXqXqXoXoXoXoXoXoXoXoXoXOXOXOXOXOX}.}.}.S.D.h.+.z 6 1 1 = = = = = = = = = = = = = = = = - - - - - = 2 2 2 = = & $ $ $ $ $ $ $ $ $ $ $ $ $ $ $ $ $ $ $ $ $ $ $ $ $ $ $ $ $ $ $ $ $ $ $ $ $ $ $ $ $ $ $ $ $ $ $ $ $ $ $ $ $ $ $ $ $ $ $ $ $ $ $ $ $ $ & & & & & & & & & & % & & & & & & & & & % % % % % % % % & & % % & & & & & & & & & & & & & & & & & & & & % % % % % % % % % % ",
"3 4 3 3 3 3 3 3 3 3 3 3 5 5 3 3 3 3 3 3 3 5 9 9 9 9 9 9 9 9 8 8 8 8 5 8 8 5 5 8 8 8 8 8 8 8 8 8 8 8 8 8 8 8 8 8 8 8 9 9 9 9 w q q ^ [ ] -.-.-.-.-.-.2.2.2.2.2.2.2.2.2.2.2.2.1.1.1.1.1.1.1.1.1.1.1.1.1.1.*X*X*X*X1.1.*X*X=X=X=X*X=X=X=X=X=X=X=X=X=X=X=X=X=X=X=X=X=X=X=X=X=X=X=X=X=X=X=X=X=X=X=X=X=X=X>X>X>X>X>X>X=X>X>X>X=X=X=X=X=X=X=X>X>X>X>X=X=X=X=X=X=X=X=X=X=X=X=X=X=X=X=X=X=X=XV.1.2.1.V.V.=X=X=X=X=X=X=X=X:XV.=X=XV.V.=X=XT.V.N.1.1.,.N.=X=X=X=X-X-X-X=X=XT.=X=X=X=X=X=X=X=X=X=X-X:X1X-X>X>X>X>X>X>X>X>X>X>X>X>X-X=X>X;X>X>X>X>X>X>X;X>X>X:X3X1X>X-X-X=X=X-X>X>X>X-X-X-X-X=X=X=X=X=X=X=X=X=X=X=X=X=X=X=X=XT.T.T.T.V.V.V.V.1.1.1.1.1.1.2.1.1.1.,.2.,.2.2.2.>.>.;.-.;.-.-.-.&.;.;.:.o._ _ z l 5 5 5 5 8 8 8 8 8 8 8 8 8 9 9 z 9 5 5 2 3 5 7 x +.M.(.eXeXyXuXyXyXyX+XoXoXoXoX%XoXoXoX%X%XOXOXOXOXOX}.}.}.~.D.h.+.z 6 1 1 = = = = = = = = = = = = = = = - - - - - - = 2 2 2 = & & $ # # $ $ $ $ $ $ $ $ $ $ $ $ $ $ $ $ $ $ $ $ $ $ $ $ $ $ $ $ $ $ $ $ $ $ $ $ $ $ $ $ $ $ $ $ $ $ $ $ $ $ $ $ $ $ $ $ $ $ $ $ $ $ $ & & & & & & & & & & % % $ $ $ % % % % % % % % % % % % % & & % % & & & & & & & & $ $ & & & & & & & & & & % % % % % % % % % % ",
"5 3 5 5 8 8 9 9 9 9 9 9 9 9 9 9 9 9 8 8 9 9 9 9 9 9 9 9 9 9 9 9 9 8 3 3 8 8 5 5 5 5 5 5 8 5 5 3 5 5 5 5 5 3 5 5 5 5 8 9 9 9 w q q ^ [ ] -.-.-.-.-.-.2.2.2.2.2.2.2.2.2.2.2.2.2.2.1.2.1.1.1.1.1.1.1.1.1.1.1.1.*X*X1.1.V.V.=X=X=X=X=X=X=X*X*X*X=X=X=X=X=X=X=X=X=X=X=X=X=X=X=X=X=X=X=X=X=X=X=X=X=X=X=X=X=X=X=X=X=X=X=X=X>X>X>X>X>X=X=X>X>X>X>X>X=X=X=X=X=X=X=X=X=X=X=X=X=X=X=X=X=X=X=X=XV.1.2.1.V.V.T.=X=X=X=X=X=X=X=X:X=X=X=X=X=X-X=X=X=XT.V.V.=X>X;X;X;X;X:X:X>X>X=XT.T.T.=X=X=X=XT.T.=X-X:X=X>X=X=X=X-X-X=X=X-X-X>X>X-X=X=X>X>X-X-X-X-X-X-X;X1X1X:X>X=X-X-X-X-X-X-X-X=X=X=X=X=X=X=X=X=X=X=X=X=X=X=X=X=X=X=XT.T.T.V.V.V.V.V.V.V.V.1.1.1.1.1.1.2.1.1.1.2.2.2.>.2.>.;.;.;.-.;.-.-.;.&.&.:.n.&.o.} l h 7 5 5 7 8 8 8 8 8 8 8 8 9 w z ~ 5 2 5 2 3 5 7 P u.A. XgXuXpXuXuXyXyX+X%X%X%X%X%X%X%X%X%X%XOXOXOXOXOX[.}.}.G.D.h.{ z 6 1 1 > = = = = = = = = = = = = - - - - - - - - = 2 2 2 = & & $ # # $ $ $ $ $ $ $ $ $ # # $ $ $ $ $ $ $ $ $ $ $ $ $ $ $ $ $ $ $ $ $ $ $ $ $ $ $ $ $ $ $ $ $ $ $ $ $ $ $ $ $ $ $ $ $ $ $ $ $ $ $ $ & & & & & & & & & & % % $ $ % % % % % % $ % $ $ % % % % & % % % $ $ $ & & & & & & & & & & & & & & & & & % % % % % % % % % % ",
"8 5 8 9 9 9 9 9 9 9 9 9 9 9 9 9 9 9 9 9 9 9 9 9 9 9 9 9 9 9 9 9 9 8 3 3 3 8 5 5 3 3 3 3 3 3 5 5 5 5 3 3 3 3 3 3 5 5 5 9 9 9 w q q ^ [ ] -.-.-.-.-.-.-.2.2.2.2.2.2.2.2.2.2.2.2.2.2.2.1.1.1.1.1.1.1.1.1.1.1.1.1.1.1.1.1.1.*X*X*X*X*X*X*X1.*X*X=X=X*X*X=X=X=X=X=X=X=X=X=X=X=X=X=X=X=X=X=X=X=X=X=X=X=X=X=X=X=X=X=X=X=X=X>X>X>X=X=X=X=X=X=X=X=X=X=X=X=X=X=X=X=X=X=X=X=X=X=X=X=X=X=X=X=X=XV.1.,.1.V.V.T.=X=X=X=X=X-X-X=X=X:X1X-X>X>X:X:X:X:X>X>X>X;X3X3X3X3X6X6X6X3X1X:X>X=X=X=X=X=XT.=XT.=X-X-X=XT.-X=X=X=X=X=X=X=X=X-X-X-X=XT.-X-X-XT.-X-X:X:X1X1X>X>X>X:X1X1X1X:X:X:X:X;X:X:X:X>X>X>X>X=X=X=X=X=X=X=X=X=X=X=XT.T.V.V.V.V.V.V.V.V.V.1.1.1.1.1.1.-.2.1.1.2.2.>.2.>.;.;.;.-.-.;.-.-.$.&.:.n.C.:.o.( z h 7 5 5 5 5 8 8 8 8 8 8 8 9 z z 5 8 5 3 6 6 7 h { h.W. XgXgXiXiXiXuX$X%XoX%X%X%X%X%X%X%X%X%XOXOXOXOX[.[.[.[.G.D.h.+.x 6 2 2 1 = = = = = = = = = = = = - - - - - - - - = 2 2 = = & & $ # # $ $ $ # $ $ $ # # # # # $ $ $ $ $ $ $ $ $ $ $ $ $ $ $ $ $ $ $ $ $ $ $ $ $ $ $ $ $ $ $ $ $ $ $ $ $ $ $ $ $ $ $ $ $ $ $ $ $ $ $ $ $ $ $ & & & & & & % % % $ % % % % % % $ $ $ $ $ % % % % % % % $ $ $ $ & & & & & & & & & & & & % % % % % % % % % % % % % % ",
"5 5 9 9 9 9 9 9 9 9 9 9 9 9 9 9 9 9 9 w 9 9 9 9 9 9 9 9 9 9 9 9 9 9 9 8 8 5 3 3 3 3 3 3 3 3 3 3 3 3 3 3 3 3 3 3 3 3 3 3 9 9 w q q ^ [ ] 3.-.-.-.-.-.-.2.2.2.2.2.2.2.2.2.2.2.2.2.2.2.2.2.1.1.1.1.1.1.1.1.1.1.1.1.1.1.1.1.*X*X*X*X*X*X*X*X*X*X=X=X*X*X=X=X=X=X=X=X=X=X=X=X=X=X=X=X=X=X=X=X=X=X=X=X=X=X=X=X=X=X=X=X=X=X:X>X=X=X=X=X=X=X=X=X=X=X=X=X=X=X=X=X=X=X=X=X=X=X=X=X=X=X=X=X-X=X=X=X=X=X-X-X-X>X>X>X:X:X1X1X1X1X3X6X:X6X6X6X8X7X6X6X6X8XjXjXjXjXNXNXNXNXcX9X3X>X=XT.T.V.V.V.=X:X;X=X=X=X=X=X=X=X=X=X=X=X=X=X=X=XT.T.T.R.R.R.-X-X;X1X1X;X;X>X-X>X:X:X:X:X:X:X:X:X1X:X:X:X:X:X:X;X>X=X=X=X=X=X=X=X=X=XT.T.V.V.V.V.V.V.V.1.1.1.1.1.1.1.1.,.-.2.1.,.2.>.2.2.>.;.-.-.-.-.-.-.$.$.&.:.C.C.m.*.{ z h 7 5 5 5 5 5 5 8 8 8 8 8 q [ 8 e 5 5 3 3 2 7 x ..g.~.XXsXiXsXiXiXuX+XoXOXOXOXOXOX%X%X%X%XOXOX[.[.[.[.G.[.[.[.D.h...~ 8 e 2 2 1 = = = = = = = = = = = - - - - - - - = = 2 2 = = & & # # $ $ $ $ # # # # # # # # # # # # # # # # $ $ $ $ $ $ $ $ $ $ $ $ $ $ $ $ # # # # # # # # # # # # # # # # $ $ $ $ $ $ $ $ $ $ $ $ $ $ $ $ $ $ $ $ $ $ $ $ $ $ $ $ $ $ $ $ $ $ $ % % % $ $ $ % $ $ $ $ % % $ $ $ $ $ $ % % $ $ % $ % % % % $ $ $ $ % % % % $ $ ",
"3 8 9 9 9 9 9 9 9 9 9 9 9 9 9 9 9 9 w w w w w w 0 0 w w 9 9 9 w 9 9 9 9 9 8 5 5 3 3 3 5 3 3 3 3 3 3 3 3 3 3 3 3 3 3 3 3 8 9 0 w q ~ ^ [ ] -.-.-.-.-.-.-.-.2.2.2.2.2.2.2.2.2.2.2.2.2.2.2.2.2.1.1.1.1.1.1.1.1.1.1.1.1.1.1.1.1.1.1.1.1.1.1.*X*X*X*X1.1.*X*X=X=X=X=X=X=X=X=X=X=X=X=X=X=X=X=X=X=X=X=X=X=X=X=X=X=X=X=X=X>X=X=X=X=X=X=X=X=X=X=X=X=X=X=X=X=X=X=X=X=X=X=X=X>X>X>X>X>X>X>X:X:X:X:X:X:X1X1X1X1X1X1X3X6X6X6X6X7X8X8X1X6X8XjXjXjXjXjXjXNXVXVXBXBXAXAXAXAXVXjX9X1X=XV.V.N.N.N.T.N.=X3X=X=X=X=X=X=X=X=X=X=X=X=X=XT.T.T.T.T.T.-X1X3X-X-X1X1X1X:X-X=X=X-X=X=XT.T.T.T.T.=X=X-X>X>X>X>X>X>X-X=X=X=X=XV.=XT.V.V.V.V.V.V.V.N.1.1.1.1.1.1.1.1.1.,.-.>.,.>.>.2.2.>.;.;.-.-.-.-.$.$.$.$.o.n.C.C.C.@.{ z x 7 5 5 6 6 5 5 e e 8 8 8 ] 8 e e e 5 5 6 6 h k u.z.}.qXiXiXsXsXuXyX%XoXOXOXOXOXOX%X%X%X%XOX[.[.[.[.[.[.[.[.[.D.h.u.( l e e 2 1 > 2 2 2 > = = = - - - - - - - - - - = = = 1 = = & $ # # $ $ $ $ # # # # # # # # # # # # # # # # # # # # # # # # # # # # # # # # # # # # # # # # # # # # # # # # # # # # $ $ $ $ $ $ $ $ $ $ $ $ $ $ $ $ $ $ $ $ $ $ $ $ $ $ % $ $ $ $ $ % % $ $ $ % $ $ $ $ % % $ $ $ $ $ $ $ % % $ % % $ $ $ $ $ $ % $ % % % % $ $ ",
"3 3 9 9 9 8 9 9 9 9 9 9 9 9 9 9 9 9 w w w w w w w w w w w w w w w w w 9 9 9 9 8 9 9 9 9 8 3 3 3 3 3 3 3 3 3 3 3 3 3 3 3 3 9 0 w q q ^ [ ] 3.-.-.-.-.-.-.-.-.2.2.2.2.2.2.2.2.2.2.2.2.2.2.2.2.2.2.1.1.1.1.1.1.1.1.1.1.1.1.1.1.1.1.1.1.1.1.1.1.*X*X1.1.V.*X*X*X*X*X=X=X=X=X=X=X=X=X=X=X=X=X=X=X=X=X=X=X=X=X=X=X=XV.=X>X=X=X=X=X=X=X=X=X=X=X=X=X=X=XT.T.=X=X=X=X=X>X>X>X>X>X;X:X:X:X1X1X1X1X1X1X3X3X3X3X3X3X6X6X8X8X8X8X9X9X6XjXjX8X8X9XcXNXNXNXNXNXNXBXBXBXDXDXAXNXjX1XT.N.N.N.1.N.V.T.T.-X-X-XT.V.V.T.T.T.T.T.=XT.T.T.T.T.T.-X;X,X1X;X6X:X-XT.T.T.T.T.T.T.T.T.T.T.T.T.T.T.T.T.T.T.V.V.T.=X=X-X-X-X-X=X=XT.V.V.V.V.V.V.V.N.1.1.1.1.1.1.1.1.1.,.-.>.2.>.2.>.;.;.-.-.;.-.-.-.-.$.$.$.o.:.C.C.C.f.{ z l h 5 5 6 5 5 5 e e 8 q ~ ~ e 8 8 5 5 5 6 6 x P h.S. XuXiXiXsXgXuX+XoXOXOXOXOXOXOXOX%X%XoXOXOX[.[.[.[.[.[.[.[.D.g.f.} z e e 4 2 2 2 2 2 2 > = - - - - - - - - - - - = > = = = = & $ # # $ $ $ $ # # # # # # # # # # # # # # # # # # # # # # # # # # # # # # # # # # # # # # # # # # # # # # # # # # # # $ $ $ $ $ $ $ $ $ $ $ $ $ $ $ $ $ $ $ $ $ $ $ $ $ % % $ $ $ $ $ $ $ $ $ $ $ $ $ $ $ % % $ $ $ $ $ $ $ $ $ $ $ $ $ $ $ $ % % % % % % % % $ $ ",
"3 3 9 3 3 3 3 8 9 9 9 8 8 5 5 8 9 9 w w w w w w 0 0 0 0 w w w w w w 9 9 9 9 9 9 9 9 9 9 9 8 5 3 3 3 3 3 3 3 3 3 3 4 4 4 3 9 9 0 w q ~ ^ [ ] -.-.-.-.-.-.-.-.-.-.-.-.2.2.2.2.2.2.2.2.2.2.2.2.2.2.2.2.2.2.2.2.1.1.1.1.1.1.1.1.1.1.1.1.1.1.1.1.1.1.1.1.1.1.1.1.V.V.*X*X=X=X*X*X*X*X*X*X*X*X*X*X*X=X=X=X=X=X*X*X*XV.=X=X=XT.V.=X=X=X=X=X=X=X=X=X=X=XV.V.T.=X=X=X=X>X>X:X:X:X:X1X1X1X1X1X1X1X3X3X3X3X3X3X6X6X6X6X8X8X8X8X9XjX6XjXjXNXcXjX9X8XjXjXjXjXjXjXjXcXjXcXNXjX8X;XT.N.1.1.1.1.N.V.T.V.V.T.-X-XT.=XV.V.V.T.T.T.T.T.T.T.T.3X4X3X;XT.T.T.-XT.T.T.T.T.T.T.T.T.T.T.T.T.T.T.T.V.V.V.T.T.V.V.V.V.V.=X=X-X=X>X-XV.V.1.V.V.N.1.1.1.1.1.1.,.,.,.1.1.-.>.>.2.>.-.-.-.-.-.-.-.-.-.-.$.$.$.o.:.C.C.C.f.{ z l h 5 6 3 5 5 5 e e 8 ~ ~ 9 0 8 5 5 5 5 > 6 x { h.~.qXiXiXiXiXpXyX+XoXOXOX[.[.OXOXOX%X%XoXOXOX[.[.[.[.v.S.[.[.S.z.f.} z e e e 4 4 2 2 2 2 > = - - - - - - & & & - - = > = = = & $ $ # # $ # # # # # # # # # # # # # # # # # # # # # # # # # # # # # # # # # # # # # # # # # # # # # # # # # # # # # # # $ $ $ $ $ $ $ $ $ $ $ $ $ $ $ $ $ $ $ $ $ $ $ $ $ $ $ $ $ $ $ $ $ $ $ $ $ $ $ $ $ $ $ $ $ $ $ $ $ $ $ $ $ $ $ $ $ $ $ $ % % % % % % % % $ $ ",
"3 3 3 3 3 3 3 8 9 9 9 5 5 5 8 9 9 w w w w w w w w w w w w w 9 9 9 9 9 9 9 9 9 9 9 9 9 0 9 9 9 9 8 5 3 3 3 3 3 4 4 4 4 4 3 5 9 9 w q q ^ [ ] -.-.-.-.-.-.-.-.-.-.-.-.2.2.2.2.2.2.2.2.2.2.2.2.2.2.2.2.2.2.2.2.1.1.1.1.1.1.1.1.1.1.1.1.1.1.1.1.1.1.1.1.*X*X1.1.1.1.1.*X*X*X*X*X*X*X*X*X*X*X*X*X*X*X*X*X*X*X*X*XV.V.=X=XT.T.T.T.T.T.V.T.=XV.=XV.V.V.V.V.=X=X=X=X>X>X>X>X>X:X:X1X1X1X1X1X1X1X1X1X1X3X3X3X3X6X3X3X6X6X6X6X6X6X3X3X6X7X6X9X6X3X8X8X8X8X8X8X8X8X8X6X3X1X;X=XN.n.n.n.n.n.N.V.V.N.N.N.N.T.T.-XT.T.T.B.T.T.R.-X;X7XjX3X,X;X1X1X1X,X-X:X-XT.T.T.-XT.V.V.V.V.V.V.T.V.V.V.V.V.V.V.V.N.V.V.V.V.T.=XT.:X:X=XV.1.V.N.1.1.1.1.1.1.,.,.,.,.,.1.;.>.>.2.;.-.-.-.-.-.-.-.-.$.-.O.-.$.&.:.n.f.f...{ z l 7 6 2 2 3 5 5 8 4 3 ~ 0 9 9 8 5 5 6 6 , a x +.M.!.eXuXaXaXiXgXyXoXoXOXOXOXOXOXOX%X%X%X%XOXOXOX[.[.[.v.v.[.[.S.z.f.} z 8 e 3 4 4 4 2 2 2 > > - - - - - & & & & - - = = 1 = = & $ $ # # # # # # # # # # # # # # # # # # # # # # # # # # # # # # # # # # # # # # # # # # # # # # # # # # # # # # # # # # # # # # # # # # $ $ $ $ $ $ $ $ $ $ $ $ $ $ $ $ $ $ $ $ $ $ $ $ # # $ $ # $ # $ # # $ $ $ $ $ $ $ $ $ $ $ $ $ $ $ $ $ $ $ $ $ $ $ $ $ $ $ $ ",
"3 3 3 3 3 3 8 9 9 8 5 3 5 5 9 9 9 9 9 9 w w 9 9 9 9 9 9 9 9 9 9 0 0 9 9 9 9 9 9 9 9 0 9 9 9 9 9 9 9 9 5 3 3 3 3 3 4 2 2 3 3 9 9 9 w q ^ [ ] -.-.-.-.-.-.-.-.-.-.-.-.2.2.2.2.2.2.2.2.2.2.2.2.2.2.2.2.2.2.2.2.1.1.1.1.1.1.1.1.1.1.1.1.1.1.1.1.1.1.1.1.1.1.1.1.1.1.1.1.*X*XV.*X*X*XV.V.V.V.*X*X*X*X*X*X*X*XV.V.V.V.V.T.T.T.T.V.V.V.V.V.V.V.V.V.1.1.1.1.=X=X=X=X=X=X=X=X-X>X>X>X>X>X>X>X>X>X>X>X;X;X;X;X:X;X;X;X;X;X;X;X;X>X-X-X-X;X1X-X>X-X-X-X-X-X-X=X=X=X=XT.V.N.N.1.,.,.n.n.n.n.N.V.V.N.N.N.N.N.B.T.1X1X;X-X;X3XhXjX3X-XR.n.N.B.T.T.B.T.R.-X-X-X-X-X;X=XV.V.V.V.V.V.V.N.N.N.N.N.N.N.V.V.V.V.V.N.1.V.N.=X-X>X:XT.1.1.1.1.1.1.1.,.,.,.2.>.,.1.>.2.,.2.-.-.-.-.-.-.-.-.$.$.$.O.-.O.&.:.f.f.f.@.{ z x 6 2 > 2 2 5 5 5 3 ^ 0 7 7 7 7 5 5 6 6 , h Z @.A. XeXuXaXaXiXuXyXoXoXOXOXOXOXOX%X%X%X%X%XoXOXOX[.[.[.[.[.[.[.S.z.f.} z 8 e e 4 4 3 4 2 2 > > - - - - - $ $ $ & & - = = 1 = - $ $ $ # # # # # # # # # # # # # # # # # # # # # # # # # # # # # # # # # # # # # # # # # # # # # # # # # # # # # # # # # # # # # # # # # # $ $ $ $ $ $ $ $ $ $ $ $ $ $ $ $ $ $ # # $ $ $ $ # # $ $ # # # # # # $ $ $ $ $ # $ $ $ $ # $ # # # # # # $ $ $ $ $ $ $ $ # # ",
"3 3 3 3 3 8 9 9 5 3 3 3 8 9 9 9 9 9 9 9 9 9 9 9 9 9 9 9 9 9 9 9 0 0 9 9 9 9 9 9 9 9 9 9 9 9 9 9 9 9 9 9 9 5 3 3 3 3 4 4 4 3 3 9 9 w q ^ [ ] ] -.-.-.-.-.-.-.-.-.-.-.-.-.-.-.2.2.2.2.2.2.2.2.2.2.2.2.2.2.2.2.2.2.2.2.1.1.1.1.1.1.1.1.1.1.1.1.1.1.1.1.1.1.1.1.1.1.1.1.1.1.V.V.*X*X*X*XV.V.*X*X*X*XV.V.*X*X*X*XV.V.V.V.1.V.V.V.V.V.1.1.1.1.V.1.1.1.1.1.1.1.1.1.1.1.1.1.V.V.V.N.V.V.N.N.V.N.N.N.N.N.N.N.N.N.N.N.N.1.1.,.,.,.,.,.,.<.V.<.,.<.>.>.>.;.;.;.;.;.$.$.$.$.;.>.>.,.,.,.n.n.n.N.V.V.V.V.N.B.T.T.B.T.-X1X7XhX-XT.T.N.N.n.B.N.V.V.V.V.N.N.V.T.V.T.;X>X>X>X-X-X-X-X=XT.=XT.T.V.V.V.V.V.V.V.V.N.1.V.V.V.V.1.=X=X=X1.1.1.1.,.,.,.2.2.>.>.>.,.-.;.2.1.1.-.-.-.-.-.-.-.-.-.$.O.;.O.&.:.f.f.f.@.{ x h 6 > = = 2 2 3 5 7 ' 4 7 8 7 7 5 5 6 6 6 x { j.Q.qXgXiXaXaXiXuX+XoXoXOXOXOXOX%X%X%X$X$X$X%X%XOXOXOX|.[.OX}.[.S.g.f.} z 8 e e e 3 3 3 4 2 > = - - - - - $ $ $ - & - = = = = & $ # $ # # # # # # # # # # # # # # # # # # # # # # # # # # # # # # # # # # # # # # # # # # # # # # # # # # # # # # # # # # # # # # # # # # # # # # # # # # # # # # # # # # # # # # $ $ $ # # # $ $ $ $ # $ # # $ $ $ $ # # # # $ $ $ $ $ $ $ $ # # $ $ $ $ $ $ $ $ # # ",
"3 3 3 3 3 8 9 8 3 3 3 5 8 9 9 9 9 9 9 9 9 9 9 9 9 9 9 9 9 9 9 9 0 0 9 9 9 9 9 9 9 9 9 9 9 9 9 9 9 9 9 9 9 9 9 5 3 3 3 4 4 3 3 8 9 9 w ^ [ ] ] O.-.-.-.-.-.-.-.-.-.-.-.-.-.-.2.2.2.2.2.2.2.2.2.2.2.2.2.2.2.2.2.2.2.2.1.2.2.2.2.2.2.2.1.1.1.1.1.1.1.1.1.1.1.1.1.1.1.1.1.1.V.V.*X*X*XV.V.V.*X*X*XV.V.V.*X*X*X*XV.V.1.1.1.1.1.1.1.1.1.1.1.1.1.1.1.1.1.1.2.2.-.-.-.-.-.-.2.2.>.>.>.;.;.;.;.-.-.-.-.-.-.-.$.$.$.$.$.$.$.$.%.$.-.-.%.O.o.>.o.X.X.X.X.X.O.O.O.O.O.X.O.o.O.o.-.;.>.,.,.,.,.N.N.N.B.V.N.B.B.n.,X-X2X;X-X,X;XT.-X-XT.n.N.N.N.N.N.N.N.n.T.-X;X>X;XT.V.V.V.T.T.T.T.T.T.V.V.V.V.N.N.N.N.V.V.V.V.1.V.1.1.,.1.1.V.V.1.2.2.,.,.>.>.>.>.2.2.>.-.-.;.,.1.,.;.-.-.-.-.-.-.-.$.O.;.o.&.:.f.f.f.@.{ x h 6 - - - = 2 2 2 O.7 9 7 5 7 5 5 5 6 6 h x ..M.(.eXgXdXaXaXiXuXyX%XoXOXOXoX%X%X%X$X$X$XyX%X%X%XoXoXoXOX|.OX[.S.g.u.{ z 8 e e e 3 3 3 3 2 > = - - $ - - - $ $ - & - = = = - $ $ $ $ # # # # # # # # # # # # # # # # # # # # # # # # # # # # # # # # # # # # # # # # # # # # # # # # # # # # # # # # # # # # # # # # # # # # # # # # # # # # # # # # # # # # # # $ $ $ # # # $ $ $ $ $ $ # # $ $ $ $ # # # # $ $ $ $ $ $ $ $ # $ $ $ $ $ $ $ $ $ # # ",
"3 3 3 3 3 5 8 3 3 3 3 8 9 9 9 9 9 9 9 9 9 9 9 9 9 9 9 9 9 9 9 9 9 9 9 9 9 9 9 9 9 9 9 9 9 9 9 9 9 9 9 9 9 9 9 8 3 3 3 3 4 4 3 3 9 9 w ~ ^ ] ] ] O.-.-.-.-.-.-.-.-.-.-.-.-.-.-.-.2.2.2.2.2.2.2.2.2.2.2.2.2.2.2.2.2.2.2.2.2.2.2.2.2.2.2.1.1.1.1.1.1.1.1.1.1.1.1.1.1.1.1.1.1.1.*X*X1.1.1.1.V.1.1.V.V.V.V.1.V.V.V.V.V.1.1.1.1.1.1.1.1.1.1.1.1.1.1.1.1.,.>.-.-.-.-.-.-.-.%.%.$.$.$.$.O.O.O.O.O.X.X.X.O.O.O.O.X.X.X.X.X.X.X.X.X.X.X.X._ X.;.X.} } } _ } } X.X.X.X.X.X.O.O.O.-.;.>.<.,.,.N.n.,.N.,.N.T.1X4X4X,Xm.m.n.N.T.T.T.T.T.R.T.T.R.-X-X-X1X:X-XR.N.-X-XN.N.N.N.N.N.V.V.V.V.V.V.V.V.N.N.N.N.N.V.V.N.1.N.1.1.,.1.,.1.V.1.,.>.,.,.>.>.>.>.>.;.;.-.-.;.,.>.V.;.$.$.-.-.-.$.$.$.O.;.$.&.:.j.j.f.+.{ x 6 - 2 - = = = = ^ l 6 6 0 0 0 7 7 8 7 6 h P f.A.|.eXuXaXaXpXuXyX+X%XoXoXoX%X%X%X%X$X$X%X%X%X%X%XoXoXOXOXOX}.[.D.h.u.( z 8 e e 3 3 3 3 2 2 = = - - - - - & & & - - - = = = - $ $ $ $ # # # # # # @ @ @ @ @ @ @ @ # @ @ @ # # # # # # # # # # # # # # # # # # # # # # # # # # # # # # # # # # # # # # # # # # # # # # # # # # # # # # # # # # # # $ $ # # # # $ $ $ $ $ $ $ # # # # $ $ # # # $ # $ # # # $ $ $ $ # # # # # # $ $ $ $ $ $ $ $ $ $ # # ",
"3 3 3 3 3 3 3 3 3 3 3 8 9 9 9 9 9 9 9 9 9 9 9 9 9 9 9 9 9 9 9 9 9 9 9 9 9 9 9 9 9 8 5 8 5 5 5 5 8 8 8 5 5 5 5 5 3 3 3 3 3 4 4 3 9 9 w ~ ^ ] ] ] ] -.-.-.-.-.-.-.-.-.-.-.-.-.-.-.2.2.2.2.2.2.2.2.2.2.2.2.2.2.2.2.2.2.2.2.2.2.2.2.2.2.2.2.1.1.1.1.1.1.1.1.1.1.1.1.1.1.1.1.1.1.1.1.1.1.1.1.1.1.1.1.1.1.1.1.1.1.1.1.1.1.1.1.1.1.1.1.1.1.1.1.1.1.1.,.,.2.2.-.-.-.%.%.O.O.O.O.O.O.O.O.X.X.X.X.X.X.X.X.X.X.X.X.' ' X.' _ _ _ X.X.X.X.X._ X.%.O.} } } } } } X.X.X.X.X.X.X.O.o.$.;.>.<.,.,.n.n.,.T.;X1X1X;X-XC.:.n.B.-XR.-X-X-X-X-XT.n.,.T.-X1X3X-X-XT.T.T.-X-XT.N.N.N.N.N.N.N.V.V.V.V.V.V.V.T.T.V.1.1.1.1.N.N.N.1.1.,.,.,.1.N.N.1.>.>.,.,.>.>.>.;.;.;.;.-.1.>.>.;.%.%.$.$.$.O.$.%.O.$.$.&.n.m.j.C.C.+.x 6 l > - - - = 7 z 0 z z z z z z z z z l x { h.Z.|.eXuXuXpXuX$X%XoXoX%X%X%X%X%X$X$X$X%X%X%X%XOXOXOXOX[.[.[.[.S.z.h...( l e e e 3 3 3 6 2 2 = = - - - - - & & - - - - = = = - & $ $ $ # # # # # # @ @ @ @ @ @ @ @ @ @ @ @ # # # # # # # # # # # # # # # # # # # # # # # # # # # # # # # # # # # # # # # # # # # # # # # # # # # # # # # # # # # # $ $ # # # # $ $ $ # $ $ # # # # $ $ # # # # # # # # # # $ $ $ $ # $ # # $ $ $ $ $ $ $ # $ $ $ $ # # ",
"3 3 3 3 3 3 3 3 3 3 3 3 3 5 8 8 8 8 9 9 9 9 9 9 9 9 9 9 9 9 9 9 9 9 8 8 8 8 8 8 5 5 3 3 3 3 3 3 3 3 3 3 3 3 3 3 3 3 3 3 3 4 4 3 8 9 w ~ ^ ] ] ] ] O.-.-.-.-.-.-.-.-.-.-.-.-.-.-.-.-.2.2.2.2.2.2.2.2.2.2.2.2.2.2.2.2.2.2.2.2.2.2.2.2.2.2.2.1.1.1.1.1.1.1.1.1.1.1.1.1.1.1.1.1.1.1.1.1.1.1.1.1.1.1.1.1.1.1.1.1.1.1.1.1.1.1.1.1.1.1.1.1.1.1.1.,.2.2.2.2.2.-.%.O.O.O.O.O.O.O.O.X.X.X.X.X.X.X.X.X.X.X.X.X.X.X.' ' X.X.} } } X.X.X.X.X._ X.} $.} } } } } } } } X.X.X.X.} o.o.o.$.;.>.<.n.<.N.:X1X,XR.N.N.R.;X1X,X-XT.B.:.:.:.,.N.n.T.R.;X-XN.,.n.n.,.,.n.N.N.,.T.T.T.T.V.N.N.N.N.N.N.1.1.1.1.V.V.V.V.N.1.1.1.N.1.1.1.,.,.>.1.1.,.>.1.T.>.>.>.;.;.;.;.;.-.1.;.-.>.$.$.-.-.-.;.>.>.;.<.<.:.n.m.j.f.+.{ { &.o./ B z 6 0 ` l 0 7 6 5 5 5 7 0 0 7 h x +.h.S. X@XeX+XoXoXOXOXOXoX%X%X%X%X$X$X$X%X%X%XOXOXOX[.[.[.[.[.[.G.v.z.h...z h e e e 3 3 6 6 6 2 > = - - - - - & & & - - - = = = - & $ $ $ # # # # # # @ @ @ @ @ @ @ @ @ @ @ @ @ @ @ @ # # # # # # # # # # # # # # # # # # # # # # # # # # # # # # # # # # # # # # # # # # # # # # # # # # # # # # # # # # # # # # # # # # # # # # # # # # # # # $ # # $ # $ # $ $ $ $ $ $ $ $ $ $ $ $ $ $ # # # # $ $ # $ ",
"3 4 3 3 4 4 4 4 4 3 3 3 3 3 3 3 3 5 8 8 9 9 9 9 9 9 9 9 9 9 8 8 5 5 3 3 3 3 5 3 3 3 3 3 3 3 3 3 3 3 3 3 3 3 3 3 3 3 3 3 3 3 4 3 5 9 w ~ ^ ] ] ] -.] O.O.%.-.-.-.-.-.-.-.-.-.-.-.-.-.-.-.-.-.-.-.2.2.2.2.2.2.2.2.2.2.2.2.2.2.2.2.2.2.2.2.2.2.2.2.1.1.1.1.1.1.1.1.1.1.1.1.1.1.1.1.1.1.1.1.1.1.1.1.1.1.1.1.1.1.1.1.1.1.1.1.1.1.1.1.1.2.1.2.2.2.2.2.2.2.-.-.O.O.O.O.O.O.O.O.X.X.X.X.X.X.X.X.X.X.X.X.X.X.X.' ' X.X.X._ } ' X.X.X.X.X.} } ( ;.} } } } } } } } } X.X.} } o.o.o.&.;.>.<.-X,X-XB.B.N.-X1X3X;XR.-XR.R.R.-XT.T.T.T.T.-X-XT.B.N.,.,.,.n.n.N.n.,.,.1.1.N.N.N.1.1.N.N.1.1.N.N.N.N.1.,.1.1.1.N.1.1.1.1.1.1.1.,.,.,.>.1.N.N.N.,.>.>.-.>.;.;.;.;.,.>.O.;.>.;.$.>.1.N.V.T.>.-.<.,.:.n.f.f.f.f.{ x ( > - - z X.X.z l l z z ^ ^ ^ ^ ~ ~ z z x +.h.~. XeXXXoXiXuX+X%XoXoXoXOX%X$X$X$X%X%X%XOXOXOX[.[.[.H.H.H.G.S.v.z.i.+.z 7 e 3 4 2 6 6 6 6 > > = - - - - - & & & - - - = = = - $ $ $ $ # # # # # # @ @ @ @ @ @ @ @ @ @ @ @ @ @ @ @ # # # # # # # # # # # # # # # # # # # # # # # # # # # # # # # # # # # # # # # # # # # # # # # # # # # # # # # # # # # # # # # # # # # # # # # # # # # # # # $ # # # # # # $ $ $ $ $ $ $ $ $ $ $ $ $ # # # # $ $ $ $ ",
"3 4 4 4 2 2 2 2 4 4 4 3 3 3 3 3 3 3 3 8 5 5 3 3 5 5 5 5 5 5 3 3 3 3 3 3 3 3 3 3 3 3 3 3 3 3 3 3 3 3 3 3 3 3 3 3 3 3 3 4 3 3 4 3 3 9 w q ^ [ ] ] ] ] O.%.-.O.-.-.-.-.-.-.-.-.-.-.-.-.-.-.-.-.-.-.-.-.2.2.2.2.2.2.2.2.2.2.2.2.2.2.2.2.2.2.2.2.2.2.1.1.1.2.1.2.1.1.1.1.1.1.1.1.1.1.1.1.1.1.1.1.1.1.1.1.1.1.1.1.1.1.1.1.1.1.1.1.,.1.,.2.1.2.2.>.>.>.2.2.-.-.O.O.O.O.O.O.O.O.X.X.X.X.X.X.X.X.X.X.' ' X.X.' ' ' ' X.} _ ` _ X.o.} } } } } } ` o.} } / ` _ } } } } } } o.} o.;.o.n.B.4XB.:.N.B.-X-XR.B.n.n.:.:.:.:.,.n.N.n.n.T.;X-XR.T.T.T.T.B.N.n.>.n.N.N.,.,.N.N.n.,.1.n.N.n.n.n.n.n.N.V.N.,.,.<.<.,.1.,.>.,.,.,.,.,.1.N.N.1.V.1XN.1.<.;.-.<.;.;.;.N.-.;.-.-.;.>.,.<.>.;.$.$.%.%.O.o.:.n.f.u...+.{ &.C > > l ) / z - 6 6 6 5 5 5 7 7 0 6 7 l Z ..A.}.eXgXuXyX.XoXoXoX%X%X%X%X%X%XOX%X%XOXOXOXOXOX[.H.H.H.H.[.S.S.v.g.u.P z 7 6 6 6 6 6 2 2 > = = = - - - - - - - - - - = - = = - $ $ # # # # # # # # # # # # @ @ @ @ @ @ @ @ @ @ @ @ # # # # # # # # # # # # # # # # # # # # # # # # # # # # # # # # # # # # # # # # # # # # # # # # # # # # # # # # # # * * # # # # # # # # # # # # # # # # # # # # # # # # # # # # $ $ $ $ $ $ $ $ $ $ # # # # # $ $ $ ",
"4 2 2 2 1 2 2 2 2 2 4 4 4 3 3 3 3 3 3 3 3 3 3 3 3 3 3 3 3 3 3 3 3 3 3 3 3 3 3 3 3 3 3 3 3 3 3 3 3 3 3 3 3 3 3 3 4 4 4 4 4 3 4 3 3 9 9 q ^ [ ] ] ] ] O.] O.O.O.O.-.-.-.-.-.-.-.-.-.-.-.-.-.-.-.-.-.-.-.-.2.2.2.2.2.2.2.2.2.2.2.2.2.2.2.2.2.2.2.2.2.2.2.2.2.2.1.1.1.1.1.1.1.1.1.1.1.1.1.1.1.1.1.1.1.1.1.1.1.1.1.1.1.1.1.,.,.2.2.,.2.2.1.2.2.2.2.2.2.2.-.-.O.O.O.O.O.O.O.O.X.X.X.X.X.X.X.X.X.X.' ' ' ' ' ' ' ' } } } } _ _ _ _ } } o.o.;.:.:.n.&.>.:.&.o.o.( } } } } } &.;.R.R.:.o.&.R.R.;X,.;.o.&.:.:.:.:.:.>.:.,.:.:.R.N.<.<.;.<.n.n.n.N.B.B.T.B.V.V.N.N.N.V.T.T.T.V.V.N.V.N.N.,.n.V.V.V.n.,.<.<.,.>.>.>.>.>.<.>.,.V.V.V.,.-Xn.=X,.<.>.;.;.$.,.,.-.$.>.V.1.;.-.>.$.$.%.O.O.O.O.o.&.m.j.u.*.+.+.z h 6 / / 2 B = = 6 6 5 5 7 7 7 7 6 2 6 h P ..A. XeXuXuXyXyXyXyXyXoXoXoXoX%X%X%XOXOXOXOXOXOXOX[.[.H.G.G.G.S.S.v.g.u.L x 7 6 6 6 6 , 2 > = = = = - - - - - - - - - - = = = - & $ $ # # # # # # # # # # # # @ @ @ @ @ @ @ @ @ @ o o # # # # # # # # # # # # # # # # # # # # # # # # # # # # # # # # # # # # # # # # # # # # # # # # # # # # # # # # # # * * # # # # # # # # # # # # # # # # # # # # # # # # # # # # # # $ $ $ $ $ $ $ $ # # # # $ $ $ $ ",
"3 4 4 4 2 2 2 2 2 2 4 4 3 3 3 3 3 3 3 3 3 3 3 3 3 3 3 3 3 3 3 3 3 3 3 3 3 3 3 3 3 3 3 3 3 3 3 3 3 3 3 3 3 4 4 4 4 4 2 4 4 4 3 4 3 8 9 q ^ ^ ] ] O.O.%.%.-.-.-.-.-.-.-.-.-.-.-.-.-.-.-.-.-.-.-.-.-.-.-.-.-.-.2.2.2.2.2.2.2.2.2.2.2.2.2.2.2.2.2.2.2.2.2.2.2.2.2.2.2.2.2.2.2.2.2.2.2.2.2.2.2.2.2.2.2.2.2.2.2.2.2.2.,.2.2.2.2.2.>.2.2.2.1.2.2.2.2.2.2.-.-.%.O.O.O.O.X.X.X.] X.' ' ' X.X.X.X.X.X.X.X.X._ _ _ _ } } } X.( _ o.&.N.B.:.:.&.&.o.o.} &.o.;.:.n.N.B.C.m.n.:.n.R.C.| %.&.&.R.R.:.&.&.&.;.:.:.:.:.:.&.:.>.,.n.T.;.&.;.<.<.<.:.:.:.:.,.>.R.B.B.T.T.T.V.N.V.T.T.T.T.T.T.T.=XT.V.V.=XT.T.=XT.V.N.1.1.1.1.n.N.1.,.V.:X,.n.;.n.,.T.o.>.;.;.n.>.<.$.>.,.>.X.;.>.-.%.O.O.O.O.O.O.o.&.f.j.f...+.+.x 6 B / 6 z 6 > 6 7 7 7 7 0 0 l l 7 6 7 x { a.Z.qXeXuXuXyXiXiXuXuXyX$X$X$XOX[.OXOXOXOXOXOXOXOX[.[.[.G.G.[.v.v.D.h...A h 6 6 6 6 , > > = = = - - - - - - - - - - - = = = = - & $ # # # # # # # # # # # @ @ @ @ @ @ @ @ @ @ @ @ @ o # # # # # # # # # # # # # # # # # # # # # # # # # # # # # # # # # # # # # # # # # # # # # # # # # # # # # # # # # # * * # # # # # # # # # # # # # # # # # # # # # # # # $ $ $ $ # # # # $ $ $ $ $ $ # # # # $ $ $ $ ",
"3 3 4 4 4 4 4 4 2 2 4 4 4 3 3 3 3 3 3 3 3 3 3 4 4 4 4 4 4 4 3 3 3 3 3 3 3 4 4 4 4 4 3 3 3 3 3 3 3 3 4 4 2 2 2 2 1 1 1 2 4 2 2 4 3 5 9 w ~ ^ [ ] ] %.%.%.-.-.-.-.-.-.-.-.-.-.-.-.-.-.-.-.-.-.-.-.-.-.-.-.-.-.-.-.2.2.2.-.2.2.2.2.2.2.2.2.2.2.2.2.2.2.2.2.2.2.2.2.2.2.2.2.2.2.2.2.2.2.2.2.2.2.2.2.2.2.2.2.2.2.2.2.2.2.2.2.2.2.2.>.2.2.2.2.2.2.2.-.-.-.-.%.O.O.X.] ] ] ] ' ' ' ' ' ' X.X.X.X.X.X.X.X._ _ _ _ } } } X.n.T.n.o._ ( } ` } } } } o.X.%.} } ` ( ( o.:.C.E.R.R.:.%.X.n.E.*.X.$.$.&.&.:.:.:.&.&.&.&.*.>.,.N.;.:.<.&.;.;.:.:.>.>.>.,.>.-XR.T.T.-X-X-X-XT.T.N.n.n.,.N.V.V.N.N.V.N.1.N.T.=XN.1.n.1.1.<.<.<.1.N.T.N.T.T.<.<.V.,.N.$.;.<.,.n.;.1.;.O.X.$.%.O.%.O.O.O.O.O.O.O.o.&.*.f.f.+.+.( z ( ( h } / l l 0 7 7 0 l l l l l z l z A | f.Z. XeXuXuXyXiXuXpXuXuXuX$X$X$X%XOX[.OX[.[.OXOX[.[.[.H.G.G.[.S.v.z.h...k h 6 6 6 , , , - = - - - - - - - - - & - - - = = = = - & $ # # # # # # # # # @ @ @ @ @ @ @ @ @ @ @ @ @ @ o o # # # # # # # # # # # # # # # # # # # # # # # # # # # # # # # # # # # # # # # # # # # # # # # # # # # # # # # # # # * * # # # # # # # # # # # # # # # # # # # # # # # # $ $ $ $ # # # # $ $ $ $ $ # # # # # $ $ $ $ ",
"3 3 3 3 3 3 3 3 3 3 3 3 3 3 3 3 3 3 3 3 3 3 3 3 3 3 3 4 4 4 4 4 4 4 3 4 4 4 4 4 4 4 4 4 4 4 4 4 4 4 4 4 4 2 2 2 2 2 1 1 2 2 4 4 3 3 9 9 q ^ [ ] ] 3.O.O.%.-.-.-.-.-.-.-.-.-.-.-.-.-.-.-.-.-.-.-.-.-.-.-.-.-.-.-.-.-.-.-.-.-.2.2.2.2.2.2.2.2.2.2.2.2.2.2.2.2.2.2.2.2.2.2.2.2.2.2.2.2.2.2.2.2.2.2.2.2.2.2.2.2.2.2.2.2.2.2.2.2.2.>.2.>.2.2.2.2.-.-.-.-.-.%.O.O.O.] ] ] ' ' X.' X.X._ _ X.' ' ' X.X.X.` ` _ } _ $.B.N.o.( ( X.+.} } } } } } } } | &.} o.| o.*.m.m.*.o.| $.| *.E.R.:.*.&.&.&.&.o.o.&.&.&.&.&.&.:.n.n.&.&.&.&.;.;.&.&.>.,.N.T.;X-XR.R.R.-XR.N.,.,.N.B.N.n.,.,.>.,.,.,.1.,.,.>.>.,.=X,.<.1.1.,.<.>.<.n.n.$.;.N.B.N.<.N.N.V.,.>.N.n.,.N.<.$.X.O.O.O.O.O.X.O.O.$.O.>.>.o.&.:.f.C...+.( { Z X.( h 6 l > > 7 6 6 > 7 7 7 7 6 6 h x ..h.Z. X.X+X+X+XuXuXiXiXiXuXuX$X+X%X%X%XOX[.[.H.[.OXOXOXOX[.[.G.S.S.g.i.{ x h 6 6 6 6 , > = - - - - - - - - - - - - - - - = = = - $ # + + + # + # # @ @ @ @ @ @ @ @ @ @ @ @ @ @ o o o o o o @ @ @ @ @ @ @ @ @ @ @ @ @ @ o o @ @ @ @ @ @ @ @ @ @ @ @ @ @ o o o o @ @ @ @ @ @ @ @ @ o * * * * * * @ # @ # # # * * * # # # # # # # # # # # # # # # # # # # # # # # # # $ $ $ $ # # # # # # # # # # # # # # # # ",
"3 3 3 3 3 3 3 3 3 3 3 3 3 3 3 3 3 3 3 3 3 3 3 3 3 3 3 3 3 3 3 3 4 4 4 4 4 4 4 4 4 4 2 2 2 2 2 2 2 2 2 2 2 2 2 1 1 1 1 1 2 2 2 1 3 3 5 9 0 ~ ^ ] ] ] O.O.O.%.-.-.-.-.-.%.-.-.-.-.-.-.-.-.-.-.-.-.-.-.-.-.-.-.-.-.-.-.-.-.-.-.-.-.-.-.-.-.2.2.2.2.2.2.2.2.2.2.2.2.2.2.2.2.2.2.2.2.2.2.2.2.2.2.2.2.2.2.2.2.2.2.2.2.2.2.2.2.2.2.2.2.2.-.-.2.>.-.-.-.-.%.%.%.O.O.] ] ' ' ' ' X.X.X.X.' X._ _ _ ' X.X.X.X.X.X.$.N.n.X.( } } ( ( ( { } ( } o.&.:.n.B.R.2X;X2X,XR.E.C.:.C.m.B.n.:.m.C.C.B.B.B.C.B.m.m.B.B.B.B.B.n.n.B.B.B.T.T.T.R.-X;X,XR.R.R.T.B.n.n.:.N.>.<.T.1X,X-Xn.,.,.n.n.,.>.<.n.n.,.>.>.>.;.>.1.,.>.>.<.,.,.,.,.>.;.;.<.<.,.N.>.n.$.N.-XT.T.N.$.>.;.%.%.O.O.O.O.X.$._ O.>.-.o.o.&.:.f.C.u...f.+.n.A > > 6 7 7 6 7 7 7 7 7 7 7 7 7 7 h k ..h.Q.|.XXeXyX+XuXuXuXuXiXpXuX$X+X%X%X%XoXOX[.H.v.H.[.OXOX[.[.[.~.S.g.i.P x 6 , 6 6 > > > = - - - - - - - - - - - - - - - = = - & $ + + + + # # # @ @ @ @ @ @ @ @ @ o o @ @ @ @ o o o @ o o @ @ @ @ @ @ @ @ @ @ @ @ @ @ o o @ @ @ @ @ @ @ @ @ @ @ @ @ @ o o o o @ @ @ @ @ @ @ @ @ # * * # * * * # @ # @ * # * * # # # # # # # # # # # # # # # # # # # # # # # # # # $ $ # # # # # # # # # # # # # # # # # # ",
"3 3 3 3 3 3 3 3 3 3 8 5 8 5 3 3 5 5 5 5 9 9 9 8 8 5 3 3 3 3 3 3 3 3 3 3 3 4 4 4 4 4 4 2 2 2 1 1 1 1 1 1 1 1 2 2 1 1 1 1 2 2 1 1 4 3 3 8 9 q ^ [ ] ] O.O.O.O.%.-.%.%.%.%.%.%.-.-.-.-.-.-.-.-.-.-.-.-.-.-.-.-.-.-.-.-.-.-.-.-.-.-.-.2.-.-.2.2.2.2.2.2.2.2.2.2.2.2.2.2.2.2.2.2.2.2.2.2.2.2.2.2.2.2.2.2.2.2.2.2.2.>.2.2.2.2.2.2.2.2.2.-.-.2.2.-.%.-.-.%.%.%.O.O.] ] ' ' ' ' ' ' ' ' X.X.} } _ } } } _ _ %.n.>.X.( ( ( } _ Z / ( } | :.n.B.R.m.:.m.R.,X,Xm.n.:.$.| | *.&.m.m.&.&.*.n.| =.*.n.*.&.&.*.:.m.B.R.R.R.E.B.T.T.T.B.B.n.:.:.:.:.:.n.n.n.,.:.:.n.n.n.>.,.B.,X,XT.N.N.N.,.>.,.,.,.<.>.>.,.;.,.,.;.;.<.<.<.>.>.<.,.>.,.,.n.,.N.B.,.>.-X>.&.$.$.,.<.$.X.O.O.O.O.$.-.$.-.>.o.X.o.&.*.f.C.u.j.+.+.A x , , > 7 B l V B B B B B l l 7 7 x k u.k.~.XX@XyXyXyXiXiXiXiXiXuXuX$X+X+X%XoXoXOXOX[.[.H.H.H.G.[.].}.~.A.g.u.P x 6 > > > > > > = - - - - - - - - - - - - - - = = = - & # + + + # # # # @ @ @ o o o @ @ @ @ @ @ @ o o o o @ @ o o o @ @ @ @ @ @ @ @ @ @ @ @ @ o o o @ @ @ @ @ @ @ @ @ @ @ @ @ @ @ o o @ @ @ @ @ @ @ @ # # # # # # * * @ # @ # * * * * * * # # # # # # # * # # # # # # # # # # # # # # # # # # # # # # # # # # $ # # # # # # # $ $ ",
"3 3 3 3 3 3 3 3 3 8 9 8 8 5 8 8 8 8 9 9 9 9 9 9 9 8 8 5 5 3 3 3 3 3 3 3 3 3 3 4 4 4 4 4 2 1 1 1 1 1 1 1 1 1 2 2 1 1 1 1 1 1 1 1 2 3 3 3 9 w ^ [ ] ] ] O.O.O.] %.] ] ] ] O.] ] O.-.-.-.-.-.-.-.-.-.-.-.-.-.-.-.-.-.-.-.-.-.-.-.-.2.-.-.-.-.-.-.-.2.2.2.2.2.2.2.2.2.2.2.2.2.2.2.2.2.2.-.-.-.-.2.2.2.2.2.2.2.>.>.2.2.2.2.>.2.2.2.2.2.-.-.2.2.-.%.-.-.-.%.%.O.X.' ] ' ' ' ' ' ' ' ' X.X.} } } _ } } X.>.<.o.} } } ( / / ( o.:.n.B.E.*.*.*.*.E.,X-Xn.| { } ( o.| | o.m.B.2X4X,X2X4X2X2X,X-XR.,XR.R.,XR.R.B.m.n.:.&.&.&.&.&.&.&.&.&.:.n.B.E.R.-X-XR.T.T.T.N.n.n.n.,.>.>.;.n.B.,X,XR.,.>.,.n.N.,.;.-.>.1.V.<.<.,.N.n.>.;.n.T.T.n.;.:.&.,.N.R.T.&.;.&.%.o.;.,.<.O.O.O.O.-.$.T.N.o.X.O.o.&.:.f.M.M.u.+.{ h , > 7 > 6 / B ( _ X.O.O._ / B h h x P f.k.!.XX@XuXpXuXiXiXiXiXiXuXuXyX+X+X%XoXoXOXOXOXOX[.[.[.H.S.S.~.Z.z.h...P h 6 , , > = > = = - - - - - - - - - - - - - - = = = & $ # + # + # # # # @ @ @ o o o @ @ @ @ @ o o o o o o @ @ o o o o @ @ @ @ @ @ @ @ @ @ @ @ o o @ @ @ @ @ @ @ @ @ @ @ @ @ @ @ @ @ o @ @ @ @ @ @ @ @ # # # # # # * * * * @ @ * * * * * @ @ # # # # # # * # # * # # # # # # # # # # # # # # # # # # # # # # $ $ # # # # # # # $ $ ",
"3 3 3 3 3 3 3 3 3 8 9 8 8 8 9 9 9 9 9 9 9 9 9 9 9 8 8 3 5 5 5 3 3 3 3 3 3 3 3 3 3 3 3 3 4 2 2 2 2 1 1 1 1 1 1 1 1 1 1 1 1 1 1 1 2 4 3 3 9 w ^ [ ] ] ] ] ] ] ] ] -.-.-.-.%.-.-.-.-.-.-.-.-.-.-.-.-.-.-.-.-.-.-.-.-.-.-.-.-.-.-.-.-.-.-.-.-.-.-.-.2.2.2.2.2.2.2.2.2.2.2.2.2.2.2.2.2.2.2.2.2.2.2.2.2.2.>.>.>.2.>.>.2.2.2.>.2.2.-.-.-.-.-.-.2.-.O.-.-.-.%.%.O.X.' ] ' ' ' ' ' ' _ _ _ _ _ _ } } X.X.B.$.} } ( _ _ ( } :.;X,XE.n.m.*.*.+.*.m.E.m.{ | ( Z *.$.B.R.2X2X,X,X:.| o.C.$.B.E.R.R.C.C.:.:.m.:.o.:.&.:.n.n.N.&.&.:.B.B.B.B.C.n.:.:.:.:.:.:.:.&.&.&.;.>.>.,.,.,.,.,.n.:.,.B.R.T.,.N.B.B.n.<.,.,.N.<.<.<.<.,.>.;.N.T.&.,.&.>.,.,.B.-Xn.:.&.$.$.%.&.<.N.T.<.O.%.O.$.1.$.' X.o.O.;.f.M.j.f.+.+.A 6 > > 6 , l _ &.>.B.R.R.B.>.o.} l 6 h L h.A. XXXyXpXuXpXiXiXiXiXiXiXuXyXyXyX+X%XoXOXOXOX[.[.[.[.[.S.S.S.A.k.f...M h , , > > = = = - - - - - - - - - - & $ - - - = = = - $ # # @ + + + @ @ @ @ @ @ @ @ @ @ @ @ @ o o o o o o o o @ @ @ @ @ @ @ @ @ @ @ @ @ @ @ @ o o o o o o o o o o o o @ @ o o @ @ o o o o o o o o o @ * * * * * * * * * * * * * * * * * * * * # # # # * @ # # * * * * # # @ * # # # # # # # # # # # # # # $ $ # # # # # # # # $ $ ",
"3 3 3 3 3 3 3 3 3 3 8 8 8 8 9 9 9 9 9 9 9 9 9 9 8 5 5 3 5 8 5 5 3 3 3 3 3 3 3 3 3 3 3 3 3 3 3 4 4 4 2 1 1 1 1 1 1 1 1 1 1 1 1 1 1 4 3 3 8 9 ^ [ ] ] ] ] ] ] ] ] %.-.%.O.O.O.-.%.-.-.-.-.-.-.-.-.-.-.-.-.-.-.-.-.-.-.-.-.-.-.-.-.-.-.-.-.-.-.-.-.-.-.-.-.-.-.-.-.2.2.2.2.2.2.2.2.2.-.-.-.2.2.2.2.2.2.2.2.2.2.2.2.2.-.-.-.2.-.-.-.-.-.-.-.-.2.O.%.-.%.%.O.X.] ] _ _ ' ' ' ' ' _ _ _ _ } _ _ _ $.,._ ` _ X.$.&.n.R.-XN.=.} { Z { Z { m.E.*.| Z { { *.m.C.R.m.m.*.o.m.{ { | $.m.C.m.m.*.o.+.&.o.o.&.$.*.m.*.$.&.&.&.R.-X-XC.B.n.:.:.:.:.:.:.:.:.>.:.:.;.;.;.;.;.:.:.:.>.>.,.,.,.:.:.;.>.B.N.T.-XR.<.&.>.<.,.>.&.%.<.,.,.>.O.;.$.N.-XN.;.-X&.:.,.$.X.%.%.O.$.$.;.n.>.-.n.O.$.-.O.X.X.:.B.f.C.u...*.x 7 < < 7 7 A &.N.-X3X8XjX4X1XV.$.A h Z f.h.A. XXXyXpXuXuXiXiXiXiXiXiXuXyXyXyX%XoXoXOXOXOX[.[.[.[.[.~.S.S.A.k.a...k a , , 6 > = = - - - - - - - - - & & $ & - - - = = - $ $ # + + + @ @ @ @ @ @ @ @ @ @ @ @ @ @ @ o o o o o o o o @ @ @ @ @ @ @ @ @ @ @ @ @ @ @ @ o o o @ o o o o o o o o o @ o o @ @ o o o o o @ o o o o * * * * * * * * * * * * * * * * * * * * # # # # * @ # # * * * * # # @ * # # # # # # # # # # # # # # $ $ # # # # # # # # $ $ ",
"3 3 3 3 3 3 5 5 3 3 8 5 5 8 8 8 9 9 8 8 8 8 9 5 8 5 3 3 8 8 8 8 5 5 8 5 3 3 3 3 3 3 3 5 3 3 3 3 3 3 3 3 4 2 1 1 1 1 1 1 1 1 1 1 1 2 4 3 5 9 ~ ^ ] ] ] ] ] ] ] ] O.%.] ] ] ] ] O.O.O.] O.-.-.-.-.-.-.-.-.-.-.-.-.-.-.-.-.-.-.-.-.-.-.-.-.-.-.-.-.-.-.-.-.-.-.-.-.-.-.-.-.-.-.-.-.-.-.-.-.-.-.-.-.-.-.-.-.2.2.2.-.-.-.-.-.-.-.-.-.-.-.-.-.O.O.2.%.O.%.O.O.X.' _ ` _ _ ' ' ' ' _ _ _ _ _ _ } &.;.} >.,.,.>.;.N.N.&.{ ( ( { ( } | m.B.*.{ { { | n.m.*.n.m.| o.Z | B.&.*.B.C.n.:.{ &.&.n.*.} } ( X.&.&.&.&.B.B.R.;X,XR.R.R.B.B.C.N.n.:.:.:.:.:.:.:.>.>.>.>.<.<.<.<.<.<.<.>.:.<.,.n.n.n.;.n.n.N.N.B.R.R.n.,.,.>.&.%.,.V.N.;.$.;.n.B.,.N.B.T.B.&.;.;.X.O.o.O.X.X.%.%.,.V.O.X.-.>.o.X.O.n.n.j.C.f.u.*.A l 7 7 l C o.B.,XhXNXAXDXCXNX8XR.:.} Z L h.z. XXXyXpXuXuXiXiXaXaXiXiXuXyXyX+X%XoXoXOXOXOX[.[.[.~.S.~.~.~.A.h.a. .k a , , 6 2 = = - - - - - - - - - $ & $ $ - - - = = - $ # # + + + @ @ @ @ @ @ @ @ @ @ @ @ @ @ @ @ @ o o o o o o @ @ @ @ @ @ @ @ o o o o o o @ @ o o o o o o o o o o o o o o o o @ o o o @ @ @ @ o o o o * * * * * * * * * * * * * * * * * * * * * # * * * * # # # * * * # # # * # # # # # # # # # # # # # # # $ # # # # # # # # $ $ ",
"3 3 3 5 5 5 8 8 8 9 8 8 8 8 8 8 9 8 9 9 8 8 9 5 8 3 5 5 8 8 8 8 8 5 5 5 3 3 3 3 3 5 8 8 8 3 5 3 3 3 3 3 3 3 4 2 1 1 1 1 1 1 1 1 1 1 2 4 3 9 q ^ [ ] ] ] ] ] ] ] ] ] ] ] ] ] ] ] ] ] ] ] ] ] 3.-.3.3.3.3.-.-.-.-.-.-.-.-.-.-.-.-.-.-.-.-.-.-.-.-.-.-.-.-.-.-.-.-.-.-.-.-.-.-.-.-.-.-.-.-.-.-.-.-.-.-.-.-.-.-.-.-.-.-.-.-.-.-.-.-.-.-.-.-.O.] -.-.%.%.%.O.X.' _ ` _ ' ' ' ' ' _ } _ X._ _ ,.N.,.&.o._ ` o.>.>.o.A ( ( ( ( | n.,X*.{ { { | { m.m.n.m.Z | { { m.B.m.m.C.&.&.+.| &.| | o.&.&.:.:.C.R.-X4X3X7X4X1X;XR.B.>.&.;.&.;.n.n.n.:.:.:.:.:.:.:.>.>.<.>.<.>.>.>.>.>.>.>.>.>.:.;.&.:.T.n.:.&.&.&.>.n.R.N.n.>.<.;.;.n.&.O.,.B.&.;.;.,.N.-X&.o.&.>.O.O.$.;.;.;.>.;.>.;.;.O.;.X.o.,.n.*.j.M.f.f.+.{ C l l B ( *.-X4XhXNXBXBXNXcXhX1X;.x x | a.z. XXXyXpXuXuXiXiXaXaXiXuXuXyXyX+X%XoXOXOXOX[.[.[.[.[.S.Q.~.!.A.h.f. .k a , , 6 2 - - - - - - - - - - - $ $ $ $ - - - = - $ $ # # + + + @ @ @ @ @ @ @ @ @ @ @ @ @ @ @ @ o o o o o o o @ @ @ @ @ @ @ @ o o o o o o @ @ @ o o o o o o o o o o o o o o o o o o o @ @ @ @ o o o o * * * * * * * * * * * * * * * * * * * * * * * * * * # # # * * * # # # * # # # # # # # # # # # # # # $ $ # # # # # # # # $ # ",
"3 3 3 5 8 8 8 8 8 8 8 8 8 8 8 8 8 8 9 9 3 8 8 8 8 5 5 3 3 3 3 5 3 3 3 3 3 3 5 5 3 3 3 5 5 5 8 3 3 3 3 3 3 3 3 4 2 1 1 1 1 1 1 1 1 1 1 4 3 8 w ^ [ ] ] ] ] ] ] ] ] ] ] ] ] ] ] ] O.] ] ] -.%.-.%.3.3.] ] -.-.-.-.-.-.-.-.-.-.-.-.-.-.-.-.-.-.-.-.-.-.-.-.-.-.-.-.-.-.-.-.-.-.-.-.-.-.-.-.-.-.-.-.-.-.-.-.-.-.-.-.-.-.-.-.-.-.-.-.%.-.%.%.O.] O.-.$.] O.%.X.' ` ` _ _ _ ` _ ' X._ } o.>.N.%.} ( } / ( &.n.&.( } } X.( ( *.2XR.E.E.m.m.E.-X,X,X,XR.o.| { *.n.R.m.| | $.o.} } =.*.| =.:.C.B.m.&.m.C.C.R.B.:.%.&.m.R.B.n.:.:.&.$.%.%.*.*.&.&.&.N.B.n.n.T.<.>.>.>.;.;.;.;.;.;.;.>.;.;.:.n.&.&.:.:.*.:.:.:.m.N.N.>.>.N.N.;.>.o.,.&.>.%.;.;.$.N.N.X.&.<.$.;.;.$.$.$.} >.X.o.-.;.>.o.,.&.m.m.C.C.j.f.*.+.{ } { ( m.C.R.7XjXAXHXJXKXAXNX7Xn.} { ..a.x.{.@X+XyXyXuXpXiXiXiXiXuXyX+X+X+X%XoXOXOXOXOX[.OX}.[.}.v.Q.!.A.k.a.P S h , > - - - - - - - - - - - - & & - - - - - = = - & $ $ # # # @ @ @ @ @ @ @ @ @ @ @ @ @ o o o @ @ @ @ @ o o o o o o o o o o @ @ @ o o o o * o o o o o o o o o o o o o o o o o o o o o o o o o o o o o @ @ @ @ @ @ o @ o o * * * * * * * * * * * * * * * * # # @ * * * * * * * # # # # # # # # # # # # # # # # # # # # # # # # # # ",
"3 3 3 3 5 3 3 3 3 3 3 3 8 8 8 8 8 8 9 9 5 5 8 8 8 8 8 8 3 3 3 3 3 3 3 3 3 3 5 5 3 3 3 3 3 3 3 3 3 3 3 3 3 3 3 3 3 4 4 2 1 1 1 1 1 1 1 1 4 3 9 q [ ] ] ] ] ] ] ] ] ] O.O.O.O.] %.%.3.3.%.-.-.%.%.3.] ] ] -.-.-.-.-.-.-.-.-.-.-.-.-.-.-.-.-.-.-.-.-.-.-.-.-.-.-.-.-.-.-.-.-.-.-.-.-.-.-.-.-.-.-.-.-.-.-.-.-.-.-.-.-.-.-.-.-.-.-.-.%.%.%.O.O.O.X.-.-.O.X.O.X.' ` ` ` ` ` ` X.X.$.,.&.$.o.o.( } _ / / &.;.} _ / ( o.B.-X4XR.o.{ ( { | | *.m.| { Z | m.2X,XR.-Xo.=.m.o.{ { +.{ o.*.m.*.o.*.m.R.R.R.m.C.*.$.n.m.B.B.m.E.R.R.R.R.E.m.:.*.m.n.m.&.$.&.*.n.&.B.&.;.;.&.$.&.&.&.&.,.:.:.B.B.C.m.B.B.B.N.B.:.B.:.:.:.&.&.>.,.,.n.,.;.&.;.$.&.&.o.:.$.N.&.N.,.>.%._ O.$.$.;.o.o.o.o.B.n.;.&.m.m.C.M.C...f.+.*.o.*.C.E.,X4XvXNXDXIXKXJXIXCXhX;Xf.*.f.h.A.!.|..X+X+XyXuXuXuXuXuXyXyX+X+X%X%XoXoXOXOXOX[.OX}.}.[.[.x.~.A.k.p.P x h h a - - - - - - - - - - - - & & - & - - - - = = & $ $ $ # # @ @ @ @ @ @ @ @ @ @ @ @ o o o o @ o @ @ o o o o o o o o o o o o @ @ o o o o o o o o o o o o o o o o o o o o o o o o o o o o o o o o o o @ @ @ @ @ @ @ @ o o * * # # * * * * # # @ @ * * * * # # @ @ * * * * * * * # # # # # # # # # # # # # # # # # # # # # # # # # ",
"3 3 3 3 3 3 3 3 3 3 3 3 3 3 5 5 5 5 3 3 3 3 3 3 8 8 5 5 3 3 3 3 3 3 3 3 3 3 3 3 3 3 3 3 3 3 3 3 3 3 3 3 3 3 3 3 3 3 3 4 2 1 1 1 1 1 1 1 4 3 8 w [ ] ] ] ] ] ] ] ] ] O.O.O.O.%.%.%.%.3.%.%.-.3.] -.-.] ] -.-.-.-.-.-.-.-.-.-.-.-.-.-.-.-.-.-.-.-.-.-.-.-.-.-.-.-.-.-.-.-.-.-.-.-.-.-.-.-.-.-.-.-.-.-.-.-.-.-.-.-.-.-.-.-.-.-.-.-.%.%.%.O.O.O.X.O.O.1.X.X.X.' ` ` ) ` X.X.>.>.%.` o.X.X._ ( } } ( &.;.o.B } :.B.B.n.R.&.{ ( Z ( o.*.m.&.Z { { | *.m.| m.m.*.m.E.*.m.*.=.*.*.C.m.*.=.m.m.*.m.R.R.R.C.C.m.m.f.=.o.*.o.*.m.m.C.B.B.B.m.C.B.E.R.-XR.R.E.R.R.R.m.m.n.:.:.:.:.:.B.B.2X-XB.m.*.=.=.%.%.=.n.n.B.&.&.:.:.;.:.n.:.n.B.T.B.R.o.:.&.n.:.,.<.o.%.%.%.%.X.o.&.$.o.o.o.o.B.:.&.:.f.m.C.M.f...m.*.*.B.^.^.2XrXhXcXNXDXAXDXHXDXCXjX-X*.....u.z.|.eX.X+X+X+X@XoXoXoXoXoX%X%X%X%XoXoXoXOXOXOXOXOXOXOX}.].Z.Q.Z.h.p.U u u h x 6 - - - - - - - & - - - & & & & - - - = = = & $ o o o # @ @ @ @ @ @ @ @ @ @ @ @ o o o o o o o o o o o o o o o o o o o o o o o o o o o o X X X * * X X X X X * * * * X X o * o o @ @ o o @ @ o o @ o o o @ @ @ @ o o # # # # * * # # # # # # # # * # # # * * * * * * @ # # # # # # # # # # # # # # # # # # # # # # # # # # # ",
"3 3 3 3 4 4 4 4 4 4 3 3 3 3 5 5 5 5 3 3 3 3 3 3 5 5 8 5 3 3 3 3 3 3 3 3 3 3 3 3 3 3 3 3 3 3 3 3 3 3 3 3 3 3 3 3 3 3 3 3 3 2 1 1 1 1 1 1 1 3 3 9 [ ] ] ] ] ] ] ] ] ] O.O.O.O.%.%.%.%.%.%.%.%.%.] 3.3.] ] ] O.-.3.-.-.3.3.3.3.-.-.-.-.-.-.-.-.-.-.-.-.-.-.-.-.-.-.-.-.-.-.-.-.-.-.-.-.-.-.-.-.-.-.-.-.-.-.-.-.-.-.-.-.-.-.-.-.-.-.%.O.O.O.O.O.X.] X.%.;.%.X.' ` ` _ X.o.;.X._ _ X.X.X.( ( ( ( _ o.o.A } N.R.;.} E.n.} ( { | | *.m.*.| Z { *.*.*.| | *.m.*.+.*.| *.*.R.,X,XY.j.m.,XR.M.M.E.m.m.*.m.R.R.Y.M.j.m.m.m.m.B.R.^.^.R.Y.Y.R.R.E.M.R.m.m.B.m.f.m.B.m.m.m.*.*.*.*.*.,XR.m.m.*.n.n.:.&.&.=.&.=.B.B.:.:.m.n.:.n.n.o.&.&.:.&.n.B.R.:.&.o.o.&.%.X.X.X.X.$.o.;.} o.o.o.o.n.} &.:.f.j.C.M.u.f.f.*.C.B.R.,X4XhXvXNXNXZXCXAXAXBXvX8X,X*.+...h.A.}..X+XyXyXuXuXuXuXuX.XoXOXoXoXoXoXOXOXOXOXOXOXOXOXOX|.].!.z.Z.h.u.Y a , u h 7 6 - - - - - - & - - - & & & & - - - = = = & $ o o o # @ @ @ @ @ @ @ @ @ @ @ @ o o o o o o o o o o o o @ o o o o o o o o o o o o o o o X X X * * * X X X X * * * * X X * * o o @ @ o o @ @ o o o o o o @ @ @ @ o @ * # # # * * # # # # # # # # * * # # * * * * * @ @ # # # # # # # # # # # # # # # # # # # # # # # # # # # ",
"3 3 3 3 4 1 1 1 1 1 4 3 3 3 3 3 3 3 5 5 3 3 3 3 5 5 8 5 3 3 3 3 3 3 3 3 3 3 3 3 3 3 3 3 3 4 4 4 3 3 3 3 3 3 3 3 3 3 3 3 4 1 1 1 1 1 1 1 2 3 3 9 ^ [ ] ] ] ] ] ] ] ] O.] ] ] O.O.] ] O.%.%.%.] ] 3.3.3.3.-.O.-.3.3.3.3.3.3.3.-.-.-.-.-.-.-.-.-.-.-.-.-.-.-.-.-.-.-.-.-.-.-.-.-.-.-.-.-.-.-.-.-.-.-.-.-.-.-.-.-.-.-.-.-.-.-.-.-.3.%.%.O.O.O.O.X.] X.X.-.$.O._ ) X.>.%.X.) ` ` ( } X._ ( ( / ( %.o.A :.B.&.} o.R.} ( { A { | m.B.{ { | *.*.| Z | =.m.*.| { *.| L +.M.^.^.M.^.^.^.<X<X,X<X<X^.<X^.Y.Y.^.^.^.Y.^.<X<X<XY.Y.M.M.Y.^.Y.j.j.f.f.f.f.C.m.C.m.m.m.M.B.R.R.C.m.E.,XB.m.*.m.*.*.*.*.*.*.m.B.B.*.m.*.m.&.R.B.-X*.*.n.B.B.C.:.&.n.m.&.&.X.X.&.&.%.%.&.:.T.:.o.&.&.&.&.&.&.&.*.m.f.C.M.u.f.f.C.R.R.R.,X4XhXbXvXkXvXvXjXjXjX8X2XE.f...u.h.A.}.XXoXyXyXuXiXpXuXyXyXoX+XoXoXoXOXOXOXOXOXOXOXOX|.|. X}.!.S.k.f...L k a , > 6 l - $ - = - - & & & & - - - - - = = = = - & $ o o # o # # @ @ @ @ @ @ o o o o o o @ @ o o o o o o o o @ @ o o o o @ @ o o o o o o o * * * * * X X * * X X * * * * X X * o o o @ @ @ o @ @ @ o o o o o @ @ @ @ @ @ # # @ # # # # * * * * * * # # # # # # # * * * * # # # # # # # # # # # # # # # # # # # # # # # # # # # # ",
"4 3 3 3 2 1 1 1 1 1 2 4 3 3 3 3 3 3 3 3 3 3 3 3 3 3 5 3 3 3 3 3 3 3 3 3 3 3 3 3 3 4 4 2 4 4 4 2 4 4 4 4 4 4 4 4 4 4 4 4 2 1 1 1 1 1 2 2 3 3 9 w ^ [ ] ] ] ] ] ] ] ] ] ] ] ] O.O.%.%.] ] %.%.] ] 3.3.] O.O.3.] ] ] ] ] ] ] ] 3.3.3.3.3.3.-.-.-.-.-.-.-.-.-.-.-.-.-.-.-.-.-.-.-.-.-.-.-.-.-.-.-.-.-.-.-.-.-.-.-.-.-.-.-.O.-.-.O.O.O.O.] ] O.] X.O.O.' ' $.;.O.,.;._ ` ` ` ` ` _ } _ ( ( ( ( o.} } R.n.( ( &.:.( ( ( X.{ { m.m.| *.=.| } | { | { *.+.+.| { P *.m.M.j.Y.<X5XrX<X^.^./.<X<X<XrX^.(.<XwX/.<XwX(.^.W.W.M.Y.<X^.<X^.Y.Y.W.^.^.Y.M.Y.M.Y.^.^.^.^.^.^.Y.M.M.^.M.f.m.j.*.f.B.C.m.m.B.B.E.R.B.B.E.m.m.R.E.-XB.n.$.n.:.$.o.&.$.=.:.C.E.n.&.&.:.m.:.o.%.n.&.X.o.o.&.&.&.&.&.*.C.M.M.C.h.A.M.M.C.R.,X4XhX5X,X2X,X,X,X-X-X,X,X,Xm.*.+.u.k.~. XeXuXuXyXuXpXpXuXuXyXyXeX+XoXoXoX|.|.|.|.|.OXOX|.|. X}.!.S.k.u.+.k h x h > - - l - $ $ & - & & & & - - - - - = = = - & $ $ o o # # # # @ @ @ o o o o o o o o o @ @ @ @ o o o o o o @ @ o o o o @ @ * o o o o o * * * * * * X X * * X X * * * * X X * o o o @ @ o o @ @ o o o o o o @ @ @ @ @ @ # # @ # # # @ * * * * * * # # # # * # # * * * * # # # # # # # # # # # # # # # # # # # # # # # # # # # # ",
"4 3 3 3 2 1 1 1 1 1 2 2 4 4 3 3 3 3 3 3 3 3 3 3 3 3 3 3 3 3 3 3 3 3 3 3 3 3 3 3 3 4 2 2 4 4 2 2 2 2 2 2 4 4 4 4 4 4 4 2 2 1 1 1 2 4 4 2 4 3 9 w ^ [ ] ] ] ] ] ] ] ] ] ] ] ] O.O.] ] ] ] %.%.%.O.O.] ] ] 3.3.-.-.-.3.] ] ] ] -.-.3.3.3.3.-.-.-.-.-.-.-.-.-.-.-.-.-.-.-.-.-.-.-.-.-.-.-.-.-.-.-.-.-.-.-.-.-.-.-.-.-.-.%.%.%.%.%.%.O.O.] ] O.O.X.O.O.X.X.%.>.1.` ) / ) ` ` ` ` } _ ( ( ( } } } %.-X&.Z &.R.} _ ( X.A Z =.m.*.o.&.{ Z P | | | | f...{ | ..@.Y.rXrX^.^.M.M.M.f.M.Y.f.j.M.^././.<X<X/./.<X/.A.(./.<X<XtXtX/.wX<X<XwXtXbXtXrXtXrXrX<X<X^.^.^.^.^.^.^.^.^.^.^.^.^.^.M.m.M.M.m.*.*.*.*.*.*.*.m.*.m.*.B.m.*.C.:.&.$.| o.&.&.*.*.$.=.E.R.:.$.| o.*.B.B.o.| o.o.o.o.o.o.o.*.f.j.C.h.A.M.f.C.<XrXrX<X,X2X,XE.B.m.m.B.R.N.=.o.*.+...u.k.Z.~.}.]..XoXeXyXuXuXuXyXyXyXoXoXoX.X|..X.X.X.X|.|.|.|. X}.!.S.M.u.L a , : 6 z > - - 5 2 & $ - - - & & - - - - = = > = - & $ o + + # # # # @ @ @ o o o o o o o o o o o @ @ o o o o o o @ @ o o o @ @ @ * * o o o o * * X * X X X X * * X X X * * X X X o o o o @ @ o o o o o o o o @ @ @ @ @ @ @ @ # # * * # # * * * * * * * * # # * * # # # @ * * * # * * # # # # # # # # # # # # # # # # # # # # # # # # ",
"4 4 3 3 4 1 1 1 1 1 2 2 2 2 2 4 4 4 4 4 4 4 3 3 3 3 3 3 3 3 3 3 3 3 3 3 3 3 3 4 4 2 2 2 2 2 1 1 2 2 2 1 2 2 2 2 2 2 2 1 1 1 1 2 4 4 4 2 4 3 9 w ^ [ [ ] ] ] ] ] ] ] ] ] ] ] ] ] ] ] ] ] O.O.] ] O.] ] ] 3.3.-.-.-.O.] ] 3.-.-.-.] ] ] ] -.-.-.-.3.3.3.3.%.-.-.-.%.%.O.-.-.-.O.O.-.-.-.-.3.-.-.-.-.-.-.-.-.-.-.-.-.-.%.O.%.%.%.%.O.O.O.] O.O.' ' O.-.-.%.O.X.-._ _ ` ` ` ` _ } ` ( _ } X.} n.B.( } B.m.( B { / ( C &.R.*.Z | { { { { { L | *.*.*.M.Y.^.<XY.^.^.^.^.^.^././.^.^.<XW.W.W.W.W.(././.(.(./.<X/./.(.(./.wXrXtXwXwX<X/.(.<XwXrXwX<X/.W.^.^.W.M.M.M.^.^.^.M.M.M.^.^.^.^.^.R.Y.C.m.j.f.f.*.o.m.m.C.*.m.f.m.o.*.m.*.m.n.m.*.| o.m.m.:.*.:.:.:.*.$.*.:.| o.o.o.o.o.o.o.o.o.f.f.M.^.M.h.f.2X5X,X,X<X<X,XE.B.E.B.B.E.E.n.:.m.m.f.f.M.A.~.}.|..XoXoXXX X.XXXeXyXyXoXoXoXoX|.|..X.X.X.X|.|.|.|. X}.!.S.k...k a , , > - l 6 & > 2 > - - = & & - - - - - = = = = - $ $ o o o o o # # @ @ @ o o o o o o o o o o o @ @ @ o o o o o @ @ o o o o @ @ * * o o o o o * X X X X X X * * X X X * X X X X o o o o @ @ o o o o o o o @ @ @ @ @ @ @ @ @ # # * * # # * * * * * * * @ @ @ * * # # # @ * * # # # * # # # # # # # # # # # # # # # # # # # # # # # # ",
"4 4 3 3 3 2 1 1 1 1 2 2 2 2 2 2 2 2 2 2 1 1 2 2 4 4 3 3 4 4 3 3 3 3 3 3 3 3 3 4 4 1 1 1 1 1 1 1 1 1 1 1 1 1 1 1 1 1 1 1 1 = 1 1 2 2 4 4 4 3 3 9 z ^ [ ] ] ] ] ] ] ] ] ] ] ] ] ] O.O.O.] O.O.O.O.] ] ] ] 3.3.3.3.O.O.O.O.O.O.-.-.-.3.3.] -.-.-.-.3.3.-.-.-.-.-.-.%.%.%.-.-.-.-.O.-.-.-.-.-.-.-.-.%.%.-.-.-.-.%.%.%.%.%.%.%.O.O.] O.] O.] O.X.] O.-.;.$.O._ / _ >._ / ` ` _ } } ( ( } ( ( &.:.A o.R.%./ ( ( Z Z } B.=.{ | Z Z P +.| P | j.Y.,XY.Y.^.<X<X^.^.<X<X^.^./.wXrXwX<X(.W.W.W.W./.(.wX/.(.W.W./.wXwXtXtXxXwX X/.(./.wXtXtXtXtXtX<X(./.(.^.(./.(.W./.<X<X^.^.^.^.W.M.M.Y.^.j.Y.R.R.M.C.m.*.*.*.m.C.C.C.f.*.m.f.o.B.R.m.*.*.*.*.m.C.*.*.*.,Xm.:.*.o.n.&.o.o.o.o.&.&.:.&.:.*.j.M.M.A.M.<XrX,X5XhXmXmXkX5XR.R.m.m.:.o.o.o.{ C x A U u.A.Q.!.|.XX@X@X@XyXeXXX.X X.XXXoXoXoX|.}.|..X.X|.|.}.}.}.qXqX(.A.h.+.k u ; ; - - = 5 6 - = 5 - - - - & - - - - - = = = = - $ # o o o o o o o @ o o o o o o o o o o o o o o o o o o o o o o o o o * o o o X X * * * * * * * * * X X X * * X X X X * * * * o o o o o o o o @ @ @ o o o @ @ o o o o o o o o o o * * * * * * * * # # # # * * # # # # @ @ @ @ # # # # # # # # # # # # # # # # # # # # # # # # # # ",
"2 4 4 3 3 3 2 1 1 2 2 2 2 2 2 2 2 2 2 2 1 1 2 2 2 2 4 2 2 2 2 2 4 4 4 4 2 4 4 1 1 1 1 1 1 1 1 1 1 1 1 1 1 1 1 1 1 1 1 1 = % = 1 1 1 2 2 2 4 3 3 q ^ [ ] ] ] ] ] ] ] ] ] ] ] ] ] O.] ] ] ] ] ] ] ] ] ] ] 3.3.3.3.O.3.O.O.] ] -.-.3.3.] ] O.%.-.-.] ] -.-.-.-.-.-.] ] ] O.-.O.O.-.-.%.%.O.3.3.3.-.O.O.3.O.3.3.%.%.%.%.%.O.O.O.O.O.O.] ] ] ] ] ;.;.$.O.X.X.X._ _ _ o.) / _ _ } ` ` _ } / :.*.( :.B.%.( / } C o.n.m.( { { { { { { { @.M.^.^.M.R.^.rXrX5X<X<X<X<X<X^.^.^.M.j.j.a.k.W.W./.<X<XwX(./.wXtXtXtXtXwXwXwXwXwXwXwXwX/.tXtXwX/././.(.(.(.(.W.^.<XrXwXwX<X^.M.j.M.Y.M.M.M.M.M.^.Y.M.M.R.C.C.R.f.m.m.m.m.m.f.*.*.C.C.C.E.C.f.m.m.m.*.*.*.B.R.m.m.m.C.B.R.B.C.B.n.:.&.&.&.&.:.f.M.(.<X<X/.<X5X<XtX5XkXhXhXrX2XE.:.*.%.| 7 x A Z Z | ..f.k.Z.~.].].].].].].|.qXeXeXXX|.}.}.|..X.X|..X.X.X X|.}.}.}.qXqX^.u.{ x , - - - - - + = z = & z - - = - & & - - - - - = = - $ # o o o o o o o @ o o o o o o o o o o o o o o o o o o o o o o o o o * o o o X X X X * * * * * * * X X X * X X X X X * * * X * * o o o o o o @ @ o o o o @ @ o o o @ o o o o o o * * * * * * * * # # # # * * * # # # @ @ @ @ # # # # # # # # # # # # # # # # # # # # # # # # # # ",
"1 2 4 3 3 3 3 4 4 4 4 4 3 4 3 3 4 4 4 4 2 2 4 4 2 2 4 4 2 2 2 2 2 4 4 2 2 1 1 1 1 1 r r 1 1 1 1 1 1 1 1 1 1 1 1 1 1 1 = = % % 1 1 1 1 1 2 4 4 3 q ^ ) ] ] ] ] ] ] ] ] ] ] ] ] ] O.] ] ] ] ] ] ] ] O.O.] O.O.3.3.3.3.3.3.] O.-.-.3.3.] ] O.O.-.-.] ] ] O.O.] -.-.%.O.-.-.-.-.-.-.-.-.O.O.3.3.-.-.O.O.O.O.O.O.%.%.%.%.%.%.O.O.] ] ] ] O.O.-.,.O.' _ ] _ ' X.X._ / ) ;.` _ } _ ` ` _ } &.n.} B.B.( Z Z ( } :.*.%.Z { P P L P *.M.^.^.^.,X<XrX<X<X5X<XrXrX<X<X/././././.^./.W.W.(./.tXMXmXtXwXtXnXxXwXwXwXtXtXtXtXtXxXtXwXwXwX/.(.<X^.W.W.k.W.k.W././.W.M.W.j.M.M.j.k.M.W.M.Y.^.^.(.^.Y.M.M.M.M.C.*.C.M.M.m.m.f.*.*.B.^.B.C.m.*.=.*.m.m.m.m.2XR.*.=.m.m.B.E.C.*.| | &.$.o.o.:.m.n.E.^.<XwX<XM.W.<XrXtXbXmXCXbXrX,XR.*.*.*.*.| { A Z *.f.j.f.Z.~.}. X XXXXXXXeXeXeXeXeXXX.X}.}.|..X X X X X X X X X X}./.(.^.M.+.h , - - - - - - = = 7 7 2 z = = = - - - - - - - = = - $ # o o o o o o o @ o o o o o o o o o o o o o o o o o o o o o o o o o * * o o X X X X X X * * * * X X X X X X X X X X * * X X * o o o @ o o o @ @ o o o o o o o o @ @ @ @ o o o o * * * * * * * * * * # @ * * * * # # @ @ @ @ # # # # # # # # # # # # # # # # # # # # # # # # # # ",
"1 1 4 3 3 3 3 3 3 3 3 3 3 3 3 3 3 3 3 3 3 3 3 3 3 3 3 3 4 4 3 4 4 4 4 4 4 1 1 1 1 1 1 r 1 1 1 1 1 1 1 1 1 1 1 1 1 1 1 1 = = = 1 1 1 1 1 1 2 2 4 q ^ ) ] ] ] ] ] ] ] ] ] ] ] ] ] ] ] ] O.] ] ] ] ] ] ] ] ] ] O.O.O.O.O.3.] ] 3.3.3.3.] ] ] ] -.-.] ] ] O.O.] ] O.-.-.-.-.-.-.-.-.-.-.] ] 3.3.-.-.O.O.O.O.O.O.O.O.O.O.O.%.O.O.O.] ] %.-.-.-.] ' ] ' ' _ _ ` ` ` ` ` ` ;.o.} ` } } _ o.C.} R.+.A A ( | } } =.{ A C | Y ..M.,X^.^.^.<XrXwX^.M.Y.rX5X<X<X^.M.W.M.^.<XW.W.W./.W.wXtXrXwXtXtXwXtXsXwXwX#XwXtXsXxXtXtXtXtXwXwXwX/.(.W.W.^./././.wXwXwX(.W.A.W.^.^./.<X/./.<X/.^.^.^.Y.Y.j.Y.Y.Y.m.m.m.M.R.R.C.m.m.f.*.*.m.C.f.m.m.*.*.m.*.f.R.5XE.| *.B.*.*.*.*.m.*.+.o.| | +.o.B.R.R.2X5XwX/.M.W./.wXrXbXmXGXkXkXkX5XR.m.@.Y Y m.C.Y.M.j.j.j.j.M.Z.~.}.eXeXeXeXXXXXXXXX X.X.X.X|.}.].].}.}.|.|. X X XqX!./.Z.h...f.+.a - - - - - - - - = 5 5 5 6 = - - - - - - = = = = - $ # o o o o o o o o o o o o o o o o o o o o o o o o o o o o o o o o * * * o o X X X X X X X X * * * X X X X X * X X X * * X X * * o o @ o o o @ @ o o o o o o o o @ @ @ @ o o o o * * * * * * * * * * # @ * * * * # # @ @ @ @ # # # # # # # # # # # # # # # # # # # # # # # # # # ",
"1 2 4 3 3 3 3 3 3 3 3 3 8 8 9 9 8 8 9 9 8 8 5 5 3 3 5 3 3 3 3 3 3 3 3 3 4 2 2 1 1 1 1 1 1 1 = = = = = = = = 1 1 1 1 1 = = % = 1 1 1 r 1 1 2 4 3 0 V ^ [ ] ] ] ] ] ] ] ] ] ] ] ] ] ] ] ] ] ] ] ] ] ] ] ] ] ] ] ] O.3.3.3.3.3.3.3.O.O.O.] 3.3.3.3.3.3.3.3.] ] ] ] -.-.-.%.%.%.%.-.%.] ] ] -.-.-.%.O.O.O.O.O.O.O.O.%.%.%.O.O.O.O.O.%.-.-.-.O.] ] ' ' ' _ ` ` ` ` _ _ ` } o.} ( } _ } &.&.R.o.{ Z } | $.( %.Z P | j.M.Y.,XY.M.^.<XrX<XY.W.<X<X^.Y.W.^.M.j.k.M.W.(.W.W.W./.tXMXtX/./.wXwXwXwXtXwXtXtX/.wXwXwXtXwX/./. X/././.(.W.(.#XwXwX<X(./.(.W.(.<X<XwXrXrX5X/.(.^.W.W.M.M.M.Y.Y.Y.Y.Y.R.R.Y.Y.Y.M.M.M.C.E.C.f.j.*.*.m.m.m.*.=.*.*.E.,X*.m.R.m.j.f.| | =.f.*.*.+.+.*.C.,X2X;X4XrXrX<X(.(.<XwXMXmXmXSXGXGXkXrXrX,XY.Y.^.R.j.m.M.M.Y.m...f.h.Z.!.].|.{.].].}. XXXqXXX|.].[.|.}.].].}.}.!.}. X X X}.qX<X^.f.+.k k n.x - - + - - - - $ & > 7 l 5 $ & - - & - - - = = & $ # o o o o o o o o o o o o o o o o o o o o o o o o o o o o o o * * o o o o o X X X X X X X X X X X X * * X X * * * * X X X X o o o o @ @ @ @ o o o o o o o o o o @ @ @ @ @ o o o o o o o o o # # @ * * * * @ * * * * o @ @ @ # # # # # # # # # # # # # # # # # # # # # # # # # # ",
"1 1 4 3 3 3 3 3 3 3 3 3 8 8 9 9 9 9 9 9 8 8 9 9 8 8 8 3 3 3 3 3 3 3 3 3 3 3 4 2 2 1 1 1 1 1 1 1 1 1 1 r = = r r = = = = r % r r 1 1 1 1 1 2 4 3 9 q ^ ) ] ] ] ] ] ] ] ] ] ] ] ] ] ] ] ] ] ] ] ] ] ] ] ] ] ] ] ] ] ] ] ] O.O.3.3.O.O.] ] O.O.3.3.3.3.3.3.] ] O.O.-.-.-.-.%.%.%.-.] ] ] ] -.-.O.O.O.O.O.O.O.] ] ] O.O.O.%.%.] ] -.2.%.] ] ] ] ] ] ] ` ` ` ` ` ` ` _ _ ` } +.} _ ( ,.&.-Xo.{ A o.&.| A *.=.*.m.R.R.M.M.M.rXwX^.^.W.j.M.rX/.W.k.k.W.^.(.<XwXtXrX/.W.W.wXtXwXwX/.tXMXMXMXMXMXwXtXtXxXtXwX X XwX XwXwXwXwXwXwX/./.#X/./.W.W.W./.(.<X<X(././.<X/.(.(.(.^.^.^.^.Y.M.f.*.M.m.j.j.C.M.Y.M.m.m.m.m.B.C.f.m.m.f.*.*.*.m.*.=.m.,X*.*.C.C.C.j.+.=.o.| +.j.f.C.E.,X4XR.E.^.^.5X<X^./.W.W.tXxXmXZXZXSXmXbXrX5X<X<X5X^.^.5X,XY.M.M.j.^.M.W.Z.Q.].].{.|.|.XXqXeXeXeXeXyXyX X|.}.}.].XXXX X}. X X X}.<XZ.j.+.x z l o.+.- - $ = = $ $ - = - z ) 6 & - - - - - - = - & $ o o o o o o o o o o o o o o o o o o o o o o o o o o o o o o * * o o o o o o X X X X X X X X X X X X * X X X * * * * X X X X o o o o @ @ @ @ o o o o o o o o o o @ @ @ @ o o o o @ @ o o o o # # @ @ * * * @ * * * * o o @ @ # # # # # # # # # # # # # # # # # # # # # # # # # # ",
"1 1 2 3 3 3 3 3 3 3 3 3 8 8 9 9 9 9 9 9 8 8 8 8 8 8 8 8 3 5 8 9 8 8 8 3 3 3 3 3 3 4 4 4 2 1 1 1 1 1 1 1 1 = r = = = = = r r r r r r 1 1 1 2 2 3 5 w ^ ) ] ] ] ] ] ] ] ] ] ] ] ] ] ] ] ] ] ] ] ] ] ] ] ] ] ] ] ] ] ] ] ] ] ] ] ] ] ] ] ] ] ] ] ] ] ] O.] %.%.] O.] ] ] ] ] ] %.%.O.] ] ] 3.3.3.3.O.O.O.O.O.] ] ] O.O.O.] ] ] %.-.O.] ] ] ] ] ` ` ` ` ` ` ` ` ` ` _ _ _ ` } } ( +.&.B.( ( o.:.} { +.m.B.m.*.C.R.R.Y.wX<X^.f.f.^.(.<X/.^.^.^.(.(.^.M.h.k.(.(.l.k.wXkX/.W.).wXtXmXxXtXtXtXtXwXtXwXtXtXwX(.W. X/./.(.(./.wXwX/.(.(./.wXwXwX/././.wX<X(.(.(.(.(.^.^.^.^.M.M.M.M.Y.Y.M.M.m.j.j.j.j.m.m.Y.M.E.B.m.m.m.M.m.m.m.f.*.f.f.*.,Xm.C.m.*.m.{ *.*.*.*.j.R.B.C.<X<X,XM.<X^.rX,XY.W.W.k.W./.wXwX<XrXZXZXkXrXkXkXrX5X<X5X<X^.Y.M.j.j.Y.j.k.A.W. XeXXX X|.|. X X X X XXXqXeXqXXX X|.}.v.|.}.qX X}.!.!.(.A.j.@.h , > 6 / :.h - - - - - & - - - 5 ^ = - - - - - = = - $ $ o o o o o o o o o o o o o o o o o o o o o o o o o o o o o o o o o o o o o o X X * * * * X * X X * * * * X X X X * * * X * * o o o o o o o o o o @ @ @ @ o o o o @ @ @ @ o o o o @ o o o o o # # * * * * # # # # * @ o o o o # # # # # # # # # # # # # # # # # # # # # # # # # # ",
"1 1 2 3 3 3 3 3 3 3 3 3 8 8 9 9 9 9 9 9 8 8 8 5 8 8 8 8 8 8 9 9 9 9 9 8 5 3 3 3 3 3 3 3 4 4 4 4 4 4 2 1 1 1 r = = = = = r r r r r r r 1 1 2 2 3 5 9 V ^ ] ] ] ] ] ] ] ] ] ] ] ] ] ] ] ] ] ] ] ] ] ] ] ] ] ] ] ] ] ] ] ] ] ] ] ] ] ] ] ] ] ] O.] ] ] O.3.%.%.%.%.] ] ] ] ] ] %.%.O.] ] ] 3.3.3.3.O.O.O.O.O.] ] O.O.O.] O.$.-.%.] ` ] ] ] ' ' ` ` ` ` ` ` ` ` ` ` ` ` _ ` ` } _ :.B.( ( o.&.{ +.:.m.*.*.m.^.^.5XtX^.M.M.M.W.^.M.W.^.^.rX<XW.a...f.W./.(.l.k./.wXW.(.wXtXtXxXtXwXwXwXwXwXwXtXwXwX(././././.(. X XtXwXwX/./.#XwXwX(.(.W.^.(./.wX/.(././.(.^.^.^.^.^.M.M.W.^.j.j.j.j.j.m.C.C.m.j.f.j.C.m.M.m.R.M.*.*.m.m.m.m.m.*.*.C.C.m.f.m.m.*.+.*.*.C.M.m.f.Y.5X<XM.^.,X^.<XM.Y.W.W.j.W.wXwX/.wXtXmXZXZXmXZXmXrXrX5X<X^.^.^.M.M.^.M.Y.^.W.(.wXqXXX X|.XXeXeXeX X X X X.XXXeXqXXXXX|.qX].}. X X X}.S.^.A.f.{ A , - , - 6 O.X.5 $ - $ $ - > - $ 5 ) - - - - - = = & $ o o o o o o o o o o o o o o o o o o o o o o o o o o o o o o o o o o o o o o o X X * * * * * * X X * * * * X X X X X X * * * * * o o o o o o o o @ @ @ @ @ o o o @ @ @ @ @ @ o o o @ @ o o o o # # # * * * # # # # # # o o o o # # # # # # # # # # # # # # # # # # # # # # # # # # ",
"1 1 2 4 3 3 3 3 3 3 3 3 3 3 8 8 9 9 9 9 8 8 8 8 8 8 9 9 9 8 8 8 9 9 9 8 5 3 3 3 3 3 3 3 3 3 3 3 3 3 3 4 4 1 1 1 1 = = = r r = = = 1 1 1 1 1 2 4 3 9 V ^ ] ] ] ] ] ] ] ] ] ] ] ] ] ] ] ] ] ] ] ] ] ] ] ] ] ] ] ] ] ] ] ] ] ] ] ] ] ] ] ] 3.3.3.3.3.O.] ] 3.3.3.3.%.%.%.%.O.] ] O.%.%.%.%.O.O.O.] O.O.O.O.O.O.O.O.O.O.O.$.-.-.] ` O.' _ _ ` ` ` ` ` ` ` ` ` ` ` ` _ _ ` _ ( ( R.R.} o.*.{ } m.n.m.o.R.4X^.^.5X5XY.Y.^.M.j.W...Y.<XrX^.j...f.^.^.a.k.W././././.(.tXtXtXtXxXxXsXtXwX#X#XwXwXW.(./.wX X/./.wXwXtXtXwX/./.).).(.(.W.W./.(.(.(.W.W.W.W.W.W.(.(./.^.M.Y.M.M.M.M.Y.M.m.j.m.M.C.M.f.j.m.m.m.C.m.j.j.C.j.C.m.m.m.m.m.*.*.m.m.f.*.*.f.C.m.*.m.m.j.Y.<X^.M.M.j.M.^.^.j.M.^.M.W./.wX<XW.(.wXrXkXrXtXtXrXrXrXrX/.5X<XW.^.^.(././.^.^./.<X/.(. X{. X XXXqXqXqXqX X}.|.XXqXqXqXXX X X X}.qXqXqX}./.A.h.f...*.*.x 6 - - - l O.z > $ $ - - - $ - z B - - $ = = - $ $ + + o o o o o o o o o o o o o o o o o o o o o o X X o o o o o X X X * * * * * * X X X * * * * o o o * * * o o o o o * o o o * o o @ @ @ @ @ @ o o o @ @ @ o o o o o o o o o o @ @ @ @ @ @ @ @ o @ @ @ @ @ @ @ @ @ @ @ @ @ # # # # # # # # # # # # # # # # # # # # # # # # # # $ $ ",
"1 1 2 4 3 3 3 3 3 3 3 3 3 3 8 8 9 9 9 9 8 8 8 9 9 8 8 8 8 8 8 8 8 8 9 5 3 3 3 3 3 3 3 3 3 3 3 3 3 3 3 3 3 4 2 1 1 1 1 = 1 r = = = = 1 1 r 1 1 2 3 9 q ^ ] ] ] ] ] ] ] ] ] ] ] ] ] ] ] ] ] ] ] ] ] ] ] ] ] ] ] ] ] ] ] ] ] ] ] ] ] ] ] ] 3.3.3.3.O.O.] ] 3.3.3.3.%.%.%.%.O.O.] ] %.%.%.%.O.O.O.] O.O.O.O.O.O.O.] ] O.-.-.%.] ] O.O.' _ _ ` ` ` ` ` ` ` ` ` ` ` ` ` ` _ ` ( ,.-X*.+.*.{ *.f.| *.B.kX5Xj.^.<X^.Y.M...p.M.M...^.<X^.@...M.<X^...j.<X(./.tX#XwXwXtXwXwXtXtXtXsXMXtX#XwXwX X/./.(.W.W./. XwXtXwXtXtX/.W.(.(.W.(././././.W.W./.<X/././././.Y.^.Y.^.^.^.M.M.M.M.M.M.M.M.j.j.f.j.*.*.m.m.m.C.M.C.f.f.*.m.m.m.f.*.*.f.f.*.*.*.m.m.*.m.^.f.*.f.^.^.m.M.M.m.m.^.M.W.M.^.^.^.tXtX(.(.(././.<XwXrXrX^.^.^.^.(.^.Y.Y.Y.j.k.W.^.(.(./././.^.(.W.!.!.}.!.}.|. XqXXX XXXqXqXqXqXqXqX X X XS. XqXqXW.Z.k...*.x Z n.} } ~ > > 5 X.z 6 > - o + $ - = X.z > - = - - & $ + + o o o o o o o @ o o o o o o o o o o o o o o o o X o o o o X X * * * * * * X X X X * * * * o o o o * * o o o o * * o o o o o o o o @ @ @ @ o o o o @ @ o o o o o o o o o o @ @ @ @ @ @ @ @ o o @ @ @ @ @ @ @ @ @ @ @ @ # # # # # # # # # # # # # # # # # # # # # # # # # # $ $ ",
"1 1 1 4 3 3 3 3 3 3 3 3 3 3 8 8 8 8 9 8 8 3 5 5 9 9 8 8 5 5 8 8 8 8 9 5 3 3 3 3 3 3 3 3 3 3 3 3 3 3 3 3 3 3 4 1 1 1 1 1 1 1 = = = = = 1 r r 1 1 3 9 q ^ ] ] ] ] ] ] ] ] ] ] ] ] ] ] ] ] ] ] ] ] ] ] ] ] ] ] ] ] ] ] ] ] ] ] ] ] ] ] ] ] ] ] ] ] ] ] ] ] O.O.O.O.O.O.O.O.] ] ] ] ] ] O.] O.O.O.O.] ] ] ] ] ] ] ] %.2.-.] ] ' ] ] ] ] _ _ ` ` ` ` ` ) ) ) ` ` _ _ ` ` ` ` / R.$.*.*.o.f.+.{ f.5XrXj.j.rX<X^.j.@.f.f.@.f.f.<X<XY.f.^.<Xf. .W.wX(.Y.wXtXwXsXxXwXwXtXtXMXxXxXtX#XwXtXwXwX X/.(./.wXtXtXwXwXwX X(.W.W./.(.(.#XwX#X/.(.W.(.<XwXwXwX<X/.<X/.wX<X^.(.^.M.Y.Y.M.M.M.M.M.M.j.j.f.*.m.j.*.*.f.j.m.M.C.*.*.*.*.*.f.f.j.m.f.*.*.*.f.f.m.^.m.f.f.,XR.j.M.j.f.f.^.M.W.M.<XwXrXrX<X(./.^.<XwXwXrXrX/.^.<X<X^.M.j.j.f.M.^.^.^.M.k.j.M.M.M.^.^.(.A.z.x.Z.S. XqXqXqXqXqX X].].].].}. XqX X X X~.~. X/.h.u...M h A h l } / o.} 0 0 o.^ 0 2 - - - = - = 0 7 2 = - - & $ + + o o o o o o o o o o o o o o o X o o o o o o o o o o o o o * X * * * * X X X X X X X X * * o o o o * o o o o o * * o o o o o o o o o o @ o o o o o @ @ @ o @ @ @ @ o o o o @ @ @ @ @ @ @ @ o o @ @ @ @ @ @ # # # # # # # # # # # # # # # # # # # # # # # # $ $ $ $ # $ # # $ $ ",
"= 1 1 4 3 3 3 3 3 3 3 3 3 3 5 5 5 8 8 8 8 3 5 5 5 5 3 3 3 3 8 5 5 5 5 3 3 3 3 3 3 3 3 3 3 3 3 3 3 3 3 3 3 3 3 4 2 2 1 1 1 1 = = = = = = r r r 1 4 8 q ^ ) ] ] ] ] ] ] ] ] ] ] ] ] ] ] ] ] ] ] ] ] ] ] ] ] ] ] ] ] ] ] ] ] ] ] ] ] ] ] ] ] ] ] ] ] ] ] ] ] ] ] ] ] ] ] ] ] ] ] ] ] ] ] ] O.O.O.] ] ] ] ] ] ] ] -.%.O.] ] ' ] ] ] ] ' ] _ ` ` _ ` ` ) ) ) ` ` _ _ _ ` ` ` B.&.| | f.+.| j.,X,XC.f.rX/.j.M.f.@.......M.^.rXwX^.^.k.f.j./.(.W.f.Y.wXtXxXtXwXwXxXtXtXMXwX#X#XwXwXwXwX#X#XwXwXwXwXwXwXwX/.W.W.W./././.W.(././././.(.(./.wXtXwXwX<X/.^.^./.^./.^.^.Y.^.Y.M.M.M.Y.M.m.j.j.m.m.j.f.*.*.@.*.=.f.C.m.=.m.E...*.*.j.m.m.f.+.+.*.m.M.M.j.M.R.,Xm.M.^.f.j.M.j.j.M./.tXrXrXwXwXW.wXwX/.rXwX<X/.Y./.^.^.f.f.f.f.a.p.p.a.j.f.f.a.j.j.M.M.W./.^./.(.(.(. X/.!.~.S.Q.}. X}.}.|.}.}.}.qXqX X}.~.S.~.A.h.f.M A A ; A h z ( 2 7 / z > ` / z l 7 6 2 = - z z 7 5 - $ $ + + + o o o o o o o o o o o o o o o X X o o o o o o o o o o o o * X * * X X X X X X X X X X X * o o o o o o o o o o o o o o o o o o o o o o o o o o o o @ @ o o @ @ @ @ o o o o @ @ @ @ @ @ @ @ @ @ @ @ @ @ @ @ # # # # # # # # # # # # # # # # # # # # # # # # $ $ $ $ # # # # $ $ ",
"= 1 1 2 3 3 3 3 3 3 3 3 3 3 3 3 3 3 5 3 5 5 5 5 5 3 3 3 3 3 3 3 3 3 3 3 3 3 3 3 3 3 3 3 3 3 3 3 3 3 3 3 3 3 3 3 3 2 2 1 1 = = = = = r r 1 1 1 r 4 3 w ~ [ ] ] ] ] ] ] ] ] ] ] ] ] ] ] ] ] ] ] ] ] ] ] ] ] ] ] ] ] ] ] ] ] ] ] ] ] ] ] ] ] ] ] ] ] ] ] ] ] ] ] ] ] ] ] ] O.O.O.O.] ] ] ] O.O.O.O.O.O.] ] ] ] O.-.%.] ] ] ] ] ] ' ' ] _ ` ` ` ' ' ` ) ` ` ` ` ` ` / ( } :.B.o.+.*.+.E.Y.5XrXM.<X<XM.M.Y.M.f...@.m.^.<XrX(.W.k.f.f.j.(./.W.(.wXtXtX/.#XwXtXxXxXxXsX XwXwXtXtXtXwX#XwX#XwXwX X XwX X^.z.W././.(.(.(.wXwXwXwX<XwXtXtXxXMXMXMXtXtXtXrX5X<X^.W.M.M.Y.Y.^.^.W.M.M.M.M.Y.Y.M.C.m.*.*.*.f.m.*.f.*.f.j.j.j.f.*.*.*.m.B.M.f.*.*.C.C.j.M.^.<XM.Y.M.f.^.M.M.k.(.tXtXtXtXwXwXwXrXrXwX<X(.^.W.M.M.(.M.j.f.f.a.a.j.j.j.M.M.M.M.^.M.j.Y.M.(.M.M.M.(./.wXwXwX(.Q.~.~.Q.g.Z.!. XqXqX X}. XqXqXqX!.A.Z.a.f.+.u 6 Z h ( / z / l - z / 6 z z 6 0 - 6 - > 7 ` 6 5 6 = + + + o o o o o o o o @ @ @ @ o o o o o o o o o o o o o o o o o o o o o o * * o o o o o o o o o o o o o o o o o o o o @ @ @ @ o o @ @ @ @ @ @ @ @ @ @ @ @ @ @ o o @ @ @ @ @ @ @ @ # # # # # # # # # # # # # # # # # # # # # # # # # # # # # # # # $ $ $ $ $ $ $ $ $ $ # # # $ $ $ $ $ ",
"= = 1 2 4 3 3 3 3 3 3 3 3 3 3 3 3 3 3 3 5 8 8 5 3 3 3 3 3 3 3 3 3 3 3 3 3 3 3 3 3 3 3 3 3 3 3 3 3 3 3 3 3 3 3 3 3 2 2 1 1 r = = = = r 1 1 1 1 1 4 3 w ~ [ ] ] ] ] ] ] ] ] ] ] ] ] ] ] ] ] ] ] ] ] ] ] ] ] ] ] ] ] ] ] ] ] ] ] ] ] ] ] ] ] ] ] ] ] ] ] ] ] ] ] ] ] ] ] ] ] ] ] ] ] ] ] ] ] ] ] ] ] ] ] ] ] ] -.O.] ] ] ' ' ' ] ] ] ] _ _ ' ' ` ) ) ) ` ` ` ` ` ` o.o.&.C.o.*.+.C.^.,X<X^.j.<X^././.Y.f...f.@.f.^.<XwX(.j.h.k.M.W.^.(./.wXtXtXwXwXtXxXnXnXnXxXtXwXwXtXwXtXwXwXwXwXtXtXwX(.wXtX(.k.z.W././.W.wXtXtXtXtXMXMXmXmXxXxXMXtXwX(.W.(././.^.^.^.(.Y.Y.^.Y.M.^.M.M.M.M.M.M.M.m.m.m.Y.m.f.@.@.*.j.*.*.....*.j.j.f...f.j.m.B.f.*.*.,XC.C.^.^.M.f.j.^.^.^.^./.kXMXwX<X<X<XwXwXwX/.(./.(.M.k.W.<X(.M.M.Y.^.^.(./.^.M.j.j.M.^.W.W.^.Y.^./.M./.W.k.h.k.A.A.(./.(.wX/././.!.Q.~. XqX X}.}. XqX XW.h...{ P < ; - z z l } _ 7 z - = l 6 l ` 6 z 2 = - > ^ z 7 7 6 - $ + + o o o o o o o @ @ @ @ o o o o o o o o o o o o o o o o o o o o o o * * o o o o o o o o o o o @ o o o o o o o o o o @ @ o o @ @ @ @ @ @ @ @ @ @ @ @ @ o o o @ @ @ @ @ @ @ @ # # # # # # # # # # # # # # # # # # # # # # # # # # # # # # # # $ $ $ $ $ $ $ $ $ $ # # $ $ $ $ $ $ ",
"% 1 1 2 3 3 3 3 3 3 3 3 3 3 3 3 3 3 3 5 8 8 8 8 3 3 3 3 3 3 3 3 3 3 3 3 3 3 3 3 3 3 3 3 3 3 3 3 3 3 3 3 3 3 3 3 3 4 2 1 1 r r r = r r 1 1 1 1 1 4 5 w ~ [ [ ] ] ] ] ] ] ] ] ] ] ] ] ] ] ] ] ] ] ] ] ] ] ] ] ] ] ] ] ] ] ] ] ] ] ] ] ] ] ] ] ] ] ] ] ] ] ] ] ] ] ] ] ] ] ] ] ] ] ] ] ] ] ] ] ] ] ] ] ] ] O.-.] ] ] ] ' ' ' ' ] ] ] ] _ _ ' ' ` ) ) ) ` ` ` ` ` _ &.&.m.n.o.o.B.R.^.^.j.f.^.^.M.j.| U U ..p.j.^.<XwX/.M.h.M.W.(.(.^.(.wXtXtXsXxXxXnXnXnXxXsXtXwXwX(.#X XwXwX/. X X(.W.W././.(.k.W.wXtXtXtXwXtXtXtXtXtXtXtXtXwXwX/./.W.k.Y.M.Y.W.^.<X(.^.^.M.Y.^.Y.j.f.M.j.f.j.j.j.j.m.m.C.Y.Y.Y.Y.m.f.*.m.+.*.*.+.+.*.j.f.m.f.f.m.j.C.f.f.j.M.M.^.Y.^.<X5X^././.tXtXwX(././.wXwXrX/.wX5X(.(.M.M./.W.M.W.^.Y.M.j.j.j.j.j.j.Y.^.M.j.M.Y.j.M.M.f.f.W.^.<X(.k.a.A.<XwXwXrX^.(./.wX/.Q.S. XqX!./. X/.W.f...M h A - + - h / 6 / _ ^ / = $ 6 l 5 / = z 6 - 6 = ` = 2 5 5 2 $ o + o o @ @ o o @ @ @ @ @ @ o o o o o o o o o o o o o o o o o o o o * o o o o o o o o o o o @ @ @ @ o o o o o o o o @ o o o @ @ @ @ @ @ @ @ @ @ @ @ @ @ o o # # # # # # # # # # # # # # # # # # # # # # # # # # # # # # # # # # $ $ $ $ $ $ $ $ $ $ $ $ $ $ $ $ $ $ $ $ $ $ $ $ ",
"1 1 1 1 4 3 3 3 3 3 3 3 3 3 3 3 3 3 3 3 3 3 5 3 3 3 3 3 3 3 3 3 3 3 3 3 3 3 3 3 3 3 3 3 3 3 3 3 3 3 3 3 3 3 3 3 3 4 2 1 1 r = r = = r 1 1 1 1 1 4 5 9 q [ [ ] ] ] ] ] ] ] ] ] ] ] ] ] ] ] ] ] ] ] ] ] ] ] ] ] ] ] ] ] ] ] ] ] ] ] ] ] ] ] ] ] ] ] ] ] ] ] ] ] ] ] ] ] ] ] ] ] ] ] ] ] ] ] ] ] ] ] ] ] O.-.O.] ] ' ' ' ' ] ] ] _ ] _ _ ` ` ` ] ` ` ) ` ` ( ` _ _ &.*.n.o.*.C.R.,X*.Y m.Y.m.m. .L M P  .@.f.^.rXtX<XW.M.M././.(.(.wXtXxXsXnXxXxXmXxXsXtXwXeXwXwXwXwXwX XwXwX/.(.W.(./.(.(.W.(.tXxXxXxXxXsXxXtXtXtXMXtXtXtXtXtXtXtXwXwX<X/././.(.^.^.^.Y.M.M.M.M.Y.^.^.M.M.Y.Y.M.m.M.M.C.m.m.m.m.C.^.^.M.m.*.*.*.*...| +.*.*.f.m.m.f.j.M.*.M.C.M.M.^./.<X<X<XbX/.^.(./.(.rX<XwXwX/./.(.^.^.^.(./.<X(.^./.Y.k.M.M.M.j.j.f.f.M.f.f.j.j.f.j.f.j.p.M.j.M.W.^./.(.A.A.^./.wXwXwXA.W.(. X X~.~.}././.~.Z.f.f.L u h x - - > , z - ^ X.z / l > > l l ` 2 l 7 - = l 0 - - = 7 $ o $ o o o @ @ o @ @ @ @ @ @ o o o o o o o o o o o o o o o o o o o o * o o o o o o * o o o o @ @ @ @ @ o o o o o o o @ @ o o @ @ @ @ @ @ @ @ @ @ @ @ @ @ o o # # # # # # # # # # # # # # # # # # # # # # # # # # # # # # # # # # $ $ $ $ $ $ $ $ $ $ $ $ $ $ $ $ $ $ $ $ $ $ $ $ ",
"1 1 1 1 2 3 3 3 3 2 4 4 3 3 3 3 3 3 3 3 3 3 3 3 3 3 3 3 3 3 3 3 3 3 3 3 3 4 3 3 3 3 3 3 3 4 4 4 4 4 4 4 4 4 4 4 4 4 2 1 1 = r r = = 1 1 1 1 1 1 4 3 9 q ^ [ ] ] ] ] ] ] ] ] ] ] ] ] ] ] ] ] ] ] ] ] ] ] ] ] ] ] ] ] ] ] ] ] ] ] ] ] ] ] ] ] ] ] ] ] ] ] ] ] ] ] ] ] ] ] ] ] ] ] ] ] ] ] ] ] ] ] ] ] ] -.%.] ] ' ' ' ' ' ] ] ] ` ] ] ` ` ) ) ` ` _ _ ` _ } } | $.*.=.m.R.m.*.m.=.{ m.^.Y.m.*...@.j.*.j.C.<XtX^.W.p.E a.(.(././.wXxXmXtXsXtXxXsXsXtXsXnXeX XwXtXtXwXwXwXwX/.(.W./.(.W.(.wXwXtXtXwXsXtXtXsXmXtXsXwXtXwXwXtXwX#X/.^.(.(.(./.W.W.^.^.Y.Y.Y.Y.^.^.^.^.^.^.Y.M.M.M.M.M.j.j.j.j.m.m.m.m.m.m.M.Y.m.*.*.*.+.| =.*.@.*.@.*.*.j.j.f.M.Y.M.^.<X5X<XkX<X(.M.M.^.(./.wXwX(.<XwXrXwX(.^.(.(.^.W.M.j.a.#.f.f.f.f.j.M.M.Y.^.M.M.Y.M.^.Y.f.k.j.j.j.k.M.M.M.(.(.^.^.W.^.(.wXwX<X(.W.(.wX/.A.Q.Z.W.A.f.....h , , l - - - 6 / 5 z z 0 ^ 2 > 6 z l ` > 7 7 6 2 ` - + $ 6 l - O o o o o o o o o @ @ @ @ o o o o o o o o o o o o o o o o o o @ @ o o o o o o @ @ @ @ @ o o @ @ @ @ @ @ @ @ @ @ @ @ @ o o # # # # # # # # # # # # # # # # # # # # # # # # # # # # # # # # # # # # # # # # # # # # # # $ $ $ $ $ $ $ $ $ $ $ $ $ $ $ $ $ $ $ $ $ $ $ $ $ $ % % ",
"1 1 1 1 2 4 3 3 3 4 4 4 3 3 3 3 3 3 3 3 3 3 3 3 4 4 4 4 2 2 2 2 4 4 4 4 4 4 4 4 3 3 3 4 4 2 2 2 4 4 4 2 2 4 2 4 4 2 2 1 1 = r = = = r 1 1 1 1 1 4 3 9 q ^ [ ] ] ] ] ] ] ] ] ] ] ] ] ] ] ] ] ] ] ] ] ] ] ] ] ] ] ] ] ] ] ] ] ] ] ] ] ] ] ] ] ] ] ] ] ] ] ] ] ] ] ] ] ] ] ] ] ] ] ] ] ] ] ] ] ] ] ] O.%.O.] ] ' ' ' ' ] ] ] ] ` ` ` ` ` ) ` ` ` ` / X.X.} / ( o.:.=.E.,X| { m.P | M.R.m.@.+.{ +...f.f.M.rX<XM.M.j.k.).wXtXtX XtXtXtXsXtXxXxXwXtXsXxXsXxXsXwXtXwX(.wXtXW.W.W././.(./.tXxXxXwXtXtXtXtXnXxXtXtXwXwXwX/.wXtXtXwX/.(.(.(.W.k.k.j.k.Y.^.M.M.Y.Y.^.^.^.^.^.Y.M.m.m.m.m.m.m.m.m.m.*.*.*.*.f.j.m.f.*.M.*.| +.*.+.=.........*.f.f.f.j.M.5XrXrX5XkX^.k.M.M.W.^.(.(./.wXwX/.(./././.<X/.^.M.W.^.W.Y.Y.M.M.M.M.M.M.M.M.j.f.j.M.Y.Y.M.Y.^.W.Y.M.k.M.M.W.W.W.^.(.^.W.W.^.(./.wXwX(.).(.wX/.).A.k.j...P *.x 6 l h - > > 2 l z ^ / z ) 7 - 2 7 z / 5 ^ 7 > z 2 $ + + - 0 - o o o X o o o o @ @ @ @ o o o o o o o o o o o o o o o o o o @ @ o o o o o o @ @ @ @ o o o o @ @ @ @ @ @ @ @ @ @ @ @ @ o # # # # # # # # # # # # # # # # # # # # # # # # # # # # # # # # # # # # # # # # # # # # # # $ $ $ $ $ $ $ $ $ $ $ $ $ $ $ $ $ $ $ $ $ $ $ $ $ $ % % ",
"2 1 1 1 2 4 3 3 3 3 3 3 3 3 3 3 3 3 3 3 3 4 4 4 4 4 4 4 2 2 2 2 4 4 4 4 4 4 4 4 4 4 2 2 2 2 2 2 4 4 2 2 2 2 4 4 1 1 1 1 1 = = = = = 1 1 1 1 1 1 4 3 9 w ^ [ ] ] ] ] ] ] ] ] ] ] ] ] ] ] ] ] ] ] ] ] ] ] ] ] ] ] ] ] ] ] ] ] ] ] ] ] ] ] ] ] ] ] ] ] ] ] ] ] ] ] ] ] ] ] ] ] ] ] ] ] ] ] ] ] ] ] O.-.O.] ] ' ] ] ' ] ] ] ] ] _ ] ` ` ` ) ` ) ` ` ` ^ ` ;.X.o.*.m.E.C.{ =.j.{ P *.R.M.m.f.j.m.j.f.f.^.rXM.f.M.M.M./.(.#XwX#XtXtXxXtXwXnX X XxXtXtXtXwXtXwX(./.wXwX X(.(.(././.wXtXxXtXtXtXMXnXnXxXxXxXwXwXwXtXwXwXtXtXwX/./.W.k.k.j.k.Y.Y.(./.5XwX<X^.Y.M.j.j.j.j.m.M.M.m.m.m.j.j.j.j.j.f.j.m.m.m.f.@...*.M.m.m.j.*.f.=.*... .+.....*.*.@.m.^.rXrX(.<X^.M.j.M.W.W.M.W./.5X/.W.j.^.(.(.(.(./.(./.<X<X/.W.M.Y.Y.Y.Y.^.^.Y.Y.Y.j.j.j.f.@.@.j.j.M.Y.^.W.M.Y.^./.^.^.W.W././.W.(.(.(.(.wXwX/.A.wXwXA.h.k. .| +.o.x > B h 7 6 6 2 6 l B / ^ / 2 - 6 6 ) ) > / 2 2 7 - + + O - 0 2 $ o X o o o o @ @ @ @ o o o o o o o o o o o o o o o o o o @ @ o o o o o o o @ o o o o o o o o @ @ @ @ @ @ @ @ @ @ o o # # # # # # # # # # # # # # # # # # # # # # # # # # # # # # # # # # # # # # # # # $ $ $ $ $ $ $ $ $ $ $ $ $ $ $ $ $ $ $ $ $ $ $ & & & & % % % % & & ",
"2 1 1 1 2 4 3 3 3 3 3 3 3 3 3 3 3 3 3 3 3 3 4 4 4 4 4 4 2 2 2 2 4 4 4 4 2 2 2 1 2 1 1 1 1 1 2 2 1 1 1 1 2 2 2 2 1 1 1 1 1 = = = = = 1 1 1 1 1 1 2 3 9 9 ^ [ ] ] ] ] ] ] ] ] ] ] ] ] ] ] ] ] ] ] ] ] ] ] ] ] ] ] ] ] ] ] ] ] ] ] ] ] ] ] ] ] ] ] ] ] ] ] ] ] ] ] ] ] ] ] ] ] ] ] ] ] ] ] ] ] ] ] O.%.] ] ] ] ] ] ' _ _ ] ] _ _ ] ` ` ) ` ` ) ) ` / B } :.*.B.E.C.| U Y j.| =.^.,Xm.+.L L P @.f.@.<X<Xf.m.m...^.wX#X#XwXwXtXMXsX XwX#XwXsXwX#XwXtXwXtXxXwX XwX/.W.W./.(.wXtXtXtXwXtXnXnXnXtXMXMXtXwXwX#XwXtXsXwXwXwX(.k.k.k.W.^.W.Y.W.W.W.(.(./.^.^.Y.M.m.j.j.j.j.j.j.m.m.m.m.m.m.m.m.C.C.f.f.f.f.C.C.m.f.*.*.j.m.M.*.*.*.{ | | +...@.@...Y.rX<X^.^.j.f.M.Y.Y.Y.W.W.^.^.(.W.M.^.(./.wXwXtXtXtXwX/.^.W.Y.M.Y.^.^.^.M.M.j.f.f.@.@.f.@.@.f.j.j.j.j.M.^.^.^.^.^.^.(.^.M.M.A./.(.(.(.(./.wXwX/.W.(.wXA...m.P x A o.h , 6 - - 7 5 5 z } / z z _ 7 6 6 6 ) / = ^ + 6 - - + + + - w 4 & o o o o o @ @ @ @ o o o o o o o o o o o o o o o o o o @ @ @ o o o o o o o o o o o o o o o @ @ @ @ @ @ @ @ @ @ o o # # # # # # # # # # # # # # # # # # # # # # # # # # # # # # # # # # # # # # # # $ $ $ $ $ $ $ $ $ $ $ $ $ $ $ $ $ $ $ $ $ $ $ $ & & & & % % % % & & ",
"2 2 1 1 1 4 3 3 8 9 9 3 3 3 3 3 3 3 3 5 3 3 3 3 3 3 3 3 3 3 3 3 3 4 2 2 2 2 2 2 1 1 1 1 1 1 2 2 2 2 1 1 1 1 1 1 1 1 1 1 1 1 1 1 r 1 1 1 1 1 1 1 1 3 8 9 ~ ^ [ ] ] ] ] ] ] ] ] ] ] ] ] ] [ ] ] ] ] ] ] ] ] ] ] ] ] ] ] ] ] ] ] ] ] ] ] ] ] ] ] ] ] ] ] ] ] ] ] ] ] ] ] ] ] ] ] ] ] ] ] ] ' ' ' O.O.O.] ] ` _ _ ` ` _ _ ` ` _ ` ) ` ` ` ` ` ) / ( } ( o.E.m.*.*.| *.m.M.j.C.R.B.*.S L L L  .f.^.<X^.M.M.j.M./.<XwXtXwX#XwXsXtXtXnXwXwXtX/.W.wXtXwXwXwX X(.(.x.W./.wX/. XtXtXtXsXnXnXxXxXtXtXwXwXtXwXwXwXtXtXwX/././.z.k.W.W.W.W.(././.(.^./.(.^.M.Y.M.f.f.j.f.@...*.j.j.*.*.f.j.j.m.M.M.m.M.j.*.+...*.*.*.*.*.*.*.f.*...*...| | { { ..*.j.M.M.Y.Y.f. .#.j.M.M.M.W.Y.W.W.M.W.<XwXrXkXrX/./.(.(.^.Y.k.M.^.W.M.M.M.M.M.j.j.M.j.j.f.f.f.j.M.Y.Y.Y.W.^.^.f.f.Y.M.M.M.M.^.^.(.M.(.W.(.(.(.(.(.<XwX/.W.W.M.@.*.f., 6 &._ ( 6 - = = 2 6 7 ) o.^ ^ _ 6 = 0 6 } l 6 7 - 7 - + + + + + 6 2 # o X o o # # # # o o o o o o o o o o o o o o o o @ @ @ @ @ @ @ @ @ @ @ @ @ @ @ @ # # # # # # # # # # # # # # # # # # # # # # # # # # # # # # # # # # # # # # # # $ $ $ $ $ $ $ $ $ $ $ $ $ $ $ $ $ $ $ $ $ $ $ $ $ $ $ $ $ $ $ $ & & & & & & & & & & & & % % % % & & ",
"2 2 1 1 2 4 3 3 8 9 9 8 3 3 5 5 5 5 8 9 9 8 3 3 3 3 3 3 3 3 3 3 3 3 3 2 4 2 2 1 1 1 1 1 1 1 2 2 1 1 1 1 1 1 1 1 1 1 1 1 1 1 1 1 r 1 1 1 = = r r 1 4 3 9 q ^ [ ] ] ] ] ] ] ] ] ] ] ] ] ] ] ] ] ] ] ] ` ` ] ] ] ] ] ] ] ] [ [ ] ] ] ] ] ] ] ] ] ] ] ] ] ] ] ] ] ] ] ] ] ] ] ] ] ] ] ] ] O.O.` ] -.-.-.2.1.1.N.V.1.<.-.O.] ` ` ` ` ` ` ) ) ) ` ( B ( %.:.E.*.j.*.j.m.m.@.m.Y.^.m.L C L  .@...j.Y.^.M.M.W.^./.W./.tX#XwXMXtXwXwXxXwXsX X XwXwXwX/./././.(.W.W./. X X XtXxXtXsXnXnXxXtXtXwX X/. X#XtXtXmXxX#XW.(.(.W.k.W./././.<X/.(.(.<X<X(.M.f.@.f.m.f.@.......*.f.....+.*.*.*.j.f.j.@.@.f.f.f.*.*.*.@.*.*.*.@.....*...j.*.*...| P +.|  .j.j.j.j.M.....a.j.j.j.f. .M.M.Y.^.wXrXtXwX/././.<X<X/.^.W.^.^.j.j.^.Y.M.j.j.M.M.f.Y.Y.Y.M.M.M.Y.Y.Y.Y.M.j.f.j.j.f.M.M.j.j.M.M./.^.M.W.W.W.W.(.(.(.(.(.A.W.P L f.f.B.+.h } 6 ;.z 6 2 2 2 2 2 7 / ) z X.6 7 6 - o.h 7 > z + + + + + $ $ 4 0 & o o o @ # # # o o o o o o o o o o o o o o o o @ @ @ @ @ @ @ @ @ @ @ @ @ @ @ @ # # # # # # # # # # # # # # # # # # # # # # # # # # # # # # # # # # # # # # # # $ $ $ $ $ $ $ $ $ $ $ $ $ $ $ $ $ $ $ $ $ $ $ $ $ $ $ $ $ $ $ $ & & & & & & & & & & & & % % % % & & ",
"4 2 2 2 2 3 3 3 3 8 5 5 3 3 5 5 8 8 9 9 9 9 9 9 9 9 9 9 8 8 8 8 5 3 3 3 3 4 4 2 4 2 2 2 1 4 2 2 1 1 1 1 1 1 1 1 1 1 1 1 1 1 r r 1 1 1 1 = = = = 1 2 3 9 q ^ [ ] ] [ ] ] ] ] [ ] [ [ ] ] ] ] ] ] ] ` ` ` ] ] ] ] ] ] ] ] [ ] ] ] ] ] ] ] ] ] ] ] ] ] ] ] ] ] ] ] ] ] ] ] ] ] ] ] ] ] ] ] ' X.>.1.2.%.] ] ` ` ` ` ] O.-.2.-.] ) / ) ) ) ) / ) ( _ o.*.m.E.j.:.| | *.S | *.E.*.{ { ....f.M.Y.^.^.^.M.(.<XM.k./.wX(.tXtX#X/.wXsX XW. XwXwXtXwX/./.wX/.W.x./. X XwXtXxXtXtXmXnXMXwX X#X X).P.#XtXtXsXxX/.z.W. XwXwX/./.wXwX/./.<X<X(./.^.M.f.@.f.f. .j.j.f.@.f.*...| +.+.f.M...+.+.=.| ..*.+.*.*.| | +... .+...j.m.@.+.*...j.|  .....U ....| f.f.@.#. ...a.j.j.a.a.j./.rXrX/././.<XW.(./.<X/./.(.(.(.Y.j.M.j.M.j.f.f.f.j.j.f.Y.M.j.j.M.j.M.j.j.j.j.M.M.j.M.^.M.M.M.M.M.^.k.W.W.^.(.W.^.A.<X(.(.(.A.M.M.u , *.Z +.:.:.o.z h o.z l 6 > 2 l l / ^ ) _ 5 6 > - ` 7 7 7 - + + + + # o $ = w = X o # # # # o o # # # # # # # # # # # # o # @ @ @ @ @ @ @ @ @ @ @ @ @ @ @ @ # # # # # # # # # # # # # # # # # # # # # # # # # # # # # # # # $ $ # $ # $ $ $ $ $ $ $ $ $ $ $ $ $ $ $ $ $ $ $ $ $ $ $ $ $ $ $ & & & & & & & & & & & & % % % & & & & & % % % % % % ",
"4 2 2 2 4 3 3 3 3 8 8 5 3 3 5 5 8 8 9 9 9 9 9 9 9 9 9 9 9 9 9 9 9 8 5 3 3 3 3 3 3 3 3 3 4 4 4 4 1 1 1 1 1 1 1 1 1 1 1 1 1 1 r r 1 1 1 1 = = = = 1 1 3 9 q ^ [ ] ] [ [ ] ] ] [ [ [ ] ] ] ] ] ] ] ` ` ` ` ] ] ] ] ] ] ] ] [ [ ] ] ] ] ] ] ] ] ] ] ] ] ] ] ] ] ] ] ] ] ] ] ] ] ] ] ] ] ] O.2.T.>.) ] ] ] ] ` ` ` ` ` ` _ ` _ ' -.$.) ) ) ` ) B _ &.n.n.m.j.S S | | |  .*.E.| L L L U @.Y.<X<X^.Y.j././.Y.Y.<XwXwXwX/.(.#XwXtX(.W.).tXtX X/./.(.(.(.W././.(.(.tXxXsXsXxXxXxXtXtXwX#X/.~./.tXtXsXsXtX(.W.(.wXwX/.(.(./././.(.^.Y.W./.(.k.f.j.j.j.j.M.M.m.j.j.....+. .| *...| | | | |  .+...*.*.*.*.*.*.=. .| +.|  .j.*.| +.*..... . . .| U | @... .U  . .#.j. .j.^.<X<X/.^.^.<XtXwXwXwX/.(.^.^.(./.<X/.^.M.W.Y.Y.Y.Y.^.^.^.^.^.Y.Y.^.^.Y.M.M.M.M.j.j.j.f.j.Y.M.M.M.M.A.M.k.A.^.A.M.M.A.(.A.(.<X<X/.j.j.+.: h | Z z _ B.;.z 6 } / l 6 h = 7 = ^ z X.z 6 2 > > l z = 6 + + + + $ + # & = 0 3 + @ @ # # # o # # # # # # # # # # # # o o @ @ @ @ @ @ @ @ @ @ @ @ @ @ @ @ # # # # # # # # # # # # # # # # # # # # # # # # # # # # # # # # $ $ $ $ # # # $ $ $ $ $ $ $ $ $ $ $ $ $ $ $ $ $ $ $ $ $ $ $ $ $ & & & & & & & & & & & & % % % & & & & & % % % & % % ",
"4 4 4 4 4 3 3 3 3 3 8 8 3 3 5 5 8 8 9 9 9 9 9 9 9 9 9 9 9 9 9 9 9 9 9 9 5 8 8 5 3 3 3 3 3 3 3 3 4 4 1 1 1 1 1 1 1 1 1 1 1 1 1 r 1 r = = = = r r 1 1 3 8 w ^ [ ] ] ] ] ] ] ] ] ] ] ] ] [ [ [ ] ] ] ] [ [ ] ] ] ] [ [ [ [ ] ] [ [ ] ] ] ] ] ] ] ] ] ] ] ] ] ] ] ] ] ] ] ] ] ] ] ' ] ] O.-.-.-.-.] ` ] ] ] ] ] ` ` ` ` ) ` ` _ ` ` O.X.) ` } } :.B.n.&.| { A Z { | *.j.j.| Z C L  .M.<Xj.M.Y.(././.<X(.wXtXwXwX/./.wX/.wX/.z.W.wXtXwXwX X(.W. X(.(.#X/.(.tXtXtXtXsXmXnXtXwX#X/./. X#XtXtXtXxXsX X(./. X/.W.W./.wXwXwX(.W.Y.^./.^.M.k.j.M.^.M.f.j.Y.@.@.@.*.*.*.*.*.| { P P P | +.=.*.=.@.*.*.*.*.*.*.*...+. . .| | +.@...|  .| | U @.U L  . . .U P  . .f.f.j.^.M.M.^./.wXwX<X<X<X/./.<X<X5XwXrXtXrX/./.wX<XwX<X(.(./.^.^.M.f.f.p.f.j.f.j.M.M.j.M.M.M.M.M.M.M.M.M.W.(.M.^.^.k.A.M.f.M.W.(.W.M.^.^.^.@.f.{ x x | { l z :.n.A 6 z o.h z l > l 2 z l o.( - + - > X.l 7 + + - + + + + $ o > 8 5 & # o # # # + + + + # # # + + + o o o o @ @ @ @ # # # # # # # # # # # # # # # # # # # # # # # # # # # # # # # # # # # # $ $ $ $ $ $ $ $ $ $ $ $ $ $ $ $ $ $ $ $ $ $ & & $ $ $ $ $ $ $ $ & & & & & & & & & & & % & & & & % % % % % % % % % % % % % % % % % % ",
"4 4 4 4 3 3 3 3 3 3 8 5 3 3 8 8 8 8 9 9 9 9 9 9 9 9 9 9 9 9 9 9 9 9 9 9 5 9 9 8 3 3 3 3 3 3 3 3 3 3 3 4 2 1 1 1 1 1 1 1 1 1 r r r r = = = = r r = 1 2 3 9 ~ [ ] ] ] ] ] ] ] ] ] ] ] [ [ [ [ ] ] ] [ [ [ ] ] ] ] [ [ [ ] ] ] ] [ ] ] ] ] ] ] ] ] ] ] ] ] ] ] ] ] ' ' ] ] ] ] ] ] ] -.1.] ] -.] ] ] ] ] ] ] ] ` ` ` ` ` ` ` _ ` ` ` ) O./ ( ;.R.o.o.{ A Z Z { | =.=.j.Y Z C | f.M.^.M.f.f.M.W./././.(.wXwX#XW.W.#X#X#XW.W.tXsX/. X X/.W.W.wX X#X/.(.tXtXxXmXsXtXtXwXtXwX/. XwXtXwXtXtXtXtXtX/. XwX/.W.(.wXtXwXtXwX/.(.^.(.^.M.f.a.M.W.^.^.f.@. .L M L L U f.j.C.m.m.j.j.f.+.+.| | { { { { | | +.......| | | | | | | +.@.*.+.| | U ..| P U  .U U U ..@.f.j.j.W.M.Y.W.(./.(./.wXwX<XwX<X<X/./././.W.(.W.W.W.^.^.M.f.j.f.j.M.^.W.Y.^.Y.M.j.j.M.^.j.j.M.M.M.M.M.M.M.M.^.^./.A.A.W.W.M.h.A.A.<XA.M.M.^.M.f.*.*.x ( h Z ( z :.:.;.l 7 _ B 7 l l 5 5 l h o.h - - + > $.z - + + + + + # $ & # = 9 4 % @ # # # # # + + + # # + + + # # o o @ @ @ @ # # # # # # # # # # # # # # # # # # # # # # # # # # # # # # # # # # # # $ $ $ $ $ $ $ $ $ $ $ $ $ $ $ $ $ $ $ $ $ $ & & $ $ & & & & & & & & & & & & & & & & & % & & & & % % % % % % % % % % % % % % % % % % ",
"3 4 3 3 3 3 3 3 3 3 3 3 3 3 3 5 5 8 8 9 9 9 9 9 9 9 9 9 9 9 9 9 9 9 9 9 8 9 9 8 3 3 3 3 3 3 3 3 3 3 3 3 3 4 1 1 2 1 1 1 1 1 1 1 r r = = 1 r r r = 1 1 3 9 q ^ ] ] ] ] ] ] ] ] ] ] ] ] ] [ [ [ ] ] ] [ [ [ [ ] ] [ [ ] ] ] ] [ [ ] ] ] ] ] ] ] ] ] ] ] ] ] ] ] ] ] ] ' ' ] ] ] O.-.-.] ] ] ] ] ] ] ] ] ] ] ] ` ` ` ` ` ` ` ` ` ` ) ` ( ;.R.T.o.&.( C A { | +.*.*.=.Z { L +.*.m.Y.....j.M.<X<X<X/.W.(.wXwX(./.wXwXW.k.(.wX#X/.(.W.W.k.W.wX/.W./.#XtXmXxXtXmXsXwXwXtX#X/./.wXwX#X/.wXtXwX(.W./.W.W.(./.wXwXwXwX(././.W.^.<XY.W.W.M.j.j.#.U U W  . ...f.j.M.R.M.f.*.| | | | | { | | +. .+...+.| | | +.+.| { { { { { |  .+... .| | { .. .U U U U U  ...j.@.M.Y.W.k.M./.wXwX<X<X<X(.(.(.(.W.^.^.(.^.W.^.^.^./.(.Y.M.M.j.f.j.M.j.j.f.j.M.Y.M.j.j.f.M.M.M.M.j.j.M.M.M.W.^.^.^./.W.^.W.^.A.k.W.M.^.^.M.f.M.j.R.j.+.( { x x _ ( :.;.` z 7 z } 7 h z 5 l 6 6 o.7 - + O l ;.6 + O + $ $ $ $ # = = & 8 = 2 o $ # # # # # # # # # # # # # # # # # # # # # # # # # # # # # # # # # # # # # # # # # # # # # # # $ $ $ $ $ $ $ $ $ $ $ $ $ $ $ $ $ $ & $ & & & & & & & & & & % % & & & & % & & & % % % % % % % % % % % % % % % % % % = = % % % % % % % % = = % % % % ",
"3 4 3 3 3 3 3 3 3 3 3 3 3 3 3 3 3 5 8 9 9 9 9 9 9 9 9 9 9 9 9 9 8 9 9 9 8 8 8 8 3 3 3 3 3 3 3 3 3 3 3 3 3 3 3 4 4 1 1 1 1 1 1 1 r r = = r r r r = = 1 3 9 q ^ [ ] ] ] ] ] ] ] ] ] ] ] ] [ [ [ ] ] ] [ [ [ [ ] ] [ [ ] ] ] ] [ [ [ ] ] ] ] ] ] ] ] ] ] ] ] ] ] ] ] ] ] ] ] ] ] O.-.) ) ] ] ] ) ' ] ] ] ] ] ] ` ` ` ` ` ` ` ` ` ` ) X.>.,.;.,.o.{ A ( | ( +.=.*.m.Z Z { @.@.^.R.U ..Y.(.5XwX(.W.W./././.W.#XwX(.k.W.wX(./.W.P.W.W.k.(./.).P.(./.tXnXmXsXsXwXwXwXtXwXwXtXtXwXwXwXtXwX#X(.P.P.c./.wXwXwXwX/.<X(.W.k.W.<X<XY.Y.f.#.a.j.a.f.j.f.@.f.M.^.^.m.f.| { U P @.*.*.f.f.*.=.+.+.| +.*.*...{ P | | P P P Y P P | |  . .+.| | {  ...| P L U  . .f.@.M.j.f.j.M./.(././.(.(.Y.W.(.W.(.(.(.^.W.W.(.(./.W.Y.Y.^.^.W.^.^.W.M.j.j.j.j.j.M.M.j.M.a...M.Y.M.M.M.M.M.M.M.M.<X<X<XW.A.A.W.k.A.A.M.^.^.^.^.M.M.m.,X^.*.+.C ; x ( n.` o.h z h 6 X.7 z l z B = 7 } h - - > X.l + O + $ $ $ $ = $ # # % 9 1 = & o # # # # # # # # # # # # # # # # # # # # # # # # # # # # # # # # # # # # # # # # # # # # # # $ $ $ $ $ $ $ $ $ $ $ $ $ $ $ $ $ $ $ $ & & & & & & & & & & & % & & & % % % % % % % % % % % % % % % % % % % % % % % = = % % % % % % % % = = % % % % ",
"3 3 3 3 3 3 3 3 3 3 3 3 3 3 3 3 3 3 8 9 9 9 9 9 8 8 9 9 9 9 8 8 8 8 8 8 8 8 8 3 3 3 3 3 3 3 3 3 3 3 3 3 3 3 3 3 4 4 1 1 1 1 1 1 1 1 1 = r = = = = 1 1 4 5 w ^ [ ] ] ] ] ] ] ] ] ] [ [ ] [ [ [ [ ] ] ] ] [ [ [ ] [ ] ] ] [ ) ) [ [ [ ] ] ] ] [ [ ] ] ] ] [ [ [ [ ] ] ] [ ] ] ] O.] ] ) ] ] ] ` ] ' ' ' ` ] ] ` ` ` ` ` ` ` / ( ) o.;.;.o.} $.o./ Z A Z { *.*.*.o.| | *.*.m.j.*.M.M.<X^.Y.k.W./.#X#XW.)./././.(.wX#X(.(.z.W.W.W.W././.W.P.#XsXtXmXmXxXwX(.(.tXtXwX#XwXwXtXwXwX#X X/././.(.W. XwXwX/.tXwXW.k.k.M.(./.(.W.f.#.f.j.k.M.j.j.j.j.j.M.^.Y.j.@.| ..f.m.M.B.m.f.*.+.+.+.+.o.o.+.{ | +...{ { { { P P P L P L P @.P P  .| U | U |  . .....f.f.@.W f.f.k.W.^.W././.Y.W.W.W.(.(.(.<XwXwX/./././.<X/.^.W.^.W.^.W.^.^.^.Y.M.M.M.j.j.M.j.^.^.^.M.Y.M.M.M.j.j.j.M.^.M.M.M./.^.^.W.^.W.M.j.M.W.W.j.^.^.M.f.*.^.B.| x , , } N.` o.- l 5 > ` z 6 h B 7 - - ;.6 + + z X.6 o $ $ $ $ $ $ $ $ $ $ > 3 4 - $ # # # # # # # # # # # # # # # # # # # # # # # # # # # # # # # # # # # # # # # # # # # # $ $ $ $ $ $ $ $ $ $ $ $ $ $ $ $ & & & & & & & & & & & & & & & & % % % % % % % & & & % % % % % % % % % % % % % % % % % % % % % % = = = = = = = = % % % % ",
"3 3 3 3 3 3 3 3 3 3 3 3 3 3 3 3 3 3 8 8 8 8 8 8 8 8 8 8 5 5 5 3 3 3 3 3 3 3 3 3 3 3 3 3 3 3 3 3 3 3 3 3 4 3 3 3 3 3 4 4 2 1 1 1 1 1 1 1 1 1 = = = 1 1 4 3 0 ^ [ ] ] ] ] ] ] ] ] ] ] ] ] ] [ [ [ ] ] [ ] [ [ [ ] [ ] ] ] [ ] ) [ [ [ ] ] ] ] ) ) [ ] ] ] [ [ [ [ ] ] ] ) ] ] O.] ] ] ] ] ] ] ] ] ` ` ` ` ] ] ` ` ` ` ` ) ) ` / %.n.X.` o.&.( A | A { | { *.*.o.+.+.| *.Y.@.j.M.m.^.<XW.k.M.(./.).k.wX/.W.W./.wXW.W.P.W.W.W.(./.wX/./.wXMXtX/.xXmXtX/././.tXwX X XwXwXwXwXwX#X/././.(./. XsX/.k.k./.W.k.h.M.W.5X/.^.j. .W a.j.M.M.Y.Y.Y.^.Y.Y.M.f.f.j.M.Y.M.m.f.*.*.*.+...o.+.| { { Z P { { { { | | | { Y P P L Y L P  .| U | +.P U U U *.f.j...M.f...f.a.k.M.M.W.^.M.M.Y./.5X<X(.k.k.Y.W.M.W.W.j.j.f.k.(.wX<X<X<X/.^.^.(.^.^.W.Y.M.M.M.M.M.j.j.j.M.^.M.j.M.W.^.M.M.^.^.^.^.^.^.^.^.M.M.A.k.W.M.M...j.Y.,Xf.m.R.C.m.{ x , &.} z +.6 h l 6 z _ h > B l > 6 ;.7 + ( 2 ( - $ - $ $ $ $ $ $ $ $ $ 1 2 = > $ $ $ $ $ $ $ $ + + $ # $ $ @ # # # # # # # # # # # # # # # # # # # # # # # # # # # # # $ $ $ $ $ $ $ $ $ $ $ $ $ $ $ $ & & & & & & & & & & & & & & & & % % % % % % % & & & % % % % % % % % % % % % % % % % % % % % % % = = = % = = = = % % % r ",
"3 3 3 3 8 8 5 5 5 8 5 3 3 3 3 3 3 3 3 3 5 5 8 8 8 8 8 8 5 8 3 3 3 3 3 3 3 3 3 3 3 3 4 4 4 4 4 4 2 2 2 2 2 2 2 2 4 3 3 3 4 4 4 2 1 1 1 1 1 1 1 1 1 1 1 2 3 9 ^ [ ] [ ] ] ] ] ] ] ] ] ] ] ] ] [ [ [ [ ) ) [ [ ) ) ] ] ] ] ] ] ] ] [ [ [ [ ] ] ] [ [ ) ] ] ] ] [ [ ] ] ] ] ' O.] ` ) ] O.] ] ] ] ] ] ] ` ` ` ` ` ` ` ` ` ` ) ) $.;.X.o.o.o.o.( Z ( +.{ | *.*.=.+.| { ..^.f.*.f.M.^.M.^.W.^.<X/.W.k.(.W.Y.(.(.W.(.W.k.W.W.(./. X/././.wXxX/./.xXxXwX#XwX#XtXwX XwXeX(.(./.#XwX#X/.(././.#XtX/./././.A.A.W.(.wXwXW.k.j.p.#.f.^.^.(./.^./.<X5X^.M.j.M.Y.j.@.| | | | | | | P L A P +.*.+.o.| L P P L P { | | { Y L L Y P U P  .{ Y @.P U  .U m.@.f.f...f.f.j.a.k.M.M.Y.Y.(.<X/.<X(.(.(././.(.^.W.M.k.k.M.W.(./.^.^.^.(./.^.W.^.^.^.(.^.^.^.^.^.M.j.j.f.j.M.(.W.j.j.^.wX^.A.W./.^.^.^.^.(./.^.j.j.a.Y.^.^.f.f.M.^.^.*.*.j.+.| { x C.A h } > x 7 6 l ( 6 , h h > l } > l - > / = - $ $ $ $ $ $ $ $ $ $ > > > 2 $ $ $ $ $ $ $ $ $ $ $ $ $ # # # # $ $ $ $ $ $ $ $ $ $ $ $ $ $ $ $ $ $ $ $ $ $ $ $ $ $ $ $ $ $ & & & & & & & & & & & & & & % % % % % % % % % % % % % % % % % % % % % % % % % % % % % % % % = = = = = = = = r 1 r r = = = = 1 1 1 1 1 1 1 1 1 1 ",
"3 3 3 3 8 8 5 5 8 8 5 3 3 3 3 3 3 3 3 3 3 3 5 5 8 8 8 5 3 3 3 3 3 3 3 3 3 3 3 4 4 4 4 4 1 1 1 1 1 1 1 2 2 1 2 2 4 4 4 4 4 4 4 4 4 2 2 1 1 1 1 1 1 1 1 2 3 9 ~ [ [ [ ] ] ] ] ] ] ] ] ] ] ] ] ) ) [ [ [ ) [ [ ) [ ] ] ] ] ] ] ] ] [ [ [ [ ] ] ] [ ) ) ] ] ] [ [ [ ] ] ] ] ' ] ] ] ] ] O.] ` ] ] ] ` ` ' ` ` ` ` ` ` ] X.` %.;.%._ o.o.} ( | A C ( +.$.*.*.=.+.| | | Y...*.j.Y.^.^.^.^.M.W.<XW.W.(.W.W.).W.W.W.k.P.W./.W.(.W.(././.tXwX(.wXnX#X/.wXwXwXtXwX XwXsX X#X#XwXwX/./././.wXwXwX/.(.(.(.W.k.A.(.wX/.M.h.f.p.k.^.^.(.^.^.<X<X^.M.f.f.M.M.f.@.f.j.m.f.*.*.@...@.*.*.=.| { P k C Z { U L S S Z P { { P Y Y L P U L ..| L @.L L  .U Y...^.M. .@.M.f.f.f.j.Y.^.(.<XwX<X(./.<X<XwX<X/.(./.<X/.(.(.(.^.W.M.M.k.j.j.M.W.M.M.W.^.^.^.^.W.W.^.Y.M.M.M.M.Y.^.M.M.M.M.W.W.A.M.W.^.^./.W.W.^./.^.j.@.j.j.Y.M... .f.^.R...E.B.| { *.o.{ z &.x h , , h ( h h > l 6 z _ l = + 6 ) - - $ $ $ $ $ $ $ & & = = 2 > - - - & & & & & & & $ $ $ # $ $ $ $ $ $ $ $ $ $ $ $ $ $ $ $ $ $ $ $ $ $ $ $ $ $ $ $ $ & & & & & & & & & & % % % % % % & & % % % % % % % % % = % % % % % % r r r = = = % % = = = = = = = = = = = = = = = = r 1 1 1 1 1 1 1 1 1 1 1 1 1 1 1 2 2 ",
"3 3 3 3 5 8 8 8 8 8 3 3 3 3 3 3 3 3 3 3 3 3 5 5 5 5 5 5 3 3 3 3 3 3 3 3 4 4 2 4 2 2 4 2 1 1 1 1 1 1 1 1 2 2 2 2 2 2 2 4 3 4 4 4 4 4 2 1 1 1 1 1 1 1 1 2 3 9 ~ [ [ [ ] ] ] ] ] ] ] ] ] ] ] ] ] ) [ [ ] ] ] [ [ [ ] ] ] [ [ [ ] ] ] [ [ [ ] ] ] ] [ [ ] ] ] ] ] ] ] ] [ ' ] ' ' ] ] -.] [ ` ` ` ) ) ` ` ` ` ` ` ` _ ' O.>.;.;.X.} } } } / ( A { | { *.*.+.| @.| f.*.| *.*.Y.^.Y.j.Y.W.^.(.W.W.(./.^.W.P.(.c.W.W.(./.(.W././.(. XtX/././.#XwX#X/./.wXtXtXtXtX#X(.(.(.#X#X(./././.(./.wX#XwX/.(.^.(.W.(.(.(.h.l.h.W.(././.^.^././.Y.f.j.M.M.^.j.f.M.M.j.f.f.| | | | | +.+. . ...*.*. . .P L S C S P S L U | P U U P  .| P P .... .| L ..U M.m.^.j.#.f.a.a.f.M.(.<X^.(././.5X<X/.W.k.W.W.Y.Y.W.W.A.A.W.M.M.Y.W.W.Y.W.W.k.j.W.M.M.W.^.^.^.^.^.Y.M.k.M.M.j.f.j.<XM.M.M.k.M.M.W.W.M.M.j.Y.M.M.Y.<X5X^.f.f.j.M.j.j. .| M.^.m.*.R.| | m.+.x x +.x ( x h , z A , 6 6 l ` ` > = - B ) = 2 = > > > > > = = - = 4 4 2 > = - - - - = = = & & & & & & & & & & & & & & & & & & & % % % % % % % & & % % % & & & & % % % % % % & % % % % % % % % % % % % % % % % % = = = = % = = = % % % = = = % % = = % % % = = = = = = = = = % % r r r r 1 1 1 1 1 1 1 1 1 1 1 1 1 1 ",
"8 8 8 8 5 8 8 5 8 8 3 3 3 3 3 4 3 3 3 3 3 3 3 3 5 5 5 3 3 3 3 3 3 4 4 4 4 4 4 4 1 1 2 2 1 1 1 1 1 1 1 1 2 2 2 2 2 2 2 2 4 4 4 4 4 4 2 2 2 1 1 1 1 1 1 2 3 9 ~ [ [ [ ] ] ] ] ] ] ] ] ] ] ] ] [ ) [ [ ] ] ] ] [ [ ] ] ] [ [ [ ] ] ] [ [ [ ] ] ] ] [ [ ] ] ] ] [ ] ] ] ] ] ] ' ] ] ] -.[ ` ` ` ` ` ` ) ` ] ] ] $.>.%.X.` ;.&.;.>.n.o.( B A | x +.| *.*.*.+.*.=.| m.Y *.Y.^.^.f.f.^.W.(./.W.W.W.^.(./.k.W.).W.W.W.W.W.(. XW.W.wXtX(.#XMXtX#XwXwXwXwXwXtXwX/.W./.wXwXwX#X(.P.(.(.#XtXtX/.wX(.(./.(.W.^.(.W.l.p.k.W.<X<X/.W.j.W.W.j.j.^.5X5X<X^.^.M.f.........+...*.*.| | | | | | { { { +...P k C C k C M S L U U U P | | { U ..*. . ...@. .j.<X^.@.@.M.M.W./.W.Y.^.^.^.^.M.f.k.k.k.k.M.Y.W.^.W.W.k.k.k.k.M.Y.Y.W.k.f.j.M.W.^.W.M.M.W.^.^.^.^.Y.M.j.j.j.Y.W.j.M.^.M.M.M.M.M.Y.W.(.M.W.j.W.^.^.M.j.j.M.k.j.f.p.f.#.f.j.j.<XY.*.Y.f.| j.{ x u Z h A x ( h 6 / 6 , 6 z ` l - - > X.z & > > > > > > > > > > = 8 5 2 > = - = = > > = = = - % = = = = = = = % = % % = = = = = = = = = = = = = = = = = = = = = % = = = = = = = = = r r r = r 1 1 1 1 1 1 1 1 1 1 1 1 1 1 1 1 1 1 1 1 1 1 1 1 1 1 1 1 1 1 1 1 r r r r = = r r 1 1 1 1 1 1 1 1 1 1 1 1 1 1 1 1 1 1 ",
"9 9 9 9 9 9 9 9 9 9 9 8 5 3 3 4 3 3 3 3 3 3 3 3 5 5 5 3 3 3 3 3 3 3 4 4 4 2 2 4 1 1 2 2 1 1 1 1 1 1 1 1 2 2 2 2 2 2 2 2 4 4 4 4 4 4 4 4 2 1 1 1 1 1 1 2 3 9 ~ [ ] ] ] ] ] ] ] ] [ ] ] ] ] ] ] ] [ ] ] ] [ [ [ [ ] ] ] ] [ [ [ ] ] ] [ [ ] ] ] ] [ [ [ ] [ [ [ [ ] ] ] ] ] [ ) ] ] ] ) ` ` ` ` ` ) ) ' %.$.O.` ) ) _ ;.%.X._ } } :.*.| C *.{ Z o.m.*.P f.| =.m. .M.j.Y.^.j.f.M.^.(.W.W.(.).W.W.W.k.W./.(.k.P.(./.W.z.l.W.wX XwXtXmXwX(.wX/./././.wX(.W.(.wX(.W.~.).k.k././.wXtX/././.P.W.^.(.^.Y.W.(.^.k.(././.^.W.Y.Y.W.).^.5X<XwXrX/.m.f... . .........f.*.@... . . .| | | |  .U ..*.@.*.*. .P L S M C | U P U U  .+. .@.f. ...@.U @.^.Y.M.@.j.j.j.j.Y./.(.W.j.j.j.M.(././.<XwXwXwX5X<X<X/././.(.W.W.M.M.W.W.M.M.j.j.j.^.W.M.k.M.Y.Y.^.^.W.M.j.j.j.M.M.M.^.M.(.Y.M.M.M.M.W./.M.M.j.M.^.<X^.j.k.^.M.j.k.M.j.f.@.Y j.^.5XM.m.M.m.| *.| x +.x C x x A A ( h , 6 / X.l 6 = 6 ;.2 6 > > > > > > > > > 2 = 5 5 2 > = = = > > 1 = 1 = = > > 1 1 1 1 1 1 1 1 1 1 1 1 1 1 1 1 1 1 1 1 1 1 1 1 1 1 1 1 1 1 1 1 1 1 1 1 1 1 1 1 1 1 1 1 1 1 1 1 1 1 1 1 1 1 1 1 1 1 1 1 1 1 1 1 1 1 1 1 1 1 1 1 1 1 1 1 1 1 1 1 1 1 1 1 1 1 1 1 1 1 1 1 1 2 2 2 2 2 2 2 2 2 2 ",
"9 9 9 9 9 9 9 9 9 9 9 8 5 3 3 3 3 3 3 3 3 3 3 3 8 5 5 3 3 3 3 3 4 4 2 2 2 2 2 2 1 1 2 2 1 1 1 1 1 1 1 1 2 2 2 2 2 2 2 2 4 4 4 4 4 4 4 4 2 1 1 1 1 1 1 2 3 9 z ^ ) ] ] ] ] ] ] ] [ ] ] ] ] ] ] ] ] ] ] ] [ [ [ [ ] ] ] ] [ [ [ [ ] ] [ [ [ [ ] [ [ [ ] ] [ [ [ [ ] ] ] ] ] [ ) O.] ` ) ` ` ` ` ` _ ] ' _ ` ` ` ) _ O.O.} _ _ } ( ( ( o.*.m.A { | | Z f.| *.R.j.M.Y.Y.^.M.j.j.W.(.W.^.^.W.(.W.W.W.W./.W.Y.W.W.W.W.W.k.W.tXwXtXsXxX/.(./././.#XwXwX/.(.(.(.(./.(.W.W.(./. XwXwX#X/.(.(.(.).(.W.Y.W.k.W./.wXwX<X/.(.Y.k.k.W./.tXwXwX^.m...P U ..@.@.f.f.f.f.....@.*.@.@.@.@.U P S C N P | | P { *.j.| U P L U P L | U  ...@.@.m. .@.*.f.M.M.j.j...f...#.j.W.k.a.f.M.W.^././.(.(.W.Y.M.Y.Y.W.h.k.M.W.(.(.(.(.^.M.j.M.W.^.W.j.a.j.M.W.Y.M.k.M.f.M.M.j.j.j.j.M.M.W.^.M.W.Y.M.j.f.W.W.M.j.j.j.j.^.(.^.Y.a.j.M.^.W.M.j.f.U N j.M.Y.^.*.*.f.h *.P x Z A x x a 6 B X.h > l B ` 7 - > 2 $.6 > > > > > > > > 2 = = 2 6 5 2 > = > > > = = 1 1 = > > 1 1 1 1 1 1 1 1 1 1 1 1 1 1 1 1 1 1 1 1 1 1 1 1 1 1 1 1 1 1 1 1 1 1 1 1 1 2 2 2 2 2 2 2 2 2 2 2 2 2 2 2 2 2 2 4 2 2 2 2 2 2 2 2 2 4 4 4 4 2 2 2 2 2 2 2 2 2 2 2 2 2 2 2 2 2 2 2 2 2 1 1 1 2 2 2 2 2 2 2 2 4 2 ",
"9 9 9 9 9 9 9 9 9 9 9 5 5 3 3 3 3 3 3 3 3 3 3 3 3 3 8 3 3 3 3 4 4 4 2 2 1 1 1 1 2 2 2 2 2 2 2 2 2 2 2 2 2 2 2 2 2 2 2 2 4 4 4 4 4 4 4 2 2 1 1 1 1 1 1 4 3 9 q ^ ) ] ] ] ] ] ] ] [ [ ] ] ] ] [ ] [ [ [ [ ] ] ] ] [ [ [ [ ] ] [ ] ` ) ) ) [ [ [ [ [ [ [ [ ) ) ) ) [ ) ] ] ` ` [ -.] ) ` ` ` ` ] ] ' ' _ ) / ) ` X.O.o.} ` ( } ( ( Z Z { | m.*.+.{ | | | *.<Xm.M.Y.M.j.j.j.f.Y.(.W.k.(.(.k.^.W.W.k.(.j.W.W.k.l.k.k.k.wXwXtXtXxXxXwX#X/./.wX X/.#X X(.~.(././.W.W.wXwXwX#XtXwX(.W.(.(.W.W.k.E a.k.k.wXtXwX/././.W.k.Y.W./.wXMXwX(.k...@.@.f.*.@.....*.+...@.*.*.*... .@.f.j.f.*.*.@...@.@.@.| L Y L | ..@...U @.U  ... ...f...A.p.j.M.M.j.f.j. .....a.j.f.j.W.W.^.^.^.M.M.k.k.k.M.M.k.k.M.Y.(.(.W.W.k.j.j.k.M.M.M.M.M.M.M.W.W.k.f.f.j.M.M.M.Y.M.M.M.M.j.j.j.j.k.k.W.M.Y.Y.W.A.k.j.k.Y.M.j.j.M.^.^.W.M.f.j.^.Y.^.f.f.f.f.U @.Y *.<Xm.| { h | L h P | x h x x h A A h z 7 / l - - 6 %.- > - - - = = - - - = > 4 w 4 > = > > = = = = = = % = = 1 1 = = r r r r r r r r 1 1 1 1 1 1 1 1 1 1 1 1 1 1 1 1 1 1 1 1 1 1 1 1 1 1 1 1 1 1 1 1 2 2 2 2 1 1 2 1 2 2 4 2 2 2 2 2 2 2 4 4 4 4 4 4 2 2 2 2 2 2 2 2 2 2 2 2 2 2 2 2 2 2 2 2 2 2 2 2 4 4 2 2 2 2 2 2 4 4 ",
"9 9 9 9 9 9 9 9 9 9 9 9 5 5 3 3 9 9 8 9 8 8 8 8 8 8 3 3 3 3 3 3 3 4 4 4 2 2 2 4 4 4 4 4 4 4 4 4 2 2 2 2 2 2 2 2 2 2 2 2 4 4 4 4 4 4 4 2 2 1 1 1 1 1 1 1 3 8 w ^ ^ ] ] ] ] ] ] ] [ [ ] ] [ ] [ [ [ [ [ [ ] ] ] ] [ [ [ [ ] [ [ ] ` ` ) ) [ [ [ [ ` [ [ [ ) ) ` ) [ [ ] ] ] ] ] O.] ) ` ` ` ` ] ] ' ` ) ) ) ` ` X.O._ ( _ } ` } ( A Z ( { *.m.| Z =.+.*.E.m.m.M.f.a.j.m.f.Y.^.W.Y.W.W.Y.W.W.Y.k.k.W.^.k.j.k.^.l.W.tXtXtXwXtXtXtXwX/.wX/.(.(.(./.W.(./.W./.wXwXwXwX/.wXtX/.(.(././.W.k.k.d.l././.wXwX(.(.(.W.M.k.Y.^.<XwXwX(.W.k.k.f.f.@.....f.m.M.m.j.f.j.j.*.@.+. .......*.*.*.@.@.*.*.*.m.m.*.f. . .|  .f.f.f. .f.@...f.f.W.f.j.M.f...a.f.@.j.f.f.j.^.M.Y.W.^./././.(.(.^.W.W.W.W.(.^.k.M.M.k.j.j.j.j.j.j.j.f.f.f.j.j.j.M.M.M.j.j.k.j.f.f.M.W.Y.^.M.j.j.#.j.M.M.M.k.W.Y.M.M.M.M.k.j.j.f.j.j.k.M.j.j.j.f.Y.M./.M.#.*.U M f.L | 5XY.L x C { { x x | A 6 B h ; h } 6 l 7 ` B l l _ o.l 6 6 7 7 7 7 0 7 6 > > 5 0 = $ & = = = = = = % & % & % % % % % % % % % % % % % % = = = = = % = = = = = = r r r r 1 1 1 1 1 1 1 1 1 1 1 1 1 1 1 1 1 1 2 2 1 1 2 2 4 2 1 1 1 1 2 2 2 2 2 2 2 2 1 1 1 1 1 1 1 1 2 2 2 2 2 2 2 2 2 2 2 2 2 2 2 2 4 4 2 2 2 2 2 2 4 4 ",
"0 0 9 0 w w w 0 0 9 9 9 9 9 9 9 9 9 9 9 9 9 9 9 9 8 5 8 8 3 3 3 3 3 3 3 3 4 3 3 3 4 4 4 4 4 4 4 2 2 2 2 2 2 2 2 4 4 4 4 4 4 4 4 4 4 4 2 2 1 1 1 1 1 1 1 2 3 9 z ^ ] ] ] ] ] ] ] [ ] ] ] [ [ [ [ ] ] [ [ [ ] ] ] ] ) ) ) ] ] [ ] [ ) ) ) ) [ ` ` ` ` [ [ [ [ ` ` ` ) ] ] ` ] -.] ) ` ` ` ` ] ] ] ` ) ) ) ) ` _ ' X.` ( } } ` o.( { { | | *.| m.m.M.m.m.m.@.j.M.@.j.f.j.Y.(.^.M.Y.^.Y.Y.^.Y.k.k.j.k.k.W.l.k.W./.wXwXwX/.wXtXwX/././.#X/.(.wX(./.(.W.W.tXwX XwXwX/.wX#XW.(././.(.W.Y.k.k.W.(./.tXwX/./.<XW.^.W.W./.MXwX^.W.j.j.k.M.Y.Y.^.^.,X^.M.M.M.M.Y.Y.M.M.m.m.j.*.....Y U Y Y P P Y Y | @. . .*.@.@.f. .j.....f.f.f.f.^.j.M.j.j... .a.M.....a.a.j.p.f.p.f.M.Y.^.^.(./.<X/./.(.W.(.(.M.M.k.k.k.k.M.M.k.j.f.a.p.a.a.f.j.j.j.k.k.k.j.j.k.f.f.j.^.j.Y.^.M.j.f.f.M.h.M.k.Y.k.M.W.W.^.Y.M.M.f.M.j.#.k.^.W.k.j.W.^.^.j.j.j.#.Y  .M  .R.^.*.Z +.x | x A h x , C h , ( o./ B z / 7 - + ( l + - - - - - - = 6 7 0 w V 0 2 & & & & & & & & & & & & & & & & & & & & & % % & & % % % % % % % % % % % % % % % % = = = = = = = = = = = 1 1 1 1 1 1 1 1 1 1 1 1 2 4 2 2 1 1 1 1 1 1 1 1 1 1 1 1 1 1 1 1 1 1 1 1 1 1 1 1 1 1 1 2 2 2 2 2 2 2 2 2 2 1 1 2 2 2 2 4 4 ",
"0 0 0 0 w w w w 0 9 9 9 9 9 9 9 9 9 9 9 9 9 9 9 9 9 9 9 9 8 8 8 3 3 3 3 3 3 3 3 3 3 3 4 3 4 4 4 2 2 2 2 2 2 2 2 4 4 4 4 4 4 4 4 4 4 4 2 2 1 1 1 1 1 1 1 1 3 9 q ^ [ ] ] ] ] ] ] ] ] ] ] [ [ [ [ ] ] ) ) ) ] ] ] [ ) ) ) ] ] [ [ [ ) ) ) ) ) ` ` ` ` [ [ [ ) ) ) ` ` ] ) ` ] -.] ) ` ` ` ] ] ] ` ` ` ) ) ` ` ' ' _ ( _ X.&.&.%.%.o.$.&.*.m.C.C.B.*.*. .@.j.@.j.j.j.M.^.^.^.M.Y.^.W.W.W.W.Y.k.j.k.a.k.l.(.(.(./.#XwX(.tXtXtX/.W././.(.(.#X/.(.(.k./.tXtXwXwXwXwX/.W.W././././.(.W.W.k.W./.wXtXwX/.wX/.W.W.(.<XwXwX(.(.W.Y.W.Y.k.k.M.M.M.M.f.j.m.M.M.M.f.| L P | +. ...f.f.*.@.| ..*.*.*.*.| U  .| @.#...U U f.j.M. .j.M.j.^.M.f.M.M.U  .^.f...@...f.U p.k.Y.^.<XwX/.(.W.Y.W.W.^.W.W.W.^.^.W.W.A.M.M.j.j.M.k.k.k.k.a.f.f.j...a.f.j.j.f.a.f.j.j.j.f.M.M.M.M.M.M.k.j.j.h.M.M.M.M.M.M.Y.M.M.j.a.j.j.j.f.j.M.Y.j.j.j.M.j.@.M.Y.C.Y.@.k  .Y.^.P +...a | Z x x Z Z { o.| } } / 7 B 7 l 6 > %.l + - - - - - $ - = = - 4 ) ^ 6 & # & & & & % & & & & $ $ $ $ $ & & & & & & & & & & & & & & & & & & & & % % & & % % % % % % % % % % % = = = % 1 2 4 3 3 3 3 3 4 4 2 2 1 1 1 1 1 = = = = 1 1 1 1 1 1 1 1 1 1 1 1 1 1 1 1 1 1 1 1 1 1 2 2 2 2 2 2 1 1 2 2 2 2 4 4 ",
"0 w w w w w w 0 w 0 9 9 9 9 9 9 9 9 9 9 0 0 0 0 9 9 9 9 9 9 9 9 9 9 8 5 3 3 3 3 3 3 3 3 4 4 4 4 4 4 4 4 2 2 4 4 4 4 3 3 4 4 4 4 4 4 2 2 2 2 2 1 1 1 1 1 1 4 9 q ^ ) ] ] ] ] ] ] ] ] ] ] ] ] ] ] ] ] ] ] [ [ [ ) [ [ [ [ [ [ ) [ ) [ [ [ ) ) ) ) ) ) ) ) ) ) ) ) ` ` ` ` ] O.O.` ) ) ` ] ] ] ` ` ) ) ` ` ` X.$._ ( ( _ } ( } | ( | | { | +.R.*. .f.|  .j...f.j.j./.^.^.W.M.W.^.W.k.M.Y.j.j.j.p...Y.(.(.k.W.wXtXwXwXwXtX/./.W.W.P.W.(.tX#X/.(. X/.wX XwXwX/. X X/./.#XwX/.(.k.M.h.l.W.wXwXwX/./.#XwX(.M.k./.rXwX/.wX(.M.k.f.f.k.M.M.j.j.M.m.m.j...| L M U  .| U | | | | | | ..{ P | C P U ..f.@.@.f...f.j...U  .f.f.M./.j.W.M.M.f.a...f.j...j.a.j.M.M.^.M.M.W.^././.(.W.W./.^.W.W.^.(.(.(.(.(.^.M.k.j.j.k.k.k.k.j.f.p.p.f.j.f.f.a.f.j.f.f.f.f.f.j.p.p.M.W.Y.j.M.M.Y.p...f.M.k.j.j.k.k.k.k.j.j.a.M.M.a.f.j.j.a.#.a.k.f.j.j.f.j.Y.f.*...^.,Xj.M.R.| &.*.| Z x x ; x / } ( B 7 B l B - ; %.6 + + = + - & & & - - = = z z 0 4 = = # & & & & & & $ $ $ $ $ & & & & & & & & & & & & & & & & & % & & & & & & % % % % % % % % % % = = = = & 2 0 q q ^ ^ ^ ^ q 9 5 3 2 1 % r = r % r r 1 1 1 1 1 1 1 1 1 1 1 1 1 1 1 1 1 1 1 1 1 1 1 1 1 1 1 1 1 1 1 1 1 1 2 2 ",
"w w w w w w w w w w w 9 9 9 9 9 9 9 0 0 0 0 0 0 9 9 9 9 9 9 9 9 9 9 9 8 8 5 5 3 3 3 3 3 3 3 3 3 4 4 4 4 2 2 4 4 4 4 3 3 4 4 4 4 4 4 2 2 2 2 2 1 1 1 1 1 1 4 9 w ^ ) ] ] ] ] ] ] ] ] ] ] ] ] ] ] ] ] ] [ [ [ [ ) [ [ [ [ ) [ ) ` ) ) [ [ ) ) ) ) ) ) [ [ ) ) ) ) ` ` ` ` ] -.` ` ` ` ] ] _ ` ` ) ) ) ) ) _ %._ ` ) ( ( ( } } ( | | { o.{ *.C.+.*...*.f.*.a.f.M.^.^.Y.Y.f.W.W.j.Y.W.W.k.j.a.p.f.M.(.W.l.W.tXtXwX<XwXtX/.#XW.W.W.W.wXwXk.(.(. X/.wX/.wXwX/.<X/.W.W.(./.(.W.l.a.l.a.W.wXtX/./.wXwXwX(.l.W.wXrXwXrX/.M.a...f.Y.M.M.M.M.f.@...j...U P U U | +...*.@.| P L S M M U U U U | L | L Y f.j.@.j.j.j.p.#.f.f.M.p.M.f.^.M.M.j.p.M.M.<X..f.j.k.M.j.M.^.^.(.<XwX<X/.^.W.M.M.M.M.M.k.j.j.a.a.h.M.W.W.W.k.p.f.j.f.p.#.#.p.a.a.f.a...p.f.f.f.f.f.j.j.f...j.M.k.j.M.^.M.f.p.f.M.M.k.k.k.k.k.j.M.j.j.M.k.Y.M.M.W.^.M.M.Y.f.*.f.f.m.M.j.M.R.^.R.*...C.B.B.{ x h x , x ; - / o.B 6 / l l h > $.- - - $ $ & & & & - - = 5 0 1 z 5 > $ $ $ & & & & & & & & & & & & & % % % % % % % % % % & % % % % & & % & & % % % % % % % % % % = = % = > q ) ] %.2.-.2.%.] [ V w 3 2 1 r = = % r r 1 1 1 1 1 1 1 1 1 1 1 1 1 1 1 1 1 1 1 1 1 1 1 1 1 1 1 1 1 1 1 1 1 1 2 2 ",
"w q w w q q q w w w w w 0 9 9 9 0 0 0 0 9 9 9 9 9 9 9 9 9 9 9 9 9 9 8 8 8 3 3 3 3 3 3 3 3 3 3 3 3 4 4 3 4 4 4 4 3 3 3 3 3 3 4 4 4 4 2 4 2 2 2 1 1 1 1 1 1 4 8 w ^ [ ] ] ] ] ] ] ] ] ] ] ] ] ] ] ] ] ] ] ] [ [ ) [ [ ) ) ` ` ` ` ) ) [ [ [ ) [ [ ) [ [ [ ) ) ) ) ` ` ] ] ] ] [ ` ] ] ] ] _ ` ) ) ) ) ) ) X.X./ ) ( ` } } o.( | | | o.{ =.*.m.f.+.| M.*.j.j.f.j.Y.j.Y.j.W.W.j.M.k.M.l.a.a.a.k.Y.M.j.a.(.wX/.(./.wXtX/.#X/.(././././.W.(././.(.wXwX/./.(./.(.k.W.wX/.(.z.k.p.p.h./.wXwXwX#XwXwXwX(.W./.tXMXrXwXk.#.f.j.M.Y.M.k.j.f...........Y L P *.+...j.f.| M M P P P P U M ..|  .*. ...U Y U j...j.j.M.j.p.j.f.M.f.^.f.<X<XM.j.j.^.j.M.W.f.p.j.j.j.f.M.j.f.j.j.M.k.j.f.j.k.k.k.j.j.k.M.k.j.j.k.j.j.k.(.(.M.k.j.f.f.f.a.p.#.p.p.#...p.f.j.j.f.a.j.j.p.f.f.Y.M.k.Y.W.M.f.p.j.Y.M.k.k.k.k.M.M.M.f.f.f.M.j. .j.Y.^.j.j.Y.j.j.@.U .. .j.j.^.f.M.<Xj.f.B.R.R.m.C.m.*.( ( l A B B B o.6 l 6 B _ O - - & & & & & & & & & 0 3 - 4 w $ # & & & & & & & & & & & & & & & % % % % % % % & & % % % % % % % % & % % % % % % % % % % % = = % % 4 [ O.2.=X:X>X>XT.V.2.] ^ 9 2 = = = = = r = 1 1 r r 1 1 1 1 1 1 1 1 1 1 1 1 1 1 1 1 1 1 1 1 1 1 1 1 1 1 1 1 1 1 1 1 ",
"q q q q q q q q w w w w 0 9 9 9 9 0 9 9 9 9 9 9 9 9 9 9 9 9 9 9 9 9 8 8 8 3 3 5 3 3 3 3 3 3 3 3 3 3 3 3 4 4 3 4 3 3 3 3 3 3 4 4 4 2 4 2 1 1 1 1 1 1 1 1 1 4 3 w V ^ ] ] ] ] ] ] ] ] ] ] ] ] ] ] ] ] ] ] ] ] ] ) [ ) ) ) ` ` ` ` ) ) ) ) [ [ [ [ ) [ [ [ ) ) ) ) ` ] ] ] ] ` ] [ ` ] ] ] ` ) ) ) ) ) ) ` %.) / ) ( _ } } X.o.| } *.Z | m.+.R.....*.@.M.j.^.j.j.M.W.M.W.M.f.M.M.M.f.#.#.f.^.Y.k.k.W.<X/.^.Y.(./.wX/.#X/./.k.P.(./.#X#X#X(./././.wX/././.W.k.W.(.W.W.l.E W k.wX<X/./.wXwXwX/.(.(./.wXxXwX/./.j.l.k.f.W.^.M.#.#... ...@...L M U ....@.m.m...| ......*.@. ...|  .U f.f.f.M.@.f.j.L M.f...M.M.^...j.j.M.M.^.<X/.j.p.j.f.j.f...j.j.M.a.j.M.p.....p.k.^././.<X<X/./.<XwX(.(.(.^.W.(.(.W.M.M.k.f.M./.^.f.#.f.f.p.p.p.#...#.p.p.....f.f.j.p.f.j...a.j.Y.M.f.k.W.W.j.a.j.^.k.k.k.k.Y.j.M.k.f.j.M.a.....a.j.Y.M.j.M.j.j.@.j...M L f.^.@.+.f.{ P C.*.*.o.| x C ( $.o.N.o./ X.&._ B 6 } B + + & & & & & & & & $ > z & $ 2 ^ & & & & % & & & & & & & & & & & & % % % % % % & & % % % % % % % % & & % % % % % % % % % % = = % % 3 ] %.T.:X6X6X6X:X:X=X-.[ w 2 % % = = = r r 1 1 r r 1 1 1 1 1 1 1 1 1 1 1 1 1 1 1 1 1 1 1 1 1 1 1 1 1 1 1 1 1 1 1 1 ",
"q q q q q q q q q q w w 0 9 9 9 9 9 9 9 9 9 9 9 9 9 9 9 9 9 9 9 9 9 8 3 8 3 3 5 3 3 3 3 3 3 3 3 3 3 3 3 3 3 3 3 3 3 3 3 3 3 3 3 4 2 2 2 1 1 1 1 2 1 1 1 1 4 3 9 q ^ ] ] ] ] ] ] ] ] ] ] ] ] ] ] ] ] ] ] ] ] ] [ ` ` ) [ [ [ ) ` ) ) [ [ [ ) ) ) ) [ [ ) ) ) ) ) ) ) ] ] ] [ ] ` ` ] ` [ ) ) ) ) ` ) ` X.O./ / ( ( ( } } +.} { { { +.*.m.m.m... .U *.M.M.Y.a.j.M.M.M.j.f.j.k.j.a.E ..k.M.a.k./././././.W././././.wX).(.k.k.(.wXwXwX/.W./.wX/.(.(.^./.W.k.(.^.W.k.E a.k./.(.W./.#X/.tX/.P.(./.wXtXtXwX(.W.W.k.j.^.W.j.p.#.a. .W ..f.j.| ..f.f.m.Y.f...U U  . . . .@. ...*...*...| f...M.f.P M.M...^.f.#.M.<Xk.j.M./.W.W.wXM.W f.f.j.f.a.....a.f.W.k...p.j.M.W.W.W.^.(./.<X/./.(.(.(.(.W.W.A.M.M.W.Y.M.j.j.#.f.M.(.W.p.a.p.p.a.#...#.a.p...W a.f.f.j.p.a.f.p...k./.k.Y.k.k.k.k.k.k.M.W.Y.k.k.W.j.^.M.k.f.j.f.a.a.f.#.j.j.f.f.j.j.j.m.f.f.| P M.*.| f.k a C.,XB.m.| , ; ; , C &.n.( h / X.$.( &.6 - - - & & & & & & $ & 8 5 - & 4 ^ 1 & & & & & & & & & & & % % % % % % % % % % % % % % % % % % % % % % % % = = = = % % % = = = = = 3 ^ -.1.>X:X3X6X:X:X=X-.[ w 1 % = r = = = = r r 1 1 r r r r 1 1 1 1 1 1 1 1 1 1 1 1 1 1 1 1 1 1 1 1 1 1 1 1 1 1 1 1 ",
"q q q q ~ ~ z z V z q w w 0 9 9 9 9 9 9 9 9 9 9 9 9 9 9 9 9 9 9 9 9 8 3 8 3 3 5 3 3 3 3 3 3 3 3 3 3 3 3 3 3 3 3 3 3 3 3 3 3 3 3 3 3 4 4 2 2 2 2 2 1 1 1 1 2 3 9 q ^ [ ] ] ] ] ] ] ] ] ] ] ] ] ] ] ] ] ] ] ] ] ] ` ` ) ) [ [ ) ) ) ) [ [ ) ) ) ) ) [ [ [ ) ) ) ) ` ^ ` ] ] ` ` ] ] ` [ ) ) ) ) ) ` ) ` X._ / ( ( } o.} | +.} { | | | *.B.f.*.@.U ..*.Y.j.f.j.M.M.M.j.j.M.j.p.....f.M.p.k.^./.(./.5X(.W.^.(.wX<XW.(.k.a.W.wX#XwXtX(.k.W.(.W.(./.W.wXW.j.W.M.W.W.M./.(./.z.W.wX/.wXtXW.W./.wX/.tXtXwXwXW.a.h.W./.Y.p.f.a.p.W f.j.j.f.@.f.f...j.j. .U U U | | U { { | .... ...@.*. . .f...f.f...M.^.f.^.f.M./.^.a.W././.W.^.u.(.(.j.a.p...W j.j.M.f.f./.^.j.f.j.W.(.M.M.M.A.A.M.k.k.j.j.j.f.j.h.j.h.j.M.W.M.k.f.p...j.<Xk.j.a.p.a.p.p...a.j...j.f.p.f.k.a.p.j.p.W j.^.^.j.l.k.k.k.M.W.M.W.k.M.M.k.f.Y.M.j.f.j.f.a.p.a.f.j.M.j.#.@.f.M.M... .C.+.m.j.*.*.Z x | &.R.E.m.} 6 ; - h l l h z _ B ( _ >.6 - - & & & & & & & & 2 5 2 & = 4 ^ & % # & & & & & & & & % % % % % % % % % % % % % % % % % % % % % % % % = = % = % % = = = = = = 3 q ] -.1.T.=X=X=X=X1.-.[ w 2 % r r = = = = r = 1 1 1 1 r r 1 1 1 1 1 1 1 1 1 1 1 1 1 1 1 1 1 1 1 1 1 1 1 1 1 1 1 1 ",
"z z V V ^ ^ ^ ^ V V V q q w 9 9 9 9 9 9 9 9 9 9 9 9 9 9 9 9 9 9 9 9 9 5 8 3 5 5 3 3 3 3 3 3 3 3 3 3 3 3 4 4 3 3 3 3 3 3 3 3 3 3 3 3 3 3 3 3 3 3 4 4 4 2 2 4 3 9 q ^ [ ] ] ] ] ] ] ] ] ] ] ] ] ] ] ] ] ] [ [ [ [ ) ` [ ` [ [ [ [ ) ) ) [ ) ) ) ) ) ) ) ) ) ) ) ) ` ^ ` ] ] ` ] ] ` ) ) ) ) ) ) ) ` ) ` X./ / ( _ X.o.} | { { } | o.+.m.*.*.*.m.f.,Xj.M.j.f.M.j.j.M.Y.Y.M.k.j.M.^.f.j.Y.W.W.Y.M.<XW.(.(.W.(.<X/.Y.k.W.wX#X#XwX/.a.l.W.wXW.(.W.(.wXl.W.k.A.W././.W.W./.^.(.wX/./.#XW.).#X(.(.tXtXwX/.k.k.k.Y.M.p.a.f.j.j.a.f.j.j.f.f.j.j.M.m.*.| U U | | | | U { { P  ...| | |  ...U |  .....j...^.^.M.k.j.^.W.M.W././.f.^.^.^.j.j.......a.f.j.f.M.W.j.^.^.M.j.j.j.j.h.j.j.h.j.f.a.j.h.f.f.a.a.a.f.f.a.a.f.W.M.k.f.j.f.W.M.j.a.p.a.#. .T W ..p.p.j.j.j.M.a.p.j.#...a.Y.^.k.k.k.k.k.M.^.k.M.k.j.W.k.k.^.k.k.k.k.f.p.f.a.f.M.Y.f...@.f...j.@.f.@.j.M.{ *.m...Z A +.o.o.o.=.{ x x 6 z h , - ) 7 X.%.X.7 - & & & & & & & $ & 8 5 = & $ 3 q & = & & & & & & & & % % % % & & % % % % % % & & % % % % % % % % % % % % % % % % % % = = = = 4 3 V ) ) [ ] ] ] ] ] ^ z 3 1 1 r r r r = = = = 1 1 1 1 r r r 1 1 1 1 1 1 1 1 1 1 1 1 1 1 1 1 1 1 1 1 1 1 1 1 1 2 2 ",
"V z V V ^ ^ ^ ^ V V V V q q 0 9 9 9 9 9 9 9 9 9 9 9 9 9 9 9 9 9 9 9 9 5 8 3 5 5 3 3 3 3 3 3 3 3 3 3 3 3 4 4 3 3 3 3 3 3 3 3 3 3 3 3 3 3 3 3 3 3 3 4 4 2 2 2 3 9 w ^ ) ] ] ] ] ] ] ] ] ] ] ] ] ] ] ] ] ] [ [ [ [ [ [ [ ` [ [ [ [ ) ) [ [ ) ) ) ) ) ) ) ) ) ) ) ) ) ) ] ] ] ] ] ` ) ) ) ) ) ) ) ) ) ) ` _ ) ) ( } } ( { ( { } | | +.*.C.{ o.*.,XR.m.j.f.j.M.Y.f.a.M.f.a.#.f.j.j.j.k.k.^.^.M.W./.W.W.W.^./.<X(.W.Y.(.tXwXwXwXk.a.k././.W.W.W.(.(.W.<XW.k./.wXW.k.(.W.W./.wX/./.(.W.(./.W./.tXtXwX^.W.Y.k.M.Y.j.j.f. .W ..f.f.@.@.f.f...j.@.L L U  .| |  .|  . . . ...U P  .| L L  .M U P | .. .L f.W.j.W.M.M.(.j./.^.^.^.M.W.M.f...W p.j.M.a.f.j.f.p.j.j.M.^.k.j.a.M.k.j.f.k.k.h.j.f.f.p.p.p.p.p.p.p.a.f.f.p.f.k.M.f.p.p.k.j.j.a.......#... .p.....p.a.f.M.f.p.j.j.#.j.(.k.k.k.k.k.k.W.^.j.(.W.W.W.k.j.<XM.M.k.k.f.f.f.f.f.^.M.f...f.f.f.f. ...@.j.m.L P | =.| +.| | { Z C $.| Z x A , - - 7 - B ;._ 7 = & & & & & & & & 2 0 2 $ # $ ^ 4 & & & & & & & & & % % % % % & & % % % % % & & % % % & % % % % % % % % % % % % % % % % % % % 2 4 3 3 3 3 3 9 5 5 5 > & 1 1 1 r r r r = = = 1 1 1 1 r r r 1 1 1 1 1 1 1 1 1 1 1 1 1 1 1 1 1 1 1 1 1 1 1 1 1 2 2 ",
"V V V V V V V V V V ^ ^ q q 0 9 9 9 9 9 9 9 9 9 9 9 9 9 9 9 9 9 8 8 8 5 3 3 3 3 3 3 3 3 3 3 3 3 3 3 3 3 3 3 3 3 3 3 3 3 3 3 3 3 3 3 5 5 3 3 3 3 3 3 4 4 4 4 3 3 w ^ ) ] ] ] ] ] ] ] ] ] ] ] ] ] ] ] [ ] [ ] ] ] [ ] ] ` [ ) ) ) [ ) ) ) ) [ [ ) ) ) ) ) ) ) ) ) ) [ %.` ` ] ` ) ) ) ) ) ) ) ) ) ` ` ;.` ( } o.} { { ( ( { +.{ | *.m.{ o.*.,Xm.C.j.@.@.M.f.@.@.f.f.f.f.j.j.f.f.Y.^.j.M.k.^.(.(.W.M.W.^.^.wXW.W./././.wXwXW.l.Y./.(.(./.wX(./.(.(.W.W././.l.p.(.wX(./.wX/././.(.#X(.W./.tXtX<X^.Y.j.j.^.W.j.W ....U W #.m.f.f.@. .f.f.@.U U U U U L U  ...*.....*.........|  ... .| @.U  . .U W  .M.M.j.j.(.W.j./.^.M.^.j.W.j.p...j.M.M.j.f.j.f.....k.f.j.j./.^.j.W.k.f.j.f.a.a.j.j.a.f.j.a.a.p.p.p.p.p.p.a.f.f.j.M.f.a.j.j.M.j.a.#.p..... . . ...p.f.f.f.M.f.f.j.k.#.M.W.W.p.k.M.k.Y.W.k.h.W.(.W.W.h.M./.k.M.k.k.j.f.M.M.j.^.Y.M.@. .@.j.M.j.f.m.m.^.| C m.*.j.Z Z Z A x x +.( x z z z 7 7 z - z V.z z > 2 - & & & & & & 3 3 % # $ = V % & & & & & & & & & & & & & & & & % % % % % % % & & & % % % % % % % % % % % % % % % % % % % = r = r r r 1 1 1 1 1 1 1 1 1 1 1 1 r 1 1 1 1 1 1 1 1 1 1 1 1 1 1 1 1 1 1 1 1 1 1 1 1 1 1 1 1 1 1 1 2 1 1 1 1 2 2 ",
"V V V V V V V V V V ^ ^ q q w 9 9 9 9 9 9 9 9 9 9 9 9 9 9 9 9 9 8 8 8 5 3 3 3 3 3 3 3 3 3 3 3 3 3 3 3 3 3 3 3 3 3 3 3 3 3 3 3 3 3 3 8 8 5 3 3 3 3 3 3 4 4 4 3 3 9 ^ [ ] ] ] ] ] ] ] ] ] ] ] ] ] ] ] ] ] [ [ ] ] [ [ ] ) [ [ ) ) [ ) ) ) ) [ [ ) ) ) ) ) ) ) [ [ [ ] O.] ` ) ^ ) ) ) ) ) ) ) ) ) ) ` ;.` } o.( ( } ( ( { } { $.o.*.m.o.*.m.| | M.f.j.j.j.*.j.j.*.f.j.j.j.j.f.j.j.M.M.f.k./.^.W.^.(.^.^././.W.W././.wX#Xk.l.k.)./././.(.(.wX(./.W.(. XW.k.Y./.P.(.wX/.(.(.(.(./.P.d.(.wXwX/.W.k.k.W.W.^.p...j.#.T #.j.m...@...f.M.f...|  .U | | | | | | | *.@.@.*......... .U U ..| ..f.M.p.M.f. .....M.M.M.^.W././.W.k.M.j.f.f.p.M.k.j.p.f.j.f...f.j.a.#.j.M.k.^.a.k.p.j.W.M.k.k.k.h.j.j.j.a.p.p.p.p.#.a.f.f... .f.j.j.j.j.p.f.a.a.p.........W T  .p.f.f.p.k.a.p.j...l.k.(.(.k.h.(.W.k.(.M.M.k.W.W.M.k.W.^.M.M.M.M.M.Y.j.M.j./.j.f.f.f.f.j.#. .f.M.m.C.*.L f.@.m.A P Z x x h $.A l l 7 - > } 7 - l V.0 l $ & = $ & & & & 2 3 1 $ $ & 9 4 & & & & & & & & & & & & & & & & & & % % % % % & & & & & & & & & & & % % % % % % % % % % % = = = % % % % % % = 1 r = % % % = 1 1 1 1 1 1 1 r r 1 1 1 1 1 1 1 1 1 1 1 1 1 1 1 1 1 1 1 2 2 2 1 2 2 1 1 1 1 2 2 ",
"^ ^ V ^ ^ ^ ^ ^ ^ ^ ^ ^ ^ q q 9 9 9 9 9 9 9 9 9 9 9 9 9 9 9 9 9 8 8 8 5 3 3 3 3 3 3 3 3 3 3 3 3 3 3 3 3 3 3 3 3 3 3 3 3 3 3 5 5 8 8 8 8 8 3 3 3 3 3 3 3 3 3 3 3 9 ^ [ ] ] ] ] ] ] ] ] ] ] ] ] ] ] ] ] ] [ [ ] ] [ [ ] ] [ [ ) ) [ [ ) ) ) ) ) ) ) ) ) ) ) [ [ ) ` %.] ] ` ` ) ) ) ) ) ) ) ) ) ) ( _ ;.( o.( } ( { ( ( } | | =.| *.*.*.*.P ..m.f.j.M.M.f.j.M.M.j.j.f.@.j.f.@.f.j.Y.j.f.^.(.^.W.^.^././.W.(.(.(./.wX).k.k.k.W.(.(.W.W././././.W.W./.W.d.W.(.W./.#X(.(.(./.W.(.k.P.(.wX#XY.(.^.^.W.Y.p.#.W p.p. .f.M.@.f.M.m.M.j...| P L U  . . . .| | | | |  . . . .......f.j.*.| .. . ...M.M.M.M.f.j.a.j.W./.W.A./.^.k.W.f.k...j.k.f.a.a.j...p.j.f...#... .M.M.j.^.k.k.M.j.W ..M.k.k.j.j.j.j.a.p.#.#.#.#.p.p.p.p...a.j.j.f.f...f.a.p......... .T U W ..a.p.a.k.p.h.a.f.k.k.W./.W.W.(.W.W.^.W.W.M.W.W.W.k.k.k.p.a.M.k.j.Y.j.Y.^./.M.M.j.f.f.*. .U *.j.j.Y.m.Y... .+.+.| { h A 6 | / h A l 6 6 z = - ^ V.6 ^ 2 & - & & & & % 3 3 % & & # z % $ $ $ $ $ $ $ $ $ $ $ $ $ $ $ $ & & & & & & & & $ $ $ $ $ $ $ $ $ $ $ $ $ & & & & & % % = = = % % & % % % % % % % & & % % % = r = = = = = = = 1 1 1 1 1 1 1 1 1 1 2 2 2 2 4 4 4 4 4 4 4 4 4 4 2 2 2 2 2 4 ",
"^ ^ ^ ^ ^ ^ ^ ^ ^ ^ ^ ^ ^ V q 9 9 9 9 9 9 9 9 9 9 9 9 9 9 9 9 9 8 8 8 5 3 3 3 3 3 3 3 3 3 3 3 3 3 3 3 3 3 3 3 3 3 3 3 3 3 3 3 5 8 8 8 8 8 3 3 3 3 3 3 3 3 3 3 3 9 V ) ] ] ] ] ] ] ] ] ] ] ] ] ] ] ] ] ] [ ] ] ] ] [ [ [ [ ) ) ) ) [ ) ) ) ) ) ) ) ) ) ) ) [ [ ) ] -.` ] ` ] ` ) ^ ) ) ) ) ) ) ) ) _ ;.( _ ( ( o.( ( { | +.=.{ | j.*.=.| m.m.f.j.M.M.j.j.f.@.@.f.@.@.#.| f.f.j.Y.Y.Y.(.^.M.^././.(.^.Y.W.^.(././.W.k.k.W.)./.).W.W.W.(.(.(.(./.(.z.k.W.(.(./.wX/.W.).(.P.).P.W.(.wXwX(.W.Y.M.k.k.a.E a.f.a. .j.M.M.M.f.| *. .P L | .... ..... . .P U  ...| ....| ........+.+.@.f.@...f.f...f.j.j.j.j.M.k.M.^.A.(.(.(.W.f.k.M...A.j.a.f.M.p.p.j.j.p.P p.f.f...W M.W.<XM.f.j.k.j.f.j.M.M.j.j.h.j.a.p.....#.p.f.f.f.f.....a.f.f.f...a.p... .W .... .W I U ..f.f.f.M.j.k.k.j.j.W.k.(.Y.k.W.k.(.W.M.k.W.W.W.k.p.^.a.l.#.M.j.j.k.f.#.M.^.Y.M.M.j.C.f.M | U m.f.E.m.^.j.*.{ Z +.{ a h A h ( 6 ( 6 - - z > $ ) / 7 5 2 & - & & & $ 2 3 = & & & 4 2 # # # # # # # # # # # # # # # $ $ $ $ & & & $ $ $ # # # # # # # # # # # # # # $ $ $ & = r r = % % & & $ $ & & & & & & & & & & % % % % % = % % % % 1 1 1 1 1 1 1 1 2 2 4 4 3 3 3 3 4 4 4 4 4 4 2 2 4 4 4 4 ",
"^ ^ ^ ^ ^ ^ ^ ^ ^ ^ ^ ^ ^ ~ q w 9 9 9 9 9 9 9 9 9 9 9 9 8 5 5 5 5 5 5 3 3 3 3 3 3 3 3 3 3 3 3 3 4 4 3 3 3 3 3 3 3 3 3 3 3 3 5 5 8 8 9 9 8 5 5 3 3 3 3 3 3 3 3 3 9 z ) ] ] ] ] ] ] ] ] ] ] ] ] ] ] ] ] ] ] ] ] ] ] ] ] [ [ ) ) ) ) ) ) ) ) ) ) ) ) ) ) ) ) ) ) ) ] %.] [ ` ] ` ^ / ) ) ) ) / / / _ o.o.A / / / ( { { | | +.+.{ M.C.f.*.f.j.f.j.M.M.f.@.#. .a.f.@.f. .@.a.f.j.j.j.k.W.W.k.W.k.Y./.^.W./.tX(.M./.W.l.k.W.wXwX/.W.(.W.(./././.(.W.W.d.P././.(.(.(.(.(.P.(.(.P.W.).wXwXW.).a.Y.W.j.p.@.f.f.#.#.f.j.f.j.@...f.P Y Y U ........{ +.*.j.j.f.*.@.*.*.*.*...f.m.j.@... . .@...f.j.j.a.f.j.k.k.k.M.M.A.(.(.W.W.k.h.^.k.f.k.j.W.h...a.p.j...k.a.k.k...f.k.M./.W.wX(.A.k.h.a.k.h.h.k.a.a.............u.a.a.f.j.p...W p.f.a.p.f.f... .T W a.#.U U W ..p.j.j.f.j.p.l.h.a.l.k.k.(.k.h.W.^.W.W.k.W.k.k.W.j.j.W.k.f.f.a.#.k.f.p.f.<Xj. . .M.Y.M.M. .P | | f.f.P m.B...m.| m.A 6 h l 6 _ z 7 7 = = 0 - $ 1.^ 2 2 2 = & & & & r 4 1 & $ $ $ w $ # # # # # # # # # # # # # # $ $ $ $ $ $ $ $ $ # # # # # # @ @ o o o @ @ o o # # $ & % = = = % & $ # # # # # $ $ $ $ $ $ $ $ $ $ $ $ & % % % = r 1 1 1 1 1 1 1 1 2 2 4 4 3 3 3 4 2 2 2 2 2 2 2 2 2 2 4 2 ",
"^ ^ ^ ^ ^ ^ ^ ^ ^ ^ ^ ^ ^ ^ q w 9 9 9 9 9 9 9 9 9 9 9 9 9 8 8 8 8 8 8 5 5 3 3 3 3 3 3 3 3 3 3 3 3 3 3 3 3 3 3 3 3 3 3 3 5 3 8 8 8 8 8 9 5 5 5 3 3 3 3 3 3 3 3 3 9 z ^ ] ] ] ] ] ] ] ] ] ] ] ] ] ] ] ] ] ] ] ] ] ] ] ] ] [ ) ) ) ) ) ) ) ) ) ) ) ) ) ) ) ) ) ) ` ] ] ] ` ` ` ` ) ) ) ) ) ) ) ) ) o.;.o./ } / | ( Z | +.| *.f.C.M.C.*. . .m.j.m.M.f.@.@.@.a.f.#. .Y f.f.j.M.M.j.M.^.Y.M.^.M.M./.(.(./.(.k.k.<X/.W.j.k./.(.(.W.W.W.(./.wX(.(.W.k.W./.wX X/.(.(.(.(.W.W.W.k.k./.tX/.W.W.Y.j.j. .a.p.@...W ..f.j.#.a...j.f.U U  ...@...........*.j.m.....+..... . .....+...*.f.@.@...........f.f.f.f.a.k.h.W.M.(.W./.(.W.M.A.W.W.a.k./.^.k.f.p.a.f.a.M.h.k.p.p.M.W.k.A.(.k.(.W.M.k.M.j.a.f.k.f.f.h.f.f.f.a.p.u...p.a.a.f.p...W  .j.f.f.j.j.W a.T L f.f.a.a.a.p.a.a.p.a.j.f.k.a.a.l.k.W.k.k.W.W.W.W.W.W.Y.k.k.W.k.k.k.k.k.M.k.M.a.@.j.M.^.j.....@.@.f.j.m.*.*.{ +.m.+.f.=.B.m.&.B.{ , x z - } / = 6 - z 6 = > 1.^ & > = = & $ & = 1 1 % $ $ $ % 4 # # # # # # # # # # # # # # # $ $ $ $ $ $ $ $ # # # # # # @ o o o o o o o o @ # $ & % = = = % & $ # @ @ * * # # # # @ @ # # # # # # $ & % % % % r r 1 1 1 1 1 1 1 1 1 1 2 2 2 2 1 1 1 1 1 1 1 1 1 1 1 1 ",
"^ ^ ^ ^ ^ ^ ^ ^ ^ ^ ^ ^ ^ ^ ~ q w w 0 9 9 9 9 9 9 9 9 9 9 9 9 9 9 9 9 8 8 5 5 5 3 3 3 3 3 3 3 3 3 3 3 3 3 3 3 3 3 3 3 3 8 8 9 9 8 8 9 9 5 5 5 3 3 3 3 3 3 3 3 3 9 q ^ ] ] ] ] ] ] ] ] ] ] ] ] ] ] ] ] ] ] ] ] ] ] ] ] ] [ [ ) ) [ ) ) ) ) ) [ [ ) ) ) ) [ ) ) ] ] ] ` ` ` ) ) ` ) ) ) ) ) ) ) ( ` &.( A A o.| $.| =.*.*...*.M.f.m.j.j.M.j.j.j.f.@.@.@.@.f.#...@.f...f.j.Y.M.M.Y.W.j.M.^.^.(./.W.l.l.j.k.<X(.p.a.W./.Y.W.W.W.W.W.#XwXW.W.(.k.z./.wXtX/./.W.W.W.W.P.(.P.k./.tX/.k.k.W.j.j.a.p.L W Y P U j.f. .#. .j.@.U P U U |  . .......f.*.+.| | ..@.@.@.@.@.@.*. .| ....@.f.@.f.j.f.f...j.M.W.k.p.f.(.W.W./.(.W.k.W.<XA.l.k./.W.j.f.p.a.a.p.j.a.f.k.h.k.k.k.M.j.h.h.f.(.W.k.j.j.j.h.h.h.k.k.k.p.p.p.p.u.....p.p.a.f.a...p.W a.j.f.j.f...j.p...j.k.f. .W W ..j.#.k.j.k.l.a.a.l.k.k.W.W.W.W.W.W.k.W.W.W.k.k.k.^.k.a.p.M.^.k.f.f...j.^.M.f.Y @. .+.| | f.M.*.P m.=.f.{ | E.m.C.+.A A 6 - O.> - 2 - l = - 5 V.2 $ = = = & $ & r 4 = # # # * 9 # @ # # # # # # # # # # # # # $ $ $ $ $ $ $ $ # # # # # # @ o o o o o o o o @ # $ & = r r = % & $ # * * * * * * * * * * o o o o @ @ @ $ & % r = = = = = = = r = = = = = r 1 1 1 1 r r r % % % % % % % % ",
"^ ^ ^ ^ ^ ^ ^ ^ ^ ^ ^ ^ ^ ^ ^ q q q w w w w w w w w w 0 9 9 9 9 9 9 9 9 9 9 9 9 8 8 8 5 8 3 3 3 3 3 3 3 3 3 3 3 3 3 3 3 5 5 8 8 3 8 8 8 5 5 5 3 3 3 3 3 3 3 3 3 5 q ^ ] ] ] ] ] ] ] ] ] ] ] ] ] ] ] ] ] ] ] ] ] ] ] ] ] [ [ ) ) [ ) ) ) [ [ [ ) ) ) ) [ [ ) ` ] ] ` ) ` ) ^ ) ` ` ) ) ) ` ` ` ` A &.X.o.&.$.o.| | Z { +.*.f.j.j.M.j.*.f.f.j.f. .@.@.@.W #. ...f.@.j.M.Y.Y.Y.Y.Y.f.M.Y.M.<XwXM.Y.j.l.M./.W.M.k.W.(.k.W.(.W.(././.(.k.W.(.W.W./.tX/././.W.W.W.W.W.W.(.P./.tXW.l.k.W.W.j.p.W ..a. .#.@.p.#.f.f.f.M. . . ...f.@. .U ......@.*.*.*.f.@...@.@....... .*.*.*... . ...@. ...f.f...p.f.f.M.f.A.j.W.(.(././.k.W.(.h.(.W.^.k.f.k.h.a.f.p.j.a.p.k.k.f.k.k.a.k.W.W.M.a.k.A.k.j.A.A.k.h.h.l.a.f.f.f.f.p.p.......#.f.j.p.W ....a.M.j.j.f.f.j.f.P f.f...W W W p.a.a.k.f.a.f.a.a.a.h.k.W.k.W.W.^.^./.(.W.k.^.k.k.k.k.h.f.Y.Y.Y.k.f.@.f.Y.j.M.*.j.| | | k +.*.+.*.f...*.| o.*.*.C.n.h 6 , h X.= = 2 > z > - ' -.- & = = = $ & = 1 4 # # # $ 2 # * # # # # # # # # # # # # # $ $ $ $ $ $ $ $ $ $ $ # # # @ o o o o o o o o @ # $ & = r r = % & $ # * X X X X X X X X X * * o o o o o # $ % = r = = % % % % % % % & & & & & % % % % % % & & & $ $ $ & & ",
"^ ^ ^ ^ ^ ^ ^ ^ ^ ^ ^ ^ ^ ^ ^ V q q q w w w w w w w w w 0 0 9 9 9 9 9 9 9 9 9 9 9 9 9 9 9 9 9 9 9 9 8 8 5 5 8 3 3 3 3 3 5 5 5 5 8 5 8 8 5 5 5 5 3 3 3 3 3 3 3 3 5 0 ^ [ ] ] ] ] ] ] ] ] ] ] ] ] ] ] ] ] ] ] ] ] ] [ [ ] ) ` ) [ [ [ ) ) [ [ ) ) ) ) ) ) ) ` ] ] ] ` ) ) ) ) ` ` ) ) / / ) ) X.%.&.B.%.o.} } { { Z { =.j.m.m.| f.*.*.*.*.j.f.#.U f.| U @. .W  .U f.Y.^.Y.M.k.W.k.j.Y.^.(.<XY.M.k.a.k.W.(.k.Y.k.W.^.W.^.(.W.(./.(.z./.W.W.W./. X/./.(.P.k.W.W.W.(.W.W.wXtXa.l.W.W.j.p.W W U W W U W #.a.j...f.j.@... . .U U  ...@.*.*.@.@...@.f.*.@............. . .j.m... ......... ...f.M.j.a.u.a.p.f.k.A.k.A./.~.W.(.W.k./.A.k.M.k.h.k.j.M.A.p.f.a.a.k.a.a.h.W.(.W.W.M.k.h.k.W.A.k.k.k.f.f.l.k.h.f.j...a.a.a.p.p...#.a.f.W ......f.k.M.Y.f...k.p.P p.f.Y ..W ..a.a.E j.l.a.j.f.j.f.k.W.W.j.W.M.W.Y.W.W.W.k.W.j.W.k.M.h.j.f.Y.k.j.f.f.M.M.@...| j.j.*.@.{ A S +.*.*.{ Z +.C.:.Z B.R.6 h - z z > - > l z + - O.) - = 3 $ $ $ % r 3 $ # # # & 2 * # # # # # # # # # # # # $ $ $ $ & & & $ $ $ $ $ # # # # # @ @ @ @ @ @ @ # $ $ % = r r r % & $ * * X X X X X X X X X * * o o o o o # $ & = r = = % % % % & & & $ $ $ $ $ & & & & & & & $ $ $ $ $ $ $ ",
"^ ^ ^ ^ ^ ^ ^ ^ ^ ^ ^ ^ ^ ^ ^ ^ q q q w w w w w w w w w w w w 0 w w w w w w w w w w w w 9 9 9 9 9 9 9 9 9 9 9 9 9 8 8 8 9 9 9 9 5 3 3 8 5 5 5 5 3 3 3 3 3 3 3 3 5 9 q ^ ] ] ] ] ] ] ] ] ] ] ] ] ] ] ] ] ] ] ] ] ] [ [ ] ) ` ) [ [ [ ) ) [ ) ) ) ) ) ) ) ` ) ` %.] ` ) ) ) ) ` ` ` ` ` ` X.;.X.X._ :.} ( } } } | Z +.m.Y.C.|  .@.*.*.*.*.f.*.U f. . . . .U ..j.j.Y.k.j.j.^.M.j.f.M.k.W.^.k.Y.l.p.k.W.(./.(.k.W././.W.W.).(././././.(.W.(.(././.(.(.P.P.P.W.W.(.k.W.MXwXl.l.W.l...W W Y U W W  . .j.a.f...f.j.f.W U U  . .@.f.f.f.*.......| |  ..... . ...........@.{ U  .......j.M.p.p...f.M.M.j.j.k.f...a.k.W.(.(.(.(.A.W.(.k.W.h.W.W.k.A.W.p.u.a.a.l.k.W.M.M.M.k.h.h.l.j.k.k.k.k.k.k.l.f.f.f.j.k.a.f.j.f.f.f.a.p.......f.f...p...j.M.k.k.Y.p.p.k.p.L p.a.W ....E f.p.a.u.f.E a.h.p.j.W.W.W.k.k.W.^.k.k.W.W.k.k.k.h.k.l.j.M.M.j.f.j.a.j.f.M.f.@.*.*.*.*...*.*.{ *.f.m.{ A A +.m.A E.E.Z 7 6 B l - > , 7 6 + B ,.z = = = & & $ % 3 & $ # # $ 1 # # # # # # # # # # # # # $ $ $ $ & & & $ $ $ $ $ $ $ $ $ # # # # # # # # $ $ & = = r r r % & $ # * * * * * * * * X X o o o o o o @ # $ % % % % % % % % & $ $ $ $ $ $ $ $ $ $ $ $ $ $ $ $ $ $ $ $ $ $ ",
"^ ^ ^ ^ ^ ^ ^ ^ ^ ^ ^ ^ ^ ^ ^ ^ V q q q w w q q q q w w q w w w w w w w w w w w w w w w w w 9 9 9 9 9 9 9 9 9 9 9 9 9 9 9 9 9 9 9 9 9 3 3 3 3 3 3 8 3 3 3 3 3 3 5 9 q ^ ] ] ] ] ] ] ] ] ] ] ] ] ] ] ] ] ] ] ] ] ] [ ] ] ) ) [ [ ) ) ) ) ) [ ) ) ) ) ) ) ) ) ` %.` ` ` ) ) ) ) ) ) _ O.$.%./ _ ( ( &.} } o.o.| +.=.*.f.f...{ | @.*.*.*.*.@.Y @.#. .@.f.j.j.j.f.f.j.j.M.Y.^.Y.k.k.f.M.^.^.k.k.l.Y./.wXwXW.k.W.wX/.Y.W.(.#XwX/.W.W.k.k.W./.(././.W.k.k.P.W.).).W./.MXwXl.p.p.l.W P Y T U U U  .@.a. .f.f.M..... ...@.@.@.f.f.@. . .+............. . ..... ...f.f...@... . ...f.f.....f...p.p.k.M.j.f.M.W.A.M.W.h.(.~././.k./.W.W.^.W.W.k.k.W.l.f.W p.l.k.M.k.k.k.f.a.k.k.a.f.h.f.p.a.k.k.j.f.a.a.a.a.a.p.j.j.j.j.k.k.h.f.a.f.M.j.#...W ..j.f.M.M.f.p.M.p.P f.....W E p.j.a.p.E a.....M.f.k.W.(.h.k.k.W.M.k.Y.^.k.M.k.Y.M.W.f.#.M.j.f.f.f.f.j.f.M.@...+.| +.| k C *.{ *.| *.| Z | m.C.B.R.*.| x , A , - - , B > 2 X.2.= $ 1 & & $ % 2 1 # # # # 1 $ # # # # # # # # # # # # $ $ $ $ & & & & $ $ & & & & & & $ $ $ $ $ $ $ $ & % = r 1 1 1 = % & $ # * * * * * * * * o o o o @ @ @ @ @ # & & % % & & & & & $ $ # $ $ $ $ $ $ & & & & & & & & & & & & & & ",
"^ ^ ^ ^ ^ ^ ^ ^ ^ ^ ^ ^ ^ ^ ^ ^ ^ q q q w w w q q q w w q q q w w w w w w w w w w w w w w w 9 9 9 9 9 9 9 9 9 9 9 9 9 9 9 9 9 9 9 9 9 9 9 9 8 5 8 8 3 3 3 3 3 8 5 9 q ^ ] ] ] ] ] ] ] ] ] ] ] ] ] ] ] ] ] ] ] ] ] [ ] ] [ ) ) ) ) ) ) ) ) ) ) ) ) ) ) ) ) ) ] ] ` ` ) ) ) ) ) ` $.%.X._ ` _ ( ( ( :.} o.o.o.| +.o.*.*.f.L | @.| *.*.*.*.@.M.j.f.j.@. .@. .a.f.Y.Y.W.W.M.f.k.a.f.Y.^.W.k.Y.(.wX/./.(.k.l.W./.W.W.k././.(.W.k.Y.W.W.W./.(.(./.(.P.l.k.W.W.W./.wXtXtXW.f.p.j.T W Y T T U U U  .a.f.f.f.f.a.a.f.f.f.@.@... ...........@...@.@.@........... .|  . .|  .|  ..... ...@.f.f.j.a...u.p.p.a.a.j.A.W.W./.(.W. XwXz. Xz. XA.^.W.W.M.f.k.l.p.u.k.W.W.h.k.k.h.k.a.u.a.u.u.a.k.u.a.h.k.f.a.p...f.M.k.M.M.k.k.M.M.k.f.a.p...a.p...#.p.p.f.a.(.W.a.p.k.p. .j.#.W ..W f.h.p.a...p.a.p.k.j.k.W.W.k.h.W./.W.W.W.k.k.j.k.j.W./.k.j.k.j.U f.f.M.j.@.j...+.| | { { P P x { *.+.*.o.Z h k j.m.E.R.E.m.Z h ; + - > z 2 6 O.-.= = r & $ $ 1 4 $ # # # = $ # # # # # # # # # # # # $ $ $ $ & & & & & & & & % % % % & & & & & & & & % % = 1 1 1 1 = % & $ # * * * * * * * * o o o o @ @ @ @ @ # & & & & & $ $ $ $ $ # # # # $ $ $ $ & & & & & & % % % % % & & & ",
"^ ^ ^ ^ ^ ^ ^ ^ ^ ^ ^ ^ ^ ^ ^ ^ ^ z w w w w q q q q w w q q w w w w w w w w w w w w w w 9 9 9 9 w 0 9 9 9 9 9 9 9 9 9 9 9 9 9 9 9 9 9 9 9 9 8 8 8 5 5 3 3 3 3 3 5 9 w ^ ] ] ] ] O.] ] ] ] ] ] ] ] ] ] ] ] ] ] ] ] ] ] ] [ [ [ ] [ [ ) ` ` ` ) ) ) ) ) ) ) ` %.) / ) ` ` ) -.;.X.) ) ( ( } _ B ( ( o.&.| o.m.C.+.+.*.*.P L @.*.j.M.Y.M.j.@. .U #. . .f.j.j.M.W.M.j...j.j.f.j.k.k./.^.W.^.W.M.M.^.k.k.k./.(.W.k.^.wX/.k.Y.W.W.(.(.W.(.(.W.P.k.P.k.d.P.W.(.wXwXwXtXW.p.p.f...T U U W  .U L  .j.M.j. .a.f.j.j.f.f.......@.@.j.f.@...........@..... . ..... .U U U U |  ...........f.j...a.W.^.k.a.j.M.k.a.k.A.A./.wX^.!./.(.W.W.~.A.W.^.(.k.k.k.g.s.k.W.k.k.s.g.g.a.u.I u.a.h.l.h.a.p.E ..a.k.h.k.k.h.k.k.f.a.u.p.a.a.p.a.a.a.a.p.......p.p.a.j.j.wXW.a.f.a.p.f.k...W P ..f.p.p.E u.p.p.f.j.a.k.W.W.k.k.(.W.k.M./.k.k.a.(.j.k.k.M.W...a.p.k.j.f.j.f.@. .{ ..L { P S Z k { | +.m.*.A k L =.| E.m.C &.:.} 7 O - 2 z l z ^ z 1 - & $ $ 2 2 & # # $ $ 4 # # # # # # # # # # $ $ $ $ & & & & % % % % & & % % & & % % % % % & & & % % = = = = 1 % % $ $ # * * * * * * * * * * o o @ @ @ @ # $ & & & & & & & & & $ $ $ $ $ $ $ & & & & % % % % % % % % % % % % ",
"^ ^ ^ ^ ^ ^ ^ ^ ^ ^ ^ ^ ^ ^ ^ ^ ^ z q w w w q q q q w w q q w w w w w w w w w w w w w w 9 9 9 9 w 0 9 9 9 9 9 9 9 9 9 9 9 9 9 9 9 9 9 9 9 9 9 9 9 5 8 8 8 5 3 3 5 9 w ^ [ ] ] ] O.O.] ] ] ] ] ] ] ] ] ] ] ] ] ] ] ] ] ] [ [ [ ] [ [ [ [ ` ` ) ) ) ) ) ) ) ` %.) / ) _ O.$.` ^ ) ) ) ( ( / o./ ( ( o.*.| +.*.+.=.*.*.f.f.j.Y.j.M.j.@...@. .U  .@.f.j.Y.^./.Y.f...M #.j.@.k.Y.a.^./.^.k.f.k.k.M.k.j.^.(.W.k.W.(.^.Y.f.k.^.(.(.).W./.W.W.k.d.k.l.k.d.W.(.<X/.^.(.j.#.a.f. .W U U U W Y U f.j.#. .f.M.M.j.f...@.@.@.*.@.@...........+. . . . . . .|  . . .| U U U U U  . . .................j.W./.M.f.j.A.k.(.k.k.wXwX!.(.wXW./.W.W.~.(.z.k.s.k.k.k.W.k.l.k.k.p.6.p.u.u.h.u.u.u.u.u.f.l.h.a.h.M.h.h.f.h.h.f.f.k.k.f.j.p.E T E ..p.p...E ..p.f.f.a.M.W.M.p.f.j.W j.p...T P j.a.W a...p.a.p.f.j.f.k.W.W.k.l.(.A.k.(.(.k.M.k.k.k.a.f.k.k.a.f.a.j.f.j.@.| f...S +.M { Z A A { Z A *.P Z { h P Z C m.E.( ( %.B B 7 - z z 2 ~ ^ 5 - - $ & = 2 = $ # $ # 4 # # # # # # # # # # $ $ $ $ & & & & % % % % & & % % % % % % % % % % % % % % = = = = 1 % % $ $ # * * * * * * * * * * o o @ @ @ @ # $ & & % % % % % % % % & & & & & & % % & & % % % % % % % % = % % % ",
"^ ^ ^ ^ ^ ^ ^ ^ ^ ^ ^ ^ ^ ^ ^ ^ ^ q q q q q q q q q w w q w w w w w w w w w w w w w w w 9 9 9 9 w w w w 9 9 9 9 9 9 9 9 9 9 9 9 9 9 9 9 9 9 9 9 9 9 9 9 8 8 5 5 5 9 w ^ ) ] O.%.%.%.%.%.] ] ] ] ] ] ] ] ] ] ] ] ] ] ] ] ) ) [ [ [ [ [ [ ` ) ) ) ) ) ) ) ` ] ] ) ) ] O.` / / / ) ) ) ( ( ( / o./ } | m.| *.*.o.*.*.*.|  .| j.f.M.f.@.*.f.j.j.M.^.Y.M.j.j.j.f.W k Y j.f.M.W.Y./.(.Y.a.f.Y.Y.Y.k.k./.W.W./.(.W.W.W.h.W./.(.Y.W.(././.(.l.k.W.k.W.P.k.W.(.wX(.^.k.#. .a...I U U U U Y ..f.f...f.Y.^.j.f.f.f.f.f.f.f.*.@... .U U U U |  . . . . . ................. . ............. . ..... ...a.j.k.k.k.W.M.W.(.W.W.wXwX X X X(. XW.!.!.g.s.k.A.W.k.W.g.s.s.s.k.k.a.l.l.h.u.u.a.h.k.W a.h.h.l.u.l.l.f.a.a.f.f.a.a.j.j.j.j.h.f.a.u...a.W W u.u.p.f.p.^.k.k.a.p.p.T j.p.a...a.u.a.W p...p.p.p.k.f.j.W.W.W.l.A.(.k.k.k.W.k.k.k.W.k.a...M.W ..j.f.M.f.@.j. .j...{ *.x { L Z x k A Z =.A Z { A | } h R.-X$.l X., > l 7 z 7 5 0 ^ = - & $ & 4 1 $ # # @ 4 $ # # # # # # # # # $ $ $ $ & & & & & % % & & & % % % % % % % % % % % % % % r r = = 1 % % $ $ # * * @ # o o * o * * # # # # # # $ % % % % % = = r r r = % % % % % % % % % % % = r r r r = = 1 r r = ",
"^ ^ ^ ^ ^ ^ ^ ^ ^ ^ ^ ^ ^ ^ ^ ^ ^ q q q q q q q q q q q q w w w w w w w w w w w w w w w 9 9 9 9 w w w w 9 9 9 9 9 9 9 9 9 9 9 9 9 9 9 9 9 9 9 9 9 9 9 9 9 8 8 8 5 9 w ^ [ ] O.O.%.%.%.%.] ] ] ] ] ] ] ] ] ] ] ] ] ] ] ] ) ) [ [ [ [ [ [ ` ` ) ) ) ) ) ] ) ] ] ) -.] ) ) ) / ^ ` ` ) ` ( ( B ( } | | m.| +.+.=.| | =...*.*.m.Y.m.M.Y.Y.j.j.*.#.@.@.f.f. .@.L G ..j.M.Y.M.f.k./.Y.k.j.j.k.Y.W.^./.(././.W.k.(.(.W.W./.W.W.W.W.).#X/.k.k.k.k.k.k.k.(.(././.k.M.W f.p.I P  .U W U U f.a.f.j.Y.M.j.f.a.a.@.@.#... .U U U  ..... .U Y  .....@....... . .| | |  . . .....@.@.f.f... .........j.....a.M.(.^.M.W.W.(./.(.(.wXwX(.(.Q.W.c.g.s.W.~.A.W.A.g.g.h.z.h.u.u.l.k.z.l.l.l.k.k.h.h.h.l.k.A.u.a.p.a.a.a.a.f.f.h.j.f.p...p.p.a.f.j.j.f.W P ..P W j.a.f.(.k.a...a.....h.p.a.j.p...p.......p.p.j.h.k.k.W.W.^.k.A.k.k.k.W.W.M.M.M.(.W.k.j.f.Y G a.M.f.@.U @...m.*.L +.x C L x x x { o.P A *.} x o.l h R.X.} A &.6 + > / 0 l l w 5 - - $ # 2 4 & $ # @ 1 $ # # # # # # # # # $ $ $ $ & & & & & & % & & & % % % % % % % % % % % % % % r r = = 1 % & $ $ # * * o o o o o o # # # # # # # # $ % % = r 1 1 1 1 1 1 1 r = = = r % r = % % % = r r r r = = 1 r r = ",
"^ ^ ^ ^ ^ ^ ^ ^ ^ ^ ^ ^ ^ ^ ^ ^ ^ V q q q q q q q q q q q q q q q q w w w w w w w w w w w w w w 9 9 9 9 9 9 9 9 9 9 9 9 9 9 w w 9 9 w w 9 9 9 9 9 9 9 9 9 9 9 5 5 9 0 ^ ) ] ] %.-.3.%.O.O.] ] ] ] ] ] ] ] ] ] ] ] ] ] ] ` ` ] ] ] ] ` ) ` [ ) ) ` ) ` %.$.-.1.V.-.$.O.] ' ' ' ' ` ` _ } } ( { { =.m.m.*.+.m.m.m.M.R.^.R.Y.Y.M.m...U | @.@. .j.f.j.@. .*.M m Y f.^.M.j.j.l.^.^.k.l.Y.Y.a.Y.<X<XW.W.W.k.j.W./.^.Y.Y.W./.(.^.W.(.(.k.l.k.k.a.k.k.(./.wX(.l.k...W ..U W .. .L U ....f.k.M.k.j.j.f.f.j.f. .U P Y U U | | | | ....@.@............. . . .| | |  . . . .....@.f.f.f.f.p.p.p...f.f.a.k.h.M.A.(.h.k.W.~. X!. XwX X X!./.x.s.~.(.c.c.W.k.x.a.x.s.6.u.g.s.k.z.k.a.h.s.a.h.g.g.h.l.l.h.l.a.u.a.f.f.a.f.j.a...u.W I W E ......a.f.a.E ..W u.f.a.a.W.j.j.f.p.E l.l.a.k.T ..p...........p.l.l.k.k.W.W.W.W.A.k.W.k.^.k.M.k.W.(.^.M.M.k.a.L f.j.a...@...| ..*.....L { k S h k Z +.{ A +.&.( +.h 6 R.Z , n.;.B - - X.l l l O.- - $ $ = 3 & $ $ @ 1 $ # # # # # # # # # $ $ $ & & & % % % % % % % % % % % % % % % % % % % % = = r r r r 1 % & $ # @ @ @ # # # * * * * * # # # # # $ & % % % 1 1 1 1 1 1 1 1 1 1 1 = = = = = = % = r 1 1 1 1 1 1 r r 1 r ",
"^ ^ ^ ^ V V ^ V ^ ^ ^ ^ ^ ^ ^ ^ V z q q q q q q q q q q q q q q q q w w w w w w w w w w w w w w 9 9 9 9 9 9 9 9 9 9 9 9 9 9 w w 9 9 w w w w w w w 9 9 9 9 9 9 8 5 5 9 V ^ ] ] -.-.%.%.%.%.] ] ] ] ] ] ] ] ] ] ] ] ] ] ] ` ` ] ] ] ` ` ) ` [ ) ` ` ) ^ O.%.1.O.^ / ) ] O.$.$.-.-.-.;.;.;.n.B.R.B.m.B.E.C.m.*.*.| *... .*.*.@... .@.@.*.j.@.@.f.*.@.@.@.M L U j.^.Y.j.a.@.Y.Y.k.j.Y.Y.j.^.(.(.W.k.W.k.k.M.(.W.W.k.k.Y.(.j.W.W.W.W.k.l.k.k.k.k./.(./.W.k.k.W #.p... .#.Y U ....W f.^.j.j.M.k.f.....U Y L L L L L L L U  ...*.*.@... . . .| |  .....@.@.@.@.f.f.f.@.............p.p.f.h.a.p.a.f.M.k.h.a.h.A.A.k.~.~.~.~. XeXeX~.!.!.Q.Q.Q.Q.Q.Q.x.x.g.k.s.g.x.g.k.u.s.g.W.z.h.s.g.A.a.a.a.a.a.l.l.u.u.a.a.p.u.f.a.f.a...W W W W ..p.p.a.a.......E u.a.p.k.M.j.a.p.p...f.p.l.W E ............p.a.f.l.k.k.W.W.A.^.l.W.k.k.Y.k.j.k.Y.W.M.^.W.j.#.f.f.f.f... ...P ....{ | | L P x A h Z +.{ { *.o.( ( 6 x B.z > _ ;./ + 7 l l ` z z & $ & - 2 = $ $ @ 1 $ # # # # # # # # # $ $ $ & & & % % % % % % % % % % % % % % % % % % % % = = r r = r = & $ # # @ # o # # # # * * * * # # # # # & & % 1 1 1 1 1 1 1 1 1 1 1 1 r 1 1 1 1 1 1 = = = 1 1 1 1 1 1 1 1 1 1 ",
"^ ^ ^ V V V V V z V z z ^ V V V V z q q q q q q q q q q q q q q q q q q w w w w w w w w w w w w w w w w 9 9 9 9 9 9 9 9 w w w w w w w w w w w w w w w 9 9 9 9 9 5 5 0 ^ ^ ] O.-.-.-.%.%.%.O.] ] ] ] ] ] ] ] ] ] ] ] ] ] ] ] ] ] ] ] ` ) ` ) ) ` ` ) ^ O.1.$.) ) ) ) ) / / / / / / / / B o.( { { | | =.=.| Y | | j.*.*.*.@.......*.f.j.f.@.@. .#. .@.L U f.f.Y.j.@.j.Y.Y.(.Y.k.Y.j.f.^./.^.Y.k.k.W.k.W.W.W.Y.Y.Y.W.W.k.(.W.W.k.k.l.l.l.k.k.(.W.(.^.a.M.p.W U  .f...M W a... .j.M.f.M.M.j.W L L M G L Y Y P P U U @.f.j.j.j.f.@.@.@.f.j.m.M.j.f.@..... . ...................p.f.f.f.f.h.a.a.l.h.k.k.k.g.s.k.W.A.(.(. XwX!.eX X X!.{.Q.Q.!.!.Q.Z.c.x.h.c.W.x.a.g.x.k.A.k.g.g.s.u.p.a.a.a.a.l.s.p.u.u.h.h.a.a.k.W a.h.f.a...E E ......a.a.p.u.....E p.j.f.k.k.a.a.a.E ..p.a...W W p.........E p.l.l.k.k.k.W.W.W.W.k.l.W.j.k.f.k.M.M.M.M.M.M.M.a.M.a.f.@...@. .L *.U L C S k { k | { +.A x | *.| _ ( ; / C.x h ( X.$./ z > z B ' 2 $ - $ 2 1 $ $ # 1 & # # # # # # # # # $ $ $ & & & % % & & % % % % % & & % % % % % % % = = = = r r 1 1 % & $ # # @ o @ # # # # # # * * # # # # $ & % 1 1 1 1 1 1 1 1 1 1 1 r r 1 1 1 1 2 1 1 1 1 1 1 1 1 1 1 2 4 2 2 1 ",
"^ ^ ^ V V V V V z z z z ^ V V V z q q q q q q q q q q q q q q q q q q q w w w w w w w w w w w w w w w w 9 9 9 9 9 9 9 9 w w w w w w w w w w w w w w w w w 0 9 9 9 9 0 z ^ ] O.-.-.-.%.%.%.%.] ] ] ] ] ] ] ] ] ] ] ] ] ] ] ] ] ] ] ] ` ) ` ) ) ) ) ) ] -._ -.` ` ` ) ) ) / / / / / / / ( ( ( | { | | | @...+.| *.+.*.*.=.........j.j.*.U @.*.U  . .U @.@. .#.Y.j.j.Y.^.^.Y.f.a.f.l.^.W.j.k.k.k.k.k.W.W.W.k.k.k.^.k.p.W.W.W.k.h.a.l.l.k.k.W.W.W.k.#.W.a.Y P #.#.Y U #. .Y f.M.k.j.j.f...P k D L L L Y U  .....@.@.@.....@.@.f.f.j.f.f.@.@......... . . . . .W W  . ... . . .....u.f.a.k.M.k.k.a.h.k.k.k.(.~.W.Q.Q.!.wXwXeXeX!. XXX!.!.Q.Q.!.x.~.c.x.g.Q.W.s.W.c.g.k.s.s.g.k.s.s.s.h.s.s.s.a.E u.k.k.M.A.k.u.W a.h.k.k.k.a.a.u.W I W p.f.a.p.........j.a.j.k.f.a.f.p.W f.T E T T p.E ......E p.a.l.l.k.k.k.k.(.k.k.h.k.j.k.j.M.W.Y.j.M.M.k.M.^.f.f.f.f.f...*...P j.| S { A k k { { x Z A u { *.} o.Z , &.C., h 6 B $.( / 6 O._ / o = $ 2 4 $ $ # 1 & $ # # # # # # # # $ $ $ & & & % % & & & % % % % & & & % % % % % % = = = = r r r = % $ # # # # @ @ # # # * * * * * # # # # $ & % 1 1 1 1 1 1 1 1 1 1 1 r r 1 1 1 2 2 1 1 1 1 1 1 1 1 2 2 4 4 4 4 2 ",
"V V z z ^ V ^ ^ ^ ^ ^ z z V V V V q q q q q q q q q q q q q q q q q q q w w w w w w w w w w w w w w w w w w w w w w w w w w w w w w w w w w w w w w w w w w w 9 9 9 0 q ) ] O.-.-.-.-.3.%.] ] ] ] ] ] ] ] ] ] ] ] ] ] ] ] ] ] ] ] ] ] ) ` ` ` ` ) ` %.O./ $.] ` ) ) ) ) / / / / ) / ( } } { | | | | | +.@.U U *.*.*...| @...*.m.j.@. . .*.U  . .#.#.Y U  .j.Y.Y.j.j.Y.^.j.f.a.Y.k.k.k.k.j.l.k.M.W.k.M.W.k.k.W.k.h.h.^.k.Y.l.f.k.l.f.^.(.W.j.k.f.W.f.Y M  .W P  .#.a.j.k.M.j.j.#. .G k L Y Y W #...f.M.j.......@.f.@.@.....| P L M M S L U U U I I U W W W W U U  ...........u.u.f.M.k.u.f.k.k.A.W.k.k.A.A.(. X~.!.eXeXeXeX X X X!.!.!.!.Q.!.x.Q.x.Q.x.c.x.x.g.Z.s.s.c.g.c.s.c.k.k.g.s.p.p.g.k.k.A.M.f.W u.p.u.a.l.l.h.h.f.u...p.W a.a.W u.........h.a.a.M.h.a.k.a.E p.p.T a.T W u.E ....T T E l.l.l.k.k.z.z.(.k.l.h.k.k.M.j.k.W.h.a.f.f.p.a.^.j.W f.f.f.f. .| P m...C Z M k A +.{ Z { h A | *.{ { x x :.o.6 > - ( } ` z 6 z $.l - $ $ > & $ # = % $ # # # # # # $ $ $ $ & & % % % % % % % % % % % % % % % % % % % % = = % % r r r = % $ # # # # # # # # # # # # # # # # # # $ % % 1 2 2 4 4 2 2 1 1 1 1 1 1 1 1 2 2 2 2 2 1 1 1 1 1 1 2 2 4 3 4 4 2 ",
"V z z z ^ ^ ^ ^ ^ ^ V V V V z V V z q q q q q q q q q z q q q q q q q q w w w w w w w w w w w w w w w w w w w w w w w w w w w w w w q w q q q q q w w w w w 0 0 9 9 0 q ^ ] ] %.-.-.-.-.-.-.%.%.%.%.O.O.] ] ] ] ] ] ] ] ] ] ] ] ] ] ] ) ` ` ` ` ] $.] ] _ ' X.` ) ) ) ) / / / / ) / ( } } { | | | | | | +.| | *.| =.*...| ..j.Y.f.U *.f.U @.| U #.Y @.M.Y.^.Y.j.f.k.Y.Y.f.j.Y.f.j.M.Y.j.k.k.M.W.^.Y.k.k.W.W.k.p.k.(.l.M.l.p.a.k...k.(.(.k.j.f.k.k.P G ..@.W f.p.f.k.f.M.j. .L U D Y W W L U  .#.f.f.a.f.f.f. .U L M M L L L M k k M M k k k k G L P Y U  . . . .....u.u.u.u.a.a.h.k.k.k.k.k.k.W.A.~.W.k.A.W.!.XX XeXeXeXeX XXX X{.{.{.{.~.~.x.Q.Z.x.c.c.Q.!.A.c.b.c.g.c.c.z.x.g.g.s.s.h.l.k.z.k.k.u.W f.k.A.l.E a.k.a.u.p.k.k.f.a.W W a.........u.a.h.W M.A.h...h.j...h.E F a.W u.E ....T T E a.s.a.l.k.z.k.W.k.k.k.k.k.Y.k.k.W.(.W.l.f...j.W.(.^.W  .#.j.f.f.L ..j.+.A L k C P | x A { h A ( &.o.z z ( :.C h - - } B } z z 6 O.5 - - 6 & $ $ = % & $ # # # # # $ $ $ $ & & % % % % % % % % % % % % % % % % % % % % = = % % = = r r = & $ $ $ $ & & & $ $ $ $ $ $ $ $ $ # $ & % 1 2 2 3 3 3 4 4 4 4 2 4 1 1 4 4 2 2 2 2 2 2 2 2 2 2 2 2 4 4 3 4 4 2 ",
"^ ^ V V ^ ^ ^ ^ ^ ^ ^ ^ V V ^ V ^ ^ V V V V V V ^ ^ V V z z q q q q q q w w w w q q w w w w w w w w w w w w w w w w w w q q q q q q q q q q q q q q q w w w w w 9 9 9 q ^ ) ] ] ] ] %.%.-.-.%.%.%.%.O.O.] ] ] ] ] ] ] ] ] ] ] ] ] ` ` ) ` ` ` ] O.' O.) ) O.) ] ) ) ) ) / / / / ) / ( } } { | | +.| | | +....... ...@.@.*.f.*.@...j.M.j.j.Y.f.@.Y.j.j.#.M.M.Y.j.j.k.M.j.k.^.j.#.Y.j.j.Y.M.j.k.^.l.k.Y.W.W.k.p.l.W.M.k.l.p.a.h.k.W.l.W.k.h.p.j.k.W G W f.#.#.j.a.j.#.f.#.W ....W M G Y #.f.f.@. ...f.a.I L L M M L L L L L L P P L P P P L L P Y U W  . .W W W  ...u.a.a.f.f.h.k.h.a.h.k.W.A.k.W.W.W.~.!.W.(. XXX@X XXX@XXXqXeX X X X X X!.Q.~.!.Q.x.x.Z.x.Q.g.s.g.c.s.g.g.z.c.g.g.c.k.g.g.k.z.k.h.h.h.k.g.a.h.h.u.u.h.h.p.a.h.f...u.u...........I W k.j.h.A.k...p.k.j.h...E W ..u.u.u...E T T p.k.E p.z.k.W.z.W.k.k.k.k.W.k.k.M.W.(.W.W.#.f.p.Y.<X/.j.j. . .f.Y.@.U m.P { x A x { x A ( Z x Z A } | 6 A ` ;.z , + 7 B _ 7 o.> ^ w 2 5 2 & $ $ = 1 & $ # # # # # $ $ & & & % % % % % % % = = % % % % = = % % % % % % % % % % = = = 1 = % % % % % % % % % % & & & & % % % $ % % % 1 2 3 3 3 3 3 3 3 3 3 3 4 4 4 4 4 4 4 4 4 4 4 4 4 4 4 4 3 3 3 4 4 2 ",
"^ ^ V V ^ ^ ^ ^ ^ ^ ^ V V V ^ ^ ^ ^ ^ ^ ^ ^ ^ ^ ^ ^ ^ V V V z z q q q q w w w q q q w w w w w w w w w w w w w w w w w q q q q q q q q q q q q q q q q q q w q w 9 9 9 w ^ ^ ] ] ] ] ] ] O.] ] ] ] ] ] ] ] ] ] ] ] ] ] ] ] ] ] ] ` ) ) ) ` ` ` ] ] ` ] ` ` _ ` ` ` ) ) ) / / / / ) / ( } { { | | | | |  . .*.*...f.| | @.@.*...P U f.U @.U L @.f.#. .U f.Y.M.j.j.Y.j.j.k.j.#.f.j.j.k.k.k.p.M.W.j.l.k.W.W.k.p...(.Y.k.h.a.E l.k.W.k.k.W.k.W l.W.P D W @.p.#.k.f.a.....U U f.W G k W f.j.a. .#.a.@....... . . .U U Y U  . . .U U U U U | Y L P P Y I Y U W  . .........u.u.u.p.a.a.k.k.h.g.k.A.x.W.W.W.(. X X!.!.eXeX!. XXXXXXXeX X X X X X!.Q. X!.!.!.!.!.Z.Z.c.Q.Z.x.x.c.c.c.s.x.A.c.g.g.k.c.c.k.h.h.h.a.h.A.k.z.h.u.E a.a.a.p.p.u.u.u.....E ..E u.W W M.f.h.h.k.W p.M.p.f.p.T W u.p.....p.T T E u.a.l.l.W.l.(.z.M.k.k.k.W.k.k.M.(.(.^.M.^.k.p.a.Y.^.^.Y.f.f. . .j.@.L j...h S h A x Z A { x h } Z Z ( Z B o.} h + 6 7 z ` - X.l z - 6 9 & $ $ & 1 & $ # # # # # $ $ & & & % % % = % % % = = = % % % = = % % % % % % % % % % = = = = 1 = = = r 1 1 1 1 1 1 1 1 % % % & % % & % 1 2 3 3 5 5 5 5 5 3 3 3 3 3 3 3 4 4 4 4 4 4 4 4 4 3 3 3 4 3 3 3 4 2 2 ",
"^ ^ ^ ^ ^ ^ ^ ^ V V ^ ^ ^ ^ V V ^ ^ ^ ^ V V V V ^ V ^ ^ ^ V V V q q q q q q q q q q q q q q q q q q q q w w w w w w q q q q q q q q q q q q q q q q q q q w q w 9 9 0 w q ^ [ ] ] ] ] ] ] ] ] ] ] ] ] ] ] ` ` ) ) ) ) ) ) ) ) ) ) ) ) [ [ [ ) %.) ^ ] ^ ) O.^ ) ' ) B / B / / ) ( / } _ { | +.| { { | | | *.@. ... .@.@.@.U P @.j.j...U  .M. . . . .f.Y.j.j.f.f.Y.Y.j.j.f.#.f.M.k.j.p.T j.W.M.k.M.k.k.j.#.#.h.W.j.j.f...f.k.W.j.M.M.k...#.k.p.s W E a.j.f.f...G E ..P Y L W a.f.a.f.j.j.a.a..... . . . . .W U U  . . . ..................... . .W W W W ........u.u.u.u.f.f.A.M.h.k.A.Z.W.W.(.(.W.!.wX X X!.Q. X XeXpXsXeX@XeXeXeX X}.].].~.~.].{.{.{.!.Q.x.x.Q.Q.x.Q.x.c.g.g.x.Q.c.g.g.g.g.g.h.g.k.k.k.k.k.h.f.h.g.a.u.a.u.u...u.u.u.u.u.W I W ....W u.k.M.M.k.l...h.k.f...p.u.a.p.p.u.u.E T W E a.p.l.A.k.W.A.k.k.k.l.h.k.Y.W.W.W.M.j.k.k.Y.a.j.k.^.Y.^.W @.f.j.j.f.S f...C h A h C A ( x , A { Z ( } h 7 &.X., - > 6 } z l l X.7 + z & $ & & = & $ # # # $ $ $ $ & & & & % % % % % % % % % % % % = % % % % % % % % = = = = % = 1 1 1 1 1 4 3 3 3 3 3 3 3 3 3 2 1 % & & % 1 2 4 3 3 5 5 5 5 3 3 3 3 3 3 3 3 4 4 4 4 4 4 4 3 3 3 3 3 3 3 3 3 3 3 3 ",
"^ ^ ^ ^ ^ ^ ^ ^ V V ^ ^ ^ ^ V V ^ ^ ^ ^ ^ ^ ^ V ^ ^ ^ ^ ^ ^ V V V V ^ ^ V z z z V V V V q q q q q q q q q q q q q w q q q q q q q q q q q q q q q q q q q w q w 0 0 0 0 w q ^ ^ [ ^ ^ ^ ) ) ) ) ) ) ) ) ) ) ) ) ) ) ) ) ) ^ ^ ^ ^ ^ ^ ^ ) ^ ] ) ^ ^ [ ^ ) ` ^ ^ ^ ' B ^ B B / / / / } ( { | | { P { | | +... . . .#.*.*. .U  .f.@.U *.f. . .*.Y  .j.Y.j.j.j.j.j.j.M.Y. . .p.j.M.f.p.E ..^.k.W.^.W.k.f.p.j.l.M.f.k.f.E E k.Y.p.k.h.j...Q #.k.G W p.f.f.p.W L Y f.L k W f.j.k.j.f.j.f.a...W W Y Y I U U U U Y P P P P P L L L L L L Y W  .........................u.a.a.a.h.k.h.A.A.A.A.A.W.W.Q.Q.(. X!.Q.~.}.!. XpXpXgXuXgXeXXX@X X XXXXX X|.}. X X{.].Q.Q.Q.Q.v.Z.Z.Q.x.c.x.x.x.x.c.g.g.g.h.g.g.k.k.k.k.k.h.h.h.h.h.a.u.p.a.p.u.u.p.p.a.p...W W W ....W a.k.k.k.k.p.a.k.l.l.E a.a.a.f.l.u...W W E E l.p.a.A.l.^.k.W.A.l.k.k.k.k.W.(.W.M.Y.k.h.(.M.j.Y.W.f.^. .Y P f.j.M.L *.*.x x k 6 C h / C 6 Z x A +.( z - >.B 6 h - - X.z z l _ = 5 2 - $ $ = - $ $ # # $ $ $ $ & & & & % % % % % % % % % % % % = = % % % % % % % % = = = = 1 1 4 3 3 3 3 5 8 8 9 9 9 9 9 9 5 3 2 1 r 1 1 2 4 3 3 5 5 5 5 5 3 3 3 3 3 3 3 4 3 4 4 4 4 4 3 3 3 3 5 3 3 4 4 4 4 4 ",
"^ ^ ^ ^ ^ ^ ^ ^ ^ ^ ^ ^ ^ ^ ^ ^ ^ ^ ^ ^ ^ ^ ^ ^ ^ ^ ^ ^ ^ ^ ^ ^ ^ ^ ^ ^ ^ ^ ^ ^ ^ ^ ^ ^ ^ ^ ^ ^ ^ ^ ^ ^ ~ ~ z q q q q q q q z z z z z q q z z q q q q q w w w w 0 0 0 0 0 w q ^ ^ ^ ^ ^ ^ ^ ^ ^ ^ ^ ^ ^ ^ ^ ^ ^ ^ ^ ^ ^ ^ ^ ^ ^ V V V V ^ ^ ` ^ z ^ ^ ^ ^ V z V z l ) z z B B / / ( ( { { | { Z Z P { | +.+... .| @.*.*.U ..f.*. .f.| U U @.U #.j.j.j.j.j.j.k.Y.f.Y.a.#.f.j.f.#...W #.k./.k.M.W.h.f.#...k.W.f.a.f.E ..a.M.a.a.l.h.f.T T h.E Y a.a.a.#.T Y W ....T a.W.M.j.f.a.p.....W W p... . . ... . . . .W W W T W W W W  . .T U P P U  ..... . . . .....u.u.....u.u.a.M.k.k.k.A.~.!.!.!.(.(.~. X X X!.eXeXeXeXeXuXsXgXeXXX@XeXeXqXXX.XXX@X X X X].~.~.!.Q.x.S.S.Q.S.Z.Q.Q.x.c.g.g.g.g.g.g.g.c.k.k.k.g.h.k.a.a.h.g.k.l.a.u.u.p.a.a.a.a.a.p...W W ......f.k.h.h.a...f.k.k.......a.l.l.p.u...W W W a.E u.l.k.M.k.M.W.A.k.j.l.k.M.W.(.W.k.W.M.W.M.Y.j.W.j.f.Y.f.L U Y @.M.f.*.=.{ A ; x x C z h h x x A o.B 6 z &.z h - + l z ( - ' ) 2 7 = # & 1 & $ # $ $ $ $ & & & & % % = = > > > > = = = % = = = = = % % % % % % % = = = r 1 4 3 3 3 8 9 9 9 9 9 9 9 9 9 9 9 9 8 3 4 2 4 4 3 3 5 9 9 9 9 9 9 9 9 9 9 9 5 5 5 3 5 5 5 5 9 9 9 9 9 9 8 8 5 9 9 9 ",
"^ ^ ^ ^ ^ ^ ^ ^ ^ ^ ^ ^ ^ ^ ^ ^ ^ ^ ^ ^ ^ ^ ^ ^ ^ ^ ^ ^ ^ ^ ^ ^ ^ ^ ^ ^ ^ ^ ^ ^ ^ ^ ^ ^ ^ ^ ^ ^ ^ ^ ^ ^ ^ ^ ^ ~ ~ z q q z z V V z z V q q q z q q q q q w w w w 0 0 0 0 0 w q V q q q q V V V V V V V V q q q q q q q q q q q q z z w w w ) B V q ^ z z ^ 0 w z z 0 B ^ z z B B / } / } { { { A A Z P { | +.f.U  ...@. . .f.f.@.@.| | U  .*. .f.f.j.j.f.f.j.Y.Y.j.@.a.f.a.j.f.....W a.W.M.(.M.f.a.p.#.E j.l.k.p.E E f.k.a.p.l.j.h.p.T ..j.W #.p.f.E Y T P W #.p.W.W.k.h.f.j.k.k.k.j.#.W p..... .W W W W I I P L L P P P P P P I Y U W T U I U  . . .W W T ..f.j.f.f.h.h.M.h.k.k.k.A.W.!.!.!. X X X XeXqXXXeXeXeXeXeXuXgXeX@X@XeXuXuXeXqXXXeXeX X X X].!. X~.Q.I.Q.S.S.Q.Q.Q.Z.Z.x.x.c.c.c.g.g.g.g.k.k.c.k.g.h.h.k.A.k.s.h.h.h.a.a.a.p.u.a.l.f...E W E ..E u.a.l.l.l.p...k.A.a.E E u.l.k.l.u...W T p.E p.u.a.l.l.W.k.k.(.W.a.p.h.j.M.W.W.k.k.k.f.Y.k.^.j.j.f.f.f.f.L Y U  .m.m.f.m.P , 6 x x x l , Z x - &.B h - } o.z - + - _ 7 / ^ 2 z 5 2 & - = = & $ $ $ $ $ & & & & % % = = > > > > = = = % = = = = = % % % % % % % = = = 1 2 3 8 8 8 8 9 9 9 9 9 9 9 9 9 9 9 9 9 9 8 3 3 3 5 9 9 0 w w w w q q q q w w w 0 w 9 0 w 0 0 w w q q z z z z V V V V ",
"^ ^ ^ ^ ^ ^ ^ ^ ^ ^ ^ ^ ^ ^ ^ ^ ^ ^ ^ ^ ^ ^ ^ ^ ^ ^ ^ ^ ^ ^ ^ ^ ^ ^ ^ ^ ^ ^ ^ ^ ^ ^ ^ ^ ^ ^ ^ ^ ^ ^ ^ ^ ^ ^ ^ ^ ~ ~ ~ ~ V ^ ^ ^ V V ^ V V V V q q q q q q q q w w w w w q q V ^ ^ V z z q V V V V V V q q q q q q w q w w w w w w w w w 0 ) 0 z z z w 0 ^ 9 w z 0 0 0 0 l 7 z 6 B A } } { | C A { Z Z | +.+.| @...@. .L *.*.*...@.U Y  . .*.@.f.j.j.f.@.f.Y.Y.j.j. .a.#.p.E @.....k.W.j./.W.j.p.#.f.l.f.k.j.k.W W a.k.j.p.k.f.f...W P j.j.p.E W p.P m d ..j.k.k.W.M.k.j.a.p.......p.a...p.u.........W W u.u.u.u.......W W W W I Y U U U I P L P T W .. ...u.u.u.u.u.a.f.k.A.W.W.W.A.x.c.x.Q.~.!.(.}. XqXqXeXeXeXgXsXsXgXsXsXsXgXuXuXeXeXXXeX@X X X X{.].].!.~.~.Q.Q.Q.Q.Q.Q.x.x.I.x.x.c.c.g.c.c.g.c.c.x.z.k.z.z.A.s.a.k.k.A.k.z.h.h.h.h.l.a.u.u.u.E W 6.p.u.a.l.l.l.j.p.u.k.W...I W ..a.l.k.p.E E W E u.p.p.l.l.k.W.k.^.(.k.j.l.k.k.W./.(.M.k.j.a.k.M.j.).f...f.@.f. .U  .L j.m.*.C.Z h x x Z x ; h C x l :.A , 6 o.} - - - l 7 B h z 6 0 9 = = = = & $ $ & & & & & & % % % = = > > > > > > % % = = = = = = = = = % = % % = 1 1 4 3 8 9 9 9 9 9 w w w w w w w w w w w w 9 9 9 9 9 9 w ^ ) [ [ [ ] ] ] ] ] ] ` [ ) ] ] -.-.-.-.-.-.-.2.2.2.2.2.2.2.2.",
"^ ^ ^ ^ ^ ^ ^ ^ ^ ^ ^ ^ ^ ^ ^ ^ ^ ^ ^ ^ ^ ^ ^ ^ ^ ^ ^ ^ ^ ^ ^ ^ ^ ^ ^ ^ ^ ^ ^ ^ ^ ^ ^ ^ ^ ^ ^ ^ ^ ^ ^ ^ ^ ^ ^ ^ ^ ~ ^ ^ ^ ^ ^ ^ ^ ^ ^ ^ ^ ^ ^ ^ V z z z q q q q q q q q V ^ ^ [ ) ^ ^ V ~ ^ ^ V V V V V V q q q q q q q q w w w w w w w ^ ) w z V z q w ) w z V 0 0 0 0 / l h h C x } ( { Z P o.| =.=.=.*.*.@.@.| *.L *.@.*.U ..|  . . .@. .f.*.j.j.f.@.j.M.M.j.f.a.@.j.#.a...a.j.M.Y.W.M.k.a...#.f.l.f.l.k.T #.p.k.k.E h.f.f.W F F f.M.a...W W W G Q p.M.k.k.M.W.k.p...#.p.a.f.a.a.f.k.j.f.a.a.p...W W W W u.a.a.a.f.a.a.....W P P I U T W ..............u.u...u.j.M.k.h.k.A.W.W.W.Q.Q.Q.!. XwXeXeXtXeXeXeXeXeXpXgXgXgXsXsXsXgXuXyXeXeX@X@XXX|. X X X X X X X}.].!.!.~.~.Q.Q.Q.Q.I.x.c.c.x.g.c.x.x.c.x.x.z.k.k.a.k.z.x.k.z.k.k.k.h.h.u...u.a.f.s.6.W W u.u.u.p.k.a.k.a.a.k.k.u.I W W u.l.h.k.E E E W W p.p.a.l.k.A.k.W.W.k.l.j.l.l.W.(.(.W.k.k.h.a.f.k.^./.@.a...@.j. .| U | *.f.*.*.x Z x Z { , , x x B ( ( x - ( } h + > - ` l h / 2 l z - 2 = = & $ $ & & & & & % % % % = = > > = = > > 1 1 1 1 1 1 1 1 1 1 1 1 1 1 = 1 1 4 3 3 9 9 9 9 9 9 w w w w w w w w w w w w w w 9 9 9 0 ^ ] -.2.2.1.=X=X=X=X*X2.1.=X=X=X>X:X:X:X:X1X1X1X3X3X6X6X6X6X6X6X",
"^ ^ ^ ^ ^ ^ ^ ^ ^ ^ ^ ^ ^ ^ ^ ^ ^ ^ ) ) ^ ^ ^ ^ ^ ^ ^ ^ ^ ^ ^ ^ ^ ^ ^ ^ ^ ^ ^ ^ ^ ^ ^ ^ ^ ^ ^ ^ ^ ^ ^ ^ ^ ^ ^ ^ ^ ^ V V ^ ^ ^ ^ ^ ^ ^ ^ ^ ^ ^ ^ ^ ^ ^ ^ ^ ^ ^ ^ ~ ~ V ^ ^ ) ) ] ] ^ ^ ^ ^ ^ ^ V V V V V V V V q V q q q q w w w w w w q V V q V ^ V z z ' z ^ ^ z z z z z l l B C { A | { A Z Z k P | { j.*.@.U @.| @.*...U ..U U  . ...@. .f.*.j.j.@.f.j.j.j.f.j.@.U  ...f.p.j.Y.M.Y.W.f.a.p...#.f.j.f.l.W E p.k.l.a.p.l.p.#.G G E k.k...W W E P W f.M.h.k.k.a.W W W ......p.a.p...E ..u.a.h.a.a.u.u.E u.u.u.....u.f.j.h.f.f.a.p.u.a.a.f.f.a.p.p.p.p.p.a.j.f.a.a.u.a.k.A.A.A.A.W.~.!. X X X X XeXeXeXeXeXeXgXgXdXfXfXfXsXsXsXiXuXyXeXeX@XXX|..X|.|. X X X X X X X X].].!.~.Q.Q.Q.Q.x.x.x.c.c.g.g.c.x.c.g.k.x.A.k.x.c.h.k.k.k.k.A.l.p.h.a.a.a.a.u.E E u...E E E l.f.h.l.a.l.k.l.W I W ..a.f.k.p.u.E E E ..p.p.l.l.k.W.k.A.A.k.l.p.l.k.W./.W.k.k.M.l.p.f.f.Y./.j.j. .@.f.@.| { | { *.*.f.Z x A :.x , x C ( h } / , , &.C 6 + > B l z z h z 6 7 2 = = & $ & & & & % % % % % = > > 1 1 1 1 1 1 1 1 1 1 1 1 1 1 1 1 1 1 2 2 1 2 4 3 5 9 9 9 9 9 0 w w w w w w w w w w q w w w w w 9 9 q ) -.1.=X:X3X6X6X8X9X6X:X>X1X6X7X8X9XjXjXcXcXcXcXNXNXNXNXNXNXNXNX",
"^ ^ ^ ^ ^ ^ ^ ^ ^ ^ ^ ^ ^ ^ ^ ^ ) ) [ [ ) ^ ^ ^ ^ ^ ^ ^ ^ ^ ^ ^ ^ ^ ^ ^ ^ ^ ^ ^ ^ ^ ^ ^ ^ ^ ^ ^ ^ ^ ^ ^ ^ ^ ^ ^ ^ ^ V ^ ^ ^ ^ ^ ^ ^ ^ ^ ^ ^ ^ ^ ^ ^ ^ ^ ^ ^ ^ ^ ^ ^ ^ ^ ) ` _ X.%.) ^ ^ ^ ^ ^ V V V V V V V V q V q q q q w w w w w w w ) ^ ] %.-.-.%.%.O.^ ^ ) ] ] X.X.X.&.} ( Z } } | { | =.| { | +.o...+. . .....j...|  .U  . .U  .f. .*.@.f.j.f.f.j.M.j.f.f.#.L #.U #.#.k.k.M.Y.M.k.p.a.a.f.#.f.j.f.p.W #.h.j.l.f.j...a.T F W k.j.p.W T T E T k.W.M.j.a.p.p.j.a.#.....E W T W E u.u.a.f.f.h.a.a.a.a.a.u.h.l.a.u...W W ..u.a.a.a.f.f.a.a.f.f.a.a.a.a.a.l.l.a.h.g.g.h.s.h.z.A.Q.~.!.}. X X X XeXeXgXeXeXeXgXsXdXdXdXdXsXiXiXiXuXyXeXeXeX.X|.XXXXXXXX X|. X X|. X}.].!.!.!.Q.Q.Q.Q.Q.x.Z.x.c.g.g.c.c.c.c.c.c.k.c.c.c.g.k.s.k.h.k.A.A.k.g.h.a.a.a.u.E E E E W W p.k.p.h.p.p.a.W.E T W W u.l.a.f.a.p...E E p.p.a.l.k.A.A.k.A.k.l.! l.k.k.(.W.W.Y.Y.k.a. .f...Y.^.j.j...@.M.| =.{ *.{ m.m.m.{ h { | A x Z C ( < &.l - ( ( B - 6 > B z - _ l 6 5 5 = & & & & % % % % % % % = > 1 > 1 1 1 1 1 1 2 2 2 2 2 2 2 2 4 4 4 4 4 2 4 4 3 3 8 9 0 9 9 9 0 w w w w w w w w w w w q w q q w w q ^ ` -.=X>X6X9XjXNXVXVXVXNX9X7XcXNXVXBXBXAXAXAXAXAXAXDXDXDXDXDXDXDX",
"^ ^ ^ ^ ^ ^ ^ ^ ^ ^ ^ ^ ^ ^ ^ ^ ^ ^ ) [ ^ ) ) ^ ^ ^ ^ ^ ) ^ ) ^ [ ) ) ) ^ ^ ^ ^ ^ ^ ^ ^ ^ ^ ^ ^ ^ ^ ^ ^ ^ ^ ^ ^ ^ ^ ^ ^ ^ ^ ^ ^ ^ ^ ^ ^ ^ ^ ^ ^ ^ ^ ^ ^ ^ ^ ^ ^ ^ ^ ^ ^ } o.*.f.:._ ^ ^ ^ ^ ^ ^ V V V V ^ V ^ V V z q q q q q q q V ^ ] ] ) ^ ) ] ] ] -.T.T.2.O.] ) ^ ^ B B { C Z A Z | x Z Z N Z | | |  .=. .@. .*.@. . ... . .|  ...@.*.@.U j.j.f.f.M.M.j.@. .Y Y #.#.j.j.f.M.M.k.k.p.f.a.p.a.l.k.l.a.P #.j.l.f.f.a.p...W F E j.k.p.T Q u.p.E A.(.k.a.p.u.u.E W ....p.a.a.u...a.p.E W p.a.l.s.a.a.p.u.u.u.E E E E ....E W I W E u.u.u.p.a.a.a.a.a.a.a.a.l.l.k.z.A.z.A.W.~.!.!.!.!. XqXeXXXXXXXqXXX@XeXeXuXsXsXdXdXdXsXsXiXiXiXuXuXuXuXyXXXXX@X@X@XXX.X|.|.XX X|.|.{.].!.!.~.Q.Q.Q.Q.Q.v.v.x.c.g.g.z.c.c.c.c.z.c.g.g.g.g.s.s.g.g.k.k.k.a.a.a.a.a.p.u.u.u.E E W E l.f.a.l.l.l.k.k.W Q E a.u.h.j.a.l.p.E u.T p.a.l.h.k.k.k.p.k.W.l.E Y.k.W.W.k.k.Y.Y.f.j.W #.M.j.^.a.j.j...f...*.| | =.m.*.m.| | $.{ A Z C *.x ( ( , / h C l , > h h > B z 7 > l > = - = > % % % % = > 1 2 2 2 2 2 2 2 2 2 2 2 4 2 2 4 4 3 3 3 4 4 4 3 3 3 3 3 3 8 9 w w 9 9 0 0 0 0 w w w w q q q q q q q q q q V ^ ) O.=X:X8XNXVXAXIXDXDXAXBXNXNXBXIXIXDXIXIXHXHXHXHXHXHXHXHXHXHXHX",
"^ ^ ^ ^ ^ ^ ^ ^ ^ ^ ^ ^ ^ ^ ^ ^ ^ ^ ) ) [ [ ^ ^ ^ ^ ) ) ) ^ ) ^ [ [ [ ) ^ ^ ^ ^ ^ ^ ^ ^ ^ ^ ) ) ^ ^ ^ ^ ^ ^ ^ ^ ^ ^ ^ ^ ^ ^ ^ ^ ^ ^ ^ ^ ^ ^ ^ ^ ^ ^ ^ ^ ^ ^ ^ ^ ^ ^ ) ` o.*.m.M.m.} B ^ ^ ^ ^ ^ ^ ^ V V ^ ^ ^ V V z q q q q q q z ^ ^ ^ ^ ) ] ] -.-.-.2.] ) ) -.%.] ` ) / / ( Z Z Z Z | h Z { Z { +.+.| *. .@.|  . .*. ...U @.| |  ...@.@. ...j.j.f.j.M.f.#.U Y Y  . .f.M.f.k.Y.k.k.#.p.f.f.a.p.k.h.p.W W f.h.f.a.p.p.p.E P T a.k.a.a.....p.l.k.A...u.a...W W P I I I W G G G D F Q E u.a.u.E E E u.l.h.u.u.u.u.a.a.a.a.a.a.a.u.u.u.u.u.u.a.a.a.a.f.l.g.g.g.k.k.g.g.k.c.A.Q.!. X X X XXX X XeXeX@XgXgXeXuXgXdXdXsXsXsXsXsXsXiXiXuXuXgXgXuXeX@X@X@X+X@XXX.X|..X|.|.|.|.{.{.].!.~.~.~.Q.Q.Q.v.x.x.z.g.g.z.c.c.c.z.x.c.g.g.g.s.s.g.k.c.c.c.k.g.k.k.s.a.p.p.u.u.u.u.E a.l.l.k.a.a.k.k.u.Q E p...f.l.E p.k.E W p.u.p.l.l.l.h.k.a.l.A.l.a.a.k.W.^.W.Y.k.k.Y.j.f.#.a.j.@.^.U M.m...f.j.| *.f.m.m.C.m.*.*.o.| { Z m.Z h n.x h x l Z , , 6 z l 6 ) l > > 2 = = = > = > % % > 2 4 4 4 4 4 4 4 4 4 4 4 4 4 3 3 3 3 3 3 3 3 3 3 3 3 3 3 5 5 9 w w 9 9 0 w 0 0 0 w w w w q q q q q q q q q q z ^ ^ ] 2.V.;X6XNXVXAXIXDXAXBXBXNXNXBXIXDXIXIXHXHXHXHXHXHXHXHXHXHXHX",
"^ ^ V V V V ^ ^ ^ ^ ^ ^ ^ ^ ^ ^ ^ ^ ) ) [ ) ) ) ) ) ) ) ) ) ) ^ ) ) ) ) ) ^ ^ ^ ^ ^ [ [ ^ ^ ^ ^ ) ) ^ ^ ) ) ) ) ^ ^ ^ ^ ) ) ) ) ) ) ) ) ) ) ) ) ) ) ) ^ ) ^ ^ ^ ^ ^ ` _ *.m.Y.^.M.+.B ^ ^ ^ ^ ^ ^ ^ ^ ^ ^ ^ ^ ^ V V V ^ ^ ^ ^ ^ ^ q z ] ^ ` ] %.%.] O.-.] ] ] ` ` %.$.` ` ( Z ( ( Z { | | Z C { | @.+. .+.+.@. . .+.#. .U ..Y  .|  ...@. . .f.j.j.f.j.j. .U Y L U #.#.j.f.j.^.j.j.#.f.#.@.f.f.a.j.#.W T a.h.f.p.p.p.p.p.W G E k.j.f.f...u.k.A.h.W W a.p.W W I Q I I W ..a.a.h.a.s.s.l.a.6.6.u.u.u.u.6.6.u.E E R W E E E u.u.u.p.a.a.a.a.a.a.a.f.h.l.s.h.h.s.g.g.A.Q.W.W.Q.~.!. X X XXXXXeXeXXXXXXXuXdXsXsXsXsXiXiXiXsXsXsXiXsXiXiXiXiXiXuXyXyXeX+X@X@X.X.X|.XX|.|.|.|.|. X}.].!.~.~.~.~.~.Q.v.x.x.c.g.b.c.c.c.z.g.g.s.s.c.c.c.c.x.x.x.c.z.g.g.g.g.s.a.a.u.u.u.p.6.p.k.k.k.k.a.k.A.l.W W u...a.k.p...W l.W p.E p.l.a.a.l.k.l.a.k.k.l.E k.k.W.^.W.W.a.j.Y.M.a. .j. .j.Y...j.m.Y.f.m.*.f.E.Y.m.E.R.C.:.*.=.} :.( x ( %.A A h x C , , z B > ` l 6 - 6 > > > > > > > > > 4 4 3 3 3 3 3 3 3 3 3 3 3 3 3 3 3 3 5 5 3 3 5 5 5 5 5 5 9 9 9 0 0 0 w w q q w w q q w q q q q q q q z z z z q q ^ ) ] -.2.=X3X9XNXBXAXDXDXAXBXNXNXAXDXDXIXHXHXHXHXHXHXHXHXHXHXHX",
"^ ^ V V V V ^ ^ ^ ^ ^ ^ ^ ^ ^ ^ ^ ^ ) ) [ [ ) ) ) ) ) ) ) ) ) ^ ) ) ) ) ^ ^ ^ ^ ^ ^ ) [ ^ ^ ^ ^ ) ) ^ ^ ) ) ) ) ) ) ) ) ) ) ) ) ) ) ) ) ) ) ) ) ) ) [ ) [ ) ) ^ ^ ` _ X.m.M.^.<XM.+.B ^ ^ ^ ^ ^ ^ ^ ^ ^ ^ ^ ^ ^ V V V V ^ ^ ^ ^ V q ^ ] ) ] O.] ] ] ] O.] ] ] ] ) ^ ' ;.} ( C } { Z | | Z Z Z |  .@...| | +... .|  .| #.U U | U  . ...@.U | j.j.j.j.j.j. .U U Y U  .j.k.f.M.j.j.@.p.#.p.p.f.f.f.a.W T W l.h.f.p.p.p.#.#.P T a.k.h.a.E l.k.k.l.u.u.a.W W E E E u.u.u.a.a.h.k.A.A.z.k.k.k.a.u.u.u.6.6.6.u.u.u.E I I W W W 6.u.a.h.a.h.h.a.h.a.a.s.g.g.g.g.g.c.c.x.x.x.x.x.!.!.{.{. XXXeXXXXXeXeXeXXXeXgXsXsXsXiXgXpXsXdXdXsXiXiXiXiXiXiXiXuXuXuXyXeX@X@XXX.X|..X|.|.|.|.|. X X}.].!.!.!.!.~.Q.Q.S.Z.x.z.b.z.z.c.c.g.g.c.g.g.c.c.k.x.A.A.A.A.A.A.A.k.g.h.l.a.p.p.u.a.p.l.k.k.A.k.k.k.h...W ..u.E k.l.E E E a.W E p.a.a.p.a.A.k.p.k.k.l.p.l.j.k.M.k.W.k.p.k.W.j...a.j.L f.j.M.M.j.Y.C.m.M.M.,Xm.R.2X,XR.m.$.o.$.} ( Z n.o.A 6 x Z h > , z z A 7 l - > 6 > > > > > > > 2 4 4 3 3 3 3 3 5 5 5 5 3 5 5 8 8 8 8 9 9 5 5 5 5 8 8 9 9 9 9 9 9 0 0 w w q q w w q q w q q q q q q q z z q z V q V ^ ^ ) ] -.1.:X8XcXBXAXDXIXDXBXNXNXDXDXIXHXHXHXHXHXHXHXHXHXHXHX",
"z z z z V V ^ ^ ^ ^ ^ ) ) ) ) ` ] ] ] ] ) ) ) ) ) ) ` ` ` ` ] ] ] ] ] ] ] ] ] ] ] ] ] ] ] ] ] ] ] ] ] ] ] ] ] ] ] ] ] ] ] ] ] O.O.%.%.%.%.%.%.%.%.%.%.%.%.%.%.-.-.%.$.:.M.^.<X<X^.*.( / ) ^ ^ ^ ^ ^ ^ ^ ^ ^ ^ ^ ^ V V ^ ^ ^ ^ V z z ^ %.` ] ] ] ] ` %.%.` ] [ [ ] ' ` _ o.{ A | | Z { | { Z C | A *.@.| ..+. .U | ..f. .U  .+.U  . ..... .f.j.f.f.j.j.@.Y L U L #.f.f.f.Y.M.j.a.f.W #...p.a.k.j.p.Y T f.a.p.#.p.p.p.p...F ..a.k.p.l.k.k.l.p.E W l.a.u.E 6.6.u.u.u.a.h.g.g.g.h.s.a.u.6.6.u.u.u.u.u.6.6.6.u.u.u.u.u.u.u.6.6.u.u.a.a.a.a.h.u.a.s.h.k.g.g.c.x.A.Q.W.~.!.{. X X!.!. X X@XeXXX@X@XeXeXuXuXgXgXgXgXgXiXzXfXfXdXdXdXsXsXsXiXiXiXiXiXuXuXyXeX@X@X@XXX.X|.|.|.|. X X X}.}.].].!.!.~.~.Q.v.S.v.x.c.b.b.c.b.c.c.c.b.g.c.c.c.z.A.Q.Q.(.Q.c.g.k.k.g.g.k.k.a.u.p.s.a.u.k.l.k.k.a.l.a.E E p...l.k.W p.W W a.T p.a.p.a.E M.k.l.a.W.p.l.p.l.k.(.W.Y.M.j.f.k.M.j.#.M.f.U @.m.M.j.^.j.R.Y.m.B.^.m.2X^.2Xm.B.*.*.| | ( o.%.A h 6 ( } , 6 h / l A V > & 7 > > > > 1 2 2 2 4 3 3 3 3 3 5 3 3 3 5 5 5 5 8 8 8 8 9 9 5 5 9 8 9 9 9 9 w w 9 9 0 w w w q q w w q q q q q V q q V V q q q V V V V V ^ ^ ) ] -.2.=X3XjXNXBXDXAXAXBXVXVXAXDXDXIXIXIXIXHXHXHXHXHXHX",
"^ ^ ^ ^ ^ ^ ^ ) ) ] ] ] ] ] ] ] %.%.-.-.%.%.%.%.%.%.-.-.-.-.-.-.-.-.2.2.2.2.2.2.2.2.1.1.1.1.1.1.1.1.1.1.1.V.V.V.1.1.V.V.V.T.T.T.T.T.T.=X=X=X=X=X=X=X=X=X>X>X>X>X>X=X-X;X,X<X<X<X^.m.X.) ) [ ) ) ^ ^ ^ ^ ^ ^ ^ ^ ^ ^ ^ ^ ^ ^ ^ V z z ] ` ) ` ] ] ] ` ] ] ] [ ) ) ` ` ` ( ( | ( { | P { | { P { Z S *.@.| { +.| @.@.*.| Y |  .| |  . .....@.f.f.*.f.m.j.U M  .U Y #.f.j.M.j.j.j.f.a.W W  .p.f.f.a.P T a.j.p...p.a.a.#.W W ..p.j.a.p.k.k.l.p.p.a.a.p.a.s.s.h.g.k.k.A.Z.Q.~.A.z.g.g.s.s.s.s.u.u.u.u.u.u.u.u.u.u.u.u.u.u.a.s.s.a.u.u.u.h.f.h.h.g.g.k.k.z.c.c.z.A.Q.!.!.}. XXXXX X X XXXXX@X@XXX@XeXuXgXgXgXuXuXgXsXsXdXdXdXdXdXdXdXdXsXsXsXiXiXiXiXuXuXyXeXeX@X@XXX.X.X|.|.|. X X X}.}.{.].!.~.~.Q.I.Q.S.S.v.c.g.b.c.c.c.c.c.c.c.c.c.g.g.g.c.Z.W.W.A.z.g.g.g.h.g.s.p.p.a.a.p.p.z.k.k.l.l.l.u.a.l.l.k.W.a.p.F W W u.E u.f...u.j.k.k.a.k.k.a.p.l.k.W.W.h.k.j.l.j.j.k.j.f.j... .@.M.| 5Xm.@.M.M.^.,XY.,X,X2X^.^.C.m.o.&.} o.&.} B , ( ( 6 6 - | l _ 7 6 + 2 2 > > 2 2 2 2 2 4 4 3 3 3 3 5 5 5 3 5 5 5 5 8 8 8 8 9 9 5 5 8 8 9 9 9 9 w w 9 9 w w q q q q q q q q q q V V V q V V q q V ^ ^ V V V ^ ^ ^ ` ] -.2.1.1X8XNXBXBXDXDXBXNXVXBXDXDXIXIXIXHXHXHXHXHXHX",
"-.-.-.-.-.-.-.-.-.2.1.V.V.V.V.V.=XV.>X=X>X>X>X>X>X>X:X:X:X:X:X:X:X:X:X:X:X:X1X1X3X3X6X6X6X6X6X6X6X6X6X6X7X7X8X8X8X8X8X8X8X8X9X9X9X9X9X9X9X9X9X9X9X9X9XjXjXjXjXjXjX8X7XhXtXtXwX/./.M.&./ [ ) ) ) ) ^ ) ^ ^ ^ ^ ^ ^ ^ ^ ^ ^ ^ V z z ) ^ ) ^ ) ` ] ] ) ] ] ) ) ) ) ) ) ) ) / | { { | { P | { { | C { *. .Y { +.| @.@.@.Y L  ...|  .........f.*.*.*.j.M.*.M Y Y L f...j.M.M.f.j...j.#.W Y ..p.f.a...P p.f.p.p.p.a.f.p.W Q E p.a.k.l.W.s.u.a.a.l.g.k.k.g.h.s.k.A.W.W.(.!.~.~.A.z.g.g.s.s.s.s.a.u.u.u.u.u.u.u.u.u.a.u.i.a.s.g.k.k.g.g.h.g.h.h.g.g.c.c.x.x.Z.S.~.~.Q.Q.~.!. X X X X X X@XXX@XeXeXeXeXeXuXgXgXgXiXsXdXdXdXdXdXdXdXdXdXdXsXsXsXiXiXiXpXpXuXuXuXuXeXeX@XXXXX.X.X.X X X X X|. X}.].!.~.Q.Q.Q.Q.S.S.S.x.c.c.c.c.c.c.c.c.c.c.c.c.z.c.A.W.A.A.c.g.g.h.s.s.s.s.a.p.p.a.6.k.k.l.g.g.l.p.E p.f.p.A.(.wXW.k.W ....u.f...u...j.W.l.a.W.l.p.l.k.k.W.j.l.f.j.f.f.j.M.j.f. .@.j...M.f.<XM.*.^.^.,X^.^.,X2X4XR.R.E.*.&.&.%.:.&.( B 6 } ( , > A ( _ 7 7 = > 6 > 1 1 2 2 2 2 4 3 3 3 3 3 5 5 5 5 5 5 5 5 8 8 9 8 9 9 9 9 9 9 9 9 0 0 w w w 0 q q q q q q q q q q V V V V V V V V z z ^ ^ ^ ^ ^ ^ ^ ^ ) [ ] ] %.-.V.>X6XjXNXBXAXBXVXNXNXBXAXDXIXIXIXHXHXHXHXHX",
"3X3X1X1X:X:X>X>X=X>X6X9X8X8X8X8X6X3XjX9XjXcXcXcXcXcXcXcXNXNXNXNXNXNXNXNXNXNXNXNXNXNXVXVXVXVXVXVXVXVXVXVXVXVXVXVXVXVXVXVXBXBXBXBXAXAXAXAXAXAXAXAXAXAXDXAXAXBXBXBXBXNXvXvXmXMXtXwX<X^.:._ ) ) ) ) ) ) ) ^ ^ ^ ^ ^ ^ ^ ^ ^ ^ ^ ^ ^ ^ V ^ ) ^ ^ ) ) ^ ^ ] ^ ^ ^ ^ ^ ^ ^ / / / } { | | { Z | | { A A =.=.Y | ..| | U  .P U |  .@. .| ........j.*.#.*.M.j.| M Y L @.*.@.M.M.f.j.#.f.#... .Y ..p.a.#.W ..f.p.P p.a.f.f...W E p.u.k.l.k.l.a.s.h.k.k.k.k.h.g.z.A.k.x.A.W.(.Q.z.g.z.g.s.s.a.i.i.i.u.u.u.u.u.p.a.a.a.a.s.s.s.s.s.s.a.s.g.g.g.k.h.g.g.c.z.x.A.S.Q.Q.Q.Q.~.!.{. XXXXX XeX@X XeX@XeXeXeXeXuXpXsXsXsXsXsXsXdXfXzXzXzXzXfXdXdXdXsXsXsXiXiXiXiXpXpXuXuXuXyXeXeX@X@X@XXXXXXX X X X X X}.].!.~.~.Q.Q.Q.Q.Q.Q.Q.x.c.c.c.c.c.c.c.c.c.c.c.c.z.x.x.x.Z.k.g.g.h.s.a.a.s.s.p.p.a.a.p.k.l.k.g.l.p...E a.p.k.a.E p.W l.k.k.a.p.a.E W p.A.k.a.k.k.p.f.h.l.W.k.h.p.#.k.f.f.k.a.M.@.U .. . .M.^.f.j.^.^.^.,XR.2X,XhXR.^.,Xm.m.n.:.:.&.%.A h A } Z - 6 %.B l 7 6 - 6 > 2 2 2 2 2 2 4 3 3 3 3 3 5 5 5 5 5 5 5 5 8 8 8 8 9 9 9 9 9 9 9 9 0 0 w w w q q q q q z q q q V V V V V V V V V V V V ^ ^ ^ ^ ^ ^ ^ ^ ) ` ] ] ] %.-.1.=X:X8XNXVXBXBXVXNXVXBXAXDXIXIXIXHXHXHXHX",
"cXjX9X9X9X8X6X6X7XjXVXBXVXVXNXNXcXjXBXVXBXBXBXBXBXBXBXBXAXAXAXAXAXAXAXAXAXAXAXAXDXDXUXUXDXDXDXDXDXDXDXDXIXIXIXIXIXIXIXIXIXIXIXIXHXHXKXKXHXHXHXIXIXIXIXIXIXIXIXIXIXDXZXZXZXmXtXwX<X^.m._ ` ) ) [ [ [ ) ) ) ) ) ^ ^ ^ ^ ^ ^ ^ ^ ^ ^ z ^ ) ^ V ^ ^ V ^ ] ^ z V V z V ^ / B A ( { | | { P | | Y C | *.| Y | #.| | @.| | |  . ...Y | *. . .@.j.f...j.f.@.Y M |  .@.#.j.j.f.j.f.a.f.W W Y p.p.j.a.P E j.f.W #.a.f.a.p.E T E u.k.d.l.a.a.s.g.k.k.g.k.g.x.A.A.W.Q.Q.Q.S.Z.Z.A.z.g.g.s.i.i.i.i.i.i.i.u.u.a.s.s.s.s.s.s.h.h.h.s.s.s.s.s.s.x.g.k.g.c.x.Z.Q.~.!.!.!.!.].].}. X XXXXXXX@X@XXXeX@XeXeXeXeXpXgXsXsXsXsXsXsXdXfXzXzXzXzXfXdXdXdXsXsXdXdXdXsXiXiXiXiXiXiXuXuXyXeX@X@X@XXXXXXX.X|. X|.|.{.].].~.~.Q.Q.Q.Q.Q.Q.v.x.c.c.c.z.c.c.c.c.c.c.c.x.x.c.c.x.g.g.g.g.s.s.p.6.6.p.a.a.p.a.k.k.6.l.l.a.E u.s.u.a.A.u.u.W W W W p.k.f.l...u.M.M.p.f.(.u.E a.k.k.k.f.k.f.k.j.U M.M.j.M.f...f.U @.M.M.f.*.<XY.rXR.,XR.5XC.2X4XR.m.E.B.*.m.&.o.( B o.( h 7 o., ` 7 7 2 2 6 2 2 2 4 4 4 3 3 3 5 5 5 5 5 5 5 5 5 5 5 5 5 5 5 9 9 9 9 9 9 9 9 w w w w q q q q V V ^ V V V ^ ^ ^ ^ ^ ^ ^ ^ ^ ^ ^ ^ ^ ^ ^ ^ ^ ) [ [ [ ] ' ] ] O.-.-.1.=X:X7XcXNXBXBXBXVXVXBXAXDXDXIXIXIXHXHX",
"BXVXVXVXNXNXNXcXVXAXAXIXIXDXAXAXVXVXDXDXIXIXIXIXIXIXIXIXHXHXHXHXHXHXHXHXHXHXHXHXHXHXHXHXHXHXHXHXHXHXHXHXHXHXKXKXHXHXKXKXKXKXKXKXKXKXKXKXKXKXKXKXKXKXKXKXHXHXHXIXIXDXSXSXmXbXtXwXwX/.m._ ) ) [ [ ) ) [ [ ) ) ^ [ ) ^ ^ ^ ^ ^ [ ^ ^ V ^ ) ^ V ^ ^ V ^ ] V w z z w z B ^ B A ( { { { P { | | Y { |  .| | | | #.#.| Y L  .| @.| Y @.f.|  .j.f.#.f.*.@.@.M P  .@.@.f.j.f.f.f.f.f.a.U P U f.j.j.W Y f.p.W p.p.j.f.p.E W T W p.k.k.k.k.c.x.A.A.W.W.W.W.W.A.A.W.Q.~.~.S.A.z.z.z.g.g.s.i.s.s.s.s.a.a.a.s.s.s.s.g.g.g.g.g.g.g.g.g.g.g.g.g.c.g.x.A.W.W.Q.Q.~.~.~.!.].]. XXXXX X X X X X|. XXX@X@XeXeXuXgXsXsXiXgXsXsXsXdXfXfXdXsXsXdXdXdXdXdXdXdXfXfXdXdXiXiXiXiXiXiXuXuXeXeX@X@X@XXXXXXXXX|.|.|.|.}.].].~.~.~.~.~.~.~.v.x.x.b.b.c.c.c.c.g.g.c.c.x.z.c.c.x.k.g.g.g.g.s.s.g.l.a.p.6.p.W p.W.l.l.l.6.6.u.a.p.p.k.p.E W W W W I a.a.l.k.f.a.M.f.a.W.j.u.a.p.k.M.Y.j.j.j.k.U U j.f.f.@.@.@.@.@.@.^.j.@.m.R.^.<XR.2X2X,X,XhX^.E.C.R.B.m.m.:.&.} { } C h Z l V l 6 6 6 0 2 4 4 4 4 4 3 5 3 5 5 5 5 5 5 5 5 5 5 5 5 5 5 5 9 9 9 9 9 9 9 9 w w w w q q z V ^ ^ ^ ^ ^ ^ ^ ^ ^ ^ ^ ^ ^ ^ ^ ^ ^ ^ ) ^ [ [ [ [ ) ] ] ] ] ] O.%.-.-.;.2.T.>X3X8XcXVXVXNXNXNXVXBXAXDXDXIXIXIX",
"AXAXBXVXVXVXBXBXAXUXIXHXIXIXDXAXAXAXDXIXHXHXHXHXHXHXHXHXHXHXHXHXHXHXHXHXKXKXHXHXHXHXHXHXHXHXHXHXHXHXHXHXHXHXKXKXKXKXKXKXKXKXKXKXKXKXKXKXKXKXKXKXKXKXKXKXHXIXDXAXAXAXNXvXrXrXrXtXwX<XB.X.` ` [ ) ) ) ) [ [ [ [ [ [ [ ) [ ) ^ [ ^ ^ V ^ ^ ^ V ^ ^ V V ] V q z z q z ^ B B A ( { { S { | | { Y | =.| Y | | | #.#.U | | #.| *.|  .*.*...*.m.@...f...@. .M  . .f.@.j.j.f.@.f.p.f...W L @.f.j.p.Y #.f.W W f.f.h.p.E W W p.W k.A.W.W.W.W.W.W.Q.Z.A.Z.Z.Z.W.W.W.~.~.Z.A.z.z.g.g.s.s.s.s.s.s.s.s.s.s.s.s.g.g.g.g.g.g.c.g.g.g.c.k.c.c.c.c.c.x.Q.Q.Q.Q.Z.v.v.v.Q.Q.Q.~.}. X X|.XXXXeXeXeXeX@XeXeXeXuXuXgXsXiXuXuXiXsXsXdXfXdXdXiXsXdXfXfXdXdXdXzXzXzXfXdXsXiXiXiXiXsXiXuXyXeXeX@X@X@X@X@X@X.X X|.|.|.}.].].~.~.~.~.~.~.Q.x.c.x.x.x.~.Q.x.c.c.c.c.Z.Q.Z.x.c.c.k.g.s.s.a.a.s.k.k.a.p.6.6.a.k.k.a.k.p.u.u.u.l.E l.a.E W W W W W u.E E a.f.f.M.k.p.j.A.a.a.p.h.M.Y.j.j.M.k.a.#.W #.j.f.f.f.f.f.f.j.Y.f.m.M.^.,XR.4X5X4X,XkX4X,XE.,XR.R.:.*.=.X.%.n.=.( B ( B B 7 7 > w 4 4 4 4 4 3 5 5 5 5 5 5 5 5 5 5 5 5 5 5 5 5 5 5 9 9 9 9 9 9 w w w w q q q q z V ^ ^ ^ ^ ^ ^ ^ ^ ^ ^ ^ ^ ^ ^ ^ ^ ^ ^ ^ ) ) ) ) ) ] ] ] ] O.O.-.-.>.2.2.2.1.T.-X3X7XjXNXNXNXNXNXVXBXBXAXDXDXDX",
"BXVXVXVXVXBXAXAXAXAXUXIXIXDXAXAXVXAXAXIXIXIXIXIXDXDXDXDXIXIXIXIXIXIXIXIXIXIXIXIXIXIXIXIXIXIXIXIXHXHXHXHXHXHXHXHXHXHXHXHXKXKXKXKXKXKXKXKXKXKXKXHXIXIXIXIXDXBXVXNXjX9X4X2X2X<XwXwXtX<XR.%.` ` ) ) ) ) ) ) [ [ ) [ ) ) ) ) [ [ ^ ^ ^ V ^ ^ ^ V ^ ^ V V ] V q z z q z ^ B z A ( { { C | =.| | { | | | |  .| | | | |  .*.|  ... .*.*. .f.j.j.| f... .@.P P *.@.f.f.j.j.@.@.@.#.f.W W Y j.f.a...W a...T p.p.h.f...E W p.u.k.z.x.x.x.x.A.A.Z.Z.Q.Q.Q.Q.Q.Q.Q.Q.Q.Z.z.g.g.g.s.s.s.s.s.s.s.s.s.s.s.s.s.g.g.g.g.g.k.z.c.c.c.c.c.c.c.x.x.Q.Q.Q.Q.Z.Q.Q.v.v.!.}.}. X|.|.|. X X|.XXXXeXeXeXeXeXeXeXeXuXuXgXgXuXgXgXpXsXdXfXfXdXdXdXdXfXfXfXdXfXfXzXzXzXzXfXdXsXsXsXsXsXsXiXuXyXeXeX@XeX@XeX@XXX.X X|. X|.}.].].!.!.~.!.!.Q.v.x.x.c.x.c.Q.Q.x.c.c.c.x.A.c.c.c.c.z.g.s.s.s.s.6.a.p.6.6.6.u.6.p.k.a.k.k.u.p.E l.E p.l.E ......E W u.E u.a.W a.k.k.a.a.W.h.a.j.u.k.j.k.a.#.j.j.W .. .j.f.@.j...j.j...j.Y.*.m.^.rXR.5XhXhX^.rXvX2X,X2X,X4XR.m.n.*.%.n.%.o.( o.X._ l B 2 z 4 4 4 4 3 5 5 5 5 5 5 5 5 5 5 5 5 5 5 5 5 5 9 9 9 9 9 9 w w w w q q q q V V ^ ^ ^ ^ ^ ^ ^ ^ ^ ^ ^ ^ ^ ^ ^ ^ ^ ^ ^ ^ [ [ ) ] ] ] ] ] O.%.O.-.-.-.>.>.2.2.T.V.T.-X;X3X9XcXNXNXNXVXVXBXBXBXAXAX",
"NXNXVXBXBXAXAXAXIXIXIXIXDXDXAXVXBXAXDXDXIXDXDXDXDXDXDXDXDXDXIXIXIXIXIXDXIXIXIXIXIXIXIXIXIXIXHXHXIXIXHXHXHXHXHXHXHXHXHXHXKXKXKXKXJXJXKXKXHXHXIXIXIXDXAXBXVXjX6X:X-XV.n.n.B.^.<XwXtXwXR.&.' ] ] ] [ [ ) ) [ ) ) [ [ ) ) ) [ ) ^ ^ ^ V ^ ^ ^ V ^ ^ V V ] V q z z z l ^ z z A Z ( Z C | +.| *.| | | | #. .| | | |  .#.| U | ..@.*.@.f.*.m.*.........U U ..*.f.f.M.f.f.U f.#.j.W Y P p.f.a...W W a.W a.l.l.h.....u.a.g.g.k.c.A.Z.Z.Q.Q.x.x.Q.Q.~.!.Q.Q.Q.Q.!.z.g.s.s.s.s.s.s.s.s.s.s.s.s.s.s.s.s.s.s.g.g.g.g.c.c.c.x.x.x.x.x.x.Z.Q.Q.Q.Q.Q.Q.~.~.!.!.].].].].}.|.|.|. X.XXXXXXX@X@X@XeXeXuXuXuXuXpXpXpXiXgXiXsXdXfXfXfXfXzXzXzXfXfXfXfXzXzXzXzXzXfXdXdXdXdXsXsXsXsXsXpXyXeXeXeXeX@X@XXXXX.X X|.|.|.{.].].].!.].!.Q.v.v.x.c.c.c.x.Z.x.c.c.c.x.x.c.z.c.c.c.c.g.s.s.g.a.s.h.s.p.u.u.a.h.p.s.k.s.6.p.E a.u.p.l.E p.p.u.u.W W W ......a.E W.M.u.k.M...f.a.f.k.a.p.a.W ^.f. . .f.j.f.f.@.f.@.@.@.j.m.*.R.<X^.5XvX5XhX2XFX4XhX4X1XjX3XC.E.E.:.&.n.X.( ( _ ` B ` ^ _ B z w 9 5 5 5 5 8 8 8 8 8 8 8 8 9 9 0 0 9 9 9 9 9 9 w w q q q q q V V V ^ ^ ^ ^ ^ ^ ^ ^ ^ ^ ) ^ ^ ^ ^ ^ ) ^ [ ) [ [ [ [ ] ] ] ] ] ] -.-.-.-.-.2.2.2.2.1.1.V.T.T.-X;X3X8X9XNXBXBXBXBXBXBXBXBX",
"VXVXBXAXAXAXDXUXIXIXIXIXDXAXAXBXBXDXDXDXIXDXDXDXDXDXDXDXDXDXIXIXIXIXIXIXIXIXIXIXIXIXIXIXIXIXHXHXIXIXHXHXHXHXHXHXHXHXHXHXKXKXKXKXJXKXHXIXIXDXAXAXIXBXcX8X1X>XV.1.1.,.,.,.C.M.^.<XwX<XR.*.' ] ] ] ] ] ) ) ) [ ) ) ) ) ) [ [ [ ) ^ ^ ^ ^ ^ ^ ^ ^ ^ ^ ^ ] ^ z V z z z / z z A Z P Z Z | | +.*.{ =.| | @.#.| | | |  .| | @.| *.*.@. ...f.f.| *...| Y U  .@.*.f.j.f.f.#.@.#.#.a.W W W a.f.p.W W f.u...l.l.k.h.E a.a.u.g.c.c.A.Q.Q.Q.Z.Z.Z.Q.!.!.~.Q.Q.Q.Q.x.c.s.s.s.s.s.s.s.s.s.s.s.s.s.s.s.s.s.s.s.g.g.g.g.z.c.x.x.A.Z.Q.Q.Z.x.x.x.x.v.Q.~.!.!.}.}.|.|.|. X|. X X X X X.XXXXX@X@X@X@XeXeXuXuXpXuXpXpXpXpXsXsXsXsXdXfXzXzXzXzXzXfXfXfXfXzXzXzXzXzXfXdXdXdXdXsXsXsXsXsXsXpXyXeXeXeXeX@XeXXXXX.X X|.|.|.{.].].].].].Q.I.v.v.x.c.x.Z.x.c.c.c.c.c.x.A.A.c.c.c.x.c.g.g.c.g.s.s.s.a.i.i.a.s.s.s.g.h.6.p.6.p.p.p.l.u.u.....u.u...W P W a.....a.A.h.h.A.a.a.f.f.k.f.a.a.W k.k.@.U W j.f.f.@.f.j.@.f.M.j.Y.M.^.^.2XkXhXbX4XvXhXNXjX-XbXhXR.R.R.B.:.n.&.o.Z %._ B B 0 w 7 w ^ ) 8 8 8 8 8 8 8 8 9 9 0 0 0 0 0 0 w w w 0 9 9 w w w w q q q V V B ^ ^ ^ ^ ^ ^ ^ ^ ^ ^ [ ^ [ ) [ [ ) ) [ [ ] ] ] ] ] ] ] ] ] %.-.-.-.2.2.2.1.1.1.V.V.T.T.T.T.-X;X:X7X9XNXAXAXAXAXAXAXAX",
"BXAXAXAXDXUXIXIXIXIXIXIXDXAXBXBXAXDXDXDXDXDXDXDXDXDXDXDXDXDXIXIXDXDXIXIXIXIXIXIXIXIXIXIXIXIXIXHXIXIXHXHXHXHXHXHXHXHXHXHXKXKXKXKXKXHXHXIXIXDXBXVX9X6X>XT.1.,.2.2.2.2.>.>.n.C.R.,X<X<XR.n.O.] ] ] ] ] ] [ [ ) [ [ [ ) ` ` ) ) ) ) ^ ^ ^ ) ^ ^ ^ ^ ^ ^ ] ^ V V V V B / z A / { { { { | | =.*.U @.|  .@.#.| | |  .| U @.| @.*.@. . .@.m...| @. .U L |  .@.@.j.f. .@.#.f. .a...Y W @.f.a...W ..f.u.a.l.f.k.p.p.u.u.s.x.x.Z.Q.Q.Q.S.Z.x.Q.!.{.Q.Q.Z.Q.Q.x.b.s.s.s.s.s.s.s.s.s.s.i.s.s.s.s.s.s.s.g.g.b.z.z.c.c.z.x.x.Z.Z.x.S.S.v.S.Q.Q.!.!.Q.Q.!.}.|. X|. X X X.X.X.X.X.XXXXX@X@X@XeXeXeXyXuXpXpXpXpXuXpXiXsXdXzXzXzXnXzXzXzXzXzXzXzXzXzXzXzXzXzXzXfXdXdXdXdXdXdXsXsXsXsXsXpXuXeXeXeXeXeX@XXXXX.X X|.|.|.{.].].].].~.Q.Q.I.x.c.c.x.Z.x.c.x.c.c.c.z.c.z.c.x.c.g.s.s.s.h.s.s.g.h.s.a.u.a.s.s.s.k.u.6.p.6.a.u.l.p.E E ..u...p.E I W a.....E h.a.l.k.k.p.l.p.k.f.f... .p.j.f. .L j.f.f.@.f.f.j.Y.j.m.j.,XY.,XrXrXkXCX4XvXhXNXcX,XhXvX2X,X-X,XE.N.N.*.( &.$.) B ^ V 7 5 5 5 9 0 0 0 0 0 9 0 0 0 0 0 q w q q q q q q q q z z q z V V ^ ^ ^ ^ ^ ^ [ [ [ [ ) ) ) ) ] ] ] ] ] ] ] ] ] ] ] ] O.-.-.-.-.-.-.-.2.2.2.2.1.1.1.1.1.1.V.V.T.T.T.=X-X>X3X8XNXAXIXIXIXIXIXDX",
"AXAXDXUXIXIXIXIXIXIXIXDXDXBXNXVXDXDXDXDXDXDXDXDXDXDXDXDXDXDXDXDXDXDXDXIXIXIXIXIXIXIXIXIXIXIXHXHXIXIXHXHXHXHXHXHXHXHXHXHXKXKXKXHXHXHXIXDXDXVX9X6X=XT.1.,.2.2.2.2.2.2.>.>.;.n.B.^.,X,XR.C.O.] ] ] ] ] ] ] [ ) [ [ ] ] ] ] ) [ ) ) ) ^ ) ) ^ ^ ^ ^ ^ ^ ] ^ V V V V / / z ( ( { { { { | | =.*. .| | #.@.#.| |  .|  .| | =.=.*.+. . .m.j.| f.U U U U  . .@.f.j.#.#. .@.@.#.#.Y Y #.a.f.p.W E h.E a.l.l.k.f.u.u.a.s.s.A.S.Q.~.Q.Q.Z.x.!.{.{.!.Z.A.x.x.c.g.s.s.s.i.s.s.s.s.s.s.i.i.i.s.s.s.s.s.g.b.c.c.c.c.c.z.c.x.x.x.v.v.Q.Q.Q.~.!.~.~.!.!.!.!.!.].].}.|.|. X.X.X.X.XXXXX@X+X+XeXeXeXyXyXuXuXuXpXpXpXpXiXsXdXfXfXzXzXzXzXzXzXzXzXzXzXzXfXfXzXzXzXfXdXdXdXdXdXdXsXsXsXsXsXsXgXuXuXeXeXeXeX@XXXXX.X|. X|.|.|.{.].].~.~.Q.Q.I.x.x.x.c.x.c.c.c.c.x.x.x.z.g.c.c.c.c.g.a.s.g.s.g.g.g.s.u.p.s.a.a.k.p.E a.6.a.E a.p.W E ....W u.a.u.....a.E W k.f.u.l.k.p.j.p.k.f.j.Y f.@.f.f.f.Y @.f.f.@.f.f.@.M.f.,Xj.^.*.^.vXrX5XCXhXFXhXjXcX4X4XNX4X4X,X3X;XN.E.:.o.X.:.B l ` / w 0 9 9 0 0 w 0 w w w w q q w q q q z z z z V ^ ^ ^ ^ ^ ^ ^ ^ ) ) [ ) ) [ ] ] ] ] ] ] ] ] ] ] ] ] ] %.O.-.-.-.-.-.-.-.-.2.2.2.2.2.2.2.1.1.2.1.2.1.1.V.1.V.V.T.T.T.=X-X-X1X8XVXAXHXHXHXKXKXKX",
"AXDXIXIXHXHXHXHXHXIXDXDXDXBXBXDXDXDXDXDXDXDXDXDXDXDXDXDXDXDXDXDXDXDXDXDXDXDXIXIXIXIXIXIXIXIXIXIXIXIXHXHXHXHXHXHXHXHXHXHXKXKXKXHXHXIXDXDXNX6X>XV.1.1.2.2.>.2.2.2.2.2.>.;.$.;.n.B.M.M.B.B.O.O.] ] ] ] ] ] ] ] ] ) ] ] ] ] ) ) ) ) ) ^ ) ] ) ^ ^ ^ ^ ^ ] ^ ^ B B B ` B B } } { { { { | | =.| =.{ =.@.@.| | | L .. . .| =.@.@.| ....M.@.@.*. . . .@.@.f.f.j.a.Y f.a.#.#.#...P P l.a.p.W T f.p.p.l.a.h.k.W p.s.g.s.A.Q.Q.~.Q.S.c.Z.|. X X!.Q.A.A.x.c.s.s.s.i.i.i.s.s.s.s.s.s.s.s.s.s.s.s.g.g.b.b.c.c.c.c.x.x.x.x.v.v.I.Q.~.~.!.!.!.!.!.!.].].].].{.{.{.{.|..X.X.X.X.XXX+X+XeXeXeXyXyXuXuXpXpXiXiXiXiXiXsXdXdXdXfXfXzXzXzXzXzXzXzXzXzXzXfXfXzXzXzXfXdXdXdXdXdXdXsXsXsXsXsXiXgXpXpXuXeXeXeX@X@X@X@XXX|.|.|.|.|.}.].!.~.~.Q.I.S.Z.c.c.c.c.x.x.c.c.z.c.c.c.g.c.c.c.c.s.s.s.s.s.s.s.s.u.6.p.p.u.k.s.6.a.u.p.6.l.a.W E ..E E E ..W ..p.a.l.p.p.k.p.u.k.p.p.p.p.f.j.#.#.#.#.j.j.j... ...j.U ..j.f.j.^.^.j.M.Y.hXZXR.hXNXFXAXkXNX4XAX4XhX2X,X4X3X;XT.R.,.%.,._ / _ ^ B V V z V V ^ ^ ^ ^ ^ ^ ^ ^ ^ ^ ^ ^ ^ ^ ^ ^ [ [ [ [ [ [ ] ] ] ] ] ] ] ] ] ] ] ] ] %.%.%.-.-.-.%.O.-.-.-.-.-.-.-.-.2.2.2.2.2.,.2.,.,.2.2.2.2.1.1.1.1.1.1.1.1.T.T.>X:X1X6XjXNXBXDXHXHXKXKXJXJX",
"DXIXHXHXHXHXHXHXHXIXDXDXAXBXBXDXDXIXIXDXIXDXDXDXDXDXIXIXIXIXIXIXIXIXIXIXIXIXIXIXIXIXIXIXHXHXHXHXHXHXHXHXHXHXHXHXKXKXKXKXKXKXKXHXHXDXAXcX3X-XV.1.1.,.2.2.<.2.2.2.2.2.>.>.-.-.>.B.C.C.C.B.&.O.O.] ] ] ] ] ] ] ` ) ] ] ] ] ) ) ) ) ) ) ) ] ` ^ ^ ) ` ` ' ' ` ) ^ ) O.` / } o.| P { { | | +.=.| Y @.+.| =.{ Y | @.| | +.=.+. .| @.*.j.@.@.@.|  . .@. . .j.j. .#...f...p.#.U P a.f.f.#.Y p.a.u.a.p.l.k.p.u.a.s.a.c.z.~.~.Q.S.Z.Q.!.!.~.Z.c.c.z.x.c.g.s.s.i.i.i.i.s.s.s.s.s.s.s.s.s.s.g.b.g.g.b.c.c.x.x.x.x.x.v.v.I.Q.~.~.!.~.!.!.].].].].].}.{.|.|.|.|.|..XXXXXXXXXXXXX@X+XeXyXyXuXuXuXuXiXiXiXiXiXsXdXfXdXdXdXfXfXfXzXzXzXzXzXzXzXzXzXzXzXzXzXfXfXdXfXfXfXdXdXdXdXsXiXiXpXpXpXgXgXpXuXyXeXeXeX@X@XXXXX X|.|.}.].!.~.~.Q.I.v.Z.x.c.c.c.x.x.c.g.g.c.c.c.g.c.c.x.c.c.c.g.s.s.s.s.s.a.a.u.a.u.k.l.p.a.a.u.6.l.a.W E ..E E E ..W Q W u.a.p.6.l.l.p.p.h.p.l.p.a.j.f.G j.@.@.f.j.j. ..... ...f.f.j.f.<Xj.M.M.^.GXhXCXvXCXFXcXCX3XDX4X7X4XhX4X4X3XR.-XT.;.N.%.` O.` ) ^ ^ ^ ^ ) [ [ [ [ ` ] ] ` ] ' ] ] ] ] ] ] ] ] ] ] ] ] ] ] ] ] ] O.%.%.%.-.-.-.-.-.-.-.-.-.-.-.O.%.-.-.-.-.-.-.-.-.-.-.-.2.2.2.2.2.2.2.2.2.,.2.<.2.2.1.1.T.=X=X1X6X9XcXVXAXDXIXHXKXKXKXJXJX",
"HXHXHXHXHXKXHXHXHXIXDXDXBXBXAXDXIXHXIXIXIXIXIXDXIXIXIXIXIXIXIXIXIXIXIXHXHXHXHXHXHXHXHXHXHXHXHXHXHXHXHXHXHXHXKXKXKXKXKXKXKXKXKXIXDXDXNX3X=XV.1.1.1.1.,.2.2.2.2.2.2.2.2.>.;.-.;.n.n.n.C.n.-.O.O.] ] ] ] ] ] ] ] ] ] ] ] ` ) ) ) ) ) ) ) ] ] ) ^ ) ) ^ ^ _ ) B B ^ / / B B | | { L Y | |  .@.Y { =. .|  .L |  .| | | +.| | ..@.@.j. .*.*. .U |  .@.Y f.j.U U f...a...p...P ..k.a.p.T ..#.p.p.a.p.l.l.W a.s.s.s.Q.Q.!.~.Q.v.Q.!.!.Q.Q.x.c.c.c.c.g.s.s.s.s.s.s.s.s.s.s.s.s.s.s.s.s.g.c.c.c.c.x.x.I.I.I.v.v.I.Q.Q.~.~.~.~.].].].].].].{.{.}. X|.|..X|.|..XXXXXXXXXXXXX+X+X+XeXyXyXuXiXiXiXiXiXiXiXiXsXdXfXdXdXdXfXzXzXzXzXzXzXzXzXzXzXzXzXzXzXfXfXzXzXzXzXzXzXfXdXdXdXsXsXiXpXgXpXgXgXgXuXuXeXeXeXeX@XXXXX X|.|.].!.~.Q.Q.Q.S.Q.Z.x.c.c.c.c.c.g.g.c.c.g.g.g.c.x.x.x.x.x.c.c.c.g.g.u.6.a.6.p.a.l.a.a.s.p.u.l.a.W E u.E E E E W P Q W E p.E a.k.p.E k.a.l.p.#.f.j.Y W f.@. .j.M.@.U U .. .@.j.M.j.Y.<XY.M.Y.bXvXhXkXcXFXAXcXhXAXBX4X,XAX4XhX8X,X;X;XT.T.>.%.;.O.] ' ' ' ] ] ] ] ] ] ] ] ] ] O.O.] ] O.O.O.] %.-.-.-.-.-.-.%.-.%.%.%.%.%.-.-.-.-.-.-.-.-.-.-.-.-.-.-.%.%.-.-.-.-.-.%.%.%.%.-.-.-.-.-.2.2.2.2.2.2.2.2.,.,.1.1.=X=X3X8XcXVXAXDXIXHXKXKXKXKXJXJX",
"HXHXHXHXHXHXHXHXHXIXDXDXNXBXAXDXHXHXHXIXIXIXIXIXIXIXHXHXHXHXHXHXHXHXHXHXKXKXKXKXKXKXKXKXKXKXKXKXKXKXKXKXKXKXKXKXJXJXJXJXKXKXHXIXDXBX8X-XT.V.V.1.1.1.1.1.,.2.2.2.2.2.2.2.;.-.;.<.,.n.n.,.;.O.O.] ] ] ] ] ] ] ] ] ] ] ] ` ) ) ) ) [ ) ) ] ] ) ) ) ) ^ ) ' / B ^ ^ / ( _ } { | | Y Y | | | | { =.| | | Z | | | L | | | Z *. .*.@.m.| *.*...|  . .@.f.j.@. .U p.a.@.#...U Y f.k.p.T Y ..l...p.p.a.a.E p.g.s.s.Q.~.}.{.!.Q.v.!.!.!.~.x.c.c.c.g.g.s.s.s.s.s.s.s.s.s.s.s.s.s.s.s.s.g.g.c.c.c.c.x.x.x.v.v.v.I.~.~.~.].].].].].].].{.|.|.|.|.|. X|..X.X.X.XXXXXXXXXXXoXoX+X@X+XeXyXuXiXiXiXiXiXiXiXiXiXiXiXiXaXdXdXfXzXzXzXzXzXzXzXzXzXzXzXzXzXfXdXfXzXzXzXzXzXzXzXfXfXfXzXdXdXdXsXiXgXgXgXgXpXuXuXeXeX@X@XXXXX|.|.].!.~.Q.Q.Q.I.S.Z.Z.x.c.c.c.c.c.c.g.g.g.g.g.g.c.c.c.c.z.s.s.s.s.s.s.a.s.6.a.p.k.k.p.h.p.u.a.a.E E u.E E W E W W T T Q E p.p.k.p.p.p.l.l.a.E #.M...W #.@.j. .M.j.L  .U  . .j.M.^.C.rX<X@.Y.,XCX4XFXcXAXFXNX4XDXDXjX,XCX7XvXcX3X1X1X-X-X1.;.,.-.$.%.O.O.O.O.%.%.%.%.%.%.%.%.-.-.%.%.-.-.-.-.-.-.-.-.-.-.-.-.-.-.-.%.%.%.-.-.-.%.%.-.-.-.-.-.-.-.-.-.] ] ] ] ] ] ] ] ] ] ] %.%.$.-.-.-.2.-.-.>.2.,.1.1.1.=X>X:X3X8XcXVXAXIXIXIXHXKXKXKXKXJXJX",
"IXHXHXHXHXHXIXIXDXDXAXBXBXAXDXDXHXHXHXIXIXIXIXHXIXHXHXHXHXHXKXKXKXKXKXKXKXKXKXKXKXKXKXKXJXJXJXJXKXKXKXKXKXKXJXJXJXJXJXJXKXHXHXIXAXcX1X=XT.V.1.1.1.1.1.1.1.2.2.2.2.2.2.2.;.-.-.>.>.>.>.<.;.%.O.] ] ] ] ] ] ] ] ] ] ] ] ` ) ` ) ) ` ) ` ] ] ) ) ) ` ^ ) %.) B / ) ) ( ( ( { | | Y Y Y | | | @.@.| | | { | | { { +.| | @.@.| U f. . .j.*.Y  .*. .#.j.f.W  .#.a. .@.#.W W a.M.j.#.W W T p.E 6.u.a.a.a.k.s.s.A.}.XX}.{.!.Q.Q.{.!.Z.c.x.x.c.c.g.s.s.s.s.s.s.s.s.s.s.s.s.s.s.s.g.g.g.g.b.c.c.x.x.v.v.v.I.~.~.~.].].[.[.].].{.].{.{.{.{.|.|.|.|..X.XXX.XXXoXoXoXoXoXoXoX+X@XeXeXyXyXiXiXiXiXiXiXiXiXiXiXiXiXaXdXdXdXzXzXzXzXzXzXzXzXzXzXzXzXzXfXzXzXzXzXzXzXzXzXzXzXzXfXzXzXzXdXdXsXiXgXgXgXgXuXuXeXeX@X@XXXXX|.|.{.!.~.Q.~.Q.I.Q.Q.S.x.c.c.c.x.x.c.b.g.g.s.g.b.c.g.b.c.c.s.s.s.s.s.s.s.s.6.s.9.h.k.a.s.a.u.p.a.u.W u.E E Q W E T W W Q E E E k.l.E #.l.l.l.a.p.j...G ..@. .@.f.M.j...U  . ...j.m.f.,XrXf.m.R.mXvXcXBXKXCXAXhXDXKXNX3XcXNXAXNXjXjX7X4X:X-XT.,.-.2.<.>.-.-.-.-.-.-.-.-.-.-.-.-.-.$.$.%.%.-.-.-.-.-.-.-.%.%.%.%.%.3.3.%.%.] ] O.] ] ] -.-.-.-.-.-.-.-.-.-.-.-.-.-.-.-.] ] -.2.1.T.=X=X=X>X;X:X:X:X:X3X3X6X6X8X9XcXVXBXDXIXIXIXIXHXKXKXKXKXJXJX",
"IXIXIXIXIXIXDXDXDXAXBXBXBXAXDXDXIXIXIXIXIXIXIXHXIXIXHXHXHXHXHXHXHXHXHXHXKXKXKXKXKXKXKXKXKXKXKXKXKXKXKXKXKXKXKXKXJXJXJXJXKXHXHXDXAXNX1XV.=XV.V.1.1.1.1.1.1.,.,.2.2.2.2.2.;.-.-.;.;.>.>.>.-.%.O.] ] ] ] ] ] ] ] ] ] O.] ` ` ` ` ` ` ` ` ] ] ` ` ` ` ^ ^ ' ` ^ / ) ) ( _ { { | | U | Y | | | @.@.| | | | | | { | +.| | @. .P  .C. .*.*...U @. . .j.f.@.E #.#.p...@.#.W W k.k.f.#.W W T #.a.6.p.a.a.s.k.a.A. X!.!.}.!.Q.Q.!.!.~.x.x.c.c.c.g.s.s.s.s.s.s.s.s.s.s.s.s.s.s.s.g.g.b.b.b.c.c.x.v.I.Q.Q.~.~.!.].].].].].].].{.|..X.X|.|.{.|.|.|..X.X.X.X.XXXXXoXoXoXoX+X+X+X@XeXyXyXyXuXuXiXiXiXiXiXiXiXiXiXiXdXdXdXdXfXfXfXfXfXfXzXzXzXzXzXzXzXzXzXzXzXzXzXzXzXzXzXzXzXzXzXzXdXdXdXdXsXiXgXgXgXuXeXeXeXeX@X@XXX.X X|.].~.Q.~.~.Q.Q.S.v.x.c.c.x.x.x.c.c.c.g.g.g.c.c.c.c.c.c.c.g.s.s.s.s.s.s.s.s.a.a.k.s.a.a.u.p.a.p.W E E E W W E T T W W T W E a.h.p.! a.l.l.a.p.j.p.P ..f...f.L j.j.@... . . .f.Y.^.^.5XY.f.5XrXDXjXNXDXAXCXvXDXDXDX,XNXDXAXAXNXNXhXhX6X1X-X=X1.1.<.>.-.-.-.-.-.-.%.-.-.-.-.-.-.$.%.$.$.-.-.-.-.-.-.-.-.-.-.-.-.-.-.2.2.2.2.2.2.2.2.1.1.T.T.=X=X=X>X>X>X>X>X>X>X>X=XT.1.=X:X3X3X8X8X9X9X9XcXcXcXNXNXNXVXVXVXAXAXAXDXDXIXIXHXKXKXPXPXPXPXPXPX",
"DXIXIXIXUXDXDXAXAXBXBXAXAXAXDXDXDXDXDXDXIXIXIXIXIXIXIXIXIXIXIXIXHXHXHXHXHXHXHXHXHXHXHXHXHXHXHXHXHXHXHXHXHXHXHXHXKXKXKXKXKXHXHXDXAXBX6X=X=X=XT.V.1.1.1.1.1.1.1.1.,.2.2.2.2.>.-.-.-.-.-.-.-.-.%.O.O.-.%.%.] ] ] ] O.%.%.] ' ] ' ] ] ] _ ] O.] ' ' ] ` ) ' ' ) ) ` ` _ } } } { Y | | | #.| #.=.=.| | { | | | { +.| |  .*.U P m.*.*.j.@.|  .@.U #.M.#.#.#.f.@.#.a.#.U U j.j.f.a...W T a.a.6.p.a.s.s.s.a.g.!.XX!.~.}.Q.x.Q.!.~.Q.x.x.c.c.g.s.s.s.s.s.s.s.s.s.s.g.g.g.g.g.g.g.c.c.c.c.x.x.I.Q.~.~.~.~.!.!.].].{.{.{.{.{.{.|..X.X|.|.|.|..X.X.XXX.XXXXXXXoX@X@X+X+X+X+X+XeXyXyXyXyXyXyXuXiXiXiXsXiXiXsXaXsXdXdXdXdXfXzXfXfXfXfXzXzXzXzXzXzXzXzXzXzXzXzXzXzXzXzXzXzXzXzXzXfXdXdXfXdXdXsXsXgXpXuXuXuXeXeX@X@XXXXX.X X].~.~.~.~.~.Q.x.x.x.x.x.x.c.c.c.c.c.c.g.g.b.c.c.c.c.c.z.b.s.s.s.s.s.s.s.a.a.6.g.g.p.a.u.u.a.p.W W W E W E E W W W W Q W p.u.k.l.E p.l.l.a.p.j.f.W ..#. .j. ...j.@.@. . .| ..f.m.5X,X<XM.5X^.FXNXBXDXDXCXNXDXDXAX8X8XHXBXDXDXBXNXNXcX8X1X3X-X=XT.1.,.2.2.2.2.2.2.2.<.2.2.2.2.,.1.1.1.1.1.1.T.T.T.T.T.=X=X=X=X>X>X:X:X:X:X:X:X:X6X6X6X8X8X9X9X9XcXcXcXNXNXNXNXNX9X6X6X9XcXVXVXBXAXAXDXDXDXDXDXDXDXIXIXIXIXIXIXIXIXIXHXHXKXPXPXPXPXLXPXPXPX",
"AXDXDXDXDXDXDXDXBXBXBXAXDXDXDXDXDXDXDXDXIXIXIXIXIXIXIXIXIXIXIXIXIXIXIXIXIXIXIXIXIXIXIXIXHXIXIXIXHXHXHXHXHXHXHXHXHXHXKXKXHXHXHXIXAXAXjX1X=X=X=XT.1.1.1.1.1.1.1.1.,.>.2.2.2.>.-.-.-.-.-.-.-.-.%.O.O.-.-.%.%.O.%.%.%.-.%.] ] ] ] ' ' ' ] O.%.] O.O.O.] ' ] %.%.O.X._ } X.| | Y L | | | @.| #.@.#.| | | | { { | +.| | =.*.L *.m. .@.j. .U .. . .j.f.W ..p.f.@. .a...T #.j.f.a.p...W p.h.p.E a.a.s.s.h.p.~.!.}.}.}.}.S.x.Q.Q.Q.x.x.c.c.g.s.s.s.s.s.s.s.s.s.s.s.g.g.g.g.g.c.c.x.x.x.x.v.Q.Q.~.~.!.].].].].{.|.|.|.|.|..X|.|.{.|..X.X|..X.X.X.XXXXXXXXXoXoX@X@X+X+X+X+X+XeXyXyXyXyXyXyXyXuXiXiXdXdXdXdXaXsXdXdXdXdXfXzXzXzXzXzXzXzXzXzXzXzXzXzXzXzXzXzXzXzXzXzXzXzXzXzXzXzXdXdXfXzXzXdXsXsXsXgXuXgXeXeXeX@XXXXX X|.}.].~.~.~.~.Q.x.x.x.x.x.x.c.c.c.c.c.c.g.g.g.g.g.c.c.c.c.c.s.s.s.s.s.s.s.s.a.6.g.s.a.s.p.u.a.u.W E Q E W E u.E E W W Q T E E l.l.#.p.l.l.a.#.j.j.....j.a...@.U f.@.@...| |  .j.M.hX,X^.rX5XR.vXFXBXFXAXFXvXKXFXHXcX3XAXBXBXDXDXAXAXBXcX6X9X:X6X1X;X-X=XT.=X=X=X>X>X>X:X:X:X:X:X1X3X3X3X3X3X3X6X6X8X8X8X8X9X9X9XcXNXNXNXNXNXNXVXVXVXVXBXBXBXAXAXAXDXDXUXDXDXIXIXAXVX9XNXVXAXDXDXDXIXIXHXHXHXHXIXIXHXHXHXHXHXHXKXKXKXKXJXJXPXPXPXPXLXLXLXLX",
"BXBXAXDXDXIXDXBXNXBXAXDXDXDXDXDXDXDXDXDXDXDXIXIXIXIXIXIXIXIXIXIXIXIXHXHXHXIXIXIXIXIXHXHXHXIXIXIXHXIXHXHXHXHXHXHXHXHXHXHXHXHXHXIXDXAXBXjX6X1X=XT.=XT.1.1.1.1.2.1.1.1.2.<.2.2.-.-.-.-.-.$.-.%.-.-.-.-.-.-.%.%.%.%.%.-.-.%.%.%.%.O.O.O.$.-.-.<.<.,.,.1.V.T.1.T.T.T.,.<.&.o.*.*. .Y  .*.f.*.+.@.+.| | | =.{ | ..=.| | @.| | *.j.#.j.....|  . .f.j... .@.j.#.p...a.W L f.f.f.a.W #.T l.a.p.p.s.s.s.g.s.Q.!.(. X}.!.x.Q.Q.Q.x.x.c.c.c.g.s.s.s.s.s.s.s.s.s.s.g.g.b.b.c.c.c.x.x.x.x.Q.Q.Q.~.!.!.!.].].].].{.|.|.|.|..X.X.X|.|.|..X.X.X.X.X.X.X.X.X.X.X.XoXoX+X+X+X+X+X+X+X+X$XyXyXyXyXyXuXpXiXiXaXdXdXdXdXdXdXdXdXfXfXfXzXzXzXzXzXzXzXzXzXzXzXzXzXzXzXzXzXzXzXzXzXzXzXzXzXzXdXdXdXfXfXdXdXdXsXiXgXgXuXeXeXeX@XXX.X X|.{.].!.~.~.~.v.v.v.x.x.x.x.x.x.c.c.c.g.g.c.c.b.c.z.c.c.c.s.g.s.s.s.s.s.s.s.6.g.A.s.h.a.p.p.u.W E T E W E E E E W W T W E E p.k.E p.a.j.p.#.#.k.#.Y  .#.p.f.@.f.j.f.@.@.j.j.f.M.5XvXR.M.M.R.hXJXCXBXFXAXcXHXDXKXDX8XDXIXcXDXNXHXHXAXBX8XBX8XcXcXjX8X8X8X8X8X9X9X9XjX9X9XcXcXNXNXNXNXVXVXVXVXBXBXBXBXAXAXAXAXAXAXAXDXDXDXUXUXDXUXIXIXIXIXIXIXHXHXKXJXKXJXJXJXHXIXAXVXBXAXIXIXIXHXKXJXJXJXPXJXJXJXJXJXJXJXPXPXPXPXPXPXLXLXPXPXLXLXLXLXLXLX",
"jXcXNXBXBXBXNXNXNXBXDXDXIXIXIXIXIXIXIXIXIXIXIXIXIXIXIXIXIXIXIXIXIXIXIXIXIXIXIXIXIXIXHXHXHXIXIXIXHXHXHXHXHXHXHXHXHXHXHXHXHXHXHXHXIXDXAXBXNX9X6X1X>X=X=XT.1.1.1.1.1.1.,.,.2.,.2.2.>.-.-.-.-.-.2.-.-.-.-.-.-.%.%.%.%.-.-.%.%.%.$.-.-.>.,.1.T.=X-X;X3X3X6X7X1X3X7X3X7X-X-X:.m.f.#. ...*.*.*.@.=.+.| | =.| | | ..=.+.=.| Y *.j.@.f.f...L  .| @.j.f.L @.f.f...@...@.W a.#.a.#.p...#.W l.l.E a.g.s.s.s.s.Q. X X X!.Q.x.Q.Q.x.c.c.c.b.g.s.s.s.s.s.s.s.s.g.g.g.g.d.b.c.c.x.x.Z.S.S.Q.Q.~.!.!.!.].].].].{.{.|.|. X|.|..X.X|.|.|.|..X.X.X.X.X.X.X.X.X.X.X.XoXoX+X+X+X+X+X+X+X+X$XyXyXyXyXpXpXpXiXiXaXaXdXdXdXdXdXdXdXfXfXfXfXzXzXzXzXzXzXzXzXzXzXzXzXzXzXzXzXzXzXzXzXzXzXzXzXzXdXdXdXsXsXdXdXsXgXgXgXpXuXeXeXeX@XXXXX.X.X|.].~.~.~.~.Q.v.x.x.x.x.x.x.x.c.c.c.c.g.c.c.c.c.c.z.c.c.c.c.s.s.s.s.s.g.s.6.s.c.g.s.s.p.p.u.W E T E W E Q F W W W Q W E u.E k.a.E p.l.p.p...j.@.W  ...#.@.*.*.f.j.j.@.L | f.m.j.mXY.^.=.,X,XHXFXBXJXDXBXLXKXBXDXNXcXDXDXAXDXAXKXIXDX9XBXDXBXDXAXBXVXVXBXBXBXBXBXAXAXAXAXAXAXDXDXDXDXDXDXDXDXDXIXIXIXIXIXIXIXIXHXHXHXHXHXHXKXKXKXKXKXKXJXJXJXPXPXPXPXPXPXPXJXHXIXAXAXIXHXKXJXPXLXLXLXLXPXPXPXPXPXPXPXPXLXLXLXLXLXLXLXLXLXLXLXLXLXLXLXPX",
"1X3X8XjX9X8X9X9XNXVXAXDXDXDXDXDXDXAXAXAXAXAXAXAXAXAXAXAXAXAXAXAXAXAXAXAXAXAXAXAXDXDXDXDXDXIXHXIXIXHXHXHXHXHXHXHXHXHXHXHXHXHXHXHXHXIXDXAXAXBXVXjX9X8X6X6X:X>X=X=XT.V.1.1.1.1.1.,.2.2.2.2.2.-.2.2.2.2.2.2.2.-.-.-.-.2.2.>.>.<.1.V.-X-X>X:X1X7X8XjXNXNXVXBXNXNXDXBXBX1XhX2XR.C.*.*.*.f.*.+.@...| | | | { | +.+.+.=.+.| | *.j.#.j...P P  .| M.f.W  .f.f.p.#.#.#.....j.p.p...W #.E p.f.a.E h.s.s.s.g.!. X X}.}.~.x.x.Q.x.c.g.b.b.g.s.s.s.s.s.s.s.g.g.g.g.g.g.b.c.x.x.x.Z.Q.Q.~.!.!.].].].].{.{.{.|.|.|.|.|.|.|.|.|.|.|.|..X.X.X.X.X.X.X.XXXXXoXoXoXoXoXoX+X+X+X+X+X+XyX$XyXyXuXuXpXpXpXpXiXiXiXaXsXdXdXdXdXdXfXdXfXfXfXfXfXfXzXzXfXfXzXzXzXzXzXzXzXzXzXzXzXzXzXzXzXzXzXzXdXdXdXsXsXdXdXsXgXgXgXgXgXeXeXeX@X@XXXXX X|.}.].~.~.~.~.I.v.x.x.x.x.Z.x.c.c.c.c.c.c.z.c.c.c.c.c.c.c.x.b.s.s.s.s.s.s.6.s.c.g.s.g.6.p.u.E W T E E W Q G F W I Q W E u.E k.l.....l.a.a.P j.f.a... .W U  .Y | #.*. .L  .| ^.B.hX<X^.M.5XR.hXFXCXLXFXAXLXKXBXDXDX9XAXDXAXBXLXHXHXHXcXNXPXDXHXHXIXIXIXIXIXIXIXHXHXHXHXHXHXHXHXKXKXHXHXHXHXHXHXKXHXKXKXJXJXJXJXJXJXJXJXPXJXPXPXPXPXPXPXPXPXPXPXPXPXPXPXLXLXPXJXHXIXDXIXHXKXPXLXLXLXLXPXPXPXPXPXPXPXPXPXPXPXPXPXPXPXPXPXLXPXLXJXPXJXKXKX",
"-.,.T.>X>X-X1X8XcXNXVXBXAXAXBXBXBXBXBXBXVXVXBXVXVXVXVXNXNXNXNXVXVXVXVXVXBXBXBXBXBXBXBXBXAXDXDXIXIXIXHXHXIXIXHXHXHXHXHXHXHXHXHXHXHXHXIXIXDXDXAXBXVXNXNX9XcX9X6X:X:X>X>X-X=XT.T.V.V.1.1.1.1.1.V.1.1.1.1.1.1.1.V.1.T.T.=XT.T.=X;X:X7X8X9X9X9XNXVXDXDXDXIXHXAXBXKXAXKXhXhX4X2XE.f.j.*.f.*. .@...| | +.P | +.=.| | =.+.{ ..@.f.j.@.| k @. .| j.@. .a.f.f.W a.@.E ..a...j.p...T ..E a.a.E l.l.6.p.g.Z.~.!.}.!.~.Q.Q.Z.x.c.g.g.b.g.g.s.s.s.s.s.s.g.g.g.g.c.c.c.c.x.x.x.v.Q.Q.Q.!.!.].}.}.{.{.{.|.|.|.|.|.|. X|.{.{.|.|.|.|..X.X.X.X.XXX.X.XXXXXoXXXXXoXoXoX+X+X+X+X+X+XyX$X$XyXyXpXpXpXiXiXiXiXiXiXaXsXdXdXdXdXdXdXdXdXdXdXdXdXdXfXfXfXzXzXzXzXzXzXzXzXzXzXzXzXzXzXnXzXzXzXdXdXdXfXfXfXfXfXdXsXsXsXgXeXeXeXeX@XXXXX.X|. X].~.~.~.~.Q.v.x.x.x.x.S.x.c.c.c.c.b.g.b.c.c.c.c.c.c.c.x.x.g.s.a.s.i.s.a.s.c.g.s.g.6.p.u.E T T E E W T H F I W W T E E u.a.j.a.E l.a.a.E j.a.U #.W U U |  .U  .f.....U | +.f.,XkX<X^.hXB.-XFXhXJXDXBXJXDXIXNXIX9XDXNXAXHXDXKXLXIXAXVXLXAXHXKXHXKXJXKXKXKXKXJXJXKXKXKXKXJXJXPXPXPXPXLXPXPXJXPXPXPXPXPXPXPXPXPXPXPXPXPXPXPXPXLXLXLXLXLXPXLXPXPXPXPXPXPXPXLXLXJXHXBXAXIXHXHXJXLXPXPXPXPXPXPXPXJXJXKXHXHXHXHXHXHXHXHXHXHXHXHXHXHXHXIXDX",
"%.-.>.2.,.1.T.=X3X8XjXNXBXVXNXcXcXcX9X8X8X7X6X3X1X1X1X1X:X:X:X1X1X1X1X3X6X8X8X9X9XjXNXNXBXBXBXBXAXDXIXDXDXIXIXHXHXKXKXKXKXKXKXKXKXHXHXHXHXIXIXDXDXAXBXVXVXVXNXNXjX9X9X8X8X7X6X6X:X:X:X:X:X:X:X:X:X;X:X:X:X:X1X3X3X3X3X3X6X3X8XcXNXNXVXBXDXDXDXDXIXHXKXKXHXBXJXHXJX7XvXvXhX^.m.j.f.f.*.=.=...+.| +.| +.{ *.| | +.| Y j.j.j.*.| M M @... .f.@.#.f.f.a.W a.#...a...p.a...W p...E l.W p.k.a.6.s.c. XXX X!.Q.S.x.x.x.c.c.g.g.g.g.g.s.s.s.s.s.g.g.b.c.z.c.x.x.x.v.Q.Q.Q.Q.~.~.~.].].{.{.{.{.{.|.|.|.|.|.|.|.{.{.{..X.X.X.X.X.X.X.X.X.X.X.X.X.XoXoXoX.XoXoX+X+X+X+X+X$XyXyX+X+XyXyXpXpXuXuXiXiXiXaXaXdXdXdXdXdXdXdXdXdXdXdXdXdXfXfXfXfXzXzXzXdXzXzXzXzXzXzXzXzXzXzXzXzXzXzXfXdXfXzXzXfXzXzXfXfXfXdXgXsXgXuXeX@XXX X.X.X|.{.].~.~.~.Q.v.v.x.x.v.Z.x.c.z.c.z.g.g.g.z.c.z.c.c.c.c.x.x.b.s.s.s.b.s.s.i.s.s.s.g.6.p.u.p.T W E E W W Q F W W W Q E W u.u.k.l.E E l.l.E ..a.W @...T L U .. .U @.f.U U | | R.M.4X4X,XrX^.E.NX1XLXHXCXLXDXIXNXIXNXLXNXjXHXIXHXLXKXDXVXLXIXLXLXJXPXPXPXPXPXPXPXLXPXPXPXPXPXPXPXPXPXPXPXPXLXLXLXLXLXLXLXLXLXLXPXPXPXPXPXPXPXPXLXPXPXPXPXPXPXPXPXPXPXPXPXJXJXJXKXHXAXBXAXDXHXJXLXJXKXKXHXIXIXIXIXIXIXDXDXDXDXDXDXDXDXAXBXBXBXNXcXcX8X8X",
"-.-.-.-.-.;.2.1.=X:X1X7X6X3X1X1X;X>X=X=XT.T.V.V.V.V.V.1.N.N.N.V.V.V.V.V.V.V.T.=X=X>X;X:X3X7XjXNXAXAXAXAXAXDXIXIXHXKXKXKXKXKXKXKXKXKXKXKXKXHXIXIXIXIXIXDXDXAXAXBXBXVXVXVXNXNXcXcXcXcXcX9X9X9X9X9X9X9X9X9X9X9XcXcXcXcXcXcXcXcXcXNXAXDXDXIXDXDXDXDXIXKXJXJXJXVXIXJXHXBXvXvX4XR.^.j.f.f.*.@.@.@.+.| { +.| +.o.+.| +.| *.j.@.j.U P k @.f.@.@.@.@.#.a.f.#.U @.W a.a.W p.p.E W ....p.a.E a.l.p.a.s.~. XXX X!.Q.x.c.c.c.c.g.c.g.g.g.g.s.s.s.s.s.g.c.c.c.c.x.x.S.Q.Q.Q.~.~.~.~.~.~.].].{.{.{.{.{.|.|.|..X|.{.{.|..X.X.X.X.X.X.X.X.X.X.X.X.X.X.X.XoXoXoXoXoX+X+X+X+X+X+X$XyXyXyXyXyXyXpXpXpXiXaXaXaXaXdXdXaXaXdXdXdXdXdXdXdXdXaXaXdXfXfXfXzXzXzXdXfXzXzXzXzXzXzXzXfXzXzXzXzXzXzXfXzXzXzXzXfXfXdXdXdXdXsXdXsXuXeXeXXXXXXXXX.X|.].~.~.~.Q.v.v.x.x.x.x.x.c.z.c.b.g.g.g.c.c.z.c.c.c.c.x.x.c.s.s.s.b.s.g.i.s.g.g.g.p.p.u.p.W W W W W W I F W W W T W W E E j.l.p.E a.a.#.E a. .U @...G L @.@.Y | j.@.P +.P j.M.,XbX,X^.4XR.kX3XFXKXDXHXIXJXBXDXDXDXIXjXDXIXIXPXJXHXNXLXHXJXLXLXLXPXPXPXPXPXPXPXPXPXPXPXPXPXPXPXPXPXPXPXLXLXLXLXPXPXPXPXPXPXPXPXPXPXPXJXPXPXPXJXJXJXJXJXJXJXJXKXKXKXHXHXHXIXIXAXVXVXVXBXDXDXIXDXDXDXAXAXDXAXBXVXVXNXcXjX9X8X7X3X1X;X;X-XT.N.<.<.%.%.",
">.-.-.-.-.-.-.-.>.2.1.T.V.V.N.N.N.1.1.1.1.1.1.,.1.1.1.1.1.1.1.1.1.1.1.1.1.V.T.T.T.T.T.T.T.=X>X;X3X9XNXVXAXAXDXIXHXHXKXKXJXJXJXKXKXKXKXKXKXKXKXHXHXHXHXHXIXIXIXDXDXDXDXAXAXAXAXBXAXAXAXAXBXBXBXBXBXBXBXBXBXBXAXAXAXAXAXBXVXVXAXAXIXHXKXJXHXHXHXHXHXJXLXLXKXBXDXLXDXCXvXbX5X,XR.m.f.f.*.=...@.+.| | | | +.| +.+.+.*.*.@.f.@.P M M j.#.#.f.@.f.a.a.#. . . .@...W a.a...W E E p.a.p.p.k.a.6.s.g. X X X{.Q.x.x.c.c.c.c.c.b.g.g.g.g.g.s.s.s.g.g.c.x.c.x.x.Q.Q.Q.Q.~.~.~.~.~.~.~.].].{.{.{.{.|.|.|.|.|.{.{.{..X.X.X.X.X.X.X.X.X.X.X.X.X.X.XoXoXoXoXoX.X+X+X$X$X+X+X$XyXyXyXyXpXpXpXpXpXiXiXiXaXaXaXaXaXaXaXaXdXdXdXdXdXdXdXdXaXdXfXfXfXzXzXzXdXfXzXzXzXzXzXzXzXzXnXnXnXnXzXzXzXzXzXzXzXzXzXzXzXfXdXsXsXsXgXeXeX@X@XXXXXXX.X{.].~.~.Q.v.v.x.x.x.x.x.x.c.c.b.b.c.g.c.c.c.c.c.x.x.x.x.x.b.g.s.g.s.g.a.i.g.g.s.p.p.p.p.E E E E E W W Q W Q Q T T W W E l.l.a.E a.a.p.W f.U Y #.#.Y U Y Y #.U f.f.P | { +.m.Y.rXf.,XkXR.4X7XCXKXDXIXDXLXDXDXDXBXLXNXcXJXIXHXPXJXcXPXKXKXJXLXLXPXLXLXPXPXPXPXPXPXPXPXPXPXPXPXPXPXPXPXPXPXPXPXPXPXJXJXJXJXJXJXJXJXKXKXKXHXHXHXHXHXHXHXHXHXHXIXIXIXIXIXDXAXBXNX9X8X8X9XcXNXNXcX9X8X8X7X:X:X>X=XV.1.2.2.-.-.O.] ] ] ` ` ` ` ` [ ) ) ",
"<.>.-.%.%.%.%.%.$.-.-.<.,.,.,.1.1.1.1.N.V.V.1.1.1.1.1.1.1.1.1.1.1.1.1.1.1.1.V.T.T.T.T.V.T.T.=X=XT.>X:X3XcXVXAXDXIXHXHXKXKXJXJXJXJXJXKXKXKXKXKXKXKXKXJXJXKXHXIXIXIXIXIXIXIXIXDXDXDXIXIXIXIXIXDXDXDXDXDXDXIXIXIXDXDXDXAXAXDXIXDXBXHXHXJXPXHXHXHXHXKXPXLXLXIXDXDXKXNXDXhXhXrX^.,Xj.f.f.*.=.+.+.| | | | | { { o.=. .*.*.@.j.U U M @.@.| @.f.@.f.a.#.#. .#.U a...W f.p.W W E E p.a.p.a.h.a.s.s.Q.|.eX X!.Q.x.x.c.c.c.c.b.g.g.g.g.g.g.g.g.g.g.z.c.x.x.x.S.Q.Q.Q.Q.~.~.~.~.~.~.~.].].{.{.{.|.|.|.|.|.{.{.{..X.X.X.X.X.X.X.X.X.X.X.X.X.X.X.XoXoXoXoX.X+X+X+X$X$X$X$XyXyXyXyXpXpXiXpXiXiXiXaXaXsXaXaXaXaXiXiXiXdXdXdXdXdXdXdXdXaXdXfXfXfXzXzXzXdXfXzXzXzXzXzXzXdXdXfXzXzXzXzXzXzXfXfXfXfXdXfXfXzXfXdXsXsXsXgXuXeXeX@X@X@XXX|.|.].].!.~.Q.v.v.v.x.x.x.x.c.c.c.b.c.c.g.z.c.x.x.x.x.Z.x.x.c.b.s.g.a.g.s.s.g.g.a.a.a.p.p.6.E E W W E W I W F P E Q W W W a.j.a...p.p.p.W j.W U U W W Y Y U  . .| *.| L ..| j.,XbX*.,XhX,XkX4XBXDXAXKXDXLXDXDXAXVXJXHX6XLXKXAXLXLXjXJXPXHXKXLXLXLXLXLXPXPXPXPXPXPXPXPXPXPXPXPXPXPXPXPXPXJXJXJXKXKXKXKXKXKXKXKXHXHXHXHXHXIXIXIXDXDXDXDXDXAXBXBXBXVXVXVX9X9X6X1X=X1.1.1.<.1.2.-.O.O.] ] ] ] ] ] ` ` ` ` ` [ [ [ ] ` [ ^ ^ ^ [ [ ^ ^ ",
"2.-.-.%.%.O.%.O.O.%.-.2.,.,.1.1.1.1.1.1.1.1.1.1.1.1.1.1.1.1.1.1.1.1.1.1.1.1.V.V.T.T.=X=X=X=X=X=X=X=X=X=X-X1XjXVXDXDXDXHXKXJXJXJXPXJXJXPXPXKXKXJXJXJXJXKXKXKXHXHXHXHXHXHXHXHXKXKXKXKXKXKXKXKXHXHXHXHXHXHXHXHXHXHXIXDXPXDXIXDXDXAXDXIXKXJXKXKXHXHXKXLXLXKXHXKXBXIXDXFXhXbXrX<X<Xj.j.f.*.*.+.+.| | | | +.=.=.+.| | *.*.@.@.L L  .m.@. .@.f.@.f.a.......W ..f.E f.a...E E E E a.6.l.a.h.s.s.x.!. X X!.Q.Q.x.x.c.c.c.b.g.g.g.g.g.g.g.c.c.c.c.x.Z.x.x.x.Q.Q.~.~.~.~.~.~.~.~.~.~.].].{.{.|.|.|.{.{.|.|.{.|..X.X|..X.X.X.X.XXXXX.X.X.X.XoXoXoXoXoX.X.X.X+X+X$X$XyXyXyXyXyXyXyXpXpXpXiXaXaXaXdXaXaXaXaXaXiXiXiXaXaXdXdXdXdXdXdXdXdXfXfXfXzXzXzXzXfXfXzXzXzXzXzXdXsXsXdXzXzXzXzXzXzXzXzXzXdXdXdXdXfXdXsXsXsXgXuXeXeXeX@XeXXX.X|.{.].!.!.~.v.v.x.x.x.x.x.c.c.b.b.b.g.g.z.c.x.x.x.x.x.x.x.x.c.g.b.s.s.s.a.s.s.6.s.a.p.p.6.E E W W E E W W F F W T W Q W p.l.f.a...#.a.W p...W L @. .| L  .L ..Y @...{ P | f.5X<XR.,XvXR.7X4XcXDXNXJXLXJXHXIXDXVXLXJX3XAXHXLXJXJXcXDXLXDXLXPXPXPXLXLXPXPXPXJXJXJXJXJXKXJXJXJXKXHXKXHXHXHXHXHXHXHXIXDXDXDXDXDXDXDXDXAXBXBXNXNXcXcX9X8X8X7X3X:X=XT.1.2.2.%.] ] ) ) ) ) ^ ^ ^ ^ ^ ^ ^ ^ ^ ^ [ ] ] ] [ [ [ [ [ [ [ [ ^ ^ ^ ^ ^ ^ ^ ^ ",
"2.-.-.%.%.%.O.O.O.%.-.2.2.,.1.1.1.1.1.1.1.1.1.1.1.1.1.1.1.1.1.1.1.1.1.1.1.1.V.V.T.T.=X=X=X=X=X=X=X=X=X=XT.=X;X6XVXAXDXIXHXKXJXJXPXPXPXPXPXKXKXJXJXJXJXKXKXKXHXHXHXHXHXHXHXHXKXKXKXKXKXKXKXKXHXHXHXHXHXHXHXHXHXHXHXIXJXIXIXDXDXAXAXDXIXKXHXHXHXIXHXJXJXHXLXJXBXAXHXDXjXbXkX^.<XY.j.f.*.*.=.+.| | +.=...{ =.| L *.*.| j.U L Y *.j.@. .f.f.f.f.#..... .P a.a.E f.p.E E E ..E p.p.a.s.s.s.s.~.{. X}.Q.Q.x.x.x.c.c.c.g.g.g.s.g.g.g.g.c.c.c.Z.Z.Z.x.x.S.Q.Q.~.~.~.~.~.~.~.~.~.].].].].{.{.|.{.{.{.{.|.|.|..X.X.X.X.X.XXXXXXXXX.X.X.X.XoXoXoXoXoXoX.X.X+X+X+X$XyXyXyXyXyXyXyXyXpXpXiXaXaXaXaXaXaXaXaXaXiXaXaXaXdXdXdXdXdXdXdXdXdXfXfXfXzXzXzXzXzXfXzXzXzXzXfXfXdXdXdXdXdXzXzXzXzXzXzXzXzXdXdXdXdXdXsXsXsXgXgXeXuXeXXXeX@XXX|.|.].].!.~.Q.v.v.v.x.x.x.x.x.c.b.b.g.g.z.c.x.x.x.x.x.x.x.x.c.d.b.s.a.a.6.s.s.6.g.a.6.p.p.E E W W R E W E Q G W W W Q W E l.a.a.E #.a.E #.p.W W U  . .U  .L L #.@...{ { +.*.,X^.<Xf.CX,X2X7XcXNXBXAXIXIXDXDXNX9XKXIX8XDXLXJXIXJXVXBXPXDXPXHXLXJXJXKXJXJXJXKXHXHXHXIXIXIXIXDXIXIXDXDXDXDXDXDXDXAXBXVXVXNXcXcX9X8X7X3X3X;X-XT.1.,.2.-.O.] ` ` ) ^ ^ ^ ^ ^ ^ ^ ^ ^ ^ ^ ^ ^ ^ ^ ^ ^ ^ ^ ^ ^ [ ` ` [ ^ ^ ^ [ [ [ [ ^ ^ ^ ~ ^ ^ ^ ^ ^ ",
"-.-.-.%.%.O.O.O.%.-.-.2.2.1.1.1.1.1.1.1.1.1.1.1.1.1.1.1.1.1.1.1.1.1.1.1.1.1.1.V.=X=X=X=X=X=X=X=X=X=X=X=X=X=X=X;X8XVXDXDXIXKXJXJXPXPXPXPXPXPXPXJXJXJXJXKXKXKXHXHXHXHXHXHXHXHXKXKXKXKXKXKXKXKXKXHXHXHXHXHXHXHXHXHXHXIXHXIXIXDXDXAXAXAXDXIXDXIXIXDXIXKXKXIXKXKXDXAXKXDXhXvXkX^.rX^.j.f.*.*.=.=.+.+.*.| |  .| { | f.*.| j.L L | j.*.@.@.f.a.f.@.#... .W W f.#.#.a...E E E p.u.6.a.a.h.s.s.c.{. X}.~.Q.x.x.c.c.c.c.c.g.g.g.g.g.g.c.c.z.z.x.Z.x.x.v.v.v.Q.Q.~.~.~.~.~.~.~.~.!.].].].].].].].].].{.{.|..X.X.X.X.X.X.X.XXXXXXXXX.X.X.X.XoXoXoXoXoXoX+XoXoX+X+X+X+X$X$X$X$X$XyXyXpXiXaXaXaXaXaXaXaXaXaXaXaXaXdXdXdXdXdXdXdXdXdXdXfXfXfXfXzXzXzXzXzXfXfXzXzXfXzXzXfXdXdXsXsXfXzXzXdXdXdXsXsXsXdXdXdXdXsXsXsXgXpXuXuXeX@XeXeXXX.X|.}.].!.!.~.v.v.x.x.x.x.x.x.x.c.b.b.b.z.c.c.x.x.x.x.Q.x.x.x.b.c.g.s.s.6.s.s.6.s.a.6.p.p.6.R R R R E E 6.I G W W W T W W a.a.a.E #.a.W W j.W W W U U f.U Y M ..@.@.| +. .| *.R.rX*.GX2XB.3XcXBXKXDXKXKXJXJXHX7XcXDX8XJXBXHXDXIXNXNXHXBXHXDXJXJXKXHXIXDXDXDXDXDXDXDXDXDXBXBXBXBXNXvXcXcX9X8X3X1X:X:XV.1.<.-.$.%.' ` ` ) ^ ^ ^ ^ ^ ^ ) ^ ^ ^ ^ ^ V z z z q V ^ ^ ^ ~ ~ ^ ^ ^ ^ ^ ^ ^ ^ [ [ [ [ [ ^ ^ ^ ^ ^ ^ ^ ^ ^ ~ ~ ~ ~ ~ ^ ^ ",
"-.-.-.%.O.O.O.O.%.-.-.2.2.2.1.1.1.1.1.1.1.1.1.1.1.1.1.1.1.1.1.1.1.1.1.1.1.1.1.V.=X=X=X=X=X=X=X=X=X=X=X=X=X=X>X>X1X9XVXAXIXKXJXJXPXPXPXPXPXPXPXJXJXJXJXJXKXKXHXHXHXHXHXHXHXHXKXKXHXHXKXKXKXKXKXHXHXHXHXHXHXHXHXHXHXIXIXHXIXDXDXDXAXAXAXDXAXDXDXDXIXHXHXIXLXJXDXcXHXHX3XCXhX,XkXY.j.f.*.*.=.=.+.+. . . ...P Z f.*.=.*.| U U @.f. .@.@.f.@.f.@... .W Y f.p...p.p.E E E E p.p.E s.a.g.g.s.Q. X X].v.x.x.x.c.c.c.c.g.g.s.g.g.g.g.c.c.c.c.x.Z.v.x.v.v.v.Q.Q.~.~.~.~.~.~.~.].].~.~.].].].].].[.].{.{.|..X.X.X.X.X.X.XXXXXXXXXXX.X.X.XXXoXoXoXoXoXoX+XoX.XoX+X+X+X+X+X$X$X$XyXyXpXiXaXaXaXaXdXaXaXaXaXaXaXaXaXdXaXdXdXdXdXdXdXdXfXfXfXfXdXdXzXzXzXzXfXfXzXzXzXzXzXfXdXsXsXsXdXfXdXdXdXdXdXdXdXdXfXdXsXsXsXiXuXuXuXeX@XeXeXXXXX|. X].].!.~.Q.v.x.x.x.x.x.x.x.x.c.b.b.z.c.c.x.x.x.x.x.x.x.x.b.c.g.b.d.s.s.s.s.a.a.p.p.8.E R 6.6.R E 6.6.K F W W W T W W u.l.p.E #.p.W W j.#.Y #.L  .Y f.L P L *.f.| ..+.{ m.^.m.m.5XrXR.R.4XBXFXFXDXDXHXKXDXcXcXJX7XDXNXBXHXBXcXBXDXNXDXDXBXAXDXDXBXBXBXNXvXcXcX9X8X7X3X1X-XR.T.N.<.&.%.' ` ) ^ ^ ^ ^ ^ ^ ^ B B z w q z V V z V ~ z z ~ V z ^ V z z z q V ^ ^ ^ ~ ~ ^ ^ ^ ^ ^ ^ ^ ^ ^ [ [ [ ^ ^ ^ ~ z z z ^ ^ ~ z q 4.~ ~ ~ ^ ",
"-.-.-.3.O.O.O.O.%.-.-.2.2.2.2.,.1.1.1.1.1.1.1.1.1.1.1.1.1.1.1.1.1.1.V.V.*X*X*X*X*X=X=X=X=X=X=X=X=X=X=X=X=X>X>X;X1X9XNXBXIXKXPXPXLXLXLXPXPXJXJXJXJXKXKXKXKXKXKXKXHXHXKXKXHXHXHXKXHXHXHXKXKXKXKXKXHXKXKXKXHXHXHXHXHXHXIXHXHXIXDXDXAXBXBXBXDXDXDXDXDXIXDXDXKXLXAXNXDXLX3XCXCX5X5XY.j.f.*.*.=.+.+.| | | +.{ { U *.f.@.f.U U Y j.*.U @.@.f.#.f.@...a.P  .k.#...#.E W E E ..p.E a.p.h.k.g.s.Q. X].Q.S.x.x.x.c.c.c.g.g.s.s.s.g.g.c.c.z.x.x.x.Z.x.x.v.v.S.Q.~.~.!.~.].].].].].~.I.I.].].].].].].{.{.|..X.X.X.X.X.XXXXX.XXX.XXXXXXXXXoXoX@X@X@X@X.X.XoXoXoXoX+X+X+X+X$X$X$X$XyXpXpXiXaXaXaXaXaXaXaXaXaXaXaXaXaXaXaXaXdXdXdXdXdXdXdXdXfXfXdXdXzXzXzXzXfXzXzXzXzXzXzXzXfXdXdXdXdXdXdXdXfXzXzXzXzXfXfXdXsXiXpXuXuXuXeXeX@XeX@X@XXX|. X}.].!.~.Q.v.x.x.x.x.x.x.x.x.c.c.c.c.c.c.c.x.x.x.x.x.x.x.c.c.b.g.Q.6.s.s.s.s.a.p.6.8.6.E 6.6.R 6.6.6.W H T W W T W W 6.s.p.p.p.a.E T l.a.Y @.L #.L  . .L M  .*. .| @...*.m.j.j.^.rXm.,X,XBXNXDXAXNXAXDXCXjX4XHXjXNXCX4XvXvXhX3XvX7XvX8X8X7X3X3X1X;XE.T.,.<.$.%.' ' _ ` / B V B B ^ B ^ ^ ^ ^ V V q q q V z q q q q q q q q ~ ~ ^ ^ ^ ^ ^ ^ ^ z z z q q ^ ^ ^ ^ ^ ^ ^ ^ ^ ^ ^ ^ ^ ^ ^ [ [ ^ ^ ^ ~ ~ q q q ~ ~ ~ 4.~ ~ ~ ~ ~ ",
"-.-.-.3.O.O.O.O.%.-.-.2.2.2.2.2.1.1.1.1.1.1.1.1.1.1.1.1.1.1.1.1.1.1.V.V.*X*X*X*X*X=X=X=X=X=X=X=X=X=X=X=X>X>X:X:X6XcXVXAXIXKXPXPXLXPXLXPXPXJXJXJXJXKXKXKXKXKXKXKXHXHXKXKXHXHXHXHXHXHXHXHXHXHXKXKXHXKXKXKXHXHXHXHXHXHXIXHXHXHXIXDXDXAXAXAXAXAXDXDXAXDXDXDXHXJXIXAXBXDXhXCXCX4XkXR.j.*.*.*.+.+.| | | | | | L f.| f.j. .#.L @.j.@.U @.#.f.@.@.....W P #.k.W ......E E E ..p.a.p.6.k.c.g.c.Q.].!.Q.v.x.x.x.c.c.g.g.s.s.s.g.g.c.c.z.x.x.x.x.x.v.S.v.v.S.Q.~.~.!.!.].].].].].~.I.I.].[.[.].{.{.|.|..X.X.X.X.X.X.XXXXXXXXXXXXXXXoXoX+X+X+X+X+X@X.X.XoXoX+XoX+X+X+X$XyXyXpXpXyXpXpXpXaXaXaXaXaXaXaXaXaXaXaXaXaXaXiXaXaXaXaXaXdXdXdXdXfXfXdXdXdXdXzXzXzXzXzXzXfXdXdXfXzXzXzXzXzXdXdXdXdXzXdXdXdXsXsXsXsXsXdXdXpXeXeXeXeXeX@XXX.X X X}.].~.~.~.v.x.x.x.x.x.x.x.x.c.c.c.c.c.c.c.x.Q.Q.x.x.x.c.x.c.b.g.Q.b.i.s.s.s.a.p.6.6.6.6.6.6.6.6.p.E W Q Q E W W W E u.a.p.l.p.p.p.W a.p.W ..L  .P Y U L M | @.j.L  .@. .*.j.f.5X^.f.E.,XbXvXNXFXhXZXkX7X5XE.vX,X4XhX,X,X3X,XE.E.=.,.=.X.} _ ` _ _ S B V V V V V V z z z z V V z q q q q q w w w w w q q q z z q q q q z q ~ ~ ^ ^ ^ ^ ^ ^ ~ z z z q q ~ ^ ^ ^ ^ ^ ^ ^ ^ ^ ~ ~ ~ ~ ~ ^ ^ ^ ^ ~ ~ ~ q q q q q z ~ ~ ~ ~ ~ ~ ",
"-.-.3.O.O.O.O.-.-.-.2.2.2.2.2.,.1.1.1.1.,.,.1.1.1.1.1.1.1.1.1.1.1.1.=X=X=X*X=X=X=X=X=X=X=X=X=X=X=X=X=X=X>X:X3X6X9XNXBXDXIXKXPXPXPXPXPXPXPXPXPXJXJXJXJXJXKXKXKXKXKXKXKXKXHXHXHXHXHXHXHXHXHXHXKXKXKXKXKXKXKXHXHXHXHXHXHXHXHXHXIXIXDXDXDXDXDXDXDXDXBXDXDXHXHXHXHXCXvXKX4XCXvX4X5XC.j.*.*.*.+.+.| | +.=.=.| +.*.*.*.f.#.U | j.j.....@.f.@.a.f. ...L P j...#.W ......E E ..p.l.6.a.k.g.c.Q.!.Q.Q.Q.S.x.x.x.c.c.g.s.s.s.s.g.g.c.c.z.z.c.x.x.x.x.S.Q.Q.Q.Q.~.~.!.].].].].].].].].].].[.].{.{.|.|..X.X.X.X.X.X.XXXXXXXXXXXXX@X@X+X+X+X+X+X+X+X+X+X$X$XyXyX$X$X$X+XyXpXpXpXpXpXpXpXpXiXiXiXiXaXaXaXaXaXaXiXaXiXiXiXiXiXaXaXaXdXdXdXdXdXdXdXdXdXdXdXzXzXzXzXzXfXdXdXfXzXzXnXzXzXzXzXdXdXsXsXiXiXiXsXsXsXsXdXsXpXeXeXeXeXeX@XXX|. X|.}.].~.~.~.Q.v.x.x.x.x.x.x.x.c.c.c.c.c.c.c.x.x.Q.Q.Q.x.x.x.c.c.g.x.Q.a.s.s.s.a.p.p.6.6.6.p.6.6.6.s.6.E T Q E W W W E E u.a.h.p.p.p.E p.@. .U L |  .Y L U M U  .j.| U @.|  .j.@.<XC.*.f.R.,X,X5X4X,X;X,XR.R.f.C.f.m.=.{ m.| | N.C C B C V l l l V B B V w 0 0 0 z z z q q q z V z z q z z z q q q w w q z ~ ~ z q q z z q q q ~ ~ ~ ^ ^ ^ ^ ^ V V z q q q q ~ ^ ^ ^ ~ ~ ~ ~ ~ 4.z q z ~ ~ ~ ~ ~ ~ z q q q q q q z z ~ z ~ ~ ",
"-.-.3.O.O.O.O.-.-.-.2.2.2.2.2.2.1.1.1.1.,.,.,.1.1.1.1.1.1.1.1.1.1.V.=X=X=X*X=X=X=X=X=X=X=X=X=X=X=X=X=X=X>X:X6X8XcXVXAXIXIXKXPXPXPXPXPXPXPXPXPXJXJXJXJXJXKXKXKXKXKXKXKXKXHXHXHXHXHXHXHXHXHXHXKXKXKXKXKXKXKXHXHXHXHXHXHXHXIXHXHXIXIXIXIXDXDXDXDXDXBXAXAXIXHXDXDXcXBXDXhXhXGXkX^.Y.j.*.*.*.+.+.| | =.=.=.| f.#.f.f.@.| U *.f.*...j.@.f.@.a.@. . .L  .f.W a.W E #...E E ..p.a.p.g.g.s.Q.Q. XQ.S.S.S.x.x.x.c.g.s.s.s.s.s.g.g.z.c.z.z.c.x.x.x.x.S.Q.Q.Q.Q.~.~.!.].].].].].].].[.[.[.[.].{.|.|..X.X.X.X.X.X.X.XXXXXXXXX@X@X+X+X+X+X+X+X+X+X+X+X+X+X$X$X$X$X$X$XyXyXpXpXiXiXiXpXpXpXpXpXpXiXaXaXaXaXaXaXiXiXiXiXiXiXiXaXaXaXdXdXdXdXdXdXdXdXdXdXdXzXzXzXzXzXfXfXzXzXfXfXdXzXzXzXzXdXdXsXsXiXiXiXsXsXiXgXgXpXuXeXeXeXeX@XXXXX|. X|.}.].~.~.~.Q.v.x.x.x.x.x.x.c.c.c.c.c.c.c.x.x.x.Q.Q.Q.x.x.x.c.c.c.g.Q.s.s.s.a.s.a.u.6.E 6.a.p.6.6.s.6.6.T Q E E W W E E 6.p.g.p.p.p.E #.#...U Y U ..U Y ..M P U *.m.Y | | |  .| j.m.@.*.*.=.*.*.| { P o.o.x Y j.Y @.Y { | C ( :.} ` C V 7 l w w 0 w z ^ ^ B q 0 w z q q w q z z ~ ~ ~ ~ ~ ~ ^ ~ q q q q z z ~ z z z q z z z q q q ~ q V ~ ~ ^ ^ z z q q q w q q ~ ^ ~ 4.4.4.4.4.z q z q q z ~ ~ ~ ~ q q q 4.z z z ~ ~ ~ ~ ~ ",
"-.-.O.O.O.O.%.-.-.-.2.2.2.2.2.2.1.1.1.2.2.,.1.1.1.1.1.1.1.1.1.1.1.1.T.T.T.T.=X=X=X=X=X=X=X=X=X>X>X:X:X:X3X6X9XjXVXAXDXIXHXJXPXPXLXPXPXPXLXLXLXJXJXJXJXJXJXKXKXKXKXKXHXHXKXKXKXKXHXHXHXHXHXHXKXKXKXKXKXHXKXHXHXHXKXHXHXIXIXHXHXHXHXHXHXHXHXIXDXDXAXAXAXDXDXAXAXjXBXAXcXCXGX4X^.Y.j. .*.| +.+.@.*.*.=.|  .@.@.f.f.#.U f.j.@.@.#.@.@.a.#.p.#...P P j.#.p.a.W ..p.W W p.p.a.u.a.g.g.c.c.Q.Q.Q.x.x.x.x.c.c.c.g.s.s.s.s.s.g.c.z.c.c.c.c.c.x.x.x.S.I.Q.I.Q.~.~.~.~.~.~.].].[.].].[.].{.{.{.{.{.{.|..X.X.X.X.X.XXXXXXXoXoX+X@X+X+X+X+X+X+X+X+X+X+X+X+XyXyXyX$XyX$XyXyXyXpXpXpXpXpXpXpXpXpXpXiXiXaXaXaXaXiXiXiXaXaXaXdXiXdXdXdXdXdXdXdXdXdXdXdXdXfXzXzXzXzXzXzXzXzXzXzXdXdXdXfXfXfXfXdXdXsXsXiXiXiXiXiXiXuXuXuXuXyXyXeX@XXXXX.X|.|.{.].~.~.~.Q.v.x.x.x.x.x.x.c.c.c.c.b.c.c.c.x.x.I.Q.Q.I.x.x.c.c.c.d.x.d.s.s.9.s.s.6.6.K R p.s.a.8.a.6.6.W T W E W I E E 6.p.l.a.p.p.E ..#...U U |  .U U  .L L U  .m.U U U ..| |  .@. .@. .| | | k Z A } Z C h | | @.| } C / 7 &.z l _ / z z 0 w w q q q ^ ] 9 q ~ q ~ q q q q z ~ ~ ~ ~ ~ ~ ~ ~ ~ q q q q z ~ ^ ~ ~ q q q q q q q q q q q V ^ ~ q q q q q q q q q q q q q q q q q q q q q q q ~ ~ q q q q q q q q q ~ q q q ",
"-.-.O.O.O.O.-.-.2.2.2.2.2.2.2.2.1.1.1.2.,.1.1.1.1.1.1.1.1.1.1.T.T.T.T.T.=X=X=X=X=X=X=X=X=X=X>X>X;X:X1X3X8X9XNXVXAXDXIXHXJXPXLXLXPXPXPXPXLXLXLXJXJXJXJXJXJXKXKXKXKXKXHXHXKXHXKXKXHXHXHXHXHXHXKXKXKXKXKXHXKXHXHXHXHXHXHXIXHXHXHXKXKXKXKXKXHXHXDXDXDXDXAXDXDXAXDXNXhXvXvXCXCX2XR.m.f.=.=.| +...=.=.+.| | @.@.*.f.*. .#.@.j.#.@.@.@.@.@.p.p...W L W a...f.#.W #.E W E W p.a.u.s.g.g.Q.x.Q.Q.Q.x.x.c.c.c.c.g.g.s.s.s.s.g.c.c.c.c.c.c.c.c.x.x.x.S.Q.Q.I.Q.~.~.~.~.~.~.].].].].{.].{.{.{.{.{.{.|..X.X.X.X.X.X.XXXXXXXoXoX+X+X+X+X+X+X+X+X+X+X+X$XyXyXyXyX$XyXyXyXuXyXyXpXpXpXpXpXpXpXpXiXpXiXiXaXaXaXaXiXiXaXaXaXaXiXiXdXdXdXdXdXdXdXdXdXdXdXdXfXzXzXzXzXzXzXzXzXdXdXsXdXfXfXzXzXzXzXzXfXdXsXsXiXiXiXiXiXpXuXuXuXuXyXeX@XXX.X|.|.{.].~.~.~.Q.v.x.x.x.x.x.x.x.c.c.c.c.c.c.c.x.x.v.Q.Q.I.x.x.b.x.c.b.x.d.a.s.9.s.s.6.p.K K a.s.s.p.s.8.6.E K T E W Q E E 6.p.a.l.a.p.E ..#...W W | U L P U U L U U f. .| | | ..U Y Y U  . .{ { | | ( } ( +.Z C =.| A x } :.$.l ) ` z w ] ] l w 8 q q q w q [ ^ q q q q q q q q q z z ~ q 4.q q 4.q q w w w q ~ ^ ~ z q q ~ ^ ~ z q q q q q q q z q q q q q q q q w q q q q q q q q q ~ ~ q q q ~ ~ q q q q q ~ z ~ q q q q q ",
"-.-.O.O.O.-.-.2.2.2.2.2.2.2.1.1.1.1.1.1.1.1.V.V.V.V.T.T.T.T.T.T.=X=X=X=X=X=X=X=X=X=X=X=X=X>X>X:X:X3X7X9XcXVXBXAXDXIXHXPXLXLXLXLXPXPXPXPXLXLXLXLXPXPXPXJXPXJXKXKXKXKXKXKXKXKXKXKXHXHXHXHXHXHXKXKXKXKXKXHXKXHXHXHXHXHXHXHXHXIXHXKXKXKXKXKXKXHXIXIXIXDXDXDXDXCXFXCXhXhXcXAXCX^.Y.m.*.=.=.=.=.=.=.=.| | +.*. .j.f.*. .*.f.f.#.@.a.@.#.@.#.#. .U L a.#...a.W ..p.Y W E T a.p.u.k.g.c.!.x.Q.Q.x.x.c.c.c.c.g.g.s.s.g.s.g.c.c.c.c.c.c.c.c.c.x.x.x.x.Q.Q.Q.Q.~.~.~.].].].[.].].{.|.|.{.{.|.|..X.X.XXXXXXXXXXX@X@XoXoX+X+X+X+X+X+X+X+X+X+X+X+X+X+X+X+XyXyXyXyXyXyXyXyXpXpXpXpXpXpXpXpXiXiXiXiXaXaXaXaXaXaXiXiXiXiXaXiXiXiXiXiXdXdXdXdXdXdXdXdXdXdXfXfXzXzXzXzXzXzXzXzXzXzXfXfXfXdXdXfXzXnXzXfXdXiXpXpXdXdXiXpXuXuXyXyXeX@XXX.X|.|.|.{.].~.~.Q.Q.v.x.x.x.x.x.x.x.x.c.c.c.c.x.x.x.x.x.I.I.x.x.x.c.c.c.c.x.b.a.s.6.6.s.6.p.6.K a.g.s.a.g.a.8.6.W I E R I R W u.p.a.k.p.p.....p.#. . . .| L M U #.Y L Y @. . .| | ..U L M Y | *.| Z Z { Z } _ ( A x | { A B z l ` %.%.) z z w V ' V z q q q q q q ) q w q w w q q q q z z q q q q q q q q q w w q ~ ~ ~ z q q ~ ^ ~ z q q q q q q q q q q q q q z q q q q q q q q ~ q ~ ~ ^ ^ ~ ~ ~ ^ ^ z ~ ~ ~ ~ ~ ~ ~ q q q q q ",
"-.-.O.-.-.-.2.2.2.2.2.2.1.2.2.2.1.1.1.1.1.1.V.=X=X=X=X=X=X=X=X=XT.=X=X=X=X=X=X=X=X>X>X>X>X>X:X:X6X9XcXNXVXAXIXHXIXHXJXPXLXLXLXLXPXPXPXPXLXLXLXLXPXPXPXJXPXKXKXKXKXKXKXKXKXKXKXKXHXHXHXHXHXHXKXKXKXKXHXHXKXHXHXHXHXHXHXHXHXHXHXKXKXKXKXKXKXHXHXIXIXDXIXKXHXAXDXCX7XNXAXvXvXR.m.j.=.*.| *.=.=.=.=...+.| *.*.j.f.f.*.*.j.@.@.@.@.#.@.#.#.#.W P Y f.W ....W #.p.L ..W W l.u.u.c.c.A.Q.x.~.~.x.c.c.c.b.g.g.g.s.s.g.g.g.c.c.c.c.c.c.c.c.c.x.x.x.v.I.Q.I.Q.~.~.].].].].[.{.{.{.|.|.|.|..X.XXXXXXXXX@X@X@X@X+X+X+X+X+X+X@X+X+X+X+X+XyXyX+X+X+X+X+X+XyXyXyXyXyXyXyXpXpXpXpXpXpXpXpXpXiXiXiXiXaXaXaXaXaXaXiXiXiXiXaXaXiXiXiXaXdXdXdXdXdXdXdXdXdXdXfXfXzXzXzXzXzXzXzXzXzXdXfXdXdXfXzXzXfXdXfXfXdXdXsXiXiXiXiXiXpXuXeXeX@XXX.X.X.X|.|.].].~.~.Q.Q.v.x.x.x.x.x.x.x.x.x.x.x.x.c.x.x.c.x.v.v.x.x.x.b.c.c.c.I.b.a.s.6.6.s.6.p.6.R p.g.s.s.g.a.a.6.E W W R T R W u.p.a.s.p...E ..p.p... .....U L P *.Y Y P | ..U U  . .| P M L  .U P { | { { z z ( A x | | C B l z 7 / / 1.1.X.O.;.$.%.] q q q q z 0 ^ q w w w w q q q q q q q q q q q q q q q w w q z ~ z z q q q q q q q q w w q q q q q q q q q z ~ q q q q q ~ ~ ^ ^ ^ ^ ^ ^ ^ ^ ^ ^ ^ ^ ^ ^ ^ ^ ^ ^ ^ ~ q q q q ",
"-.-.-.-.-.2.2.2.2.2.2.2.2.1.1.1.1.V.V.T.=X=X>X>X:X3X6X6X6X>X=X=X=X=X=X=X>X>X>X>X>X:X:X:X1X6X8X9X9XNXVXBXAXDXIXHXKXJXLXLXLXLXLXLXLXLXLXLXPXPXPXLXPXPXPXJXJXJXKXKXKXKXKXKXKXKXKXKXKXHXHXHXHXHXHXHXKXKXHXHXHXHXHXHXHXHXHXHXHXIXIXHXKXKXKXKXKXKXKXHXIXIXKXKXHXHXJXAXcX4XvX3X4XE.Y.*.j.f.*.*.| ..*.*.*.| j.| f.j.#. .f.j.f.@.@.@.#.#.#.....#.U L  .f.U ..W U W Y W ....a.l.p.a.A.x.Q.c.Z.!.Q.x.c.c.c.c.g.g.s.s.g.g.g.c.c.c.c.c.c.c.c.c.c.x.x.v.v.I.I.I.Q.~.~.].].].].].{.{.|..X.X.X.X.X.X.X.XXXXXXXXX@X@X@X@X+X+X+X+X+X+X+X+X+X+XyXyX$X$X$X+X+X+XyXyXyXyXyXyXyXyXpXpXpXpXpXpXpXpXaXaXiXiXaXaXaXaXaXaXdXaXaXiXiXiXiXiXiXiXdXdXdXfXdXfXfXfXdXfXfXzXzXzXzXzXzXzXzXzXzXzXfXdXdXdXzXzXfXdXdXfXfXdXdXsXuXuXiXiXiXiXgXyX@XXXXXXX.X|.|.].].[.~.~.Q.v.v.v.v.v.v.x.x.x.x.c.x.c.c.x.x.c.c.v.v.x.x.x.b.c.c.x.P.c.6.s.a.6.6.6.6.6.K a.c.h.p.d.a.a.p.6.R E 6.W W W 6.6.s.l.8.E W ..p.p. ... .+.| L L @.Y Y L Y @.Y U  .| M Y P M | | L { A Z o.A ( z A A | | Z ( l z 7 B B ^ 0 w 7 7 z ^ ` 2.2.] q q q 9 ) w w w w q q q q q q q q q q w w q q q q q q z z z q q q q q q q q q q q q q q q q q q q q ~ ~ ~ z ~ z ^ ^ ^ ^ ^ ^ ^ ^ ^ ^ ^ ^ ^ ^ ^ ^ ^ ^ ^ ^ ^ ^ ~ ~ q ~ q ",
"-.-.-.-.2.>.2.2.2.2.1.1.1.V.=X=X=X=X=X=X=X>X1X6X8X8X9XcX9X6X:X>X=X=X>X>X>X>X:X:X:X6X6X6X9X9XjXNXVXAXUXIXHXKXJXJXJXLXLXLXLXLXLXLXLXLXLXLXPXPXPXPXPXPXPXJXJXJXKXKXKXKXKXKXKXKXKXKXKXHXHXHXHXKXHXHXHXHXHXHXHXHXHXHXHXHXHXHXHXHXHXHXHXHXKXKXHXHXKXKXKXHXHXIXDXPXDXAXDX4XFX2X2X,XE.=.*.*.f.*.*.*.f.f.| | @. .j.f.@.f.j.j.f.@.@.@.#.#.#.......P L f.a. .W ..W Y T ..E E l.a.6.z.A.Q.!.Q.~.Q.c.c.c.c.c.g.g.s.s.s.g.g.b.c.c.c.c.c.c.c.c.c.c.x.x.x.v.I.I.Q.~.~.].].].].].].{.{.|..X.X.X.X.X.X.X.X.X.XXXXXXXXX@X@XoXoXoX+X+X+X+X+X+X+XyXyX$X$X+X+X$XyXyXyXyXyXyXyXyXyXpXpXpXpXpXpXpXpXaXaXiXiXaXaXaXaXaXaXdXdXaXiXiXiXiXiXiXiXdXdXdXfXdXfXfXfXfXfXfXzXzXzXzXzXzXzXzXzXzXzXzXfXdXsXdXfXzXfXfXfXfXdXsXsXiXgXiXiXiXiXsXsXuXeX@X@X.X{.{.].].].~.~.~.Q.v.v.v.v.v.x.x.x.x.c.x.x.x.c.c.x.x.v.v.x.x.v.b.c.c.x.x.c.a.s.s.6.6.6.6.6.K s.c.g.p.g.s.s.p.6.6.6.6.W K R R 6.s.s.6.E E ..p.#. . . .| { L P  .Y Y Y Y @.U U Y  .L P U M U  .P P A A ( } _ A x x | } { B l z 7 l B ^ 0 w 0 0 0 0 0 9 ^ 2.O.] 9 9 ^ w q w q q q q q q q q q q q w w q w q q q q q z q q q q q q q q q w w w q q q q q q q q q q ^ ^ ~ ^ ^ ^ ^ ^ ^ ^ ^ ^ ^ ^ ^ ^ ~ z ~ ~ ~ ~ ^ ^ ^ ^ ^ ~ z q ~ q ",
"-.-.2.>.2.2.2.2.2.1.1.T.=X=X:X:X1X3X3X:X:X1X6X9XcXVXVXBXNX8X3X:X=X>X:X:X:X:X6X6X6X8X9X9XNXVXVXAXDXIXHXKXJXJXPXPXLXPXLXLXLXLXLXLXLXLXLXLXPXPXPXPXPXPXPXPXPXJXJXJXJXJXJXJXKXKXKXKXKXKXHXHXKXKXKXKXKXKXKXKXHXHXHXHXHXHXHXHXHXHXIXIXHXKXKXKXHXHXKXKXKXKXHXIXDXHXAXHXHXvXCX4X4X^.j.j.*.=.=.*.=...+.| { +.+.f.j.*.f.j.j.j.@.#.@.#.#.#.........L W j.#. .W #.W T W p.E p.k.8.6.W.x.!.~.Q.~.x.c.b.c.c.b.g.s.s.s.s.g.g.b.g.g.c.c.c.c.c.c.c.c.x.x.x.I.Q.~.~.~.].].].].].].{.{.|..X.X.X.X.X.X.X.X.X.X.XXXXXXXXXXXXXoXoX+X+X+X+X+X+X+X+X+XyXyXyXyXyXyXyXyXyXyXyXyXyXyXyXpXpXpXpXaXiXiXiXaXaXaXaXaXaXdXdXdXdXdXdXaXaXiXiXiXiXiXiXiXdXsXdXdXdXdXfXfXzXzXzXzXzXzXzXzXzXzXzXzXzXzXzXdXdXsXsXdXfXfXfXfXdXdXsXsXiXiXiXiXiXsXiXuXuXeXXX.X{.|.|.].].].].~.Q.v.v.v.v.v.x.x.x.x.x.x.x.x.c.c.x.x.v.I.x.x.I.c.c.x.c.c.c.b.s.a.6.6.6.6.6.6.d.c.c.a.g.s.s.a.p.6.6.6.W K R R u.a.k.p.E p.#...#... . . .| L U | U U U Y @. .Y L  .L L U L Y +.P C P A x _ } Z z h ( o.A _ h 0 0 0 B ) w w 0 0 0 w w q q 9 [ ] O.^ ^ z q w q q q q q q q q q q q w w w w w w w q q q q q q q q q q q q w w w q q q q q q q q q q ^ ^ ^ ~ ^ ^ ^ ^ ^ ^ ^ ^ ^ ^ ^ ~ q q q q q q q z ^ ~ ^ ^ z q q q ",
"2.2.2.2.2.2.2.2.2.1.T.=X:X:X6X6XcX9X9X8X7X8X9X9XVXIXHXAXcX7X6X:X>X:X:X:X6X6X9X9XcXNXNXNXBXAXUXIXKXKXKXJXPXPXPXPXPXPXLXLXLXLXLXLXLXLXLXLXPXPXPXPXPXPXPXPXPXJXJXJXJXJXJXJXKXKXKXKXKXKXHXHXKXKXKXKXKXKXKXKXHXHXHXHXHXHXHXHXHXHXHXIXHXHXHXKXHXHXKXHXIXHXKXKXAXAXJXKXDXvXCX4X2X2Xm.*.*.=.*.*.*.*.+.| | *. .M.f.j.M.j.j.f.#.#.#.@.#.....#. ...U f.a. .W #.T W W u.p.E l.a.E a.c.x.!.Z.Q.S.x.x.c.g.g.g.g.g.g.s.s.s.g.g.g.g.c.c.c.c.c.c.c.c.x.x.x.I.~.~.!.!.].{.{.{.{.].{.{.|..X.X.X.X.X.X.X.X.X.X.XXXXXXXXXXXoXoXoX+X+XoXoXoXoX+X+X+X+XyXyXyXyXyX+XyX+XyXyXyXyXuXpXpXpXpXpXpXpXiXiXaXaXaXaXaXaXdXdXdXdXdXaXaXaXiXiXiXiXiXiXiXaXaXsXdXdXdXdXfXfXfXfXfXfXzXzXzXzXzXzXzXzXzXfXdXsXsXiXsXdXdXdXdXdXdXsXsXiXiXiXpXuXuXuXyXeX@XXXXX.X X|.|.{.].].].~.v.v.v.v.v.v.x.x.x.c.c.c.c.x.v.c.x.x.I.x.x.x.c.x.x.b.c.x.c.s.a.s.6.6.6.6.6.c.c.c.s.k.s.h.a.a.6.6.u.E K R 6.p.p.k.p.p.p.E E .... . . . .Y U U  .| Y L  .U Y Y  .Y M | Y L  .P x { A z A _ B z h C o.( / l 7 0 7 z ) 0 0 0 0 0 w w 0 0 w 9 w ^ -.1.^ z q w q q z q q q q w q q w w w w w w w w q q q w w w q q q w q w w w q q q q q q q q q q q ~ ~ ^ ^ ^ ^ ^ ^ ^ ^ ^ ^ ^ ~ q w w w w w w w q q ~ q q q q q q ",
"2.2.2.2.2.1.1.1.1.V.=X:X6X8XcXVXNXNXNXNXNXVXNX9XNXAXAXVX7X6X6X3X3X6X7X8X9XcXNXNXBXAXAXAXIXIXKXJXPXLXPXPXPXPXLXLXLXLXLXLXLXLXLXLXLXLXLXLXLXLXLXLXPXPXLXLXLXPXPXPXJXJXJXJXJXKXKXKXKXKXHXHXKXKXKXKXKXKXHXHXHXKXKXKXHXHXKXHXHXHXHXHXIXIXHXKXHXKXKXIXIXKXKXKXBXAXLXFXDXJX4XjXR.2Xm.*.*.*.*.*.*.f...L *.*.*.M.f.j.j.j.f.@.#.@.@.#.......#. . .#.a...U W ..Y W E p.p.p.a.8.R k.c.Z.!.Q.Q.Q.x.c.b.g.g.g.s.s.s.s.s.s.s.g.g.g.b.b.b.c.c.c.c.c.x.x.I.Q.~.~.!.!.].].{.].{.{.].{.|.|..X.X.X.X.X.X.X.X.X.X.X.XXXXXoXoXoXoXoXoXoXoXoXoXoXoX+XyXyXyX+X+X+X+X+X$XyXyXyXyXpXpXpXpXpXuXiXiXiXiXaXiXaXaXdXdXdXaXaXaXaXaXaXiXaXaXaXaXaXaXdXdXaXaXsXdXdXdXdXfXfXfXfXfXfXfXzXzXzXzXzXzXfXdXdXsXsXsXdXdXfXfXfXdXsXsXsXsXiXiXiXpXuXuXyXeX+XXX+X.X.X X|.|.{.].].~.Q.v.v.x.x.x.x.x.x.c.c.c.c.x.v.x.x.x.v.x.v.x.c.x.x.b.x.c.g.s.a.s.6.6.R 6.K c.~.c.h.x.s.g.s.s.6.u.a.6.W W 6.p.u.k.a.p.u.E ..#... .U |  .L L P  .U Y L U U U U | U M Y Y L | L S { Z A l / z l h z o.( ( l 7 7 7 l ) 0 0 0 0 0 0 0 0 0 w 0 0 0 ^ ] T.^ 0 q q q ^ q q q w w w w w w w w w w q q q q w w w w q q q q q q q q q q q q q q q q q q q q q ~ ^ ^ ^ ^ ^ ^ ^ ^ ^ ^ ~ q w w w w w w w q q q ~ q 4.q q q ",
"1.1.1.1.1.1.1.1.V.=X:X3X9XNXBXDXAXVXNX9XcXVXVXNXNXVXVX9X7X7X7X7X8X9XjXNXVXVXBXBXDXIXIXHXHXJXPXPXPXLXLXPXPXPXLXLXLXLXLXLXLXLXLXLXLXLXLXLXLXLXLXLXPXLXLXLXLXPXPXPXJXJXJXJXKXKXKXKXKXKXHXHXKXKXKXKXKXKXHXHXHXKXKXKXHXHXKXHXHXHXHXHXIXIXHXHXHXKXKXHXHXKXKXDXDXFXKXAXKXFX4X2X^.,Xj.*.*.*.*.*.*.*. .U j.*.M.M.f.j.j.m.@.#.#.@.@.@... ...#. ...p.a. .W #.U W T E p.p.a.a.6.8.k.c.~.Q.Q.Q.x.x.c.g.g.s.s.s.s.s.s.s.s.s.g.g.g.g.g.b.c.c.c.c.x.x.I.Q.Q.~.!.].].].].].].{.{.].{.|.|..X.X.X.X.X.X.X.X.X.X.X.XXXXXoXoXoXoX+X+XoXoX+X+X+X+XyXyXyXyX+XyX+X+XyX$XyXyXyXyXyXyXpXpXpXpXiXiXiXiXaXiXiXiXaXaXaXaXaXaXaXaXiXiXaXaXaXaXaXaXdXaXaXsXsXdXdXdXdXdXdXdXdXdXfXfXfXfXzXzXzXzXfXdXdXiXsXdXfXfXfXfXfXdXsXsXsXsXiXiXiXiXiXiXuXuXyXeXeXXX.X.X X|.|.].~.~.Q.v.x.x.x.x.x.x.x.c.c.c.b.c.x.I.I.v.x.x.x.x.c.x.x.b.x.b.b.s.a.a.6.6.K 6.J c.Q.c.g.x.g.g.g.a.6.s.s.6.R R u.u.6.k.a.6.E u.p.p... .U U | M M L  .Y Y L U  . .U U Y L L Y Y P | C { Z / l z l l h A X.} ( z 7 7 7 7 ` 0 0 w 0 0 0 0 0 0 w w 0 w z z ] 2.^ q w q z q w q w w w w w w w w w q q q q q q w q w q q q q q q q q q q q q q q q q q q q q q ~ ^ ^ ^ ^ ^ ^ ^ ^ ~ ~ q q w w w w w w w w w q q q q q q q ",
"1.1.1.1.1.1.V.V.=X>X3X6XNXBXAXBXNXNXcXcXNXVXVXNXNXcXcX9X9XcXcXcXNXVXBXAXDXDXIXIXHXHXKXJXPXPXPXPXLXLXLXLXLXLXLXLXLXLXLXLXLXLXLXLXLXLXLXLXLXLXLXLXPXPXLXLXPXPXLXLXPXPXPXJXJXJXJXJXJXKXHXHXKXKXKXKXKXKXKXKXKXKXKXKXHXHXHXHXHXHXHXHXIXHXIXIXIXHXJXKXKXKXKXDXDXHXFXDXJXFXbXhX,XE.*.*.*.*.*.*.*. . ...@...m.j.m.m.j.*.@.@.a.f.@.@... . . ...#.a.#. . .W U W W E p.a.a.a.6.s.c.c.Q.Q.Q.Q.x.c.g.g.g.s.s.s.s.s.s.s.s.g.g.g.g.g.g.g.c.c.c.x.x.I.Q.Q.~.~.!.].].].{.].].{.{.{.|.|.|..X.X.X.X.X.X.X.X.X.X.X.XXXXXoXoXoXoX+X+X+X+X+X+XyXyXyXyXyXyXyXyXyXyXyXyXyXyXyXyXyXyXpXpXpXpXiXiXiXiXiXiXiXiXiXiXiXiXaXaXiXiXiXiXaXaXaXaXaXaXaXaXaXdXsXdXdXdXdXdXdXdXdXfXfXfXfXfXdXdXdXdXdXdXsXsXdXdXfXfXdXdXsXsXsXsXfXdXiXiXiXiXiXiXuXuXyXeXeXXX.X.X|.|.|.].].~.~.Q.x.x.x.x.x.x.x.c.c.b.b.b.c.x.v.v.x.x.x.x.c.x.x.b.x.c.c.s.a.6.6.6.K 6.K g.Q.x.c.x.k.g.c.a.6.s.s.6.R R 6.6.E g.l.6.E 6.p.p... .U U | M N L  .L L Y Y  .| Y Y Y L L L U P  .A Z A ( l 7 B B 6 z } o.( / l h 7 7 ` 0 0 w 0 0 0 0 0 0 w w w w w q ^ V 2.] z z q q q q w w w w w w w w q q q q q q q q q q q q q q q q q q q q q q q q q q q q q q q q q ^ ^ ^ ^ ^ ^ ~ q q q q w w w w w w w w q q w w w w w w ",
"V.V.1.1.V.V.V.T.>X:X3X7XNXBXVXjXNXNXVXVXVXVXVXNXcXjXcXNXNXVXBXBXAXDXIXHXHXHXKXKXKXJXLXPXPXPXPXPXLXLXLXLXLXLXLXLXLXLXLXLXLXLXLXLXLXLXLXLXLXLXLXLXPXPXLXPXPXPXLXLXPXPXPXJXJXJXJXJXJXKXHXHXKXKXKXKXKXKXKXKXKXKXKXKXHXHXHXHXHXHXHXHXHXHXHXDXDXIXKXKXKXKXKXDXDXKXFXKXKXCXcX4X,XC.*.*.*.*.*.*.*.|  .@.@.j.m.m.j.m.j.f.@.#.f.f.@..... ... .....f. ... .W ..T E T a.k.d.s.9.d.c.c.x.Q.Q.x.c.b.g.g.s.s.s.s.s.s.s.s.s.g.g.g.g.g.g.g.b.c.c.x.I.Q.Q.~.~.~.!.].].].{.{.{.|.{.{.|.|.|..X.X.X.X.X.X.X.X.X.XXXXXXXXXoXoXoXoX+X+X+XyXyXyXyXyXyXyXyXyXyXyXyXpXpXyXyXyXyXyXyXyXpXpXpXpXpXpXiXiXiXiXiXiXiXiXiXiXiXiXiXiXiXiXiXiXiXiXiXiXiXaXaXaXsXdXdXdXdXdXdXdXfXfXfXfXfXfXdXdXdXdXdXdXsXsXsXdXfXfXfXdXsXsXsXdXdXdXiXiXiXiXpXuXeXeX+X@X@XXX.X.X|.{.|.{.].~.~.Q.v.x.x.x.x.x.x.c.c.b.b.b.c.c.x.x.v.I.v.x.c.x.x.b.x.x.x.s.9.6.6.6.J 6.6.g.Q.Z.c.c.x.g.g.s.s.s.s.u.E E 6.6.E s.l.6.E 6.p.p.....W U | M N L U L L U L | U Y L L L L L | P { { A x _ z 6 l B 6 C } o.` / l 7 7 7 ' 0 0 w 0 0 0 0 0 0 w w w 0 w 0 ^ ^ q ] ] ^ q q ~ q w w w w w w w w q q q q q q q q q q q q q q q q q q q q q q q q q q q q q q q q q ~ ~ ~ ~ ~ q q w w q q q w w w w w w w q q q w q q w w ",
"6X3X3X1X1X1X1X1X6X8XjXNXVXVXVXVXNXNXNXVXBXBXBXBXBXBXBXBXAXDXDXIXHXHXHXHXHXKXPXPXLXPXPXPXPXPXPXPXLXLXLXLXLXLXLXLXLXLXLXLXLXLXLXLXLXLXLXLXLXLXLXLXPXPXPXPXPXPXPXPXLXLXPXPXPXJXJXJXJXKXKXHXKXKXKXKXKXKXKXKXKXKXKXKXKXKXKXHXHXHXHXHXHXHXHXIXIXIXIXHXKXKXHXDXDXKXFXJXDXAXvXR.E.m.*.*.*.*.*.*. . .@.*.*.M.M.M.M.j.j.f.@.@.f.f... . ..... .....f.W #...Y W T E a.k.k.k.s.6.d.b.x.x.Q.x.c.c.c.g.g.g.s.s.s.s.s.s.s.s.g.g.g.g.g.g.g.b.c.c.x.I.Q.Q.~.~.~.!.!.].{. X|.|.|.|.|.|..X.X.X.X.X.X.X.XXXXXXXXXoXoXoXoXoXoXoXoX+X+X+XyXyXyXyXyXyXyXyXyXyXyXyXyXyXyXyXyXyXyXyXuXpXpXpXpXpXpXpXiXiXiXiXuXuXuXiXiXiXiXiXiXiXiXiXiXiXiXiXiXiXiXaXsXdXdXaXdXdXdXdXdXdXdXfXfXfXfXdXdXdXdXdXdXsXsXsXsXdXdXdXdXsXsXsXdXdXiXiXiXiXiXiXuXeX@X+X+X+XXX.X.X|.|.|.{.].~.~.Q.v.x.x.v.x.x.x.c.c.c.b.b.c.c.c.x.I.I.I.x.c.c.x.b.v.v.c.s.a.6.6.6.H 6.6.s.x.~.g.k.(.P.g.s.s.g.g.a.R K p.6.K a.k.a.6.p.p.p.....U Y | M N L Y L Y U Y | U U L L Y L L | U | { h C ( z 7 l z 7 C ( o._ / l 7 7 7 X.7 7 w 0 0 0 0 0 w w w w w 0 w V ) V z ] V ] ] ^ q q q w 9 0 w q q q q q q q q q q ~ q q q q q z z z z q q q q q q q q q q q q q q q q q q q q q q q q q q q q q q q q q q q q q q q q q q ",
"VXVXVXNXNXNXNXcXNXVXBXVXVXVXVXVXVXVXBXAXAXAXAXAXDXDXDXDXDXIXKXKXJXJXJXJXJXJXPXPXPXPXPXPXPXPXPXPXLXLXLXLXLXLXLXLXLXLXLXLXLXLXLXLXLXLXLXLXLXLXLXLXPXPXPXPXPXPXPXPXLXLXPXPXPXJXJXJXJXJXJXKXKXKXJXKXJXJXKXKXKXKXKXKXKXKXKXHXHXHXHXHXHXHXHXHXHXHXIXDXIXKXHXIXAXJXFXKXFXNXjX4XB.m.*.*.*.*.*.@. .@.*.*.j.M.j.Y.j.j.f.@.@.@.f.f. . . ..... . ...#.W #...W Y ..E k.g.d.s.a.a.d.c.c.x.Q.~.c.c.c.g.g.g.s.s.s.s.s.s.g.g.g.g.g.g.g.g.g.c.c.c.x.I.Q.Q.~.~.~.~.~.].{. X|.|.|.|.|.|..X.X.X.X.X.X.X.XXXXXXXXXoXoXoXoXoXoXoX+X+X+XyXyXyXyXyXyXyXyXyXyXyXyXyXyXyXyX$XyXyXyXpXyXpXpXyXyXyXyXpXuXiXiXiXpXpXuXiXiXiXiXiXiXiXiXaXaXaXaXiXiXiXiXaXaXdXdXaXaXdXdXdXdXdXfXfXdXfXdXdXdXdXdXdXsXsXsXsXsXpXuXiXsXdXdXsXdXsXgXiXsXsXsXiXpXyXeXeX+X+XXX.X.X|.|.{.{.].].~.Q.I.x.x.v.x.x.x.c.c.c.c.c.c.c.c.x.v.I.v.v.c.c.x.b.x.I.b.s.a.6.6.6.H K a.s.c.~.g.c.~.Q.c.g.s.g.c.s.6.K u.6.K a.k.a.p.p.p.u.....W U | M N L Y Y L Y U U U U L L U L L U U U { x A ( B l l z h z ( } } ( z 7 6 l X.l 7 0 0 0 0 0 0 w w w w w w w V ^ z V ^ V w V [ ] ^ q w 9 w V V q q q q q ~ ~ ~ ~ ~ ~ V q q q z z z z q q q q q q q q q q z z q q V V ^ ^ V V V V ^ V ^ ^ ^ ^ V ^ V V V V q q q q ^ ^ V ^ ",
"AXAXAXAXDXAXDXDXDXDXDXAXAXAXAXAXAXAXIXIXIXIXIXHXHXHXHXHXKXKXJXJXJXJXPXPXPXPXPXPXPXPXLXLXPXLXPXPXLXLXLXLXLXLXLXLXLXLXLXLXLXLXLXLXLXLXLXLXLXLXLXLXPXPXPXPXPXPXPXPXPXPXPXPXPXPXPXPXPXJXJXJXKXJXJXJXJXJXJXJXKXKXKXKXKXKXKXKXHXHXHXHXHXHXHXHXHXHXHXHXAXKXJXDXAXJXFXFXCXCXvX4XC.m.f.f.*.*.*.+.@.*.*.f.M.f.M.j.f.*.@.@.@.a.a.f. . . . ... . ... . ...U W W p.6.z.k.a.p.9.d.d.c.x.Q.~.Q.c.b.g.g.g.s.s.s.s.s.s.s.s.g.g.g.g.g.b.b.b.c.x.x.x.I.Q.~.~.!.!.!.~.].{.|.|.|.|.|..X.X.X.X.X.XXXXXXXXX@X@XoXoX+X+X+X+X+X+X+X+X+XyXyXyXyXyXyXyXyXyXyXyXyXyXyXyXyXyXyXyXyXyXpXyXpXyXyXyXpXpXpXuXiXiXiXiXiXiXiXiXiXiXiXiXiXiXaXaXaXaXiXiXiXiXiXaXaXaXaXaXdXdXdXdXdXdXdXdXdXdXdXaXdXdXdXdXsXsXdXsXiXiXiXsXdXdXsXdXsXgXuXiXgXuXuXyXyXeX@X+XXXXX.X|.|.{.|.].].].~.Q.Q.v.v.v.x.x.v.x.x.c.c.c.c.c.c.c.x.x.I.I.c.b.x.c.v.Q.b.s.a.6.a.6.H J a.c.b.Q.h.c.Q.Q.c.c.g.s.c.s.6.K 6.u.R p.k.a.p.p.p.E E W W W U L L L U Y L L | U U U L L  .Y L P U L P A x C / z l z z z B ( X.` B 7 6 z ` l 0 0 0 0 0 0 0 w w w w w w w z ^ z w w ^ w q q q ] ] ^ z w q q z q q q q z z ~ ~ ^ ^ V z q q ~ z z z V V V q q q V V V V ^ ^ ^ ^ ^ ^ ^ ^ ^ ^ ^ ^ ^ ^ ^ ^ ^ ^ ^ ^ ^ ^ ^ ^ ^ ^ ^ ^ ^ ^ ^ ^ ",
"HXHXHXHXHXKXHXKXKXKXHXHXIXIXIXIXHXHXKXKXKXKXJXJXJXJXJXJXJXJXJXJXJXJXPXPXPXPXPXPXPXPXLXLXLXLXPXPXLXLXLXLXLXLXLXLXLXLXLXLXLXLXLXLXLXLXLXLXPXLXLXLXPXPXPXPXPXPXPXPXPXPXPXPXPXPXPXPXPXPXPXJXJXJXPXPXJXJXJXJXKXKXKXKXKXKXKXKXHXHXHXHXHXHXHXHXHXHXHXHXIXDXDXDXDXKXFXHXAXCXvX2Xm.m.m.f.*.*.*.@.@.*.f.f.m.M.M.f.@.@.@.f...f.#.f. . . . . .W ..a.U .. .T W p.E a.P.g.8.p.9.c.b.x.Q.!.Q.b.c.b.g.g.g.s.s.s.s.s.s.s.s.g.g.g.g.g.g.b.c.c.x.x.I.I.Q.~.~.!.!.~.~.].{.|.|.|.|.|..X.X.X.X.X.XXXXXXXXX+X+XoXoX+X+X+X+X@X@X+X+X+XyXyXyXyXyXyXyXyXyXyXyXyXyXyXyXyXyXyXyXyXyXpXyXpXpXyXyXpXpXpXiXiXiXiXiXiXiXiXiXiXiXiXiXiXiXaXaXaXaXiXiXiXiXiXaXaXaXaXaXdXdXdXdXdXdXdXaXaXaXaXaXdXdXdXdXsXsXdXdXdXfXdXdXsXsXsXdXsXuXyXuXyXeXeX@X@X+X+XXXXX.X.X.X|.|.{.{.].].!.~.Q.v.v.v.x.x.v.x.x.c.c.c.c.c.c.c.c.x.x.I.b.b.x.c.I.~.b.s.s.6.a.6.H H 6.Q.c.c.g.c.Q.Q.c.c.g.s.c.s.6.6.6.p.E 6.k.a.p.p.p.E E W U W U U Y M Y Y L L Y | | U L L @.Y L L U S L Z A l A B z B z z z / ` _ / 7 7 B _ l 0 w 0 0 0 0 0 0 w w w w w w q ^ q w q ^ V w w q 0 q ] %.] z q q q q q q ~ ~ ^ ^ ^ ^ V z q q ~ z z z V V ^ V V ^ ^ ^ ^ ^ ^ ^ ^ ^ ^ ^ ^ ^ ^ ^ ^ ^ ^ ^ ^ ^ ^ ^ ) ) [ ) [ [ ] ] ] ] ] ] O.%.",
"JXJXJXJXJXJXJXJXKXJXJXJXJXJXJXJXKXJXJXJXPXPXJXPXJXPXJXJXJXJXJXJXPXPXPXPXPXPXPXPXLXLXLXLXPXPXPXPXLXLXLXLXLXLXLXLXLXLXLXLXLXLXLXLXLXLXLXLXLXLXLXLXLXLXLXLXLXLXLXLXLXLXLXLXLXLXLXLXLXLXPXJXJXJXPXLXPXPXPXKXKXKXJXJXKXKXKXKXKXHXHXHXHXHXHXHXHXHXKXHXHXIXDXDXFXFXFXKXFXvXAX5XR.m.C.*.*.*.*.=. .*.j.M.^.^.Y.j.f.@.f.@.f.a.@... .@.@...W W ..#.....W Y ....p.W.P.R s.a.9.s.s.I.].!.I.b.c.b.g.d.h.h.s.s.s.s.s.s.g.g.g.g.g.g.g.g.c.c.x.x.v.Q.Q.~.~.!.!.!.].].{.|.|.|.|.|..X.X.X.X.X.XXXXXXXXX@X@X@X+X+X+X+X+X+X+X+X+XyXyXyXyXyXyXyXyXyXyXyXyXyXyXyXyXyXyXyXyXyXyXpXpXpXpXpXpXpXpXpXpXiXiXiXiXiXiXiXiXiXiXaXaXiXiXiXiXaXaXaXaXiXiXiXiXaXaXaXaXaXaXaXdXdXdXdXdXdXaXaXdXfXfXdXdXdXdXdXdXdXdXdXdXiXiXiXiXuXuXyXyXyXeX+X+X+X+X+XoXXXXX.X.X|.|.{.].].].~.~.Q.v.v.v.x.x.x.x.c.c.c.c.c.b.c.b.c.x.v.I.b.b.x.x.v.!.!.s.s.6.6.6.H H 6.~.b.c.g.c.Q.Q.x.b.g.s.c.s.6.6.6.p.6.R k.a.p.p.p.E E W W W U U U M Y Y Y P Y U | L L L U U Y Y U { Z { A z B / l B l z l z ( B B l 7 ` ^ z 0 w 9 9 0 0 0 0 w w w w w w w ^ q w q ^ ^ q q q q q q ^ [ ] -.] ^ q ^ ^ ^ ^ ^ ^ ^ ^ ^ ^ ^ ^ ^ ^ ^ ^ ^ ^ ^ ^ ^ ^ ^ V V V ^ ^ ) ) ) ^ ^ ) ` ] ` ` ] ] ] ] ] O.%.-.-.2.2.1.1.V.T.=X=X>X>X:X",
"JXJXJXJXJXJXJXJXKXKXJXJXJXJXJXJXJXJXJXJXJXJXJXJXJXJXJXJXJXJXJXJXPXPXPXPXPXPXPXPXLXLXLXLXPXPXPXPXLXLXLXLXLXLXLXLXLXLXLXLXLXLXLXLXLXLXLXLXLXLXLXLXLXLXLXLXLXLXLXLXLXLXLXLXLXLXLXLXLXLXPXJXPXPXPXLXPXPXPXPXKXKXKXKXJXJXJXKXJXKXKXKXKXKXKXKXKXKXKXKXKXHXKXDXAXDXKXKXFXCXkXhX,Xm.m.*.*.*.=.=.*.f.j.j.^.M.j.m.Y.j.j.@.f.f.#... ... .U W U #.a.....W W p.u.l.W.k.6.s.a.s.s.d.!.].~.x.b.c.b.g.g.h.s.s.s.s.s.s.s.g.g.g.g.g.g.g.c.c.c.x.x.x.Q.Q.~.~.!.!.!.].].{.|.|.|.|.|..X.X.X.X.X.XXXXXXXXX@X@X@X@X+X+X+X+XyXyXyXyXyXyXyXyXyXyXyXyXyXyXyXyXyXyXyXyXyXyXyXyXyXyXpXpXpXpXpXpXpXpXpXpXpXpXiXiXiXiXiXiXiXiXaXiXiXpXuXiXiXiXaXaXaXaXiXiXaXaXiXiXiXiXiXiXaXaXdXaXdXdXdXfXzXfXdXdXfXfXdXsXsXsXiXiXiXuXyXyX+XyXuXuXyXyX+X+X+X+X+XoXoXXX.X.X|.{.{.].].].~.~.Q.v.v.v.x.x.x.x.c.c.c.c.c.c.c.b.c.x.v.I.b.b.x.x.x.!.~.b.s.6.6.R H H p.g.~.g.g.c.Q.Q.x.b.g.s.c.s.6.6.6.6.6.K l.l.p.u.p.E W E W W  .U Y M Y Y Y Y Y Y  .L L L U U Y U P P Z | A C B / z z z z z z ( B z z l ` / z w w w w w w q q q q q q q q q ^ V V V V ) q V V V V V V V ^ V ) ] -.3.[ ^ ^ ^ q ^ [ ^ ^ ^ ^ ) ) ) ) ^ ^ ^ ^ ) ) ` ` ) ` ] ] ] ] ] ] ] O.%.-.-.2.2.1.1.T.=X=X>X:X:X1X6X6X6X8X9X9XjXcXNXNX",
"JXJXJXJXJXJXJXJXKXKXJXJXJXJXJXJXJXJXJXJXJXJXJXJXJXJXJXJXJXJXJXJXPXPXPXPXPXPXPXPXLXLXLXLXPXPXPXPXLXLXLXLXLXLXLXLXLXLXLXLXLXLXLXLXLXLXLXLXLXLXLXLXLXLXLXLXLXLXLXLXLXLXLXLXLXLXLXLXLXLXLXLXPXLXLXPXPXPXPXPXPXPXJXJXJXJXJXJXJXJXJXPXJXJXJXPXPXPXJXKXKXKXJXFXDXDXKXFXAXCX4XCX2Xm.f.*.*.*.*.@.*.@.j.Y.<Xm.#.f.@.@.f.@.j.j.f.f.f.f.@. . ...a.f.p. .T W p.p.W.(.h.a.a.s.s.d.x. X{.Q.c.b.b.g.g.g.h.s.s.s.s.s.s.s.s.s.g.g.g.g.c.c.c.x.x.Z.S.Q.Q.!.!.!.!.!.].].{.|.|.|.|..X.X.XXXXXXXXXXXXXXX@X+X+X+X+X+X+X+XyXyXyXyXyXyXyXyXyXyXyXyXyXyXyXyXyXuXyXyXyXyXyXyX$XyXyXyXyXyXyXpXpXpXpXyXyXuXpXpXpXiXuXiXiXiXiXiXiXpXuXuXpXpXiXiXiXaXaXaXiXiXiXiXiXiXiXiXiXiXiXaXaXdXaXdXdXfXzXzXfXdXsXsXsXsXsXsXiXiXuXyX+XXXyXuXuXyXeX+X@X@X@X+X+XoXXX.X|.|.{.{.].].].~.~.I.v.v.v.v.v.I.v.x.x.x.c.c.b.c.c.c.v.I.I.b.b.c.c.c.~.~.b.s.6.6.R H H 6.c.Q.g.g.c.x.Q.Q.c.c.s.c.s.6.6.6.u.6.W p.l.E E p.E W ..W W  .U Y M L Y Y P P Y  .L L L U U Y U L P L *.A A / B B l z z z B _ / l B z / / z w w q w z q z z z z V V V V V ) ^ ^ ^ ^ ) V ^ ^ ^ ^ ^ ^ ^ ^ ^ ^ ^ ^ ^ ] -.-.] [ ^ ^ ^ [ [ [ ` ` ] ] ] ] ] ] ] ] %.%.-.-.2.2.2.1.V.T.=X=X>X>X:X:X3X6X9X9X9XjXcXNXNXVXVXBXBXAXAXDXIXIXIXDX",
"JXJXJXJXJXJXJXJXJXJXJXJXJXJXJXJXJXJXJXJXJXJXJXJXJXJXJXJXJXJXJXJXPXPXPXPXPXPXPXPXPXLXLXLXPXPXPXPXLXLXLXLXLXLXLXLXLXLXLXLXLXLXLXLXLXLXLXLXLXLXLXLXLXLXLXLXLXLXLXLXLXLXLXLXLXLXLXLXLXLXLXLXPXPXPXJXPXPXPXPXPXPXJXJXJXJXJXPXPXPXLXLXJXJXJXPXPXPXLXKXKXJXKXKXKXDXKXCXvXbX4XFX4Xm.*.*.*.*.@.#.#. .j./.^.@. .j.f...#. .@.@. . .@.@. .L  .#.a.f...W W E p.l.W.W.s.h.s.s.s.b.Q. X!.x.c.g.g.g.g.s.s.s.s.s.s.s.s.s.s.s.s.s.g.g.c.c.c.x.x.Z.S.Q.Q.!.!.!.!.!.].].{.|.|.|.|..X.X.XXXXXXXXX@X@X@X@X+X+X+X+X+X+X+X$X$XyXyXyXyXyXyXyXyXyXyXyXyXyXyXyXyXyXyX+X+X$X$X$X$X$X$X$XyXyXyXyXyXyXyXyXyXyXuXuXpXpXuXpXuXuXpXpXuXyXyXuXpXpXuXiXiXaXaXaXaXaXiXiXiXiXiXiXiXiXaXdXdXiXiXiXiXdXdXdXdXdXdXsXsXsXsXsXiXiXuX+X+XyXuXuXyXeX+X+X+X+X+X+X+XoX.X|.{.].].].].].~.~.I.v.v.v.v.v.I.v.x.x.x.c.c.b.b.b.c.v.v.I.b.b.c.b.b.~.Q.x.a.6.6.R H H 6.c.Q.d.s.x.x.Q.Q.x.c.g.z.s.i.6.6.u.6.W 6.l.E E u.E W E W W W U U L L L P P L L  .L L L Y U Y U M P L *.x Z ( B / l C z B B _ B h B z / / z w w z z z z V V ^ ^ V V B B B ) ^ ^ ^ ^ ` ^ ^ ^ ^ ^ ) ) ) ^ ^ ^ ) ) ^ ^ ^ ^ O.2.2.-.] ] ] ] ] O.O.O.2.2.2.2.V.T.=X>X:X:X:X1X6X6X9X9X9XjXcXNXNXVXVXVXBXAXAXAXAXAXUXUXIXIXIXHXIXHXKXHXIXIX",
"PXPXPXJXPXPXPXPXPXPXPXJXJXJXPXPXPXPXJXJXJXJXPXPXPXJXJXJXPXPXPXPXPXPXPXPXPXPXPXPXPXPXPXPXPXPXPXPXLXLXLXLXLXLXLXLXLXLXLXLXLXLXLXLXLXLXLXLXLXLXLXLXLXLXLXLXLXLXLXLXLXLXLXLXLXLXLXLXLXLXLXLXPXPXPXPXPXPXPXPXPXPXLXPXJXJXJXJXJXJXLXLXJXKXKXJXPXKXKXHXHXKXHXHXJXFXFXvXjXvXvXCX4Xm.*.*.f.*.*...#.*.Y./.M.f.f.@.@.@.#.@.........@. .Y Y  .a.a.f...P E E p.k.(.(.a.a.s.s.s.P.!.{.Q.x.b.g.g.g.g.h.s.s.s.s.s.s.s.s.s.s.s.s.g.g.c.c.c.x.Z.Z.Q.Q.~.!.!.!.!.!.].].|.|.|.|..X.X.X.XXXXXXXXX+X+X+X+X@X+X+X+X+X+X+X$XyXyXyX+X+X+X+X+X$XyXyXyXyXyXyXyXyXyXyX+X+X+X$X+X$X$X+X+X$X$XyXyXyXyXyXyXyXyXyXuXpXpXpXpXpXpXpXpXyXyXuXuXpXpXiXiXaXaXaXaXaXiXiXiXiXiXiXiXiXiXiXdXdXaXiXiXiXiXsXsXdXdXdXsXsXiXiXiXiXiXiXuXyXyXuXuXyXyXyXeXyX+X@X+X+XoX.X|.{.].].].].].~.~.I.v.v.v.v.v.I.v.x.x.x.c.c.b.c.c.c.x.x.v.c.d.c.c.b.I.v.I.9.6.6.6.F H 6.x.x.g.s.c.x.x.I.x.c.g.b.s.s.6.6.6.6.R E l.E u.p.W T W W W W U U L L L L L L L L  .L L Y U L U S P { | Z A / B B A B l B / _ ` B B B ` / B B B V ^ ^ ^ ^ ^ ^ ^ z V B ^ ^ ` ^ B ^ ^ ' ] ) ) ) ^ ) ) ` ` ` ` ] ] ] ] ] O.-.-.2.1.>X>X=X=X=X>X>X:X:X3X3X6X7X8X9X9XNXNXVXVXVXVXBXBXAXAXAXAXDXDXDXDXIXIXIXIXHXHXHXKXKXJXJXJXPXPXLXLXKXIX",
"PXPXPXJXPXPXPXPXPXPXPXPXJXJXPXPXPXPXJXPXJXJXPXJXPXJXJXJXPXPXPXPXPXPXPXPXPXPXPXPXPXPXPXPXPXPXPXPXLXLXLXLXLXLXLXLXLXLXLXLXLXLXLXLXLXLXLXLXLXLXLXLXLXLXLXLXLXLXLXLXLXLXLXLXLXLXLXLXLXLXLXLXPXPXJXPXPXPXJXPXJXPXPXJXJXKXKXKXKXKXKXKXKXHXHXKXHXIXDXDXIXDXDXKXJXFXFXCX7XNXvXmX2Xm.*.m.*.*.*.#.*.j.Y./.j.f.f.@.@.@.@.@...........W Y U  .f.p.f.W T u.E l.k./.c.a.s.s.s.b.!.{.I.v.c.b.g.g.g.g.h.s.s.s.s.s.s.s.s.s.s.g.g.g.g.c.c.c.x.Z.Z.Q.Q.~.!.!.!.!.!.].}.|.|.|.|.|..X.XXXXXXXXX.XXXXX+X+X@X@X+X+X+X+X+X$XyXyX+X+X+X+X+X+XyXyXyXyXyXyXyXyXyXyXyXpXyX+X+X+X+X+X+X+X$X$XyXyXyX+X+X+X+X+XyXyXpXpXpXpXpXiXuXuXpXpXuXyXyXpXpXiXaXaXiXiXiXiXiXiXiXiXiXiXpXpXiXaXdXdXaXiXiXiXsXsXdXdXdXdXdXdXsXsXiXiXiXiXuXyXyXyXuXyXyXyXyXyXyX@X+XoX.X|.{.{.].].].].~.~.I.v.v.v.v.v.I.v.x.x.x.c.c.b.b.c.c.x.x.x.c.b.b.b.b.I.x.Q.9.6.K 6.F H s.c.b.b.c.b.c.x.x.x.c.b.b.s.s.6.6.6.6.R E a.6.p.p.W T W W W U Y Y L M L P L L L Y Y U M P U L U C +.| Z Z A / B B / B z B ( } } B B / _ ) / ^ ^ ^ B ^ ^ ^ ^ ^ ^ ^ ^ ^ ) ` ] ` ) ` ` %.%.] ] ] ] O.%.%.-.2.2.1.1.V.=X=X=X:X:X1X3X3X7X9XcXcXcXNXNXNXVXVXVXBXBXAXAXDXDXIXIXIXIXHXHXHXHXHXHXKXKXKXKXKXKXJXJXJXJXPXPXPXPXPXPXLXPXPXJXIXBX",
"PXPXJXJXJXJXJXJXJXPXJXJXJXJXPXPXPXPXPXPXJXJXJXJXPXPXJXJXJXJXPXPXPXPXPXPXPXPXPXPXPXPXLXLXLXLXLXLXLXLXLXLXLXLXLXLXLXLXLXLXLXLXLXLXLXLXLXLXLXLXLXLXLXLXLXLXLXLXLXLXLXLXLXLXLXLXLXLXLXLXLXLXLXLXPXPXPXPXPXPXJXJXJXKXKXKXHXHXHXHXHXHXIXDXDXIXHXHXIXIXHXDXDXHXKXFXCXCXvXhXcXbX,Xm.f.f.*.*.*.*.j.M.M./.f.f.f.@.@.@.@.@......... .Y Y W ..f.#.p.F T p.u.k.W.(.s.a.s.s.s.Q.~.~.I.x.b.b.g.g.g.g.h.h.h.s.s.s.s.s.s.g.g.g.g.g.g.c.c.x.x.Z.Q.Q.~.!.!.].].].].{.|.|.|.|.|..X.X.XXXXXXXXX.XXXXX+X+X+X+X$X$XyXyXyXyXyXyX+X+X+X+X+X+X+X+XyXyXyXyXyXyXyXyXyXpXyX+X+X+X+X+X+X+X+X$XyXyXyXyX+X+X+XyXyXyXpXiXiXiXiXiXiXiXiXiXuXpXpXpXuXiXaXaXiXiXiXiXiXiXiXiXiXiXiXiXiXiXaXdXdXdXdXdXsXsXdXdXdXdXdXdXdXdXdXdXsXiXiXuXuXuXyXuXuXyXyXyXyXeX@X+XXX.X|.{.].].].].~.~.I.I.I.I.I.v.x.x.x.x.x.x.c.c.b.c.c.x.x.x.x.b.b.b.b.x.x.Q.9.6.K R F H g.x.g.g.x.b.b.c.c.c.x.c.b.s.s.6.6.6.6.6.E a.p.p.p.W T W Y Y Y Y L L m L Y L Y Y Y Y U M Y  .L U L | | A Z A A B / ( / B / _ X.X.) B / ' ` / ^ / / / ) ) [ ` ` ` ) ) ] ] ' -.%.%.-.-.1.1.<.1.1.V.=X>X>X>X3X3X6X6X8X9X9XjXcXNXVXNXVXVXVXBXBXAXAXAXDXIXIXIXIXHXHXHXHXHXKXKXKXKXKXJXJXJXJXJXJXPXPXPXPXPXPXPXPXPXLXLXLXLXLXLXLXPXJXHXIXNX",
"JXPXJXJXJXJXJXJXJXJXJXJXJXJXPXPXPXPXPXPXJXJXJXJXPXPXJXJXJXJXJXPXPXPXPXPXPXPXPXPXPXPXLXLXLXLXLXLXLXLXLXLXLXLXLXLXLXLXLXLXLXLXLXLXLXLXLXLXLXLXLXLXLXLXLXLXLXLXLXLXLXLXLXLXLXLXLXLXLXLXLXLXLXLXPXPXPXPXPXJXJXKXKXKXHXHXHXHXIXIXIXHXHXIXIXHXHXHXDXDXDXIXIXDXDXDXvXCXNXbXhX4XR.m.m.m.=.=.*.*.m.Y.M./.f.f.@.@.@.@.@.@......... .Y Y  ...f.#.#.G W p.s.z.(.x.a.9.d.s.a.Q.!.Q.x.c.b.g.g.g.g.g.h.h.h.s.s.s.s.s.g.g.g.c.c.g.g.c.c.c.x.Z.Q.Q.~.!.!.].].].].|.|.|.|.|..X.X.X.X.XXXXXXXXX+X@X@X@X+XeXyXyXyXyXyXyXyXyX$X+X+X+XyXyXyX+XyXyXyXyXyXyXyXyXyX+X+X+X+X+X+X+X+X+X+X+XyXyXyXyXyXyXyXyXuXpXiXiXiXiXaXaXiXiXaXaXaXaXaXaXiXaXaXaXaXaXdXdXaXiXiXaXiXiXiXiXpXpXiXiXdXdXdXdXdXdXdXsXsXiXiXiXiXiXiXiXiXiXuXuXuXuXuXuXyXyXyXyXyXyXeX@X@XXX|.|.{.].].].~.~.I.v.I.I.v.x.x.x.x.x.x.x.c.c.b.c.c.x.x.x.x.b.b.b.d.v.x.Q.9.6.K K F H s.Q.c.a.c.x.c.b.b.b.b.c.g.s.s.6.6.a.6.6.E a.p.p.p.W T W Y L Y Y L M G L L L Y Y Y  .L L L  .L U | { P Z Z A A B ( _ ( ( ) _ o.X.( / ) X._ ) ) ` ] ] ] ] O.O.%.%.2.2.1.1.1.=X=X=X>X>X3X1X3X7X8X9X9XjXcXNXNXVXVXVXBXBXBXAXAXDXDXAXAXDXDXIXIXIXHXHXHXHXJXJXKXKXJXJXJXJXPXPXPXPXPXJXJXJXJXPXPXPXPXPXPXPXPXPXLXLXLXLXLXLXLXLXLXPXHXIXVX7X",
"JXJXJXJXJXJXJXJXJXJXPXPXJXJXJXJXJXJXJXJXJXJXJXJXPXJXJXJXPXPXPXPXPXPXPXPXPXPXLXLXLXLXLXLXLXLXLXLXLXLXLXLXLXLXLXLXLXLXLXLXLXLXLXLXLXLXLXLXLXLXLXLXLXLXLXLXLXLXLXLXPXPXPXPXPXPXPXPXLXLXLXPXLXLXLXLXPXPXPXPXJXJXKXKXKXHXHXHXHXHXIXIXHXHXHXHXHXHXDXHXHXIXIXDXHXDXvXCXCXCXCX2Xm.m.m.f.| *.*.@.M.M.M.Y.M.j.f. .@.@.f.@.j.U f... .U U  .j.f.#.W P p.a.k.W.I.I.9.g.s.s.x.~.!.Q.c.c.b.d.g.g.g.g.h.h.h.h.h.s.s.s.s.g.g.c.c.g.c.c.c.c.x.x.Q.Q.~.!.!.].].].{.|.|.|.|.|..X.X.XXXXXXXXXoX+X+X+X+X+XeX+X+XyXyXyX+XyXyX+X+X+X+X+X+X$X$X$XyXyXyXyXyXyXyXyXyX+X+X+X$X$X+X+X+X+X+X+XyXyXyXyXyXyXyXpXpXpXpXiXiXiXiXiXiXiXiXaXaXaXaXaXaXaXaXsXsXsXsXdXaXiXiXiXiXiXiXpXpXuXiXiXaXdXdXdXdXdXdXdXdXiXiXiXiXuXuXiXiXiXiXuXiXiXiXuXuXuXyXyXyXeXeX+X@X@X.X|.{.].].].].~.Q.I.I.v.x.x.x.x.x.x.x.x.c.c.c.c.c.x.x.x.x.b.b.d.b.x.x.~.9.6.K I H H c.Q.x.x.c.Q.x.x.c.I.g.c.b.s.s.s.6.a.6.6.E a.a.p.p.W T W Y L W Y L M L L L L L L Y | L Y L U U L ..{ P { | _ ( / ` ) / _ _ _ X.%.X.} O.;.%.X.$.>.,.1.T.=X>X>X:X:X3X3X3X6X8X9X9XjXNXNXcXVXVXVXVXBXBXAXAXAXDXDXDXDXDXDXIXIXHXHXHXKXKXJXJXJXJXJXJXJXJXJXPXJXJXJXJXJXJXJXLXLXPXPXLXLXLXLXLXLXLXLXLXLXLXLXLXLXLXLXLXLXLXLXLXLXHXHXHXAX8X=X",
"JXJXJXJXJXJXJXJXJXJXPXPXJXJXJXJXJXJXJXJXJXJXJXJXJXJXJXJXPXPXPXPXPXPXPXPXPXPXLXLXLXLXLXLXLXLXLXLXLXLXLXLXLXLXLXLXLXLXLXLXLXLXLXLXLXLXLXLXLXLXLXLXLXLXLXLXLXLXLXLXPXPXPXPXPXPXPXPXLXLXLXLXLXLXLXLXPXJXPXPXJXJXJXKXKXKXKXHXHXHXHXHXHXHXHXHXHXHXDXKXHXIXIXHXHXDXvXCXCXbXFX2Xm.m.m.f...*.*.*.Y.M.j.j.M.f.@. .f...f.@.f. .@. . .Y U  .f.f...T T a.a.g.Q.Q.c.9.s.s.s.I.~.!.Q.c.b.g.d.d.g.g.g.h.h.h.h.h.s.s.s.s.s.g.c.c.g.c.c.c.c.x.x.I.Q.~.!.!.].].{.|.|.|.|.|.|.|.@X@X@X+X+X+X+X+X+X+X+X+XyXeX+X+XyX$X+X+XyX+X+X+X+X+X+X$X$X$XyXyXyXyXyXyXyXyXyXyXyX$XyXyX$X+X+X+X$X$XyXyXyXyXyXyXyXpXpXpXpXpXpXpXiXiXuXiXiXiXiXiXaXaXiXaXaXaXiXiXiXiXiXiXiXaXdXaXiXiXiXiXdXdXiXiXiXiXiXsXfXfXfXfXfXsXuXyXuXiXsXsXsXiXiXiXiXuXuXuXuXeXeXeXeX@X@X@X.X|.{.].].].].~.Q.I.I.v.x.x.x.x.x.x.x.x.c.c.c.c.x.v.x.x.x.b.b.b.b.v.v.Q.s.6.K I H H Z.Q.x.Q.g.I.v.Q.Q.b.Q.b.g.s.s.s.6.s.6.6.W p.a.p.p.W T W Y G U Y L G L L L L L L U | L Y L U U U | { { | +./ ( X.O.X.X.$.;.>.<.<.T.N.N.T.-X-X-X1X3X6X7X8XjXcXcXNXNXVXVXVXBXBXAXAXAXDXAXDXIXIXIXIXIXHXHXHXHXHXKXKXHXHXKXKXJXJXJXJXJXPXPXPXPXPXPXPXPXPXPXPXPXPXPXPXPXPXLXLXPXPXPXLXLXLXLXLXLXLXLXLXLXLXLXLXLXLXLXLXLXLXLXLXHXHXDXcX=X] ",
"JXJXJXJXJXJXPXPXJXJXPXPXJXJXJXJXJXJXPXPXPXPXJXJXJXJXJXJXJXJXPXJXPXPXPXPXPXPXLXLXLXLXLXLXLXLXLXLXLXLXLXLXLXLXLXLXLXLXLXLXLXLXLXLXLXLXLXLXLXLXLXLXLXLXLXLXLXLXLXLXLXLXPXPXPXPXPXPXLXLXLXLXPXLXLXLXJXJXJXJXJXJXJXJXJXKXKXKXKXKXKXKXKXKXKXHXHXHXIXHXKXHXIXKXHXDXvXCXCXBXCX2Xm.m.m.j.*.@.*.j.Y.m.f.*.Y.f.....f.@.f.@.@.....U Y Y W #.f.a...P T a.l.c.!.Q.s.9.s.s.s.Q.Q.!.Q.c.b.g.g.g.g.g.g.g.g.h.s.s.g.g.g.g.g.g.c.c.c.c.c.c.x.x.Q.Q.Q.~.!.!.].{. X X|.|.|.|.|..X@X@X@X+X+X+X+X+X+X+X+X+XeXeX+X+X$X$XyXyXyX+X+X+X+X+X+X+X$X$X$X$X$X$XyXyXyXyXyXyXyXyXyXyXyX$XyXyXyXyXyXpXpXyXyXyXuXpXpXpXpXpXuXyXpXpXpXiXiXiXiXiXiXiXiXiXiXaXiXiXiXiXaXdXdXdXdXdXdXaXaXdXfXfXfXfXdXaXsXsXdXfXzXzXzXfXfXdXiXyXyXuXuXuXiXuXuXyXyXyXuXyXyXeXeX@X@X@X.X|.|.].].].].~.~.I.I.v.x.c.x.x.x.v.v.x.c.c.c.x.v.v.x.x.I.b.b.b.b.v.I.v.s.6.6.H H H ~.!.x.~.d.I.I.Q.I.I.x.c.b.g.s.s.6.s.6.6.W p.a.p.p.W T W T G U Y P L G L L Y L L U | L Y Y Y | @.....+.| $.&.,.N.T.T.T.;X1X:X;X;X8X3X3X7X8XcX8XNXBXBXBXBXAXDXDXDXDXIXHXHXIXHXHXHXIXHXDXHXKXKXJXJXJXJXJXJXJXJXJXJXJXJXPXPXPXPXPXPXPXPXPXPXPXPXPXPXLXLXLXLXPXPXPXPXLXLXPXLXPXPXLXLXLXLXLXLXLXLXLXLXLXLXLXLXLXLXLXLXLXLXLXJXHXDXNX;X%.^ ",
"PXJXJXJXJXJXPXPXJXJXPXPXJXJXJXJXJXJXPXPXPXPXJXJXJXJXJXJXJXJXJXJXPXPXPXPXPXPXLXLXLXLXLXLXLXLXLXLXLXLXLXLXLXLXLXLXLXLXLXLXLXLXLXLXLXLXLXLXLXLXLXLXLXLXLXLXLXLXLXLXLXLXPXPXPXPXPXPXLXLXLXLXPXLXLXLXJXJXJXJXJXJXJXJXJXJXJXJXJXJXKXKXKXKXKXKXHXHXIXKXJXKXHXJXKXDXNXCXGXCXBX^.m.m.m.f.j.@.*.m.Y.j.*.f.Y.@. .@.f.#.f.@. .@...Y L Y  .a.f.#.W G E s.h.c.{.~.9.s.s.s.b.~.~.!.Q.c.b.g.g.g.g.g.g.g.g.h.h.s.g.g.g.g.g.g.c.c.g.c.c.c.x.x.Q.Q.Q.~.!.!.]. X|. X|.|..X.X.X.X@X@X+XXX@X@X+X+X+X+X+X+XeXeXyXyXyXyXyX$X+X+X+X+X+X+X+X+X+X+X+X+X$XyXyXyXyXyXyXyXyXyXyXyXyXyXyXyXyXyXyXpXpXpXuXuXpXpXpXpXpXyXyXyXyXyXuXpXpXiXiXiXiXiXiXiXaXaXaXsXaXaXdXfXfXdXdXdXaXiXiXaXdXdXfXdXdXaXdXdXdXdXdXdXfXdXdXdXdXiXuXiXiXiXiXuXuXyXeXyXyXeXeX+X@X@X@XXX.X|.|.{.].].].~.~.I.v.v.x.c.c.x.x.v.v.x.c.c.c.x.v.I.x.x.I.b.b.b.b.x.I.x.d.6.6.I H H Q.].v.~.c.I.x.x.Q.Q.x.x.g.d.s.s.6.a.6.6.W p.l.p.p.W T W T G W Y L L M L Y Y L L U | L Y U Y  .f.*.j.j.*.n.,X7X3X8X8XjXNXcXcXjXjXAXNXcXNXNXDXNXIXIXDXDXDXDXIXHXHXHXHXJXJXHXHXKXJXKXPXHXJXPXPXPXPXPXPXPXPXJXJXPXPXPXPXPXPXLXLXPXPXPXPXPXPXPXPXPXPXLXLXLXLXPXPXPXPXPXPXPXLXPXPXLXLXLXLXLXLXLXLXLXLXLXLXLXLXPXPXPXPXLXLXLXHXDXVX6X,.^ w ",
"LXLXJXJXJXJXPXPXPXPXPXPXPXPXPXPXPXPXPXPXPXPXPXJXJXJXJXJXJXJXJXPXPXPXPXPXLXLXPXJXLXLXLXLXLXLXLXLXLXLXLXLXPXPXLXLXPXPXLXLXLXLXLXLXLXLXLXLXLXLXLXLXLXLXLXLXLXLXLXLXLXLXLXLXPXPXPXPXPXPXLXLXPXPXPXPXLXLXPXJXJXJXJXJXJXJXJXJXJXJXJXKXJXKXKXKXKXKXIXHXJXJXHXKXKXAXCXCXCXmXvX4XE.:.m.j.*.@.j.Y.j.f.*.j.M.@. .f.f.@.f.@..... .U L Y L j.a...W E a.a.s.!.~.c.9.d.s.6.c.Q.~.Q.Q.c.b.g.g.g.d.d.g.g.g.g.g.g.g.g.g.s.g.g.b.c.c.c.c.c.x.x.Q.Q.Q.~.!.!.]. X X|.|..X.X.X@X@X@X@X+X+X+X+X+X+X+X+X+X+XyXyX+XyXyXyXyX+X+X+X+X+X+X+X+X+X+X+X$X$X$X$XyXyXyXyXyXyXyXyXyXyXyXyXyXyXyXyXyXyXpXpXpXpXpXpXpXpXpXpXyXyXyXyXpXpXpXpXpXpXiXiXiXiXaXaXaXaXaXaXdXdXdXdXdXdXdXaXdXdXaXaXdXdXdXdXdXdXdXsXdXdXdXdXdXdXdXiXiXiXiXiXiXuXuXyXyXyXuXyXeX+X+X@XXX.X|.|.|.{.].].].~.~.~.I.v.x.x.x.x.x.v.v.x.x.c.x.x.x.I.x.x.I.b.b.b.c.x.I.x.d.6.6.J H H I.{.~.~.~.I.v.v.Q.~.Q.x.g.c.s.s.6.a.9.8.W p.l.p.p.W T W T L W Y P L m G Y U L L  .U L L L  . .j.M.^.R.m.4XhXNXcXNXBXDXBXBXHXNXcXDXKXNXHXDXAXKXLXJXJXJXJXJXJXPXPXPXJXJXJXKXJXJXPXPXJXIXJXPXPXPXPXPXPXPXPXPXPXLXLXPXPXPXPXPXPXPXPXPXPXPXPXPXPXPXPXPXPXLXPXLXPXPXPXPXPXPXPXPXPXPXPXLXLXLXLXLXLXLXLXLXLXLXLXLXPXPXPXJXJXKXDXAX8X1.) w 0 ",
"LXLXPXPXJXJXPXPXJXPXPXPXLXLXPXPXPXPXPXPXPXPXJXJXJXJXJXJXJXJXPXPXPXPXPXPXLXLXPXJXLXLXLXLXLXLXLXLXLXLXLXLXPXPXLXPXPXPXLXLXLXLXLXLXLXLXLXLXLXLXLXLXLXLXLXLXLXLXLXLXLXLXLXLXPXPXPXPXPXPXLXLXPXPXPXPXLXLXPXJXJXJXJXJXJXJXJXJXJXJXKXKXJXKXKXKXKXJXHXHXJXPXHXKXHXAXDXBXFXFXvXR.E.m.C.*.*.*.m.Y.j.f.f.j.j.a.@.f.f.f.f.@..... .Y L Y U j.p.E W u.a.g.c.{.x.Q.a.s.s.6.c.Q.Q.Q.x.c.c.b.g.g.d.d.g.s.g.g.s.s.g.g.g.g.g.g.b.c.g.c.c.c.x.x.Q.Q.Q.~.!.!.{.|.|.|..X.X.X.X@X@X@X@X@X@X@X@X+X+X+X+X+X+XeXyX+X+X+X+X+X+XyXyX$X$X$X$X+X+X$X$X$X$XyX$X+X+X+X+X$XyXyXyXyXyXyXyXuXyXyXyXyXyXuXyXyXyXyXyXyXyXpXuXyXpXiXaXaXiXiXiXpXpXpXpXpXpXpXuXiXiXiXaXiXiXaXdXaXaXdXdXzXzXfXdXdXdXdXdXdXdXdXsXsXsXsXdXdXdXdXdXsXiXiXiXiXiXuXuXuXuXuXuXyXeX@X@X@XXX|.|.|.{.].].].~.~.~.I.v.v.x.c.x.x.v.v.x.x.c.c.c.x.x.x.x.I.b.b.b.c.x.I.x.d.6.6.J H H Q.].].~.~.~.I.I.Q.Q.Q.c.b.c.g.s.a.6.9.8.W p.l.p.p.W T W T L T Y P Y s M L U U U Y Y Y Y Y  .U M.^.4X2XB.CXBXAXAXKXDXBXKXHXLXDXNXDXLXNXJXDXDXKXLXLXPXJXJXPXLXPXLXLXLXPXPXPXPXLXLXLXPXHXPXLXLXLXLXLXLXLXLXLXLXPXPXPXPXLXLXLXLXLXLXLXLXLXLXPXPXPXPXLXLXLXLXLXPXPXPXPXPXPXLXLXPXPXJXPXLXLXLXLXLXLXLXLXLXLXLXPXPXPXPXPXJXIXAX8XT.` w 8 5 ",
"LXLXLXPXJXJXJXPXJXJXJXPXLXPXPXPXJXPXPXPXPXPXPXPXJXJXPXJXPXPXPXPXPXPXLXLXLXLXJXJXLXLXLXLXLXLXLXLXLXLXLXLXPXPXPXPXLXLXLXLXLXLXLXLXLXLXLXLXLXLXLXLXLXLXLXLXLXLXLXLXPXPXLXLXPXPXPXPXPXPXLXLXJXJXPXPXLXLXLXLXPXPXLXLXLXLXPXPXPXPXPXPXJXKXKXKXJXPXHXHXJXPXHXHXFXCXFXNXFXBX,XE.,Xm.C.f.*.j.M.Y.f.f.j.m.j.f.@.@.f.f.f.f..... .Y Y Y f.f...W E p.a.W.!.{.Q.b.c.9.s.a.x.x.Q.I.x.c.b.b.b.b.d.s.s.s.h.h.h.h.g.g.g.g.g.g.c.c.c.c.x.x.x.x.Q.Q.Q.~.!.!.{. X X|..X.X.X.XXX@X@X@X@X@X@X@X+XeX+X+X+X+XeX+X+X+X+X+X+X+XyXyX$XyXyXyXyXyXyXyXyXyX$XyXyXyXyXyXyXyXyXyXyXyXyXyXpXpXpXpXyXyXuXyXyXyXyXyXuXyXpXiXiXiXpXpXiXiXiXiXiXiXiXuXpXuXpXuXiXaXdXdXaXaXdXfXzXfXaXiXaXaXiXiXaXdXdXfXdXdXdXsXsXsXsXdXdXdXdXdXsXiXiXiXiXiXuXuXuXuXuXuXuXyXeX@X@X@XXX|.|.{.].].].].~.~.v.v.x.x.x.x.x.x.x.x.x.c.c.c.x.x.x.x.I.b.b.d.x.c.v.x.s.6.6.H G H Q.~.{.I.~.].v.~.Q.Q.Q.x.c.c.x.s.6.6.6.u.E p.l.p.p.W W W T P L W L Y j G L M Y .. .| L M U @. .Y.^.mX4X,XFXAXKXJXDXDXLXLXLXLXKXBXDXLXBXJXDXKXJXLXLXLXLXLXPXPXLXLXLXLXPXPXPXPXLXLXLXPXIXPXLXLXLXLXLXLXLXLXLXLXLXLXLXLXLXLXLXLXLXLXLXLXLXLXLXLXLXLXLXLXLXLXLXLXLXLXLXLXLXLXLXLXPXJXJXPXLXLXLXLXLXLXLXLXLXLXPXPXPXPXJXHXAX9XT.` q 8 5 4 ",
"LXLXPXPXJXJXJXPXJXJXPXPXLXPXPXPXJXPXPXPXPXPXPXPXPXJXPXPXPXPXPXPXPXPXLXPXLXLXPXLXLXLXLXLXLXLXLXLXLXLXLXLXPXPXPXPXLXLXLXLXLXLXLXLXLXLXLXLXLXLXLXLXLXLXLXLXLXLXLXLXPXPXPXLXPXPXPXPXPXPXLXLXJXJXJXPXLXLXLXLXLXLXLXLXLXPXPXPXPXPXPXPXJXKXKXKXJXPXKXKXJXPXIXHXFXCXDXCXFXCX,XE.4Xm.f.C.*.M.Y.Y.f.f.j.m.j.f.f.@.a.f.f.@..... .Y U L j.f.W W E p.a./. X{.Q.d.s.s.i.s.x.x.I.x.x.c.c.b.b.b.g.s.s.s.s.h.s.s.g.g.g.g.g.g.c.c.c.x.A.A.x.x.Q.Q.Q.~.~.!.!.!.].{.|.|.|..X.X@X@X+X@X+X+X+X+X+X+X+X+X+X+X+X+XoXoXoXoX+X+X+X+X$X$X$XyXyXyX$XyXyXyXpXpXpXuXuXuXyXyXyXyXyXuXuXpXpXpXpXyXyXyXyXyXpXyXyXpXuXpXuXyXyXyXpXpXpXpXpXpXpXpXpXpXpXuXuXiXiXaXaXiXiXaXdXfXzXfXfXfXfXdXdXdXfXdXdXdXdXsXsXdXdXdXdXdXdXiXiXiXiXuXuXiXiXuXuXuXuXuXuXuXuXeXeX@X@XXX.X|.{.].].].].~.~.I.v.v.x.x.x.x.v.x.x.x.c.c.c.c.x.x.x.I.b.d.s.c.x.x.x.s.6.6.H c H Q.~.|.I.~.{.x.I.Q.Q.Q.x.x.c.x.s.6.6.9.p.E u.l.p.u.W W W W T G W Y L M M L k L Y U U Y Y Y f.@.m.rXSXB.vXHXDXIXDXHXJXKXJXLXJXJXVXHXIXDXKXDXLXLXLXLXLXLXLXPXPXLXPXPXLXPXPXPXPXPXLXLXPXIXPXLXLXLXLXLXLXLXLXLXLXLXLXLXLXLXLXLXLXLXLXLXLXLXLXLXLXLXLXLXLXLXLXLXLXLXLXLXLXLXLXPXPXLXLXPXPXPXPXPXLXLXLXLXLXLXLXPXPXPXPXIXAXcX=X] V 0 5 4 2 ",
"PXPXPXPXPXPXPXPXPXPXLXLXPXPXPXPXPXPXPXPXPXPXPXPXPXPXPXPXPXPXPXPXLXLXLXPXPXPXLXLXLXLXLXLXLXLXLXLXLXLXLXLXLXLXLXLXLXLXLXLXLXLXLXLXLXLXLXLXLXLXLXLXLXLXLXLXLXLXLXLXLXLXLXLXPXPXPXPXPXPXLXLXPXPXPXPXLXLXLXLXPXPXPXPXPXPXPXJXPXJXJXPXJXKXKXJXJXPXKXKXJXLXIXHXFXDXDXCXFXFXR.4X5Xf.m.j.m.j.M.M.@.f.f.M.f.f.f.a.f.f.*... ... .L  ...M.a.W W ..p.s.Q.#XQ.P.d.g.d.6.g.c.Q.x.x.c.c.c.c.g.g.g.g.g.s.s.s.s.s.g.g.g.g.g.g.c.c.c.x.x.x.x.I.Q.Q.Q.~.!.!.!.].].{.|.|.|.|..X.X@X@X+X+X+X@X+X+X+X+X+X+X+X+X+X+X+X+X+X+X+X+X$X$XyXyXyXyXyXyXyXyXuXpXiXiXiXiXpXuXyX$XyXyXyXyXuXuXuXuXyXyXyXyXyXpXpXuXyXyXyXyXyXyXpXyXpXyXuXuXpXpXpXpXpXpXiXiXiXiXiXiXiXiXiXiXdXfXfXdXdXdXfXfXfXfXdXdXdXdXsXsXdXdXdXdXdXsXiXiXiXiXiXiXiXiXuXuXuXiXpXuXuXyXeX@X+X@X.X.X|.{.].].].].~.~.I.v.v.x.x.x.x.x.x.x.c.c.c.c.c.x.x.x.I.b.s.s.x.x.x.v.s.6.6.H c H x.].|.~.~.].~.v.~.Q.I.v.I.b.x.x.a.6.p.p.E 6.a.p.p.T W W W T D T W L M m M k Y L L Y U  .L f. .j.5XFX,XFXAXDXDXLXLXLXLXLXLXLXDXBXHXAXAXAXJXLXLXLXLXLXLXLXLXLXLXLXPXPXPXPXPXPXLXLXLXPXIXLXLXLXLXLXLXLXLXLXLXLXLXLXLXLXLXLXLXLXLXLXLXLXLXLXLXLXLXLXLXLXLXLXLXLXLXLXLXLXLXLXPXPXLXLXLXPXLXPXPXPXLXLXLXLXPXPXPXPXJXHXAX9X=XO.z 0 8 3 2 1 ",
"PXPXPXPXPXPXPXPXPXPXLXLXPXPXPXPXPXPXPXPXPXPXPXPXPXPXPXPXPXPXPXPXLXLXPXPXPXPXLXLXLXLXLXLXLXLXLXLXLXLXLXLXLXLXLXLXLXLXLXLXLXLXLXLXLXLXLXLXLXLXLXLXLXLXLXLXLXLXLXLXLXLXLXLXPXPXPXPXLXLXLXLXPXPXPXPXLXLXLXLXPXPXPXPXPXPXPXJXPXJXJXPXJXKXKXJXJXPXJXKXHXKXHXDXDXHXFXFXFXAX2X4X5X*.m.j.m.M.M.f.@.j.f.m.f.f.f.f.f.f.@... . .U L ..f.j...W E ! 8.k.Q. XQ.c.s.s.s.6.g.c.I.c.c.c.c.c.c.g.g.g.g.g.s.s.s.s.s.g.g.g.g.g.g.c.c.c.x.x.x.x.I.Q.Q.~.!.].{.{.].{.|.|..X.X.XXX@X@X+XyXyXyXyXyXyXyXyX$X$X$XyXyX$XyXyX+X+XyXyXyXyXuXyXyXyXyXyX+X+XyXyXuXuXuXiXiXpXuXyXyXyXyXyXuXuXuXuXpXiXiXaXiXiXiXpXpXpXyXyXpXyXpXpXpXpXpXpXpXpXpXpXpXpXiXiXiXiXaXaXiXaXdXdXaXdXdXiXiXiXaXaXdXdXaXiXiXsXdXdXdXsXsXsXsXsXsXsXiXsXdXdXdXdXiXiXuXuXuXuXuXyX+X@X@X@X.X|.|.{.].].].].~.~.~.I.v.v.x.x.x.x.x.x.c.c.c.c.c.x.x.x.I.c.b.s.b.x.x.v.s.9.6.H c H c.]..X].].~.].I.Q.~.v.v.I.b.x.x.s.6.9.p.E 6.a.p.p.W W W W W G T W L M M M M Y L L Y U  .Y U @.Y.mXkXFXCXCXKXKXKXLXLXLXLXLXLXIXAXDXAXBXAXLXLXLXLXLXLXLXLXLXLXLXLXPXPXPXLXPXPXLXLXLXPXIXLXLXLXLXLXLXLXLXLXLXLXLXLXLXLXLXLXLXLXLXLXLXLXLXLXLXLXLXLXLXLXLXLXLXLXLXLXLXLXLXLXLXLXLXLXLXLXLXLXPXPXPXLXLXPXPXPXPXJXHXAX9X=X] B 0 5 4 4 1 1 ",
"PXPXPXPXPXPXPXPXPXPXLXLXPXPXPXPXLXLXPXPXPXPXPXPXPXPXPXPXPXPXPXPXLXLXLXLXPXLXLXLXLXLXLXLXLXLXLXLXLXLXLXLXLXLXLXLXLXLXLXLXLXLXLXLXLXLXLXLXLXLXLXLXLXLXLXLXLXLXLXLXLXLXLXLXLXPXLXLXLXLXLXLXPXPXPXPXLXLXLXLXLXLXLXLXLXLXLXPXLXPXJXLXJXKXHXJXJXJXJXJXKXDXHXDXDXKXFXFXCXCX-X4X5X*.m.j.m.Y.M.....m.j.j.@.f.f.f.f.f.@. . .U Y Y ..M.f.W E E ! 8.P.!. Xx.b.s.s.s.6.c.x.x.c.c.c.c.c.g.g.g.g.g.g.s.s.s.s.s.s.g.g.g.g.c.c.c.c.x.x.x.I.I.Q.Q.~.].].{.|.|.|..XXX@X@X@X@X@XeXeXyXyXyXyXyXyXyXyXyXyXyXyXyXyXyXyXyXyXyXyXyXyXyXyXyXyXyXyXyX$X+X+X+X+X$XyXyXuXuXyXyXyXyXyXyXyXyXyX+XyXyXyXyX+XyXyXyXyXpXyXyXpXpXiXpXiXiXiXiXpXpXpXpXpXiXiXiXiXaXaXiXaXdXdXdXiXiXdXfXfXdXdXaXaXdXaXsXsXdXdXfXfXfXdXdXdXdXsXiXsXdXdXdXsXiXiXuXuXuXuXuXyXeX@X@X@X.X|.|.|.].].].].].~.~.I.v.v.x.x.x.x.x.x.c.c.x.x.c.x.x.x.I.x.b.s.b.x.v.v.s.s.6.H c H b.~..X].].I.{.I.I.~.x.I.I.b.x.x.g.6.6.9.E E l.p.p.W T W W I L W W Y M M M L Y L L Y U  .Y @.| <XFX,XCXFXAXLXLXJXPXJXLXLXLXLXHXDXHXHXDXJXLXLXLXLXLXLXLXLXLXLXLXLXPXPXLXLXPXLXLXLXLXPXIXLXLXLXLXLXLXLXLXLXLXLXLXLXLXLXLXLXLXLXLXLXLXLXLXLXLXLXLXLXLXLXLXLXLXLXLXLXLXLXLXLXLXLXLXLXLXLXLXLXPXPXLXLXPXPXPXPXJXIXAX9X=X] V 0 8 4 2 2 1 1 ",
"JXPXPXPXPXPXPXPXPXPXLXLXPXPXPXPXLXLXLXPXPXPXPXPXPXPXPXPXPXPXPXPXLXLXLXLXPXPXLXLXLXLXLXLXLXLXLXLXLXLXLXLXLXLXLXLXLXLXLXLXLXLXLXLXLXLXLXLXLXLXLXLXLXLXLXLXLXLXLXLXLXLXLXLXLXLXLXLXLXLXLXLXPXPXPXPXLXLXLXLXLXLXLXLXLXLXLXPXLXPXJXJXJXKXKXJXPXPXJXJXKXKXKXAXAXKXFXFXvXjX,X,X5X*.m.j.m.Y.M.....m.j.f.@.@.f.f.f.f...U ..U Y U @.M.#.E W ..6.8.P.!.!.x.b.s.s.s.K c.Q.c.c.c.c.c.b.g.g.g.g.g.g.s.s.s.s.s.s.g.g.g.g.c.c.c.c.x.x.x.I.I.Q.Q.~.~.!.{.|..XXX@XXX@X@X@X+X@X@X@X@X+X+X+X+X+XyXyXyXyXyXyXyX$XyXyX$X$X+X+X+X$XeXeX$X+XyXyXuXyXyX+X+X+XXXoX+X+X$XyXyXyXyXyXyXyXyXyXyXyXyX+X+X+X+XyXyXyXyXyXyXpXpXiXiXiXiXiXiXpXpXpXpXpXiXiXiXiXaXiXiXiXiXiXiXiXiXdXfXdXiXiXaXfXfXzXfXdXdXdXdXdXdXdXdXdXdXdXdXiXiXuXiXiXiXuXyXyXyXyXuXyXeX@X@X@X.X|.|.|.].].].].].].~.~.I.v.x.x.x.x.x.x.x.c.x.x.c.c.c.x.I.x.b.s.b.b.v.x.s.s.6.H c H s.I.|.].|.I.].~.I.!.x.v.Q.b.x.x.b.s.6.6.E E l.p.p.W Q W W I P W W Y G k M L L L L Y Y  . .@.*.^.^.4XFXAXDXLXLXLXLXJXJXLXLXLXHXDXDXHXDXJXLXLXLXLXLXLXLXLXLXLXLXLXPXPXPXPXLXLXLXLXLXPXIXLXLXLXLXLXLXLXLXLXLXLXLXLXLXLXLXLXLXLXLXLXLXLXLXLXLXLXLXLXLXLXLXLXLXLXLXLXLXLXLXLXPXLXLXLXLXLXLXLXPXPXLXPXPXPXPXPXIXAX9X;X] V 0 5 5 4 > > > > ",
"PXPXPXPXPXPXPXPXPXPXLXLXPXPXPXPXPXPXPXPXPXPXPXPXPXPXLXLXPXPXPXPXPXPXPXPXPXPXLXLXLXLXLXLXLXLXLXLXLXLXLXLXLXLXLXLXLXLXLXLXLXLXLXLXLXLXLXLXLXLXLXLXLXLXLXLXLXLXLXLXLXLXLXLXLXLXLXLXPXPXPXPXPXPXPXPXLXLXLXLXLXLXLXLXLXLXLXLXLXPXJXKXKXJXJXJXPXPXLXLXJXLXJXAXAXFXFXDXCXhX4X4X,X*.m.f.Y.Y.j. .j.j.m.f.@.@.j.f.a.a...U ..| Y U f.j.U ..E E p.k.!.!.~.x.g.a.a.6.6.x.Q.c.c.c.c.c.c.c.c.g.g.g.g.g.s.s.s.s.s.d.g.g.b.c.c.c.x.x.x.Z.I.Q.Q.~.~.!.].{.|.XX@X@XXX@X@X@X+X+X@X+XoXoX@X+X+X+X+X+XyXyXyX$XyX+X+X+X+X+X+X$X+X+X+X+X+X+X+X+XyXyXyXyX+X+XXX.X+X+X+XyXyXyXyXyXyXyXyXyXyXyX+X+X+X+X+XyX$XyXyXyXyXyXyXiXiXiXiXiXiXpXiXiXiXiXiXiXiXaXaXiXiXiXiXiXiXiXiXdXdXaXiXiXaXdXfXfXfXdXdXdXdXdXsXsXsXsXdXdXdXiXuXyXuXiXiXyXyXyXyXeXyXyXeX@X@XXX.X|.|.|.{.].].].].].].~.Q.v.x.x.v.v.x.x.x.c.x.c.b.b.b.c.x.c.b.b.b.b.v.b.s.s.6.H c H 9.v.{.].|.~.{.{.I.~.v.x.Q.c.x.x.a.s.6.6.6.E l.p.u.E P W W I P W W L L k m L L L L U Y  .U  .#.R.4XCXvXCXDXJXLXPXLXKXKXLXLXJXKXJXDXDXDXKXLXLXLXLXPXPXPXPXLXLXLXLXPXPXPXPXLXLXLXLXPXPXIXLXLXLXLXLXLXLXLXLXLXLXLXLXLXLXLXLXLXLXLXLXLXLXLXLXLXLXLXLXLXLXPXPXPXPXLXPXLXPXLXLXLXLXLXLXPXPXLXPXPXPXPXPXPXJXHXDXAXcX:X%.^ w 8 5 4 2 > > = = ",
"PXPXPXPXPXPXPXPXPXPXLXLXPXPXPXPXPXPXPXPXPXPXPXPXPXPXLXLXPXPXPXPXPXPXPXPXPXPXLXLXLXLXLXLXLXLXLXLXLXLXLXLXLXLXLXLXLXLXLXLXLXLXLXLXLXLXLXLXLXLXLXLXLXLXLXLXLXLXLXLXLXLXLXLXLXLXLXLXPXPXPXPXPXPXPXPXLXLXLXLXLXLXLXLXLXLXLXLXLXPXJXKXKXPXLXJXJXJXLXLXJXLXKXDXDXFXFXAXvX2XhXE.E.f.m.j.^.Y.j.| j.j.j.f.@.@.j.f.f.@... . .U Y  .j.@.U #.E W s.k.~. Xx.x.s.s.a.6.s.x.Q.c.c.c.c.c.c.b.g.g.g.g.s.s.s.s.s.s.g.g.b.b.b.c.c.c.x.x.x.Q.Q.Q.~.~.!.].{.{.|.|..XXXXX@X@X@X+X@X+X@XoX+X@X+X+X+X+X+X+X+X$X+X+X+X+X+X+X+X+X+X+X$X+X+X+X+X+X+XyXyXeXeX+X+X+X+X+XyXuXuXyXyXyXyXyXyXyXyXyXyXyXyXyXyXyXyX+X+XyXyXyXyXyXpXpXpXiXiXpXpXiXiXiXiXiXiXiXaXaXiXiXiXiXiXiXiXiXiXdXzXfXaXiXiXiXiXiXiXdXdXdXdXsXsXiXiXiXsXsXsXdXdXsXiXuXyXyXyXeXyXyXyXeX@X+XXX.X.X|.|.|.{.].].].].].].~.I.v.x.x.v.x.x.x.v.x.x.c.b.b.c.c.b.b.b.b.b.I.b.s.b.9.H c H 9.v.].]. X].{.|.~.I.I.v.v.c.v.c.s.s.6.6.6.R s.p...E Q W W I T W W G L m m L L L L U Y  .U  .*.R.vXCXhXcXDXJXLXPXLXKXKXLXLXKXJXLXBXDXHXKXLXLXLXLXLXPXPXPXLXLXLXLXPXPXPXPXLXLXLXLXPXLXKXPXLXLXLXLXLXLXLXLXLXLXLXLXLXLXLXLXLXLXLXLXLXLXLXLXLXLXLXLXLXLXPXPXPXLXLXPXPXPXPXPXPXPXPXPXPXPXPXPXKXHXHXHXHXKXIXBXjX>X%.w w 8 5 4 1 > 1 > = = ",
"PXPXPXPXPXPXPXPXPXPXLXLXPXPXPXPXPXPXPXPXPXPXPXPXPXPXLXLXPXPXPXPXPXPXPXPXPXPXLXLXLXLXLXLXLXLXLXLXLXLXLXLXLXLXLXLXLXLXLXLXLXLXLXLXLXLXLXLXLXLXLXLXLXLXLXLXLXLXLXLXLXLXLXLXLXLXLXLXPXPXLXLXLXLXLXLXLXLXLXLXLXLXLXLXLXLXLXLXLXLXJXKXJXLXPXPXJXPXLXJXJXLXKXDXDXFXJXFXDX,XmX^.m.f.m.C.^.M.f...f.f.f.@.@.f.j.f.f.@. . . .L Y @.j.W U ..W T s.c.!. Xc.c.s.s.s.6.g.x.Z.c.c.c.c.c.b.g.g.g.g.g.g.s.g.g.g.g.g.g.b.b.c.c.c.x.x.x.x.Q.Q.Q.~.!.].{. X|.|.|..XXXXX@X@X@X@X+X@X+X+XoX@X+X+X+X+X+X+X+X+X+X+X+X+X+X+X+X+X+X$X$X$XyXyX+X+X+XyXyXyX+X+X+X+X+X+XyXyXyXyXyXyXyXyXyXyXyXyXyXyXyXyXyXyXyXyX$XyXyXyXyXpXyXuXyXpXpXpXpXiXiXiXiXiXiXpXiXiXiXiXiXiXiXiXiXiXiXaXfXzXdXfXfXfXfXdXdXiXiXiXdXdXdXsXiXiXuXuXyXyXuXiXuXuXuXyXyXyXyXeXyXeXeX+X+XXXXX|.|.|.|.{.].].].].].~.Q.I.x.x.x.x.v.I.I.I.v.x.c.c.x.x.x.b.0.b.b.I.b.s.b.9.H c H 9.v.].|.|.{.].|.].I.I.v.v.x.v.c.s.g.a.9.6.R l.E E 6.T W W T W W W G Y M M L L Y L U Y  . .Y @.C.FXFX7XCXDXJXLXPXJXKXJXJXLXHXLXLXcXDXHXLXLXLXLXLXLXLXLXLXLXLXLXLXLXLXPXLXLXLXLXLXPXPXJXPXLXLXLXLXLXLXLXLXLXLXLXLXLXLXLXLXLXLXLXLXLXLXLXLXLXLXLXLXLXLXLXLXLXLXLXLXLXLXPXPXJXJXJXJXJXKXJXKXHXHXIXDXDXAXVX8XT.%.V w 8 5 4 1 > 1 1 1 = = ",
"PXPXPXPXPXPXPXPXPXPXLXLXPXPXPXPXPXPXPXPXPXPXPXPXPXPXLXLXPXPXPXPXPXPXPXPXPXPXLXLXLXLXLXLXLXLXLXLXLXLXLXLXLXLXLXLXLXLXLXLXLXLXLXLXLXLXLXLXLXLXLXLXLXLXLXLXLXLXLXLXLXLXLXLXLXLXLXLXPXPXLXLXLXLXLXLXLXLXLXLXLXLXLXLXLXLXLXLXLXLXJXKXJXLXLXPXJXJXJXJXJXLXJXFXFXFXJXDXCX3XZXE.m.f.C.j.M.m.f.j.f.a.f...@.a.f.f.f. .U .. .L L f.f.U  .E J E a.P. X{.P.d.s.s.s.6.c.x.x.c.c.g.g.g.g.g.g.g.g.b.g.g.g.g.g.g.g.g.b.b.c.c.c.c.x.x.Q.Q.~.~.!.!.]. X|. X|..X@X@XXX@X@X@X@X@X+X@X+X+X+XeX+X$XyX+X+X+X+X+X+X+X+X+X+X+X+X+X$X$X$XyXyX$XyX+XyXyXyX+X+X+X+X+X+X+X+X+XyX+XyXyXyXyXyXyXyXyXyXyXyXyXyXyX+X+XyXyXyXyXyXyXyXuXpXpXpXpXiXiXiXiXiXiXpXiXiXpXiXiXiXiXiXiXiXiXiXiXaXdXdXdXdXdXdXdXdXdXsXsXdXdXdXdXsXiXiXyXyX+XyXiXiXiXyXyXyXyXeXeXeXeX+X+XXXXX.X|.|.|.|.].].~.~.~.~.~.I.v.v.x.x.x.I.I.I.I.v.x.c.x.x.I.b.0.b.s.v.b.s.s.9.H c H s.v.].{.{.|.~.|.].~.I.I.v.v.Q.b.s.g.a.a.6.R s.E E u.T T W W W E W G Y M M L L Y L U Y  .U  .R.5XKXvX4XFXFXJXLXLXJXJXJXJXLXDXLXLXjXHXKXLXLXLXLXLXLXLXLXLXLXLXLXLXLXLXPXLXLXLXLXLXLXPXPXLXLXLXLXLXLXLXLXLXLXLXLXLXLXLXLXLXLXLXLXLXLXLXLXLXLXLXLXLXLXLXLXLXLXLXLXLXLXLXPXPXJXKXHXHXHXHXHXHXAXBXNXNX9X3XT.%.^ w 5 8 5 4 1 > 1 1 1 1 = = ",
"LXLXLXPXPXPXPXPXLXLXLXLXLXLXLXLXPXPXPXPXLXLXPXPXLXLXPXPXPXPXPXPXPXPXPXPXPXPXLXLXLXLXLXLXLXLXLXLXLXLXLXLXLXLXLXLXLXLXLXLXLXLXLXLXLXLXLXLXLXLXLXLXLXLXLXLXLXLXLXLXLXLXLXLXLXLXLXLXLXLXLXLXLXLXLXLXLXLXLXLXLXLXLXLXLXLXLXPXPXJXPXJXJXPXLXJXJXJXJXJXLXLXKXFXFXFXHXAXvX2XvX,Xj.*.m.m.M.M.f.f.f.f.@.@.f.f.f.a.f. .U  .U L Y j.Y Y ..E T s.d.!. X~.P.s.s.s.s.6.c.c.c.c.c.g.g.g.g.g.g.g.g.b.g.g.g.g.g.g.d.b.b.c.c.c.x.x.x.x.Q.Q.~.!.].].{. X|.|..XXXXXXXXXXX@X@X@X+XeXyXyXyXyXeX+XyXyX+X+X+X+X+X+X+X+X+X+X+X+X+XyXyXyXyXyXyXyXyXyXyX+X+X+X+X+X+X+X+X+X+X+X+XyXyXyXyXyXyXyXyXyXyXyXyX+X+XyXyXyXyXyXyXyXyXyXyXpXpXpXpXpXpXpXpXiXiXpXpXiXpXiXiXiXiXiXiXiXiXiXiXiXdXdXdXdXdXdXdXdXdXdXsXdXdXdXdXdXsXiXiXyXuXuXiXyXyXyXyXyXyXyXyXeXyXeX@X+XXXXX.X|.|.|.].].].~.~.I.I.I.v.v.v.x.x.v.v.I.v.v.v.x.x.v.I.b.0.b.s.v.b.s.7.s.6.c H s.b.{.{.].|.~.|.].~.v.I.I.I.I.b.s.d.9.9.p.K a.R W 8.W W W E W ..W F L M M L L Y L U L  .....^.hXKXkX4XFXFXFXHXLXLXHXJXJXJXKXLXDXjXDXHXLXJXKXKXJXLXLXLXLXLXLXLXLXLXHXJXLXLXLXLXLXLXKXLXLXLXLXLXLXLXLXLXLXLXLXPXPXJXJXPXPXLXLXLXLXPXPXLXPXPXLXPXJXLXJXJXJXJXJXJXJXJXJXKXHXHXHXIXIXDXBXcX8X1X=X,.<._ ) B B z 0 5 4 2 2 > > 1 1 1 = % & ",
"LXLXLXLXPXPXPXPXLXPXLXLXPXLXLXLXPXPXPXPXLXPXPXPXLXLXLXLXPXPXPXPXPXPXPXPXPXPXLXLXLXLXLXLXLXLXLXLXLXLXLXLXLXLXLXLXLXLXLXLXLXLXLXLXLXLXLXLXLXLXLXLXLXLXLXLXLXLXLXLXLXLXLXLXLXLXLXLXLXLXLXLXLXLXLXLXLXLXLXLXLXLXLXLXLXLXLXPXPXPXJXJXJXPXPXJXJXJXJXJXLXLXKXDXDXHXFXFXNX2XbX^.:.j.j.M.M.M.f.f.f.f.@.a.f.f.f.@.@.W U  .U L U f.Y U E ..p.d.s.{. XQ.c.a.s.s.a.s.c.c.c.c.c.c.c.g.g.g.g.g.a.g.Q.g.g.g.g.g.g.b.b.c.c.x.x.x.x.Q.Q.~.~.!.].}.{. X|.|..X.XXXXXXXXX@X@X@XeXyXyXyXyXyX+X+XyX+X+X+X+X+X+X+X+X+X+X+X+X+X+X+XyXyXyXyXyXyXyXyXeX+XeX+X+X+X+X+X+X+X+X+X+X$X$X$X$XyXyX$X$X+XyXyXyX+X+XyXyX+XyXyXyXyXyXyXyXpXpXpXpXpXpXpXpXiXiXpXpXiXiXiXiXiXiXiXiXiXiXiXiXiXiXaXdXfXfXdXdXdXdXdXdXfXdXdXdXdXdXiXiXiXuXyXyXeXyXyXyXyXyXyXyXeXeXeX@X+XXXXX.X.X|.|.].].].~.~.I.I.I.v.v.v.x.v.v.v.v.v.v.v.x.x.x.v.b.0.b.b.I.x.s.7.s.6.H H 9.I.~.{.].XX~.{.!.!.I.I.I.I.x.b.s.d.9.9.a.R p.R W 6.W W E ..W ..W Y L M M L M Y L U L  .U f.j.mXZX5XvXZXAXAXHXLXLXHXJXJXHXAXLXNXvXBXJXLXLXJXKXJXLXJXJXJXJXKXJXJXJXDXHXKXKXKXKXKXHXHXHXKXJXKXKXKXKXKXKXKXKXJXJXJXJXJXKXKXJXJXJXJXJXJXJXJXJXKXKXKXJXJXJXKXKXKXHXHXHXIXDXDXAXBXcX9X6XT.;.' ^ ^ B B V z z w 0 5 4 2 > > > > 1 1 = = & & ",
"LXLXLXLXPXPXPXPXPXPXLXLXLXLXLXLXPXPXPXPXLXLXLXPXLXLXLXLXPXPXPXPXPXPXPXPXPXPXLXLXLXLXLXLXLXLXLXLXLXLXLXLXLXLXLXLXLXLXLXLXLXLXLXLXLXLXLXLXLXLXLXLXLXLXLXLXLXLXLXLXLXLXLXLXLXLXLXLXLXLXLXLXLXLXLXLXLXLXLXLXLXLXLXLXLXLXLXPXPXPXJXPXPXJXLXPXJXJXKXJXJXJXFXDXDXKXFXKXCX2X7X^.f.j.j.M.Y.j.j.f.f.f.@.a.f.f.f.@...U W Y L L @...Y U ..#.l.6.P.!.{.P.b.9.s.s.6.g.c.c.c.c.g.g.g.g.g.g.g.g.s.g.s.Q.g.g.g.g.b.b.c.c.c.x.x.x.x.Q.Q.!.!.].}.}. X|. X.X.X.XXXXXXXXX@X@X+XeXyXyXyXyX+X+X+X+X+X+X+X+X+X+X+X+X+X+X+X+X+X+X+X+X+XyXyXyXyXyXeXeXeXeX+X+X+X+X+X+X+X+X+X+X+X+X$X+XyXyX+X+X+XyXyXyXyXyXyXyXyXyXyXyXyXyXyXyXyXpXpXpXiXpXpXiXiXiXpXpXiXiXiXiXiXiXiXiXiXiXiXiXiXiXiXiXiXiXdXdXdXdXdXdXfXdXdXdXdXdXsXiXiXuXeX+XyXyXyXyXyXyXyXyXyXeXeX@X@XXX@XXX.X|.|.].].].~.I.I.I.I.v.v.v.v.v.v.I.v.I.I.I.I.x.x.v.x.0.b.b.I.x.b.7.s.6.c 6.6.~.I.|.~.@X].{.].!.~.I.I.x.c.b.s.d.9.9.a.K p.R W 8.W E E u.E ..E Y L M L L M U L U Y  . ...j.kXkX,XFXkXvXAXFXJXJXDXKXKXDXDXLXcXcXvXKXJXKXDXFXKXKXKXKXKXKXHXHXHXKXDXDXHXDXDXIXIXDXDXFXHXDXDXDXDXFXDXDXDXDXDXDXDXDXDXAXAXAXCXAXAXAXAXDXDXAXCXBXBXBXBXBXBXNXNXcXcX9X9X6X3X=XT.2.%._ ^ ^ V z q z z z w 0 7 8 5 4 2 > > > > 1 = = = & & ",
"LXLXLXLXPXPXPXPXPXPXLXLXLXLXLXLXPXPXPXPXPXPXLXLXLXLXLXLXPXPXPXPXPXPXPXPXPXPXLXLXLXLXLXLXLXLXLXLXLXLXLXLXLXLXLXLXLXLXLXLXLXLXLXLXLXLXLXLXLXLXLXLXLXLXLXLXLXLXLXLXLXLXLXLXLXLXLXLXLXLXLXLXLXLXLXLXLXLXLXLXLXLXLXLXLXLXLXPXPXPXJXJXPXPXLXJXJXKXKXKXJXKXFXDXDXJXFXJXCX2X5XR.j.*.M.M.Y.j.j.@.f.f.@.@.f.f.f.@. .U U U L W f.Y U W ..a.a.R  X!.].I.k.6.a.s.6.g.c.c.c.c.g.g.g.g.g.g.g.g.g.g.g.g.g.g.g.g.k.k.c.c.x.x.x.Q.Q.Q.Q.!.!.]. X X|.|.|.XXXX.XXXXXXXXX@X@XeXyXyXyXyXeX+X+X+X+X+X+X+X+X+X+X+X+X+X+X+X+X+X+X+X+X+X+X+X+X+XeX+X+X+X+X+X+X$X$X+X+X$X+X$X+X+X+X+X+X+X+X+X+X+XyXyXyXyXyXyXyXyXyX+X+X+XyXyXyXyXyXpXuXpXpXiXiXiXiXpXpXiXiXiXiXiXiXiXiXiXiXiXiXiXiXiXiXiXiXsXsXdXdXdXdXdXdXsXsXsXsXsXsXiXiXiXyXiXyXyXuXyXyXyXyXyXeXeX@X@XXX@XXX.X.X|.].].].~.I.I.I.I.v.v.v.v.v.v.I.I.I.I.I.I.x.x.v.v.0.b.b.~.v.b.6.6.6.c H 9.I.~.{.~.@X].].!.~.].I.I.x.b.c.s.s.9.9.9.K p.W R 8.W W E E E E W Y G M L L M U L Y Y |  .f.j.5X^.rXGXrXvXAXDXDXDXAXDXDXCXAXDX7X7XvXDXDXDXAXAXAXAXBXBXBXBXBXBXBXBXcXNXBXNXNXNXNXNXvXvXNXcXvXvXcXcXcXcXcXcXcXvXvXvXvXcXcXcXcXcXcXcXcXcXcXcXcXcXcXcXcXcXjX9X8X4X3X>X=XV.,.%.] ^ V V B 0 w q q w q z w 7 7 5 4 4 2 > > > > = = = = & & ",
"PXPXPXPXPXPXPXPXPXPXLXLXLXLXLXLXPXPXPXPXLXLXLXLXLXLXLXLXLXLXLXLXLXLXLXLXLXLXLXLXLXLXLXLXLXLXLXLXLXLXLXLXLXLXLXLXLXLXLXLXLXLXLXLXLXLXLXLXLXLXLXLXLXLXLXLXLXLXLXLXLXLXLXLXPXPXLXLXLXLXLXLXLXLXLXLXLXLXLXLXLXLXLXLXLXLXLXLXLXJXLXLXLXLXLXLXJXKXKXKXKXHXKXDXDXJXFXKXCX4X^.,X*.f.j.M.M.j.f.#.@.@.@.f.f.f.f.@. . .W Y L ..f.P W #.j.j.6.p. X{.~.I.s.6.p.s.6.c.c.c.c.g.g.g.g.g.g.g.g.g.g.g.g.g.g.g.g.g.b.b.c.c.x.x.x.Q.Q.~.~.!.!.].}.|.|.|..XXXXXXXXXXXXXXX@XeXyXyXeXeXyXyX+X+X+X+X+X+X+X+X+X+X+X+X+X+X+X+X+X+X+X+X+X+X+X+X+X+X+X+X+X+X+X+XeXeX+X+X+X+X+X+X+X+X+X+X+X+X+X+XyXyXyX+XyXyXyXyXyX+X+X+X+X$XyXyXyXyXyXpXiXiXpXpXiXiXiXiXiXiXiXiXiXiXiXiXiXiXaXiXiXiXiXiXiXiXsXsXdXdXdXdXdXdXsXsXsXsXdXsXsXsXsXiXiXuXuXuXyXyXyXyXyXyXeX+X+X@X@XXX.X.X|.{.].].].~.I.I.I.I.v.v.v.v.v.v.I.I.I.I.I.v.x.I.x.9.b.b.I.I.b.7.6.J d H 7.I.~.|.~..X|.|.].~.!.~.I.x.b.x.s.s.9.9.p.6.8.6.E 8.E R E E E E W W M G L L m Y L Y Y  . .@.j.m.,X4XSX2X4XvXcXvXCXvXNXNXjXBXvX2X3XcXNXvXvXvXvXcXcXvXcXcXcXcXcXjXjXjXjXjXhXhXhXhXhXhXhXhXhXhXhXhXjXjXjXjXjXjXjXjXhXhXhXhXhXhXhXhXhXhXhXhXhX8X8XhXjXjXhX9X6X1X-XT.1.2.%.] ) ^ z q w w w w q q q q 0 5 5 4 4 4 2 > 1 1 1 1 = = = % $ $ ",
"PXPXPXPXPXPXPXPXLXLXLXLXLXLXLXLXPXPXPXPXLXLXLXLXLXLXLXLXLXLXLXLXLXLXLXLXPXLXLXLXLXLXLXLXLXLXLXLXLXLXLXLXLXLXLXLXLXLXLXLXLXLXLXLXLXLXLXLXLXLXLXLXLXLXLXLXLXLXLXLXLXLXLXLXPXPXLXLXLXLXLXLXLXLXLXLXLXLXLXLXLXLXLXLXLXLXLXLXLXJXLXLXLXLXLXLXJXKXHXKXKXHXJXFXFXJXDXHXFX5X^.5X*.f.j.M.M.f.@.@.@.@.@.f.f.f.f.#. . .U Y P p.a.Y #.f.f.W p.c. X{.v.c.9.6.p.6.s.c.c.c.b.g.g.g.g.g.g.g.g.g.g.g.g.g.g.g.g.k.b.c.c.c.x.x.Q.Q.~.~.~.!.].].}.|.|.|. XXXXX@X@X@X@XeXyXyXeX+X+X+X+X+X+XeX+X+X+X+X+X+X+X+X+X+X+X+X+X+X+X+X@X+X@X@X+X+X+XeX+XyXyXyXyXyXeXyX+X+X+X+X+X+X+X+X+X$XyX+X+X+XyXyXyX+XyX$XyXyXyXyX+X+XyXyXyXyXyX+XyXyXpXpXpXpXuXiXpXpXiXiXiXiXiXiXiXiXiXiXiXiXiXiXiXiXaXaXiXiXsXsXdXdXdXdXsXsXsXsXsXiXiXiXiXiXiXuXuXuXuXyXyXyXyXyXeX+X+X@X@XXX.X.X|.|.|.].].].~.I.I.I.v.v.v.v.v.v.v.I.I.I.I.v.x.I.v.0.s.s.I.I.b.6.6.K c D 7.x.~.].!..X|.|.{.].!.~.I.x.b.v.s.s.a.9.9.6.8.6.6.8.E E E E E E W W G L L L m Y L Y Y W  . .j.j.<XrXkX5XhXkXvXvXvXhXmXbXhXNXjX2X4XjXvXvXvXvXvXcXvXvXvXvXcXcXcXjXhXhXhXhXhXhXhXhXhXhXhXhXhXhXjXhXjXjXjXjXjXjXjXjXhXhXhXhXhXhXhXhXhXhX8X8X8X8X8X8X8X7X7X4X1X-XV.,.-.] ^ ^ z z q w w 0 0 0 w w q 0 8 5 4 2 2 > > > 1 = = = = = & $ $ $ ",
"PXPXPXPXPXPXPXPXLXLXLXLXPXPXPXPXPXPXPXPXLXLXLXLXLXLXLXLXLXLXLXLXPXPXPXPXPXPXLXLXLXLXLXLXLXLXLXLXLXLXLXLXLXLXLXLXLXLXLXLXLXLXLXLXLXLXLXLXLXLXLXLXLXLXLXLXLXLXLXLXLXLXLXLXPXPXLXLXLXLXLXLXLXLXLXLXLXLXLXLXLXLXLXLXLXLXLXLXLXJXLXLXLXLXLXLXJXKXHXKXJXKXJXFXFXKXFXHXSX4X5XY.*.f.j.M.M.@...f.@.@.@.f.f.f.f.@. .@.Y Y W f.p.W a.f...F p././.!.c.b.6.6.a.6.g.c.c.c.b.g.g.g.g.g.g.g.g.g.g.g.g.g.g.g.c.c.c.c.c.x.x.x.Q.Q.!.!.~.!.].].|.|.|.|.XXXX@X@XeXeXyXyXyXeX@X@X@X@X+X+X+X+X+X+X+X+X+X+X+X+X+X+X+X+X+X+X+X+X+X+X@X@X+X+X+X+X+XyXyXyXyXyXyXeX+X+X+X+X+XyX$X+X+XyXyX+X+X+XyXyXyX$X$X$XyXyXyXyXyX$X$XyXyXyXyX+X+XyXyXpXpXyXpXuXuXpXuXiXiXiXiXiXiXiXiXiXiXiXiXiXiXiXiXiXiXiXsXdXsXsXaXaXdXsXsXsXsXiXiXsXiXiXiXiXiXiXuXuXuXyXyXyXeXeX@X@X@X@XXX.X|..X|.|.}.].].~.I.I.I.I.I.v.v.I.v.I.I.~.I.v.x.I.I.s.0.s.v.I.b.9.6.K c H 6.b.~.I.]..X|.|.|.{.].~.!.b.x.Q.s.s.a.6.a.6.8.R 6.p.8.E E E E E W ..G L G M m Y L Y U W ..U f.m.5XrXrX4XrXhXhXvXvX4XvXkXhXvXhX4X7XhXvXvXvXvXcXcXvXvXvXcXcXcXjXjXhXhXhXhXhXhXhXhXhXhXhXhXhXhXjXjXjXjXjXjXhXhXjXjXhXhXhXhXhX8X8X8X8X8X8X8X7X7X7X7X7X3X1X:XT.1.-.O.) ^ z q q q w w w w 0 0 0 w 0 8 5 4 2 > > > > > r r r = = & & $ $ $ ",
"PXPXPXPXPXPXPXPXLXLXLXLXPXPXPXPXPXPXPXPXPXPXLXLXLXLXLXLXLXLXLXPXPXPXPXPXPXPXLXLXLXLXLXLXLXLXLXLXLXLXLXLXLXLXLXLXLXLXLXLXLXLXLXLXLXLXLXLXLXLXLXLXLXLXLXLXLXLXLXLXLXLXLXLXLXLXLXLXLXLXLXLXLXLXLXLXLXLXLXLXLXLXLXLXLXLXLXLXLXJXPXPXLXLXLXLXJXKXHXKXJXHXJXHXHXHXHXFXmX5X5X*.*.f.j.Y.M.@. .f.@...@.f.f.f.f.@.W @.L U ..f...W f...T ..a. X~.I.d.d.9.6.s.6.c.c.c.c.b.g.g.g.g.g.g.g.g.g.g.g.g.g.g.g.c.c.c.c.x.x.x.Q.Q.Q.!.~.~.!.!.].|.|.|.|.XXXX@XeX@XeXyXyXyXeX+XXX+X+X+X+X+X+X+X+X+X+X+X+X+X+X+X+X+X+X+X+X+X+X@X+X+X+X+X+X+X+X+X+X+X+XyXyXyXyX+X+X+X+XyXyX$X+X+X+XyX+X+X+XyXyXyXyXyX$XyXyXyXyXyX+X+X+XyXyX+X$X+X+XyXyXyXyXyXyXuXpXuXiXpXpXiXiXiXiXiXiXiXiXiXiXiXiXiXiXiXiXiXsXsXiXiXaXsXsXdXsXsXdXdXsXsXiXiXiXiXiXuXyXyXyXyXyX+X+X@X@X@X@XXX.X|.|.|.|.{.].].].I.I.I.I.I.v.v.v.v.I.I.~.I.v.x.I.I.s.0.0.x.v.b.0.6.K c b 6.b.~.I.]..X{.|. X{.].].{.b.x.~.s.s.9.6.a.6.8.K E p.8.E E E E E E #.L L L M M Y L Y U W  .Y *.j.rX5XrX4X4XhX4XvXbXhXkXkXkXvX4X5XhXhXbXvXcXvXcXcXvXvXvXcXcXcXjXjXhXhXhXhXhXhXhXhXhXhXhXhXhXhXjXjXjXjXjXjXhXhXhXhXhXhXhXhX8X8X8X8X8X7X8X7X7X7X7X7X3X1X-XT.<.$.] ^ V z q w 0 w 0 w w w w 0 0 9 5 5 4 2 > > > > > > r = = % = & & $ $ $ ",
"LXLXLXLXPXPXPXPXPXPXPXPXPXPXPXPXPXPXLXLXLXLXLXLXLXLXLXLXPXPXPXPXPXPXPXPXPXPXPXLXPXLXLXLXLXLXLXLXLXLXLXLXPXPXLXLXLXLXLXLXLXLXLXLXLXLXLXLXLXLXLXLXLXLXLXLXLXPXPXLXLXLXLXLXLXLXLXLXLXLXLXLXLXLXLXLXLXLXLXLXLXLXLXLXLXLXJXJXJXJXJXJXJXJXJXJXKXHXHXKXJXHXKXDXHXFXFXFXCXhX^.Y. .f.Y.Y.M.W U f. . .a.f.f.a.f. .W W Y P a.j.p.p.E ..G E s. X~.P.c.s.9.6.s.6.c.c.c.c.k.d.g.g.g.g.g.g.g.g.g.g.g.g.g.b.c.c.c.c.x.x.v.I.Q.~.~.~.~.!.].].}.|.|..XXX@X@X@X@X+X@X+XeXeX+X+X+X+X@X+X+X+X+X+X+X+X+X+X@X+X@X+X+X+X+X+X+X+X+X+X+X+X+X+X+X+X+XeXyXyXyXyXyXyXyXyXyXyXyXyXyXyXyXeX+X+X+XyXyXyXyXyXyXyXyXyXuXyXyXyXyXyXyXyXyXyXyXyXyXyXyXyXyXyXyXpXiXpXpXpXuXiXpXpXpXpXiXiXiXiXiXiXiXiXiXiXsXsXsXiXiXsXsXiXsXiXiXsXdXiXiXiXiXiXiXiXuXyXyXyXyXyXyXeX@X+X@X@XXX.X.X.X.X|.{.{.].].~.I.v.I.I.I.v.v.v.I.~.~.~.v.v.v.I.b.0.0.b.x.b.0.9.6.c c 6.d.I.v.].|.{..X X{.~.{.].b.b.~.s.s.a.6.9.6.6.R 6.p.p.E E E W W W p.Y L L M M Y L U W U U  .@.j.rXrXrXhX4XhX7XrXbXhXhXvXkXkX4X4XhX7XcXvXvXvXcXcXvXvXvXcXcXcXjXhXhXhXhXhXhXhXhXhXhXhXhXhXhXhXjXjXhXhXjXhXhXhXhXhXhXhXhX8X8X8X7X8X7X7X6X4X6X3X3X1X:X-XN.>.O.` ^ z w w 0 0 0 0 0 0 w w w 9 8 5 3 4 1 > > = = = > > = = & & & & $ $ # # ",
"LXLXLXLXPXPXPXPXPXPXPXPXPXPXPXPXPXLXLXLXLXLXLXLXLXLXLXLXLXLXLXLXLXLXPXPXLXLXLXLXLXLXLXLXLXLXLXLXLXLXLXLXLXLXPXPXPXPXPXPXLXLXLXPXLXLXLXLXPXPXPXPXPXPXPXPXPXPXLXLXLXLXPXPXLXLXLXLXLXJXJXJXJXJXJXJXJXJXJXJXJXKXKXKXJXJXKXKXKXKXKXKXKXKXKXKXHXHXDXHXKXHXHXFXFXFXDXFXbXhX^.j.#.f.Y.Y.f. . .f. . .f.f.f.#.f. . .W U W f.M.W W E E H E k./.~.x.d.s.9.s.s.s.c.x.c.k.g.d.g.g.g.g.g.g.g.g.g.g.g.g.g.b.c.c.c.x.x.x.v.I.Q.~.~.~.~.!.].]. X|.|..XXX@X@X+X@X@X@X+X@X+X+X+X+X+X+X+X+X+X+X+X+X+X+X+X+X+X@X+X+X+X+X+X+X+X+X+X+X+X+X+X+X+X+X+XeXeXyXyXyXyXeXeXeXyXyXyXyXyXeX+X+X+X+XyXyXyXyXyXyXyXyXyXyXyXyXyXyXyXyXyXyXyXyXyXyXyXyXyXyXyXyXyXpXpXpXpXuXpXpXpXpXpXpXiXiXiXiXiXiXiXiXiXsXsXsXiXiXiXiXiXiXiXiXiXiXuXiXiXiXsXdXdXiXiXyXyXyXyXyXeX@X+X@X@XXXXX.X.X.X|.{.{.].].[.I.v.v.I.I.v.v.v.I.~.~.~.I.v.I.I.b.0.0.b.x.b.0.s.6.D c K d.P.x.].|.{..X X{.I.{.!.x.b.Q.s.a.9.6.6.6.6.R 6.a.p.E E E W W W ..W Y L M M Y L U U Y U W ..j.4X5XhXrXrXkXrX4XhXbXhXvXkXhX4X4XhX7XcXvXvXvXvXcXvXvXvXcXcXcXhXhXhXhXhXhXhXhXhXhXhXhXhXhXhXhXhXhXhXhXhXhXhX8X8X8X8X8X8X7X7X7X7X7X7X6X3X3X3X3X1X>X=XV.>.O.` ^ z w 0 0 0 0 0 0 0 0 w w 0 9 5 5 4 1 > = = = = = % % & & & & & $ $ # # o ",
"LXLXLXLXPXPXLXPXPXPXPXPXPXPXPXPXLXLXLXLXLXLXLXPXPXJXJXJXJXJXJXJXPXPXPXPXPXPXJXJXLXLXJXJXJXJXJXJXLXLXLXLXLXLXLXLXPXPXLXPXPXPXLXPXPXPXPXPXLXLXLXLXPXLXLXLXPXPXPXPXJXJXJXJXJXJXJXKXKXKXKXKXKXKXKXKXKXKXKXHXKXHXHXHXHXHXHXHXHXHXHXHXHXHXHXHXIXIXDXDXDXFXDXDXFXFXCXFXbXrXrXj.@.f.Y.j.@...@.@. .@.f.f.f.@.#.U ..U U a.M.#.G p...W W W k.(.Q.c.s.9.s.s.6.c.x.x.c.g.d.d.g.g.g.g.g.g.g.g.g.g.g.g.g.b.c.c.x.x.x.Z.I.I.Q.~.~.~.!.].].{.|. X|..XXX@X+X+X@X+X+XXXXXXXoX+X+X+XyXyXyX+X+X+X+X+X+X+X+X+X+X+X+X+XoXoX+X+X+X+X@X@X+X+X+X+X+X+X+X+X+X+X+X+X+X+X+X+X+X+XeX+X+X+X+X+X+XyXyXyXyXyXyX+X+XyXyXyXyXyXyXyXyXyXyXyXyXyXyXyX+XyXyXyXyXyXpXiXpXpXpXyXpXpXpXpXpXpXiXiXiXiXiXiXiXiXiXiXiXuXuXiXiXiXiXuXuXuXiXsXsXsXiXsXdXdXiXiXuXuXuXuXyXyX+X@X@X@XXXXX.X.X.X|.{.{.{.[.].[.v.v.I.I.v.v.v.I.~.~.~.~.v.v.[.I.0.0.b.x.b.0.s.K H D J s.x.c.].|.]..X.X{.I.{.I.I.x.v.s.9.9.6.6.a.6.R 8.a.p.E E ..E E E E #.U L M M Y L W  .Y U W ..j.,X5XrXrXrXbXhX4XrXkXvXkXkX2XhXhXhX7XjXvXvXvXvXcXcXvXcXcXcXjXhXhXhXhXhXhXhXhXhXhXhXhXhXhXhXhXhXhXhXhXhXhX8X8X8X7X7X7X7X7X4X4X4X4X4X3X3X1X1X;X-XT.,.;.X.) ^ z w 0 7 7 7 7 9 7 0 0 0 0 7 5 5 2 1 > = = = = % % & & & & $ & $ $ # # o o ",
"LXLXLXLXPXPXLXLXPXPXPXPXPXPXLXLXJXJXJXJXJXJXJXJXJXJXJXJXJXJXJXJXJXJXJXJXJXJXJXJXJXJXJXJXJXJXJXJXLXLXLXLXJXJXJXJXPXPXPXJXJXJXJXJXJXPXPXPXPXPXPXPXJXJXJXJXJXJXJXJXJXJXKXKXKXKXHXHXHXHXHXHXIXIXIXIXDXDXDXDXDXDXDXDXDXDXDXDXDXDXDXDXDXDXDXDXDXDXDXDXCXAXvXCXFXFXvXFX4XrX5X@.f.f.Y.j...@.@.@. .#.f.a.f. .#.Y ..U W f.j.L W p.u.Q W W W.W.Q.c.d.s.a.s.6.x.c.x.k.k.g.g.g.g.g.g.g.g.g.g.g.g.g.g.g.b.c.c.x.x.Q.Q.Q.I.Q.Q.~.~.!.].{.{.|. X.X.XXX@X+X+X+X@X@XXX|.|.XXoX+XyXyXyXyX+X+X+X+X+X+X+X+X+X+XoXoXoX+X+X+XXXXXXXXXXXoXoXoXoXoXoX+X+X+X+X+X+X+X+X+X+X+X+X@X@X+X@X+X+X+X+XyX+X+X+X+X+X+X+XyXyXyXyXyXyXyXyXyXyXyXyXyX+X+X+XyXyXyXyXpXiXpXpXyXyXyXpXpXpXpXpXpXpXuXiXiXiXiXiXiXiXiXuXuXiXsXsXsXdXsXiXiXiXsXsXsXsXiXiXiXuXuXiXiXuXyXyXeX@X@XXXXXXX.X.X|.|.|.{.{.].].].I.I.I.I.I.v.v.I.~.~.~.~.Q.v.[.~.0.0.b.v.b.0.s.H H H H s.c.b.].|.]..X.X|.~.].I.~.I.c.9.9.a.6.6.s.R R p.a.p.E E ..W E E W ..W Y M G Y L W W ..W W ..f.Y.rX5XhXhXbXrX4X4XkXvXkXkX,XvX4XhX7XjXcXvXvXvXcXcXcXcXcXjXhXhX8XhXhXhXhXhXhXhXhXhXhXhXhXhXhXhXhXhXhXhX8X8X7X7X7X7X7X7X4X4X4X4X4X3X3X1X1X;X-XT.1.;.O.) B z w 7 7 8 8 7 7 9 9 0 0 0 7 5 5 2 2 > = = = = & & & & & & & $ $ $ $ # o o X ",
"KXKXKXKXKXKXKXKXKXKXKXKXKXHXHXHXKXKXKXKXHXHXHXHXHXHXHXHXHXHXKXHXHXHXHXHXHXHXHXHXHXHXHXHXHXHXHXHXHXHXHXHXHXHXHXHXHXHXHXHXHXHXHXHXHXHXHXHXIXIXIXIXIXIXIXDXDXDXDXDXDXDXDXDXDXDXDXDXDXDXDXAXAXAXAXAXAXAXAXAXAXAXAXAXAXAXBXBXBXBXBXBXBXBXBXBXBXBXBXBXvXNXcXvXNXCXkXCX<X5X<Xf.f.@.Y.j. .#.@.@. .@.@.@.#.*.U  ... ...a.j.M p.f...P E W (.W.W.c.9.s.9.s.a.P.c.x.b.c.b.c.b.c.c.g.g.g.g.g.b.b.g.g.g.c.c.c.x.x.Q.Q.Q.Q.Q.Q.~.!.!.].{.{.|. X|..XXX@X+X+X+X+XXXXX.X|..XXX+X+X+X+X+X@X+XoX+X+X+X+X+X+X+X+X@X@X+X+X+X+XXXXXXXXXoXoXoXoXoXXXoXoXoXoX+X+X+X+X+XoXoXoXoXoX+X+X+X+X+X+X+X+X+X+X+X+XoX+X+XyXyXyXyXyXyXyXyXyXyXyXyXyXyXyXyXyXyXyXyXyXpXpXyXyXyXuXpXpXpXpXpXuXuXuXuXuXiXiXiXiXiXuXiXiXsXsXdXdXdXsXiXiXiXiXsXiXiXiXsXfXiXiXiXiXuXyXeX@X@XXXXX.X.X.X.X|.|.{.].[.].].~.I.I.I.I.v.v.I.~.~.~.~.I.v.~.~.b.0.b.v.x.0.s.H H H H 6.x.b.].].[..X@X|.].].I.!.I.c.6.6.s.6.6.s.K E p.a.p.E E u.E E E E W W Y L L T L U W W U Y W j.^.tXrXrX4XbXrX2X4XkXvXbX4X4XvX4XhX7XjXcXvXvXcXcXcXcXcXcXjXhXhXhXhXhXhXhXhXhXhXhXhXhXhXhXhXhXhX8X8X8X8X8X7X7X7X4X7X7X4X4X4X3X3X3X3X1X1X-X-XT.,.;.O.` B z 0 8 8 7 7 8 7 7 7 7 0 7 8 5 5 2 > = = = = & & & & & $ $ $ $ $ $ $ $ # o X X ",
"HXHXHXHXHXHXHXHXHXHXHXHXHXHXHXHXHXHXHXHXHXHXIXIXIXDXIXDXDXDXDXDXDXDXDXDXDXDXDXDXDXDXDXDXDXDXDXAXAXAXAXAXAXAXAXAXAXAXAXAXBXBXBXBXBXBXBXBXBXBXBXBXBXBXBXBXBXNXNXNXNXNXNXNXNXNXNXNXNXBXBXNXNXNXNXNXNXNXNXNXNXNXNXNXBXBXBXBXBXBXBXBXNXNXNXNXNXNXNXNXvXvXjXbXvXmXkXbX5X/.^.j.f.f.Y.f. .@.@.....#.@.f.j.f.U Y a...U f.a.P a.p...G p.p.W.Q.Q.c.9.9.a.9.d.x.c.c.c.c.c.b.b.c.c.g.g.g.g.g.b.b.g.g.k.c.c.x.x.x.Q.Q.Q.Q.Q.Q.~.!.!.].{.{.|. X|.XX@X@X+X+X+X+X+X@XXX.X.XXXoXoX+XoXoXoXoXoX+X+X+X+X+X+X+XoX+X+X+X+X+X+XoXXXoXoXoXoX+XoXoXXXoXoXoXoX+X+X+X+X+XoXoXoXXXXX+X+X+X+XoX+X+X+X+X+X+X+XoXoXoX+X+XyXyXyXyXyXyXyXyXyXyXyXyXyXyXyXyXyXyXyXuXuXyXyXyXyXpXpXpXpXpXpXuXuXuXuXyXuXiXiXiXiXsXiXiXiXiXiXsXsXiXiXiXiXiXiXiXiXsXsXsXiXiXiXiXuXyX+X@X@XXX.X.X.X.X|.|.{.].].].].~.I.I.I.v.v.v.I.~.~.~.~.I.I.I.~.b.0.s.v.v.s.s.H J J H 6.x.c.!.].I.|.@X.X{.!.I.!.I.v.s.6.s.6.6.a.W E p.p.p.W E p.E u...E Y U Y Y L Y P Y W Y W Y  .j.M.rXrX5X4XbXrX2XbXbXvX4X4XhXvX4XhX7XjXbXvXcXcXcXcXcXcXjXjXhXhXhXhXhXhXhXhXhXhXhXhXhXhXhXhXhX8X8X8X8X8X7X7X4X4X4X4X4X4X4X3X1X1X1X1X,X-XT.T.,.$.O.) B z 7 8 7 7 7 7 7 8 8 8 8 7 8 5 6 2 > = - & & & & & & & & $ $ $ $ $ $ $ # o X X X ",
"AXAXAXAXDXDXDXAXDXDXDXAXAXAXAXBXBXBXBXBXBXBXBXBXBXBXBXBXBXNXNXNXNXNXNXNXNXNXBXBXNXNXBXBXBXNXNXNXNXNXNXNXNXNXNXNXNXNXNXNXNXNXNXNXNXNXNXNXBXBXBXBXNXNXNXNXNXNXNXNXNXNXNXNXNXNXNXNXNXNXNXNXNXNXNXNXNXNXNXNXNXNXNXNXNXNXBXBXBXBXBXBXNXNXNXNXNXNXNXNXvXvXkXvXvXmXkXhX<X/.M.M.f.M.Y.@. . .....@.@.@.f.a.f...@.#.W #.a.W ..p. .T F ..k.z.W.P.c.9.6.a.6.x.x.Q.c.c.c.b.b.c.c.b.c.g.g.g.g.b.c.c.c.c.c.x.x.x.x.Q.Q.Q.Q.Q.Q.~.!.!.].{.}.|.|. X@X@X@X+X+X+X+X+X+X@XXXoXoXXXXXXXXXXXXXXXoXoXoXoXoX@X@X@X@X@X@XoXoXoXoXoXoXoXoXoXoX@X@X@XXXXX@XoXoX+X+X+X+X+X+XoXoXXXoX+X+X+X+XoXoX+X+X+X+X+X+X+X+XoXoX+X+XyXyXyXyXyXyXyXyXyXyXyXyXyXyXyXyXyXyXpXuXyXyXyXyXpXpXpXpXpXpXuXuXuXiXiXiXsXdXsXiXiXiXiXsXdXsXiXiXiXiXiXiXiXiXiXiXiXiXiXiXiXiXpXuXuXeXeX+X@XXX.X.X.X.X|.|.}.].].].~.I.I.I.v.v.v.I.I.~.~.I.I.v.v.I.v.0.s.v.I.b.s.K H I K 6.c.x.~.~.I.{.@X@X X].~.].I.I.s.6.s.a.p.s.R E p.p.8.T E p.E u.u.E F Y Y W L Y Y T T Y W P U f.M.<XtXrX4XkXhX,XbXbXkX4X5XvXhX4XhXrXjXcXbXbXcXcXbXcXcXjXhXhXhXhXhXhXhXhXhXhXhXhXhXhXhXhXhXhX8X8X8X8X7X7X4X4X4X4X4X3X3X3X1X1X1X1X:X-XT.V.<.$._ ) z w 7 7 6 6 7 7 7 7 8 7 7 6 6 5 4 2 > = - - & & & & & & & & $ $ $ $ $ $ # o X X X . ",
"NXNXNXNXVXVXNXNXNXNXNXNXNXNXNXNXNXNXNXNXNXNXNXNXNXNXNXNXNXNXNXNXNXNXNXNXNXNXNXNXNXNXNXNXNXNXNXNXNXNXNXNXNXNXNXNXNXNXNXNXNXNXNXNXNXNXNXNXNXNXNXNXNXNXNXNXNXNXNXNXNXNXNXNXNXNXNXNXNXNXNXNXNXNXNXNXNXNXNXNXNXNXNXNXNXNXNXNXNXNXNXNXNXNXNXNXNXNXNXNXvXvXkXbXvXmXkX4X,X<XM.j.f.Y.M.#.U  . . .#.@.f.@.j.j. . .W Y j.f.W p... .L E E W.k.!.c.g.6.K s.6.I.c.Q.c.c.b.b.b.c.g.b.g.g.g.b.c.b.b.c.c.c.c.x.x.x.x.Q.Q.Q.Q.Q.Q.~.!.!.].{.}.|. X X@X@XXXXXXX@X@X+X@X@X@X+XoXXX.X.X.X.X.XXXXXoXoXXXXXXXXXXXXXXXXXoXoXXXXXoXXXoXoXoXoX@X@X@XXXXXXXoXoXoXoXoXoX+X+XoXoXoXoX+X+XoXoXoXoXoXoXoXoX+X+XoXoX+XoX+X+X+XyXyXyXyXyXyXyXyXyXyXyXyXyXyXyXyXyXuXuXuXyXyXyXpXpXuXpXpXpXuXuXuXuXuXuXiXiXiXiXiXiXuXuXiXiXuXuXuXiXuXuXuXiXiXiXyXyXyXyXyXuXuXuXuXeXeXeX+X@XXX.X.X.X|.|.}.].].].~.I.I.I.I.v.v.I.I.I.I.I.I.I.v.I.I.0.s.b.I.b.s.J c H K K b.P.I.I.I.{.@X.X|.].~.].Q.I.d.6.a.s.9.h.6.6.a.a.8.T W ..E p.p.W P Y U  .L Y Y Y Y W W L Y f.Y.^.rXkX4XhXkX,XkXbX,X4X4XvX4XkXhX4XhXbXcXcXvXcXcXcXcXjXhXhXhXhXhXhXhXhXhXhXhXhXhXhXhXhXhX8X8X8X8X7X7X4X4X4X3X3X3X3X1X1X1X1X:X;X-XR.V.1.$.' ^ V 7 7 6 6 5 6 7 7 7 7 8 6 5 6 6 6 2 > = - - - & & & & & & & $ $ $ $ $ $ # o X X X . . ",
"NXNXNXNXNXNXNXNXNXNXNXNXNXNXNXNXNXNXNXNXNXNXNXNXNXNXNXNXNXNXNXNXNXNXNXNXNXNXNXNXNXNXNXNXNXNXNXNXNXNXNXNXNXNXNXNXNXNXNXNXNXNXBXBXNXNXNXNXNXNXNXNXNXNXNXNXNXNXNXNXNXNXNXNXNXNXNXNXNXNXNXNXNXNXVXVXNXNXVXVXBXBXNXNXNXNXNXNXNXNXNXBXNXvXvXNXNXNXNXvXvXvXvXbXvXmXvXrX,X^.M.M.f.^.j.@.U U @.a.a.f.f.f.j.@.Y #.U  .f.p.W p. .#.P E a.c.c.!.c.s.6.6.s.s.c.c.x.c.c.c.b.b.g.g.g.g.g.g.c.c.c.c.c.c.c.c.x.x.x.I.Q.Q.Q.Q.Q.~.!.!.!.].{. X X|.XXXXXXXXXXXXXXXX@X@X+XXXoXXXXX.X.X.X.X.XXXXXXXXXXXXXXXXXXXXXXXXXXXXXXXXXXXXXXXXXXXXX@XXXXXXXXXXXXXXXoXoXoXoXoXoXXXXXXXoXoXoXoXoXoXoXXXXXoX+X+X+X+XoX+X+X+X+X+X+X+XyXyXyXyXyXyXyXyXyXyXyXyXyXyXyXyXyXyXyXyXyXyXyXyXyXuXuXuXuXuXuXuXuXuXuXuXiXiXiXuXuXuXuXuXuXuXuXuXuXuXuXuXuXeX@X@X+XyXuXuXuXuXyXyXeXeX@X@XXX.X|.|.{.].].].].~.~.Q.Q.I.I.I.I.I.~.Q.Q.I.I.v.I.I.s.b.b.I.v.s.6.c G 6.6.s.c.I.I.I.{..X|..X].].].~.I.s.9.9.6.6.s.6.a.l.a.p.W E ..E p.p.T W T W U L Y Q Q Q T W G L a.j.Y.rXbX5X4XmX<XrXhX5X,XvXmX5XhXhX4XhXvXcXcXvXcXcXcXjXhXhXhXhXhXhXhXhXhX8X8XhXhXhXhXhX8X8X7X7X7X4X4X4X4X4X4X4X3X1X1X1X1X,X,X;X;XT.,.;.O.` / B 7 7 6 6 6 6 6 5 5 6 6 7 6 6 6 2 > > = - - & & & & & & & & & $ $ $ $ $ # o o X X X . . ",
"NXNXNXVXNXNXNXNXNXNXNXNXNXNXNXNXNXNXNXNXNXNXNXNXNXNXNXNXNXNXNXNXNXNXNXNXNXNXNXNXNXNXNXNXNXNXNXNXNXNXNXNXNXNXNXNXNXNXNXNXNXNXNXNXNXNXNXNXNXNXNXNXNXNXNXNXNXNXNXNXNXNXNXNXNXNXNXNXNXNXNXNXNXNXVXVXNXNXNXVXBXVXNXNXNXNXNXNXNXNXNXNXNXNXNXNXNXBXNXvXvXvXvXvXbXvXkX4X<X,XY.Y.f.Y.f.@. .W a.@.f.f.@...j.@.Y ..U ..f.a...#... .G E s.x.x.I.s.6.6.6.a.c.c.c.c.c.c.c.c.b.g.c.g.g.g.g.c.c.c.c.c.c.c.c.x.x.x.I.Q.Q.Q.Q.Q.~.!.!.!.!.{.|. X X@X@X@X@X+X+X+X@X+X@XXXXXoXXXXXXX.X.XXXXXXXXXXXXXXXXXXXXXXXXXXXXXXXXXXXXXXX.X.X.XXXXXXX.X.X.X.X.X.X.XXXXXXXXXoXoXXXXXXXoXoXoXoXoXoXoXoXoXoXoX+X+XoXoX+X+X+X+X+XoXoX+XyXyXyXyXyXyXyXyXyXyXyXyXyXyXyXyXyXyXyXyXyXyXyXyXyXyXuXuXuXuXyXyXyXyXyXuXiXiXiXuXuXuXuXuXuXuXuXuXuXuXuXyXeX@X@X+XyXuXuXuXuXuXyXyXeXeXeX@XXX.X|.|.{.].].].~.~.~.Q.I.v.I.I.I.I.I.I.I.I.v.v.I.b.0.b.I.I.s.6.H c 6.H 6.I.~.I.I.{.|.|..X].].].~.I.s.9.6.6.6.a.6.8.8.p.s.p.p.a.p.p.p.T E T Y P G U P Y Q T W F P #.j.Y.rXkX5XrXhX2X4XhX4X4XvXrXrXhXhX4XhXvXcXbXvXhXbXcXjXhXhXhXhXhXhXhXhXhX8X8XhX8X8X8X8X8X7X4X7X4X4X4X4X4X4X3X3X1X1X1X1X;X-X-XR.R.N.;.%._ B l 7 6 6 6 6 6 6 6 6 6 5 5 5 5 6 2 > > = - - & & & & & $ $ & $ $ $ $ $ $ # # o X X X . . . ",
"NXNXBXBXBXBXBXBXVXVXNXNXVXVXVXVXVXVXVXBXNXNXVXNXNXNXNXNXNXNXNXNXNXNXNXNXNXNXNXNXNXNXNXNXNXNXNXNXVXVXBXBXBXVXVXVXBXBXVXVXBXBXBXBXBXBXBXBXNXNXBXBXBXBXBXVXBXBXVXVXNXNXBXBXBXBXBXVXBXBXBXBXVXNXVXVXNXNXVXVXBXBXNXNXNXNXNXNXNXNXNXNXNXNXNXNXNXBXNXvXvXvXvXvXbXbXrX4XrX^.^.R.j.Y.*.*.f.@.j.f.f.@.#.W j.@.Y ..Y a.@.f.a...#.U M W s.Q.!.b.s.K 6.s.6.c.b.b.b.c.c.c.b.b.c.c.c.c.c.c.c.c.c.c.c.c.c.c.x.P.Q.Q.Q.Q.Q.Q.~.!.!.!.!.!. X X X X X X X X.X.X.X.XXXXXXXXXoXXXXXXXoXXXXXXXXXXXXXXXXXXXXX@XXXXXXXXXXXXXXXXXXX.X.X.X.X.X|.|.|.|.|..X.X.XXXXXoXoXoXoXXXXXXXXXoXoXoXoXXXXXXXXXoXoX+X+XoXoXoXoX+XoX+XoXoX+X+XyXyXyXyXyXyXyXyXyXyXyXyXyXyXyXyXyXyXyXyXyXyXyXyXyXuXuXuXuXyXyXyXyXyXyXuXuXuXiXuXuXuXuXuXuXuXuXuXuXuXyXyXeX+XeXuXuXuXuXeXuXuXyXyXeXeX+X@XXX.X|.|.{.{.].].~.~.~.Q.v.v.I.I.I.I.I.I.v.v.v.I.I.0.s.v.].s.6.K c 6.H 6.c.!.~.v.].].{..X].].].~.I.s.9.9.6.9.9.J W ! ! p.T W p.p...p.W E P P L G E P Y Q T T P Y ..m.Y.5XrX4XrX5X2X2X4X5XhXbX4XbXkX4X4XhXhXhXhXjX7XhXhX7X4X4X4X4X4X4X4X4X4X4X4X4X4X4X4X3X3X1X,X,X,X,X,X,X,X,X;X;X;X-X-XR.T.N.n.n.,.;.O.) B 0 7 6 6 6 2 6 6 6 6 6 6 6 6 6 6 2 > = = - - & & & & & & & & & $ $ $ $ $ # + O X X X . . . . ",
"VXVXBXBXBXBXBXBXVXVXNXNXVXVXVXVXVXVXVXBXNXNXVXNXNXNXNXNXNXNXNXNXNXNXNXNXNXNXNXNXNXNXNXNXNXNXNXNXVXVXBXBXBXBXVXVXBXBXVXVXNXNXBXBXBXBXBXBXNXNXBXBXBXBXBXBXBXBXVXVXBXBXBXBXBXBXBXVXBXBXBXBXNXNXVXVXNXNXVXVXVXVXNXNXNXNXNXNXNXNXNXNXNXBXBXNXNXNXNXvXvXvXvXvXbXvX4XhXrX,X^.R.j.M.@.f.@.U #.W  .#.#.#.j.@.L ..L f.#.f.f. .@.L m W s.~.!.s.6.6.6.s.6.g.g.g.b.b.b.b.b.b.c.c.c.c.c.c.c.c.c.c.c.c.c.c.x.x.Q.Q.Q.Q.Q.Q.~.!.!.!.!.]. X X X@X@X@X@XXX@X@XXXXXXXXXXXXXXXXXXXXXoXXXXXXXXXXXXXXXXXXX.X.X.X.XXXXXXXXXXXXX.X.X.X.X.X.X|.|.|.|.|.|..X.X.X.XXXXXXXXXXXXXXXXXXXXXXXXX.X.XXXXXXXXX+XoXoXoXoXoXoXoXoXoXoXoXoX+XyXyXyXyXyXyXyXyXyXyXyXyXyXyXyXyXyXyXyXyXyXyXyXyXyXyXyXuXyXyXyXyXyXyXyXuXuXuXuXuXuXuXuXuXuXuXuXuXuXuXuXyXeXyXuXuXuXeXeXuXuXuXyXyXeXeX@XXX.X|.|.{.].].].].~.~.I.v.v.v.v.I.I.v.I.v.v.v.I.I.s.0.b. Xs.6.6.d 6.6.6.a.].~.v.I.I.~.|.].].].~.I.s.9.9.6.9.8.Q W 8.8.a.E T E u.p.p.W E F P T L ..Y Y P P P P T  .m.Y.<X4X4X5X5X^.2X2X,X4X,X4X4X4X2X2X7X4X4X4XhX4X4X4X2X2X1X1X1X2X,X,X,X,X,X;X;X;X;X-X-X-XR.R.R.R.T.T.T.T.B.B.B.N.N.n.,.>.;.&.$.$.X.) B l 7 6 6 6 6 6 6 6 4 4 4 4 6 2 2 2 > > = - & & & $ $ $ $ $ $ $ $ $ $ $ $ $ + o X O X . . . . . ",
"VXVXVXVXVXVXBXBXBXBXNXNXBXBXBXBXNXNXNXNXBXBXBXBXVXVXNXNXNXNXNXNXNXNXVXVXBXBXBXBXBXBXBXBXNXVXBXBXBXBXBXBXBXBXBXBXBXVXVXVXBXBXBXBXNXBXBXBXBXBXBXBXBXBXBXBXBXVXBXBXBXBXBXBXBXBXBXBXVXVXBXBXBXBXBXBXNXNXNXNXBXBXNXNXNXNXBXBXBXBXBXBXNXBXBXNXNXNXNXvXvXvXvXvXbXvXrXbX<X^.Y.Y.m.M.@.@.#.U #. .@.#. . .j... .W Y f.f.f...U  .k P E c.!.{.g.6.6.a.s.d.b.g.g.g.g.b.c.c.c.c.c.c.c.c.c.c.c.c.c.c.c.c.c.x.I.Q.Q.Q.Q.Q.Q.Q.!.!.!.].{. X X X@X@X@X@X@X@X@X@XXXXXXXXX.XXXXXoXXXoXoXoXXXXX.XXXXX.X.X.X.X.X.XXX@XXXXXXXXX.X.X.X.X.X|.|.|.|.|.|.|..X.X.X.XXX.X.X.X.X.X.X.X.X.X.X.X.X.X.X.XXXXXoXoXoXXXXXXXXXXXXXXXoXoXoX+X+XyXyXyXyXyXyXyXyXyXyXyXyXyXyXyXyXyXyXyXyXyXyXyXyXyXyXyXyXyXyXyXyXyXyXyXyXuXuXuXuXuXuXuXuXuXuXuXuXuXuXuXuXuXuXpXpXeXeXpXuXuXuXuXyXeXeX@XXX|.|.].].].].].~.~.Q.I.v.v.v.v.v.v.v.v.v.v.I.~.b.7.b.~.c.6.K H H 6.6.6.Q.].I.~.I.I.|.].].].I.I.s.9.9.K 8.8.J E p.8.p.E T T E a.a.E E P Q W Q E T Y P F L P L Y @.m.^.Y.,X<XR.^.^.R.^.R.,X,X2X2XR.E.,X,X,X,X,X,X,X-XR.E.T.R.R.R.T.T.B.B.B.B.N.N.N.N.N.n.n.:.:.:.>.;.;.&.;.&.;.&.&.$.o.} _ ` ` ` / z 7 6 6 2 2 2 6 6 6 6 6 6 6 6 6 2 > > = - - - & & $ $ $ $ $ $ $ $ $ $ + + + + o X X O . . . . . . ",
"VXVXVXVXVXVXBXBXBXBXBXNXBXBXBXBXNXNXNXNXBXBXBXBXVXVXNXNXNXNXNXNXVXVXVXVXBXBXBXBXBXBXBXBXVXVXBXBXBXBXBXBXBXBXBXBXVXVXVXVXBXBXBXBXNXNXBXBXNXNXBXBXBXBXBXVXVXVXBXBXBXBXBXBXBXBXBXBXVXVXVXBXBXBXBXBXNXNXBXBXBXBXNXNXNXNXBXBXBXBXBXBXNXNXNXNXNXNXNXvXvXvXvXvXbXbXrXbX5X^.Y.Y.M.m.@.@.#.U @. .#.....@.a. . .L #.f.f.#.W W ..m T E P.{.!.s.6.6.a.a.c.d.b.b.b.b.b.b.c.c.c.c.c.c.c.c.c.c.c.c.c.c.x.x.I.Q.Q.Q.Q.Q.Q.Q.~.!.!.]. X X X X XXX@XXX@X@XXXXXXXXXXX.X.X.X.X.XoXXXoXoXoXXXXX.X.X.X.X.X.X.X.X.X.XXX.X.X.X.X.X.X.X.X.X.X|.|..X.X.X.X.X.X.X.X.X.X.X.X.X.X.X.X.X.X.X.X.X.X.X.X.X.X.XXX.X.X.X.X.X.XXXXXoX.XoX+X+XyXyXyXyX+X+X+XyX+X+X+X+XyXyXyXyXyXyXyXyXyXyXyXyXyXyXyXyXyXyXyXyXyXyXyXyXyXuXuXuXuXuXuXuXuXuXuXuXuXuXuXuXuXpXpXpXuXuXpXiXgXiXiXuXyXyXeX@XXX.X{.].].].].~.~.Q.I.v.v.v.v.v.v.v.v.v.v.I.].I.0.0.x.x.i.H J H 6.6.6.x.].~.].].I.].].].].I.I.s.6.9.K 6.8.J E p.8.p.E W E T p.a.E E T T W T W W Y F F L P L P ..j.M.j.M.M.m.m.m.*.m.j.E.E.C.m.m.m.E.m.m.m.m.m.m.n.:.&.&.&.&.&.&.&.&.%.o.o.o.o.o.o.X.X.} ( ( ( _ ` ` / / B B B B B z z l l l l l 7 6 6 2 2 2 2 6 2 6 2 2 2 2 2 2 2 > = - - - - $ $ $ $ $ $ $ $ $ $ $ + + o o o X X O . . . . . . . ",
"BXBXBXBXVXVXBXBXBXBXBXBXBXBXBXBXVXVXVXVXBXBXBXBXBXBXNXNXNXNXNXNXBXBXBXBXBXBXBXBXBXBXBXBXBXBXBXBXBXBXBXBXBXBXBXBXBXBXBXBXBXBXBXBXBXBXBXBXBXBXBXBXBXBXBXBXBXBXBXBXBXBXBXBXBXBXBXBXBXBXBXBXBXBXBXBXBXBXBXBXBXBXNXNXNXBXNXBXNXNXBXBXNXNXNXNXNXNXvXvXvXvXvXvXbXbXhXkXrX^.M.Y.Y.f.#.@.@. .@... . .@.f.f.f.f.U f.@.f.#.W T ..G E R ~. XQ.s.R 9.6.s.x.g.c.c.c.c.c.c.c.c.c.c.c.c.c.c.c.c.c.c.c.x.I.Q.Q.Q.Q.Q.Q.Q.Q.~.!.!.{.{. X X X X X@XXXXXXX.XXX.X.X.X.X.X.X.X.X.XoXoXoXoXoX.X.X.X.X.X.X.X.X.XXX.X.X|.|.|.|.|..X.X.X.X.X.X|.|..X.X.X.X.X|..X.X.X.X.X.X.X.X.X.X.X.X.X.X.X.X.X.X.X.X.X.X.X.X.X.X.X.X.X.X.XoXoXoXoX+X+X+XoXoXoXoX+X+X+X+X+XyXyXyXyXyX+X+XyXyXyXyXyXyXyXyXyXyXyXyXyXyXyXyXyXyXuXuXuXuXuXuXuXuXuXuXuXuXpXpXuXpXpXpXuXpXpXuXgXiXsXiXiXuXuXuXyXeX@X.X|.{.].].~.~.Q.I.I.v.v.v.v.v.I.I.v.x.v.~.].b.7.b.x.s.J I H 6.6.6.d.~.~.{.].I.].~.].].I.v.s.6.9.K K E J E p.8.p.E W p.F p.a.p.E E W T W T W T P F L P L P f.f.*.*.*.+...+.| | =.+.| | | { | *.%.} { { { { { ( ( A B B A A / A B B B B B B V B z z l l l h l h 7 7 7 6 6 6 6 6 6 > 2 6 2 2 6 2 > > > > 2 2 2 2 2 2 2 2 2 2 > > = - - - $ $ $ $ $ $ $ $ $ $ $ + + + + o o o X O . . . . . . . . ",
"BXBXBXBXBXBXBXBXBXBXBXBXBXBXBXBXVXVXVXVXBXBXBXNXBXBXNXNXNXNXNXNXBXBXBXBXBXBXBXBXBXBXBXBXBXBXBXBXBXBXBXBXBXBXBXBXBXBXBXBXBXBXBXBXBXBXBXBXBXBXBXBXBXBXBXBXBXBXBXBXBXBXBXBXBXBXBXBXBXBXBXBXBXBXBXBXBXBXBXBXBXBXNXNXNXBXNXNXNXBXBXBXNXBXNXNXNXNXvXvXvXvXvXvXbXkXkXkXkXY.m.Y.Y.@.@.@.@. .@...W ..f.f.#.@.@.G @.#.@.f.W T #.F E R !. XP.9.6.6.6.x.b.b.x.x.c.c.c.c.c.c.c.c.c.c.c.c.c.c.c.x.A.Q.Q.Q.Q.Q.Q.Q.Q.Q.~.!.!.!.{.{. X X X X X XXX.X.X.X.X.X.X.X.X.X.X.X.XXXoX+XoXXXXX.X.X.X.X.X|..X.X.XXX.X.X|.{.{.{.{.|..X.X.X.X.X|.|..X.X.X.X|.|..X.X.X.X.X.X.X.X.X.X.X.X.X.X|.|..X.X.X.X.X.X.X.X.X.X.X.X.X.X.X.XoX.X.X.X.XoX.X.XoXoXoXoX+X+X+XyXyXyXyXyXyX+XyXyXyXyXyXyXyXyXyXyXyXyXyXyXyXyXyXyXyXyXuXuXuXuXuXuXuXuXuXuXpXpXpXpXpXpXuXiXiXuXuXgXiXiXiXiXiXuXuXyXeX@X.X|.].~.~.~.Q.I.I.v.v.v.v.I.I.I.I.v.x.x.].I.7.s.b.x.6.H H u.K 6.6.~.v.~.|.~.].I.~.].v.v.s.6.9.R K W F E p.8.p.E T p.T p.a.p.W E W Q T T W T F G G P L P U | M M P N Z k A k A k x x x C C { A h l l x l h h h 7 7 7 7 h h h 7 6 6 6 6 6 6 6 , 6 6 6 6 6 > , , > > > > > > > > - = > > > > > > > > 2 2 2 2 2 2 2 2 2 2 2 > = - $ $ + + + $ $ $ $ $ $ $ $ $ + + + + o o o O . . . . . . . . . ",
"BXBXBXBXBXBXBXBXBXBXBXBXVXVXBXBXBXBXBXBXBXBXNXNXBXBXBXBXBXBXBXBXBXBXBXBXBXBXBXBXBXBXBXBXBXBXBXBXBXBXBXBXBXBXBXBXBXBXBXBXBXBXBXBXBXBXBXBXBXBXBXBXBXBXBXBXBXBXBXBXBXBXBXBXBXBXBXBXBXBXBXBXBXBXBXBXBXBXBXBXBXBXBXBXBXBXBXBXBXBXBXBXNXNXNXNXNXNXvXcXjXvXvXvXbXhXkXkXrXY.M.j.Y. . . . . .#.@. . .@.#.U  .U W f.U f...W W  .W T a./.~.c.6.6.6.6.b.b.b.x.x.x.c.c.c.c.c.c.c.c.c.c.c.c.c.c.x.P.Q.Q.Q.Q.W.Q.Q.Q.~.!.!.!.!.]. X X X|.|. X X@X@XXX X.X.X.X.X.X.X.X|.|..XXXXX.X.X.X.X.X.X.X.X.X.X.X.X.X.X|.|.{.|.|.|.|.|..X.X.X.X.X.X.X.X|.|.|.|.|.|..X.X.X.X.X.X.X.X.X.X.X.X|..X.X.X.X.X.X.X.X.X.X.X.X.X.X.X.X.X.X.X|.|..X.X.X.X.X.X.X.XXXoXXX+XeXeXeX+X+X+XeXeXeXeXeXyXyXyXyXyXyXyXyXyXyXyXyXyXuXuXuXuXuXuXuXuXuXuXuXuXuXgXpXpXgXpXpXiXsXgXgXuXgXgXgXsXsXgXuXuXeXeXeXXX|.].~.~.~.I.v.v.v.v.I.I.I.I.Q.v.x.x.I.~.b.6.x.x.6.c H u.K 6.6.c.I.].|.].].I.I.].v.v.0.9.6.6.R K F 6.a.p.p.E W p.T 6.a.p.E E W F P E W T I G G L F G P P P L h h l < k , h A z , 6 > h A N N 7 7 7 7 7 7 7 6 6 6 6 7 h 7 6 6 6 6 6 6 6 6 6 6 6 6 6 , 6 > > > > > > > > > > > > = > > - > > > 2 2 2 2 2 2 2 2 > > > > > = - $ + + + + + + $ $ + + + + + + # + + o o X X . . . .       . . ",
"BXBXBXBXBXBXBXBXBXBXBXBXVXVXBXBXBXBXBXBXBXBXNXNXBXBXBXBXBXBXBXBXBXBXBXBXBXBXBXBXBXBXBXBXBXBXBXBXBXBXBXBXBXBXBXBXBXBXBXBXBXBXBXBXBXBXBXBXBXBXBXBXBXBXBXBXBXBXBXBXBXBXBXBXBXBXBXBXBXBXBXBXBXBXBXBXBXBXBXBXBXBXBXBXBXBXBXBXBXBXBXBXNXNXNXNXNXNXvXjXjXvXvXvXvXrXkXkX5XY.^.*.Y. . . . . .#.@.#.U f. .U U Y  .a.#.#.U W W W W W k./.Q.g.6.R 6.s.b.c.c.x.x.x.c.c.c.c.c.c.c.c.c.c.c.c.c.x.P.Q.W.Q.Q.Q.Q.Q.Q.~.~.!.!.!.!.].{. X X|.|. X XXXXXXX X|.|..X.X.X|.|.|.{.|.{.|.|.|..X.X.X.X.X.X|.|.|.|.|.|.{.{.{.{.|.|.|.|.|.|.|.|..X.X|.|.|.|.|.|.|.|..X.X.X.X.X.X.X|.|.|.|.|.|.|.|.|.|.|.|.|..X.X|..X.X.X.X.X.X.X.X|.|.|.|.|.|..X.X.X.X.X.X.X.XXXXXXXXXXX+X+X+X+X+X+XXX@X+XyXeXeXyXyXyXyXeXeX@XeXuXiXuXuXuXuXuXuXuXuXuXuXgXpXgXpXpXpXgXgXiXiXgXgXgXgXgXsXsXuXeXeXeXeXeX@X.X X{.].~.Q.I.v.v.v.v.I.I.I.I.v.v.c.c.I.~.7.b.b.a.H H 6.6.6.6.s.x.].|.].].v.I.~.v.v.0.9.6.6.6.K G 6.a.8.6.R W 8.W E p.p.E E W L P p.E T I G G L F G P P M k N a < < u y , x x > 6 > h A x x h 7 7 7 7 7 7 6 6 6 6 6 7 6 6 6 6 6 6 6 6 6 6 6 6 6 , > > > > > > > > > > > > > > > > > > > > > 2 2 2 2 2 2 > > > > > > = - $ + $ + + + + + $ $ + + + + + + # # + o X . . . . . .       . . ",
"BXBXBXBXBXBXBXBXBXBXBXBXVXBXBXBXBXBXBXBXBXBXNXNXNXNXNXNXBXNXBXBXBXBXBXBXBXBXBXBXBXBXBXBXBXBXBXBXBXBXBXBXBXBXBXBXBXBXBXBXBXBXBXBXBXBXBXBXBXBXBXBXBXBXBXBXBXBXBXBXBXBXBXBXBXBXBXBXBXBXBXBXBXBXBXBXBXBXBXBXBXBXBXBXBXBXBXBXBXBXBXBXNXNXNXNXNXNXvXjXhXvXvXvXvXhXrXkX5XY.M.@.M.|  . . . .@.@. . .@.#. .L U @...f. .U Y Y T T E W./.P.9.K R a.c.c.x.c.c.x.x.c.c.c.c.c.c.c.c.x.x.x.x.x.I.Q.Q.~.~.~.~.~.~.Q.~.~.!.!.!.!.].}.|. X X|.|. X XXX X X|.|.|.|.|.|.|.|.{.{.{.{.{.{.{.|.|.|.|.|.|.|.|.|.{.{.{.{.{.{.|.|.{.{.|.|.|.|.|.|.|.|.|.|.|.|.|.|.|..X|.|.|.|.|.|.|.|.|.|.|.|.|.|.|.|.|.|.|.|.|.|..X.X.X.X.X.X.X|.|.|..X|.|.|..X.X.X.X.X.X.X.X.XoXoXoXXXXX@X@X@X@XXXoXXX@XeXeXeXeXyXyXeXeX@X@XyXuXuXuXuXuXuXuXuXuXuXuXpXpXgXgXpXpXpXpXgXpXgXgXgXgXuXsXsXuXeXeXuXeXeXeX@XXX|.|.{.].Q.v.v.v.v.v.v.v.v.v.v.x.x.I.b.b.s.s.s.J H H 6.6.6.7.c.~.].{.].v.~.I.I.x.0.9.6.6.6.T G 6.a.E E R W 6.W E 6.p.E E T G P p.E W I G G L L D L G D m M s p j : u : h x , , , h C x x h h 7 7 7 h 6 6 6 6 6 6 6 6 6 6 6 6 6 6 6 6 6 6 > > > > > > > > > > > > , > > > > > > > > - > > > > > > > > > > = = = = - $ $ $ $ + + $ + + $ $ + + + + + # # # o O . . . . .           .   ",
"BXBXBXBXBXBXBXBXBXBXBXBXBXBXBXBXBXBXBXBXBXBXBXNXNXNXNXNXNXNXBXBXBXBXBXBXBXBXBXBXBXBXBXBXBXBXBXBXBXBXBXBXBXBXBXBXBXBXBXBXBXBXBXBXBXBXBXBXBXBXBXBXBXBXBXBXBXBXBXBXBXBXBXBXBXBXBXBXBXBXBXBXBXBXBXBXBXBXBXBXBXBXBXBXBXBXBXBXBXBXBXBXNXNXNXNXNXNXvXjXhXvXkXbXvXhX5XbX<X^.@.j.M.U U U  . .@.@.U f.U @.Y L U @. .f.W W Y P P P E (./.P.6.K R s.x.x.x.c.c.c.c.c.c.c.c.c.c.c.x.x.x.P.Q.Q.Q.Q.~.~.~.~.~.~.~.~.~.~.!.!.!.!.{.}.|. X X|.|.|. X X X X|.|.|.|.|.|.|.|.|.{.{.{.{.{.{.{.|.|.|.{.|.{.{.{.{.].{.{.{.{.|.|.|.{.|.|.|.|.|.|.|.|.|.|.|.|.|.|.|.|.|.|.|.|.|.|.|.|.|.|.|.|.{.|.{.{.|.|.|.|.|.|.|.|.|.|.|.|.|.|.|.|..X.X|.|..X.X.X.X.X.X.X.X.XXXXXoXoXoXoXoXoXoXoXoXoXoX@X@XeXeXeXeXeXeX@X@XeXeXyXyXuXuXuXuXuXuXiXgXpXpXgXgXpXeXeXeXuXuXuXgXgXgXgXsXsXuXeXuXuXeXeXeXeXeX@X.X|.|.~.Q.v.v.v.x.c.c.v.I.v.x.c.v.v.v.i.9.6.K H G 6.6.6.7.b.I.].].|.x.~.v.I.x.9.9.6.6.6.T G E p.E E E K E T W 6.a.p.E W F P ..E W I G D L L D m G J K d b Q F g i k s j : , : a k h h h h h h h h h a 6 < < 6 6 6 6 6 6 6 6 6 6 , > > > > > > > > > > , , > > , > > > > = > > = > > > > > > > > > > > = = - - & $ $ $ $ + + + + + + + + + + + + + # o X . . . . .           . . . ",
"BXBXVXBXBXBXBXBXBXBXBXBXBXBXBXBXVXVXVXVXNXNXBXBXBXBXBXBXBXBXBXBXBXBXBXBXBXBXBXBXBXBXBXBXBXBXBXBXBXBXBXBXBXBXBXBXBXBXBXBXBXBXBXBXBXBXBXBXBXBXBXBXBXBXBXBXBXBXBXBXNXNXVXVXVXVXBXVXVXNXNXNXNXNXNXNXNXNXNXNXcXcXcXcXcXcXcXcXcXcXvXvXcXcXcXcXvXvXhX4XhXkX4XkXkX4X5XrX<XM.f.M.j.Y Y U  .#.f.U  . . . .Y L U @. .j.U W T L F W 6.(.~.s.6.K K g.c.x.x.c.c.c.c.c.c.c.x.c.c.c.c.x.x.P.Q.Q.Q.Q.~.~.~.~.!.!.!.!.(.!.!.!.!.!.}. X X X X X X X|.|. XXX.X|.|.|.|.|.|.|.{.|.{.{.{.{.|.|.|.{.{.{.{.{.{.].].].{.|.|.|.|.|.|.|.|.|.|.|.|.|.|.|. X X|.|.|.|.|.|.|.|.|.|.|.|.|.|.|.{.|.|.|.|.|.{.|.{.|.|.|.{.|.|.|.|.|.|.|.|.|.|.|.|.|.|..X.X.X.X.X.X.X.X.X.X.X.XXXXXXXXXXXXXXXXXXXXXXXXXXXeXeXeXeXeXeXeXeXeXeXeXuXuXuXuXuXpXpXpXpXuXuXuXeXeXeXeXeXeXeXuXgXuXuXeXeXgXgXuXuXgXuXeXeXeX@XXX.X|. X{.~.v.v.c.b.b.c.v.v.x.c.x.x.x.z.6.g.s.6.H 6.6.6.7.7.I.I.]..Xv.I.v.I.x.6.9.9.6.6.T G E p.E 6.W T W T T 6.a.p.E W T Q W P W G k D L W D G K 9.b.U.0.0.0.6.6.H H J J g i s M k a a a h h x x h a h a h , 6 6 6 6 6 6 6 6 2 > > > > > > > > > 2 6 6 6 6 2 , > > > = - = = - - > > > > > 2 2 > > > > = - & + + $ + $ + + + + + + + + + + + + + # o X . . . . .         . .     ",
"BXBXBXBXBXBXCXCXBXCXBXBXBXBXBXBXBXBXBXBXBXBXBXBXBXBXBXBXBXBXBXBXBXBXBXBXBXBXBXBXBXVXVXVXBXBXBXBXVXVXVXBXBXBXBXBXVXVXNXNXNXNXNXNXNXNXNXNXNXNXNXNXNXNXNXNXNXNXNXNXNXNXcXcXcXcXcXcXcXcXcXcXcXcXcXcXcXcXcXcXjXjXjXjXjXjXjXjXjXhXhXhXhXhXhXhXhXhX7X1X4X4X2X4X4X,X^.^.^.j.f.M.j.L S L  .#.f. .U  . . .U U U @.@.#.W  .Y L F E a.(.P.9.K K 6.k.c.c.c.c.c.c.c.c.c.c.c.c.c.c.c.x.x.x.Q.Q.Q.Q.~.~.~.~.~.!.!.!.!.!.!.!.!.{. X X X X X X X X X|. XXX.X|..X|.|.|.|.{.{.{.{.{.{.{.{.{.{.{.{.{.{.{.{.].].].{.{.|.|.|.|.|.|.|.|.|.|.|.|.|.|. X X|.|.|.|.|.|.|.|.|.|.|.|.|.|.|.{.{.{.{.{.{.{.{.{.{.{.|.|.|.|.|.|.|.|.|.|.|.|.|.|.|.|.|.|.|.|..X.X.X.X.X.X.X.X.X.X.XXXXXXXXXXXXXXX.X.XXXXX@XeXeXeXeXeXeXeXeXeXyXyXyXyXuXyXeXyXuXpXuXeXeXeX@X@X@X@XeXeXeXuXgXgXgXgXeXeXgXgXuXeXeXeXXXXX|.|. X|.{.].Q.v.c.b.b.c.x.x.x.x.x.x.c.i.6.s.H H H 6.6.6.6.b.x.I.{.~.~.v.I.c.6.9.a.6.R T F E 6.6.u.W T K K J E a.p.E T T T W W P P d s L ..F K 9.d.@X%XU._._._.b.b.b.0.0.7.K R K G d f s p p , a j j k k : , 6 6 6 6 6 6 6 2 > > > > > > > > > 6 6 7 7 7 6 6 > > > = - - - - = - > - > > 2 2 2 > > = = - - $ + + + + + + + + + + + + + + + + + + + O X . . . . .         . . .   ",
"BXBXBXBXVXVXBXBXBXBXBXBXBXBXNXNXNXNXNXNXNXNXNXNXNXNXNXNXNXNXNXNXNXNXNXNXNXNXcXcXcXcXcXcXcXcXcXcXcXcXcXcXcXcXcXcXjXjXjXjXjXjXjXjXjXjX9X9X9X9X9X9X8X8X8X8X8X8X8X8X8X8X8X8X8X7X7X7X7X7X6X7X7X6X7X4X6X4X6X3X3X3X3X3X3X3X3X1X1X1X1X1X1X1X1X1X,X,X;XR.-X,X-X^.R.R.M.M.M.f.f.M.f.L S L  .#.@. .| U U  .U W  .@.f. . .U L G P 6.k.~.d.K H K s.c.c.c.c.c.c.c.c.c.c.c.c.b.c.c.c.x.x.x.Q.Q.Q.Q.~.~.~.~.~.!.!.!.!.!.!.!.{. X X X X XXX X X X X XXXXX.X.X.X.X|.|.|.{.{.{.{.{.{.{.{.{.{.{.{.{.{.{.{.{.{.{.{.].].].|.|.|.|.|.|.|.|.|.|.|.|.|.|.|.|.|.|.|.|.|.|.|.|.|.|.|.|.|.{.{.{.{.{.{.{.{.{.{.{.|.|.|.|.|.|.|.|.{.{.|.|.{.{.{.|.{.|.{.{.{.|.|..X.X X X X X X X.XXXXXXXXXXX.X.X.X.XXX@XeXeXeXeXeXeXeXeXeXeXeXeXeXeXeX@X@XeXeXuXuXeXeXeXeXeXeXeXeXeXeXeXeXeXeXsXgXuXeXuXuXeXeXXXXX|.|. X|.|.].].Q.v.c.b.b.b.c.x.c.c.c.c.b.6.s.K H c 6.6.6.7.9.b.P.I.].!.I.I.b.6.9.a.6.K Q F W E 6.6.R K W K J W a.a.E T W W T E G L D G P W v 9.0.U.aX'.&X$X'.$X'.`._._._._.U.U.w.7.7.7.K H G M k j j L j : h 6 6 6 6 6 6 2 2 > > > > 2 2 2 2 6 6 7 l l 7 7 6 > > - - - - - - = - > - > > > 2 4 > > = - - $ + + + + + + + + + + $ $ + + + # # # o O X O . . . . .       . . . .   ",
"NXNXNXcXcXcXcXcXcXcXcXcXcXcXcXcXcXcXcXcXjXjXjXjXjX9X9X9X9X9X9X9X9X9X9X8X8X8X8X8X8X8X8X8X8X8X8X8X8X8X8X7X7X6X6X6X6X6X6X6X6X3X3X3X3X3X3X3X3X3X3X1X1X1X1X:X1X1X1X1X:X:X:X;X;X;X>X>X>X-X-X-X-X-X-X-X-X-X-X-X-XR.R.T.T.T.T.T.B.B.V.B.N.N.N.N.n.n.n.:.&.:.n.*.j.m.C.M.j.@.@.j.f.L S L  .#.f. .| U U  .U U  . .#.@.a.Y L D Q p.c.Q.s.H H K g.c.c.c.c.c.c.c.c.c.b.b.b.b.b.c.c.x.x.A.Q.Q.Q.Q.~.~.~.~.~.~.!.!.!.!.!.!.{. X X X X X X X X X X|.XXXX X.X.X.X|.|.|.{.{.{.{.{.].].{.{.{.{.{.{.{.{.{.{.{.{.].].].].{.{.{.|.|.|.{.{.{.{.{.{.|.|.{.{.|.|.|.|.|.|.|.|.|.|.|.|.|.{.|.|.|.{.{.{.{.{.{.|.|.{.{.{.{.{.|.|.|.|.{.{.{.{.{.|.|.{.{.{.{.{.|.|.|.|. X X X X X.X.XXXXXXXXX.X.X.X.XXXXX@X@X@X@X@XeXeXeXeXeXeXeXeXeXeX@X@X@XXX@XeXeXeX@X@X@XeXeXeXeXeXeXeXeXuXgXgXuXuXuXuXeXeXXXXX|.|. X|.|.}.].].Q.v.c.b.b.b.b.b.b.b.b.b.s.6.a.H H c 6.9.6.6.s.c.b.].].I.v.b.6.s.s.6.J F Q R E E 6.R K K T Q W a.a.E T W W Q W Q k F d F E G b U._._.&X&X'.'.'.&X&X'.$X'.$X'._.J.t._.t.w.w.0.7.K K W D D D i , , , , , > > > > > > 2 6 6 6 6 7 l l l l 7 7 6 > - - - - - - - = - > = = > > 2 6 > > - & & + + + + + + + + + + + $ $ + + + # # + O X O . . . . . .       . . .     ",
"8X8X8X8X8X7X7X7X7X7X7X6X6X6X6X6X3X3X3X3X3X3X3X3X3X3X3X3X3X3X3X3X3X3X3X1X1X1X1X:X;X;X;X;X;X>X>X>X>X>X>X>X-X-X-X-X-X=XT.T.T.T.T.T.T.T.T.T.V.V.1.N.N.N.N.1.1.,.,.,.,.,.,.,.,.,.2.<.<.>.;.>.>.>.;.;.-.$.$.$.$.$.$.%.O.O.O.X.X.X.O.$.;.X._ } ( ( &.} ( } Z { Z *.f.m.@. .f.f.f.U Y U  .| | | U U U U  .Y ..a.f.p.W P L D Q W W.c.K R G p.c.g.z.z.c.c.c.c.c.b.k.g.g.g.k.c.x.W.Q.Q.Q.W.W.Q.~.~.~.~.!.!.!.~.~.!.{.}. X X X X X X X X X X X|. X X|.|.|.|.|. X X|.|.|.|.|.{.{.{.{.{.{.{.{.{.{.{.{.].].].].].].].].].].{.{.{.{.{.{.{.{.{.{.].].{.{.{.{.|.|.|.|.{.{.|.|.|.|.{.|.{.].].{.|.|.{.{.{.].].].}.}.{.{.].].].{.{.{.{.{.{.{.{.].{.}.{.|.|.|.|. X X X X X X.XXXXXXX|.|..XXXXXXXXX@X@X@XXX@X@XeX@XeXeXeXeX@X@XXXXXXXXXXXXX@XeXeXeXeX@XeXeXeXXXXXqXeXeXeXeXeXeXeXXX XXXeXXX X}.].].].!.~.~.~.v.x.c.b.g.b.b.b.b.b.b.b.a.K H c c K 6.s.6.0.s.b.].!.v.v.b.6.s.s.6.J F F E E E W W W W T Q T p.a.E T W T Q T T s G P T ..D b 0.U.$X&X&X'.'.&X&X&X'.'.&X'.&X'.'.'.'.'.`.`._.J.U.w.w.7.7.K J s : ; : : , , > , 6 6 6 6 5 7 7 l l l l l 7 6 > - - - - - - - - - > > - - > > 6 6 > > - $ $ + + + + + + + + + + + + + + + + + o o X O . . . . . .       . . . .     ",
";X;X;X;X;X>X>X>X>X>X-X-X>X-X-X=X=X=X=XT.-X-X-X=X=XT.T.T.T.T.T.T.T.T.T.V.V.V.V.1.1.1.1.1.1.,.<.<.>.>.;.;.-.-.-.$.$.$.$.%.%.%.%.%.%.%.%.O.O.] ' ' _ _ _ _ _ ` ` ` ` ` ` ` ` ` ` ) ) ) ^ ) / / ) ) ) ) ) ) ) ) ) / / / / / / ) ` _ _ ) / B B / $./ A ( B Z A  .@.f.@.@.f.@.f.| Y Y | | | U U U U U  .Y #.f.f.#.W L F D W 6.W.g.R H K s.g.g.z.z.c.c.c.b.g.g.g.g.g.g.k.z.A.W.Z.Z.A.W.Q.Q.W.W.Q.~.Q.Q.~.!.!.{.}.|. X X X X X X X X X X X X|.|.|.|.|. X X X X|.|.{.{.{.{.{.{.{.{.{.{.].].].].].].].].].].].].].].].].].].].].].{.{.].].].].{.{.].].{.{.|.{.{.{.{.{.{.{.{.|.{.].].].}.}.].].].].].[.[.[.[.[.[.[.[.[.[.[.[.].].].].].{.{.{.{.|.|.|.|. X X|.|.|.|. X.XXX.X.X.XXXXXXXXXXXXXXXXXXXXXXXXXXXXXXXXX.X|.|. X X XXXXXXX X X X XXXXXqXeXeXeXeXqX XXXeXqX|.XX|.].!.!.].|. X}.].!.!.!.!.].].v.x.c.b.s.b.b.g.g.g.b.g.6.H H H 6.K 6.6.6.s.s.~.|.~.I.s.7.s.s.6.J D H E 8.6.T W T W T Q T p.a.8.E W T T p.D P D P ..p.T J 9._.$X&X&X'.'.&X&X&X'.&X&X'.&X'.'.'.'.'.'.'.'.'.'.`._._.U.0.9.9.F f t : : , , , 6 6 6 5 7 7 l l l l l 7 6 > - - - - - - - - - - - - - - = > 6 6 2 = - $ $ + + + + + + + + + + + + + + + + o o X O O . . . . . .       . . . .     ",
";.;.;.-.-.-.-.-.-.-.-.-.-.%.%.%.%.%.%.%.%.%.%.O.O.O.] ] O.] ] ' ' ' ' _ _ _ _ _ _ _ ` ` ` ` ` ` ) ) ) ) ) ) ) ) ) ) ) ) / ^ ^ ^ ^ ^ ^ ^ ^ ^ ^ ^ ^ ^ ) ) ^ ^ ) ) ) ) ^ ^ ^ ^ ^ ^ ^ ^ ^ ^ ^ ^ ^ ^ ^ ^ ^ ^ ^ ^ B B / / / / ) ) ) / / / / B B A X.V V B C Z Z  . .@.@.@.f. .f. .Y L U | U U U U U U  .Y #.f.a...Y G F D E a.A.6.R G u.g.k.k.g.k.g.g.g.h.s.s.s.s.s.s.g.k.k.k.k.k.A.W.Z.A.A.z.A.A.A.A.A.A.W.Q.~.!.!.!.!.{.{.}. X X X X X|. X X X X|.|.|. X X{.{.].{.{.{.{.{.].].].].].!.!.!.!.].!.!.~.~.~.~.~.~.~.].].].].].].].{.].].].].].].].].].].].].].].].].].].{.|.{.].].].].].[.[.].].].].].].].].].].].].].].].].].[.].].].{.}.|.|.}.}.}.|.|.|.|.|.|. X X.X.XXX XXXXXXX@X@XXXXXXX X X X X X X X X X}.}.|.}.|.|.}.}. X X X!.~.!.}.}.}.}.}.}.|. X!.!.!.}.!.!.}.}.~.z.g.c.x.Q.!.!.~.!.!.~.S.x.c.g.s.b.b.s.s.s.s.s.6.H H H K 6.i.6.s.s.x.!.I.x.s.6.0.s.6.K G H R 8.W J R W R W J T E a.p.! E W T ..T G F T a...P D 0.U.'.'.'.'.&X&X&X&X'.'.&X'.'.'.'.'.'.'.'.'.'.'.'.'.&X$X%X_.U.U.0.7.b d f u a u a h h 7 h 7 7 7 7 h h 7 , > - - - ; ; - - - - - - - - - = > 6 6 > = - $ $ + + + + + + + + + + + + + + + + o O O O . . . . . . . .         . .   . ",
") ) ) ^ ^ ^ ^ ^ ^ ^ ^ ^ ^ ^ ^ ^ ^ ^ ^ ^ ^ ) ) ) ` ` _ _ _ ` ` ` ` ) ) ) ) ) ) ) ) ) ) ) ) ^ ) ) / / / / ^ ^ ^ ^ ^ ^ ^ ^ ^ B B B B B B B ^ ^ ^ ^ B B B B B ^ ^ ^ ^ ^ ^ ^ ^ ^ B B B B B ^ ^ ^ ^ ^ ^ ^ ^ ^ / ^ / / / / ) ) ` ) / B B / / B B B } l V B C Z P |  ...@.f.j.Y j.@.Y M U | | U | U U U  .U a.a.p. .P D F G u.l.g.I I H h.h.g.k.g.s.s.s.s.a.a.a.a.a.a.p.a.h.h.l.A.M.k.h.h.h.k.k.h.g.z.A.A.A.A.Q.~.!.!.!.!.!.{.{.{. X X X X X|. X X X|.|. X X{.{.{.].].].{.{.].].].!.!.!.~.~.~.~.~.~.~.~.~.~.~.~.~.~.~.~.!.].].].].].].].].].{.{.{.{.].].].].].].].].].].].{.].].].].].].].].].[.].].].].~.~.~.~.].~.~.].].].].].].].].].].}.}.}.].].].}.}.|.|.|.|. X X X X X X XXXXXXXXXXXXX X X X X}.{.{.{.{.].}.!.!.!.~.Q.Q.Q.S.Z.Z.x.s.g.c.z.z.z.c.c.x.Z.W.W.x.c.z.Z.~.~.~.Q.W.A.c.c.c.x.Q.Q.Q.~.Q.c.b.g.s.g.s.s.s.s.g.6.H H H 6.6.6.9.0.s.b.b.b.x.s.6.s.s.K K b H R 6.R J K W R W J J R a.a.p.! W W p.T G P W a.F d d K v.J.'.`.'.&X&X&X&X'.'.&X'.'.`.'.'.'.'.'.'.'.&X&X&X&X&X&X&X'.`._.U.0.7.K c d f p j h h 7 7 7 7 7 7 6 , > - ; - - ; ; - - - - - - - - - = 2 6 6 > = - $ $ + + + + + + + + + + + + + + + o O O O . . . . . . . . .         . .   . ",
"^ ^ ^ ^ ^ ^ ^ ^ ^ ^ ^ ^ ^ ^ ^ ^ ^ ^ ^ ^ ^ ^ ^ ^ ) ) ) ) ) ) [ [ [ [ ` ) ) ) ) ) ) ) ) ) ) ^ ^ ^ / / ^ ^ ^ ^ ^ ^ ^ ^ ^ ^ ^ ^ ^ ^ ^ ^ ^ B B B ^ B V V V V B ^ ^ ^ ^ ^ ^ ^ ^ ^ B B B B ^ ^ ^ ^ B ^ B B B ^ ^ ^ B B / / ) ) B B B B B / B l B A _ l V A C Z { | | ..@.@.f.@.*.U U M L U  . . .U  .L U W f...#. .P G P I W k.I H H 6.s.h.g.g.s.s.s.s.a.u.u.u.E W W ..W I I I I W u.I W ..u.a.a.a.a.h.h.k.A.A.A.Q.!.!.!.!.!.!.!.!.!.!.].{. X{. X X}.}. X{. X{.{.{.].].].].!.!.!.!.!.!.~.~.~.~.~.!.!.~.~.~.~.~.~.~.!.!.!.!.].].].].{.{.].].{.{.{.{.{.{.].].].].].].].].].].].].].].].].].].].~.].].].].].].].].~.~.~.~.].].].].].].].].].].].}.}.].}.}.}.}.|.|.|.|.|. X X X X X X X X X X X X X X X X}.!.~.Q.Z.x.x.x.x.c.c.c.c.g.s.s.s.s.h.g.g.g.g.g.s.a.i.u.6.u.z.z.k.W.A.z.z.c.z.c.g.s.s.s.g.Z.Z.x.c.b.g.s.s.s.s.s.s.s.i.6.c c K K 6.s.9.s.b.x.x.I.s.6.s.s.K 6.b Q p.6.W J K W W T J J T p.8.E p.E E F E Q Q W u.I c d 7.H.J.`.'.'.'.'.'.&X&X'.'.'.'.`.'.`.'.'.'.&X&X&X&X&X&X&X&X&X&X'.'.'._.b.v.b.9.7.K D k j h 7 6 6 6 , , > - - - - - ; ; - - - - - - + + - - > 2 6 > = - - + + + + + + + + + + + + + + + o O O O . . . . . . . . . . . .         . . ",
"V V V V V V V V V V V V V V V V ^ ^ ^ ^ ^ ^ ^ ^ ^ ^ ^ ) ) ) ) ) ) ) ) ) ) ) ^ ^ ^ ^ ^ ^ ^ ^ ^ ^ ^ ^ ^ ^ ^ ^ ^ ^ ^ ^ ^ ^ ^ ^ ^ ^ ^ ^ ^ ^ B B B V V V V V V B ^ ^ ^ ^ ^ ^ ^ ^ B B B B ^ ^ ^ ^ B B B B B B ^ ^ / / ) / ^ B B B B B B / B z B ( _ V C ( A { | { | ..@.#.j.@.@.U Y L L  .U M  . . .L W  .f.#.#. .P G G u.F k.I H E a.a.s.h.s.s.h.h.f.E a.a.a.a.u.W W W ....u.I  .L P U ..u.a.u.a.h.h.h.k.k.A.A.Z.W.Q.~.Q.Q.~.~.~.Q.~.!.~.!.{.{.].].].{.{.{.{.{.{.].].].].!.~.!.~.!.!.~.~.~.~.~.~.~.~.~.~.~.~.~.~.!.!.!.!.].!.].].].].].].].].].].].].].].!.!.].].].].].].].].].].].].].].~.~.~.~.~.~.~.~.~.~.~.~.~.~.~.~.].].].!.!.~.~.].].}.].].}.}.}.}.}.}.}.|.|.|. X X X X X X X}.}.].].!.!.!.!.!.!.!.Q.W.A.A.A.A.z.k.g.g.u.u.u.s.u.a.u.W I I W W E u.a.u.u.a.u.W W u.a.h.k.A.A.W.h.g.g.c.g.g.A.g.c.b.g.s.s.s.s.s.i.s.i.K c c 6.K 6.6.6.a.c.c.v.0.6.0.s.K 6.b J p.E W K K K W R J J J p.8.E p.p.a.E E E m ....G u.b 7.H.J.J.`.'.'.'.'.'.'.'.'.'.'.`.'.`.'.'.'.&X'.&X&X&X&X&X&X&X&X&X'.'.'.'.%X_._.U.b.0.K G j a < 6 , , > - ; ; - - - ; ; - - - - - - + + - - > 2 6 > = - - + + + + + + + + + + + + + + O O O O . . . . . . . . . . .               . ",
"z z z z z q q q q q q q q q q q V V ^ V ^ ^ ^ ^ ^ ^ ^ ^ ^ ^ ^ ^ ^ ^ ^ ^ ^ ^ ^ ^ ^ ^ ^ ^ ^ ^ ^ ^ B B ^ ^ ^ ^ ^ ^ ^ ^ ^ ^ ^ ^ ^ ^ ^ ^ ^ B B V V V V V V V V V B ^ ^ B B B B B B B B B B ^ B B ^ B B B B B / ^ / / / ^ B B B B B B B B / B V _ / B B ( A { | { | .. .j.f. . .U L L Y @.@.L U #.U L Y #.@.#.#. .P G G u.F p.I H a.s.a.h.h.a.a.a.a.a...W ..a.u...W W  .......p.f.j. . . . .........u.f.f.h.h.M.M.A.A.A.W.W.W.Q.I.I.Q.~.Q.Q.!.!.!.!.!.~.~.!.!.].{.{.].].~.~.~.!.~.!.!.~.~.~.~.~.~.~.~.~.~.~.~.~.~.~.~.~.~.!.!.~.~.].!.].].].].].].].].].].!.!.].].].].].].].].].].].].].~.~.~.~.~.~.~.~.~.~.~.~.~.~.~.~.~.~.~.~.~.~.~.~.!.].].}.].].].}.}.].}.}.}.}.}.}.}.}.}.}.}.}.].!.~.Q.Q.Q.Z.Z.x.c.k.g.h.h.a.a.a.h.u.W I E W I I I W u.k.h.a.a.u.u.u.h.k.h.W I I ..W W E u.a.h.s.s.s.h.g.A.g.6.c.g.c.z.g.s.s.s.s.i.u.u.6.H c K K 6.6.6.6.d.b.b.6.6.9.9.K R G T 6.E R W K K R R R R J 8.8.E 6.a.p.l.Q T W W I u.G H 7.w._.J.L.'.'.'.'.'.'.'.'.'.'.K.`.`.'.'.'.'.'.'.'.&X&X&X'.'.'.'.'.'.'.'.'.'.'.'.`._.b.6.D p u , , > > ; - - - - - - - - - - - - - + + + - = > 6 2 > - - + + + + + + + + + + + + + + O O O . . . . . . . . . .               . . . ",
"z z z z q q q q q q q q q q q q q q q q ^ ~ V V V V ^ ^ ^ ^ ^ ^ ^ ^ ^ ^ ^ ^ ^ ^ ^ B ^ B B B B B B B B ^ ^ ^ ^ ^ ^ ^ ^ ^ ^ ^ ^ ^ ^ ^ ^ B B V V V V V V V V V V V B V B V V V V V V V V V V V B B B B B B / / / B B B B B B B B B z B / B V _ B B A ( Z ( { U U #.@.j. .U |  .M M L Y U U U @.Y L Y #...@.#. .P G G W I W R E s.p.a.a.a.u.E ..W W W W I P P I I W  .W U Y P U U U U P P P P P U I  .....u.u.f.j.j.k.k.g.k.c.x.Z.Q.Q.~.!.Q.Q.Q.Q.Q.Q.~.~.~.~.!.].].!.!.~.~.~.~.!.!.!.~.~.~.~.~.~.~.~.~.~.~.~.~.~.~.~.~.~.~.~.~.~.~.~.~.~.~.~.~.].].].~.!.!.].].].].].].].~.].~.].].~.~.~.~.I.I.I.I.~.~.~.~.~.~.~.~.~.~.~.~.~.~.~.~.~.!.].].].].].].].].].].].].].}.].].].].].].].!.~.Q.Q.Q.c.c.z.k.h.s.a.a.u.u.......W ....u...........W P G M G G P P W W ..P I P a.a.p.....W W u.u.p.a.a.s.u.g.c.c.g.g.z.s.s.s.i.u.6.6.6.H H c K 6.a.a.6.s.s.b.6.6.9.6.6.K H J E R E R J K R 8.E R Q E p.p.R p.W E E T p.E D G c H 7.w._.J.K.'.'.'.'.'.`.'.'.'.'.K.`.`.'.'.'.'.'.'.'.'.'.'.'.'.'.'.'.'.'.'.'.'.&X'.'.'.%Xb.7.c i , > > ; - ; ; ; - - ; - - - - - - - + + + + - > 6 6 > - - - + + + + + + + + + + + + O O . . . . . . . . . . . .               . . . ",
"q q q q q q q q q q q q q q q q q q q q q q z z V V V V V V V V ^ ^ ^ ^ ^ ^ ^ ^ ^ ^ ^ ^ B V B B ^ ^ ^ ^ ^ ^ ^ ^ ^ ^ ^ ^ ^ ^ ^ ^ ^ ^ ^ ^ ^ V V V V q V V z z V V V V ^ ^ V V V V V V V V V V V ^ B B ^ ^ / ) / B B B B B B B B B z B A / B _ B B A ( Z Z | P U j.f.j.L U L P L L L M  .M  . .Y L U @.#.f...Y Y G W G p.G F E u.W W W I W I I P P P P P I P P U U U P L L L L L P P P P P P P P U P P { U ....p.f.f.u.a.k.c.c.z.z.x.x.Z.Z.x.x.v.S.Q.Q.Q.Q.~.~.~.!.!.~.~.Q.Q.~.~.!.!.!.!.~.Q.Q.Q.Q.Q.Q.Q.Q.Q.Q.~.~.~.~.~.~.~.~.~.~.~.~.~.~.~.~.~.~.~.~.].].].~.~.~.!.~.~.~.].].].].].~.~.~.~.~.~.~.~.~.~.~.~.~.~.~.~.~.~.~.~.~.~.~.~.~.!.!.!.!.!.!.!.!.!.!.!.!.].].!.!.~.~.~.~.S.S.S.Z.A.x.z.k.g.h.h.a.u.u...I I .... .W  . . .W I I I I I P L L P I I I I u......... .....I ..u.u.W u.a.u.p.p.u.u.g.c.c.g.g.g.s.i.6.6.6.6.I H c H H K 9.s.6.6.b.6.6.9.6.6.K Q Q 8.E R 8.J F E p.E E J E a.s.K E 8.E p.p.p.a.F 6.F G 7.b.J.J.`.'.'.`.`.`.K.`.'.'.`.J.K.`.`.'.`.'.'.'.'.'.'.'.'.'.'.'.'.'.'.'.'.'.'.'.'.&X'._.w.n f : ; ; ; ; ; ; ; ; ; - - - - - - - - + + + + - > > > > - - - + + + + + + + + + + + O O O . . . . . . . . . . . .                     ",
"q q q q q q w w q q w w q q q q q q q q q q q q q q q q V V V V V V ^ ^ ^ ^ ^ ^ ^ ^ ^ ^ B B B ^ ^ ^ ^ ^ ^ ^ ^ ^ ^ ^ ^ ^ ^ ^ ^ ^ ^ ^ ^ ^ ^ V V V V q q q q z z z z V ^ ^ ^ V V V V V V V V V ^ ^ B B ^ ^ ^ / ^ B B B B B B B B B V V B A / _ B B / Z Z Z | | f.@.@.j.Y U L L M M U U Y M #. .L Y U ..a.a...L P G p.G u.I u.u.W I G P P P P P P P U U P P U | U P L M C L P P U U U U | { U Y P P P P P P P P |  .....u.a.h.g.g.g.g.g.g.g.c.c.x.x.S.Q.Q.Q.Q.Q.Q.Q.Q.~.Q.Q.Q.Q.Q.~.~.~.~.Q.Q.Q.Q.Q.Q.Q.Q.Q.Q.Q.Q.Q.~.~.~.~.~.~.~.~.~.~.~.~.~.~.~.~.~.~.~.~.].~.~.~.~.~.~.~.~.~.~.].~.~.~.~.~.~.~.~.~.~.~.~.~.~.~.~.~.~.~.~.~.~.~.~.~.~.~.~.~.~.~.~.~.~.~.~.~.~.~.~.~.S.S.Z.Z.Z.z.c.c.g.g.h.s.a.u.u.u...I P P I I L L G M k Y Y P L P P P P L P P L P U ........ .U ..a...I P  .W P W I W u.u.u.u.u.6.a.g.c.Z.z.g.s.6.6.6.6.I H c H H K 6.a.s.6.a.7.6.a.6.6.6.J H 8.8.s.k.a.J R 8.8.R T 8.l.a.p.W p.p.p.p.a.l.u.a.D c K w.w._.`.'.`.`.`.`.K.`.'.`.K.J.K.`.`.'.`.'.'.'.'.'.'.'.'.'.'.'.'.'.'.'.'.'.'.'.'.&X&X'._.7.c t ; ; ; ; ; ; ; ; - - - - - - - - - + + + + - - > > > - - - + + + + + + + + + + + O O O . . . . . . . . . . . .                 . . ",
"w q w w w w w w w w w w w w w w w w w w w w q q q q q q q q q q q V V V V V ^ ^ ^ ^ ^ ^ B B B B ^ ^ ^ ^ ^ ^ ^ ^ ^ ^ ^ ^ ^ ^ ^ ^ ^ ^ ^ V V V V V q q q q z z z z z z V ^ V V V V V V V V V V B B ^ ^ ^ ^ / B B B B B B B B B B B B B B A _ _ B / / / Z Z +.f.@...f.f.Y | M L  .@.U M #.M f.U L U  ...a.....L L G T c L L u.W G D k M G L P P P P P L M k k C L P L M C L P P P P U U U U P L L L L L P P P U U ..I ..u.u.a.a.a.s.s.s.s.s.g.g.c.c.x.x.S.Q.Q.Q.Q.Q.Q.Q.Q.~.~.~.Q.Q.Q.Q.Q.Q.Q.Q.S.S.S.S.Q.Q.I.Q.Q.Q.Q.Q.~.~.~.~.~.~.~.~.~.~.~.~.~.~.~.~.~.~.~.~.~.~.~.~.~.~.~.~.~.~.!.].].].~.~.~.~.~.~.~.~.~.~.~.~.~.~.~.~.~.~.~.~.~.~.~.~.~.~.~.~.Q.Q.Q.Q.S.S.S.S.Z.A.z.z.z.z.z.g.s.a.u.u.u...W I I W .. . .+.P L L L M k k k M G M M M M k P P k k M P U U .. .L W L k G k I  .W W P I ..E E E E 6.6.6.6.i.6.u.g.s.i.6.I 6.I G c H 6.6.6.s.a.6.6.6.9.6.6.K K H R R G R 8.E 8.a.s.p.8.W E a.a.6.p.a.p.p.a.p.k.6.W G 7.b.J._.`.'.`.`.`.K.K.`.`.`.K.J.`.K.`.'.`.`.'.'.'.'.'.'.'.'.'.'.'.'.'.'.'.'.'.'.'.'.'.'._.0.b t : ; ; ; ; - - - - - - - - - - - + + + + + - - > > 6 , = - - + + + + + + + + + O O O . . . . . . . . . . . . .             . . . . ",
"0 0 9 9 0 0 0 0 0 0 0 0 0 0 0 0 0 0 9 9 9 9 w w w q q q q q q q q q V V V V ^ ^ ^ ^ ^ B B B B ^ ^ ^ ^ ^ ^ ^ ^ ^ ^ ^ ^ ^ ^ ^ ^ ^ V V ^ V V V V V V q q q q q z z z z z z V V V V V V V V V V B B B ^ ^ ^ ^ B z B B B B B B B B B B B B B } _ B _ A / Z Z *... ...j.@.L  .*. .M j S L ..P @. .Y Y  ...#.U  .L P G P I T I P k k k k k k M L L L L L P P U | | P U P P L P L M L L M M C C C C M M L L L L L L L P L W ..I ....u.u.a.a.h.k.h.h.g.z.c.c.x.x.x.Z.Z.Q.W.W.Q.~.~.~.Q.Z.S.S.W.W.Q.x.v.v.v.v.v.v.v.I.Q.Q.Q.Q.Q.Q.~.~.~.~.~.~.~.~.~.~.~.~.~.~.~.~.~.~.~.~.~.~.~.~.~.~.~.~.~.~.~.~.~.~.~.~.~.~.~.~.~.~.~.~.~.~.~.Q.Q.Q.Q.Q.~.~.~.~.~.~.~.Q.Q.Q.Q.S.S.Z.Z.Z.A.z.z.g.z.g.g.h.u.u.E W I I I P P P P P L k k L L M M k j k k M L L L L L k k L L P P P Y .. .M L P Y P P U I G G P I P I I I I F I R E W u.u.6.s.a.u.I I I H c H K 6.K 6.s.s.6.6.9.K 6.J K J R 8.J R R J J R 8.8.R W a.a.p.s.8.p.a.a.a.6.a.k.6.K 6.U._.J.`.'.'.`.K.K.K.`.`.K.J.J.`.K.`.'.K.`.`.`.'.'.'.'.'.'.'.'.'.'.'.'.'.'.'.'.'.'.'.'.'.w.n g : ; ; ; - - - - - - - - - - - + + + + + + ; - > , , > > - - + + + + + + + + + O O . . . . . . . . . . . . . . .           . . . . ",
"9 9 9 9 9 9 9 9 9 9 9 9 9 9 9 9 0 0 0 0 0 0 0 0 w w w w q q q q w q q q V ^ ^ ^ ^ ^ ^ ^ ^ ^ ^ ^ ^ ^ ^ ^ ^ ^ ^ ^ ^ ^ ^ ^ ^ ^ ^ V V V V V V V V V V q q w w z z z q q z z z z V V V V ^ V B B B ^ ^ ^ ^ ^ ^ B B B B B B B B B B B B B B B } _ } B B ( | o.| @.@.j.M.f.#. .L M C k M C  .|  .U U L U  .f. . .L G G I W  .I j k k k k k k k L L L L  . . . .| { U P P P P P L C M M M C M M k C M C M M M k x x x k L L P I ..........u.u.u.u.a.a.h.h.g.c.z.z.z.A.A.A.A.A.A.Z.Z.A.Z.Z.Z.Z.Z.S.S.S.S.S.S.S.S.v.Q.S.Q.Q.Q.Q.Q.Q.Q.Q.Q.~.~.~.~.~.~.~.~.~.~.~.~.~.~.~.~.Q.~.~.Q.~.Q.~.~.~.~.~.~.!.!.~.~.!.~.~.~.~.~.~.~.~.Q.Q.Q.Q.Q.Q.Q.S.S.Q.Q.Q.S.S.S.Z.Z.A.A.A.z.z.g.g.g.h.h.h.h.i.u.u.W W I P P M M M M P P M L P P L k k k P P U U k k x x k L U L P P L L Y I I I L G G P P P P P I p.a...P P I I I F G G F I u.s.h.u.E W I I I H H J K K 6.a.s.6.6.6.K 6.J K J R H J R R 6.Q H R 6.9.R R p.6.a.a.k.h.a.6.a.s.a.s.u.6.w.U.t.J.K.'.K.K.K.K.'.`.J.J.J.K.K.`.'.K.`.`.`.'.'.'.'.'.'.'.'.'.'.'.'.'.'.'.'.'.'.'.'.'.J.7.d t ; ; ; ; ; - - - - - - - - + + + - + + + + + - > > > > - - ; + + + + + + O O O O . . . . . . . . . . . . . . . .         . . . . ",
"9 9 9 9 9 9 9 9 9 9 9 9 9 9 9 9 9 9 9 9 9 9 9 9 9 9 0 w w w w w w w q q z ^ ^ ^ ^ ^ ^ ^ ^ ^ ^ ^ ^ ^ ^ ^ ^ ^ ^ ^ ^ ^ ^ ^ ^ ^ ^ ^ V V V V V V V q q q w 0 0 w w z q q z z z z V V V V ^ ^ B B B ^ ^ ^ ^ ^ ^ B B B B B B B B B B B B B B B } X.B C B } | Z L  ...f.f.U L M L M C k M a | .. .L L Y Y ..f. . .Y G M L .. .k j k k k k k k k k M L L L L M L P U U P L M M L M C C M L L L L S M M M M M M k k x k k M L P P I I I P P I  .......u.a.h.h.h.k.k.g.k.M.z.z.z.z.A.A.A.x.A.Z.Z.Z.S.S.S.S.S.S.S.S.v.S.v.v.v.v.Q.Q.Q.Q.Q.Q.~.~.~.~.~.~.~.~.~.~.~.~.~.~.~.~.~.~.Q.Q.Q.Q.Q.Q.Q.Q.Q.Q.~.~.~.!.~.~.~.~.~.~.~.~.Q.Q.S.S.S.S.S.S.S.S.S.S.Z.Z.Z.A.A.A.A.A.z.k.g.h.u.u.u.u.u.u.u.u.I P P L M k k k M P P L L L M k k k L L k k k j L L L k k L L L L P L L P P P P P P P G M M M M k L I I T I L G ..W Q G F F F Q u.a.u.I Q Q Q H H H K K K 6.6.6.6.6.K K K K K R R 8.R R K R K J 6.s.a.8.a.l.a.d.s.h.h.h.W.k.p.E F n 7._.J.t.K.K.K.K.K.K.`.K.J.K.J.K.K.K.`.K.K.K.K.L.`.`.'.'.`.`.`.`.L.L.`.`.`.`.`.'.'.'.'.'._.w.n g t ; ; ; ; - - - - - - - - + + + + + + + + + - - > > > - - - + + + O + O O O O . . . . . . . . . . . . . . . . .         . . . . ",
"9 9 9 9 9 9 9 9 9 9 9 9 9 9 9 9 9 9 9 9 9 9 9 9 9 9 9 9 9 9 9 9 0 w w w q V ^ ^ ^ ^ ^ ^ ^ ^ ^ ^ ^ ^ ^ ^ ^ ^ ^ ^ ^ V V V V ^ ^ ^ ^ ^ V V V V q q q q w 0 0 0 w w q q z z z z z z z z V V B B ^ ^ B B ^ ^ ^ B ^ B B B B B B B B B B B B A } } B / ( Z Z Z S |  .a.f.W Y L L M C k C k Y L Y L L Y Y @.@... .Y G M L W k k x k k M M k k k k M M M L L L L M L L L P P L L M C k x k k k k k k k k k k k k k k k k k k L L L L L Y .... . . . .....p.a.a.f.h.h.h.k.k.k.k.k.A.A.z.z.z.A.A.Z.Z.Z.x.x.x.x.x.x.x.x.x.x.x.x.x.I.Q.Q.Q.Q.Q.Q.Q.Q.Q.Q.Q.Q.Q.Q.Q.Q.Q.Q.Q.Q.Q.Q.Q.Q.Q.Q.Q.Q.Q.Q.Q.Q.Q.Q.~.~.~.~.~.Q.~.Q.Q.Q.Q.S.S.S.S.S.Z.Z.Z.Z.Z.Z.Z.A.A.A.A.z.z.k.k.h.f.a.a.u.u...I I I P P L L k k k k k k k M M M M k k k L L L L k k L P L M k k k k L P P L L L L L L P P P P M M M M G G P I T I P P I W ..u.W W W W W I W u.Q Q Q H H H H H K 6.6.6.6.K 6.K K R 6.R J J 8.J R R R R 6.8.a.p.s.d.l.k.c.x.x.c.6.Q a.W d 6.{._.J.t.J.K.K.K.K.K.K.J.K.K.J.K.J.K.`.K.K.K.K.K.K.L.`.`.L.L.L.L.K.K.K.K.K.K.`.`.`.'.'.'.'._.0.H d t : ; ; - - - - - - - - + ; + + + + + + + + + - > > > - - ; + + O O O O O . . . . . . . . . . . . . . . . . . .       . . . . ",
"5 5 5 5 9 9 5 5 9 9 9 9 9 9 9 9 9 9 9 9 9 9 9 9 9 9 9 9 9 9 9 9 9 9 9 0 w V V ^ ^ ^ ^ ^ ^ B ^ V V V V V V V V V V V V V V V V V ^ ^ V V V q q q q q w 0 0 0 0 0 0 w q z z z z z z V V V B B ^ ^ B B B ^ ^ ^ B B B B B B B B B B B B B A ( B _ } C Z P A L  . .f.a.W L M M C C C N k x  .L L M L L f.#.#. .Y G M k ..k p x k k k k k k k k k M k k k k k M M k M M M M M M C M x k k k k k x x k x x x x k k k k x k C L j k M L Y U U  . . .......u.u.a.a.f.h.h.h.k.k.k.k.g.g.g.z.z.z.x.z.z.x.x.x.x.x.x.x.x.x.x.x.x.x.x.S.S.Q.Q.Q.Q.Q.Q.Q.Q.Q.Q.Q.Q.Q.Q.Q.Q.Q.Q.Q.Q.Q.Q.Q.Q.S.S.S.S.Q.Q.Q.Q.Q.Q.Q.Q.~.Q.Q.S.Q.S.S.S.S.S.Z.Z.Z.Z.Z.Z.Z.Z.A.A.z.z.z.z.M.k.h.a.a.a.u...I P L P P P P P k k k k k k k k k k k k M M P P k j k k L L M k k x k x k L P P L L G G G G G L P L P P P P I G k k P P I I I I T W W T W E Q T I W Q Q Q F F F H H F R R 6.6.J 6.K J K 6.8.p.l.8.J 8.R R 8.6.H 6.s.s.a.d.d.k.g.s.p.l.l.G G k.d.w.w.J.J.J.J.K.K.K.K.J.J.J.J.J.K.J.K.`.K.K.K.K.K.K.K.L.L.K.K.L.K.K.K.K.K.K.K.K.`.`.'.'.'.'.'._.w.7.b g : : ; ; - - ; - + - + ; + + + + + + + + + + - - - - - - + + O O O O O . . . . . . . . . . . . . . . . . . .       . .     ",
"5 5 5 5 5 5 5 5 5 5 5 5 5 5 9 9 5 5 9 9 9 9 9 9 9 9 9 9 9 9 9 9 9 9 9 0 q z ^ ^ ^ ^ ^ ^ ^ ^ V V V V V V z V V z z z z z V V V V V V V z z z z z z w w 0 9 0 0 0 0 0 w z z z V V V V V V V V ^ ^ B B ^ ^ B B B B B B B B B B B B B B B B } X.} C A ( A Z |  .U a.W W L k k N C A N a j | L L M L  .f.#. .U k j k M k j j j x k M C k k k k k M k x k k k k k k M L L M M C C C k k k k k k h h x x x x x x x k k k k x k M M C C M M M L L Y U  ... .W  ...u.u.f.h.h.h.h.h.h.g.g.g.z.z.c.z.z.z.z.c.c.c.c.c.c.c.c.x.x.x.x.Q.Z.Q.Q.I.Q.Q.Q.Q.Q.Q.Q.Q.Q.Q.Q.Q.Q.Q.Q.Q.Q.Q.Q.Q.Q.S.S.Q.Q.Q.Q.Q.Q.Q.S.S.Q.S.S.S.S.S.S.S.Z.Z.Z.Z.A.z.z.A.A.A.A.A.A.z.g.k.g.h.a.u..... .I P I P L P P P k k k M k k k k k k k k k k L k k k x x j p p p p j k M M M M L P P M k k M P I G G M L L M M G P P P P I G k G k k G P I T ..a.....u.p.u.u.E F F F Q K G K K J K H 6.K J K 6.8.p.9.8.R 6.s.9.8.K K K 6.p.6.h.P.(.~.W.P.k.E l.l.8.6.b.w._.J.J.J.J.K.K.K.K.J.J.J.J.K.J.K.K.J.K.K.K.K.K.K.K.K.K.K.K.K.K.K.K.K.K.K.`.K.`.`.'.'.'.'.'.'._.w.n b t : ; + + ; ; ; ; + ; + + + + + + O + + + ; - - - - + + O O O O O O . . . . . . . . . . . . . . . .         . . .       ",
"5 5 5 5 5 5 5 5 5 5 5 5 5 5 5 5 5 5 5 5 5 5 9 9 9 5 5 5 5 5 5 5 9 9 9 9 w q V ^ ^ ^ ^ V V V V V V V q q z z z z z z z z z z z z z z z z z z z z z w w 0 8 8 7 7 0 0 w z z z V V V V V V V V ^ ^ B B ^ ^ B B B B B B B B B B B B B B / o.&.A h x Z Z A Z |  .W #.W W L k k N C A N h j U L Y M Y U #.f.f.W s M j M k j j x k k N M M C C C k M k k k k M M M k M M M L P S C k k k k k x h N N h x x x h x x j x x x k x j j x h x j k k k M L L P P P P P I ....u.u.u.u.a.h.h.g.g.g.g.g.z.z.z.z.c.c.c.c.c.c.c.c.c.x.x.x.x.x.I.I.I.I.I.Q.Q.Q.Q.Q.Q.Q.Q.Q.Q.Q.Q.Q.Q.Q.Q.Q.Q.Q.S.S.Q.Q.Q.Q.S.Q.Q.v.Z.S.S.S.S.S.S.S.Z.Z.Z.Z.Z.A.z.z.z.z.z.z.A.z.g.h.h.a.u.u.I P P P P L L M k k k j x k k P P k k k k x x k k k L L k x p x j j k k k k k k M L P L L P P P M M M M k G G k k P P P G G G G M M G P L P P P P P D k G I W ..a.a.u.W F F H I 6.H K J K H 6.K Q K 6.8.R R 6.J Q s.d.8.8.R 6.p.d.6.k.k.k.k.k.d.a.p.a.#.K K w.w.J.t.J.J.K.K.J.J.J.J.J.J.J.J.J.K.K.J.K.K.K.K.K.K.K.K.K.K.K.K.K.K.K.K.K.K.K.`.K.`.`.'.'.'.'.'.'.'.w.0.n f : ; ; ; ; ; ; ; ; + + + + O O O + + + + + + + + + + O O O O O O . . . . . . . . . . . . . . . .         . . .       ",
"5 5 5 5 5 5 5 5 5 5 5 5 5 5 5 5 5 5 5 5 5 5 5 5 5 5 5 5 5 5 5 5 5 9 9 9 9 q z ^ ^ ^ V V V z q q q q q q q q z q z z z z q q q z q q q q z z z z z w 0 0 8 8 9 7 0 0 q z z V V V V V V V V V B ^ ^ ^ ^ ^ B B B B B B B B B B B B B B / o.A A B z A Z A L | U  ...W U L k M C C N C h x S U U L Y Y #.f.f.W p M j M k j j x k k k k j k k C M L M k k L L P L M M M M S S C x x x x x x x x h h h x x j x j h j j x x x x j x j x j x k k k k M L P U U W P P L P W ......u.a.h.h.h.s.h.h.g.g.z.z.c.c.z.c.c.c.c.c.c.c.c.x.x.x.x.P.x.x.I.I.S.Q.Q.Q.Q.Q.Q.Q.Q.Q.Q.Q.Q.Q.Q.Q.Q.S.S.S.Q.S.Q.Q.S.Q.Q.v.S.S.S.Z.S.S.S.S.S.Z.Z.Z.Z.A.z.z.z.z.z.z.z.g.h.h.g.h.i.u.I I P P L M k k k k j j k k L L M k k k k k k x p p j k k f p k k j p u j k L P L L L L k k k M G G G G W P P W  .P M P M M M M c G P P M M k k L P I I I P I F F Q E E W W W W h.6.K J K J K J J K R 8.a.R 8.E W F l.s.6.K s.d.p.a.a.(.d.s.a.p.T D s T F n w.w.t.t.J.J.J.J.J.J.J.J.J.J.J.J.J.K.K.J.K.J.J.J.J.J.K.K.K.K.K.K.K.K.K.K.K.K.K.K.`.`.`.`.'.'.'.'.'.'.'._.w.7.d : ; ; ; ; ; ; ; ; + + + O O O O + O + + + + + + O O O O O O O . . . . . . . . . . . . . . . .         . .         ",
"3 3 3 3 3 3 3 3 3 3 3 3 3 3 5 5 5 5 3 3 5 5 5 5 5 5 5 5 3 3 3 3 5 5 9 9 9 w q z V V V q q q q q q q q q q q q q z l l z q q q q q q q q q q z z z w 0 0 8 8 8 0 9 0 w z z V V V V V V V V B ^ ^ B B B ^ B B B B B B B B B B B B B / / B B / A A A Z C S  .Y ....W U M k M C k k N x x C | U P U  .@.#. .Y m j k M k j j k k k k k N M L L M L M k M L P P P L P L M k x k x x x x x x x x x k h x x j x j h h h h h x x k k k x x x x x k k M M k k M P P L L P P I  .....u.u.a.a.a.s.s.h.h.g.g.g.g.g.g.c.c.z.c.c.c.c.c.x.x.x.x.x.x.x.x.v.v.Q.Q.Q.Q.Q.Q.Q.Q.Q.Q.Q.Q.Q.Q.Q.Q.S.S.S.S.Q.Q.S.Q.S.S.S.S.S.Z.S.S.S.S.S.Z.Z.Z.A.A.z.z.z.z.z.g.g.h.h.h.h.h.u.I P M k k k k k k k k k M M k M k k k k k x k k j f f k k p u j k k k G L P P P I L G L L L L M M P I ....P P P P P P I P k k c c G I P k I P G M G P I I G I T W u.u.R Q F F F F g.g.R H K K K J J K R 6.8.D J 8.D R 8.d.d.R a.6.R h.k.k.x.d.6.T d D f D d b 0.w.t.q.J.J.t.t.J.J.J.J.J.J.t.J.J.J.J.J.J.J.J.J.J.J.J.J.J.J.K.J.J.J.J.K.K.K.K.K.K.`.`.`.`.'.'.'.&X&X&X$X%XU.9.v t : ; ; ; ; ; + + O + O O O O O O O + + + + O O O . O O O . . . . . . . . . . .     . . . .     . . . .         ",
"4 4 4 4 3 3 3 3 3 3 3 3 3 3 3 3 3 3 3 3 3 3 3 3 3 3 3 3 3 3 3 3 3 5 5 9 9 w q V V q q q z q q q z z q q w w w w w w w w q q w w q q q q q z z z w w 0 7 7 5 5 7 0 0 w q z z V V V V V V B B B ^ ^ ^ ^ B B B B B B B B B B B B B B / A A A / A Z Z Z C L  .U #.W W Y M k M k x x x x h C | Y Y Y #.#.#.@.L k L k L M j j k k k k M N M L L M L L M L L P L L P L L L L M k k k k k k k k x x x x x j h h j j h h h j j x x j k x j x j j x k k M M k k j k k k k L P +. ... ...u.u.u.a.a.a.a.s.h.g.g.g.g.z.z.c.c.z.z.x.x.c.x.x.x.x.x.x.x.v.v.Q.Q.Q.Q.Q.Q.Q.Q.Q.Q.Q.Q.Q.Q.Q.Q.Q.Q.S.S.S.S.S.S.S.S.S.S.S.S.S.S.Z.Z.Z.Z.Z.Z.Z.A.z.z.g.g.h.h.h.a.h.h.u.I I G P G G k k k k k k j k P M k k k k k k k x u a j k k k j k k k k k L P P P L L P ....W T W ....u.h.u.W I W ......a.....W P I I I P G G P I W I I G G I u.u.u...I H c I G R R H c a.s.6.K K 6.K K J K R E l.E E l.a.a.8.a.a.p.s.d.~.k.s.s.W.z.F T G f i v D n 0.w.q.q.t.t.r.J.J.J.J.J.J.t.t.J.t.J.J.J.J.J.J.J.J.J.J.J.J.J.J.J.J.J.J.J.J.K.K.K.K.K.`.`.`.`.'.'.'.&X&X&X'.'.U.0.H f t ; ; ; ; O O O O O + + O O O O + + O O + O O O . . . . . . . . . . . . . . . .     . . . . . .             ",
"4 4 4 4 3 3 3 3 3 3 3 3 3 3 3 3 3 3 4 4 3 3 3 3 3 3 3 3 3 3 3 3 3 5 9 9 w q ^ ^ ^ V V q q q q q q z z q w w w w w w w w w q q w q q q q q z z z w w 0 8 7 7 7 7 8 0 w w q z V V V V V V B B B B B B B B B B B B B B B B B B B B B B A A A / A Z Z A C L |  ...W W L M k M k x h x A h C U U Y Y #.#.#...Y M P W L M k k k k k k k j k k M M P L L L L U W W U L L P U W  . . .| U L k k x x k k k k k k j j j j x j x x x j x x k k k k k x h p M C M k k k k k k k L P P U I W ..u.u.u.u.a.a.s.h.g.g.k.g.k.z.z.z.c.c.c.c.c.x.x.x.x.x.x.x.v.Q.Q.Q.Q.Q.Q.Q.S.S.Q.Q.Q.Q.Q.Q.Q.Q.Q.S.S.S.S.S.S.S.S.Z.S.S.Z.Z.Z.Z.Z.Z.Z.A.A.A.z.z.z.h.g.g.g.h.h.i.u.I I P I P P G G M k k k k k k k p M k P k k k k k k k k k k k M M k k P L P L L k P W  .........h.a.a.u...u.u.i.u.u.u.u.u.W I I P I ..u.I L M M P P P P P P I ..W u.E I H F Q F H I I H H s.s.H K 6.6.K J K R 8.p.E E p.g.l.W Q p.p.a.l.s.a.a.a.p.a.p.W G f i d b n 7.w.w.q.q.q.t.t.J.J.J.J.J.t.r.t.t.J.J.J.J.J.J.J.J.J.J.J.J.J.J.J.J.J.J.J.J.J.K.K.K.K.K.`.`.`.`.'.'.'.'.'.&X&X$X_.b.7.c t ; ; ; ; O O + + + + O O O O + + O O O O O O . . . . . . . . . . . . . . . .     . . . . . .             ",
"4 4 4 4 3 3 3 3 3 3 3 3 3 3 3 3 3 4 4 4 3 3 3 3 3 3 3 3 3 3 3 3 5 5 9 w V ^ ^ [ ) ^ B V V V q q q z z z w w w w w w w w q q z q q q q q z z z z w w 0 7 8 8 8 8 0 0 0 w q q q V V V V V B B B ^ B B ^ ^ B B B B B B B B B B B B B / A A / A A ( Z A C L |  ...W  .L M M M k x x A x P k P  .Y Y W W W W Y U Y  .G k k k k k k M L M L Y U Y L L L P P I ...... . ....................... .P P P P L M k k x j j x j k k k k k x x x x k k M k k x x x x x k k k k k k k M L P I I W E u.u.u.a.a.s.h.h.h.g.g.k.k.z.c.c.c.c.c.c.c.x.x.c.x.x.x.x.v.v.x.Q.Q.S.S.S.S.S.S.S.S.S.S.S.S.Z.Z.Z.Z.Z.Z.Z.Z.S.S.Z.Z.Z.z.z.z.z.z.z.z.A.z.z.g.g.g.h.g.h.s.u.u.u...G P P P P G M M k k k k M M L M P P P L k k M L L G M M P P I P P I ..P P ....u.a.f.u.u.a.a.f.a.u.u.u.u.u...f.a.u...I W ..u.u.u.W I W W W I P P P P G c c F P I W I I I I I W 6.I H H R p.K R 6.6.R K K E 8.p.p.p.a.l.k.p.p.p.l.l.z.k.k.k.k.l.Q T F D d s s b H 0.w.w.q.q.q.t.t.J.J.J.J.t.t.r.t.r.t.J.t.J.J.J.J.J.J.J.J.J.J.J.J.J.J.J.J.J.J.J.J.K.K.K.`.`.K.`.`.'.'.'.'.'.&X&X$X%XU.0.b t : ; ; ; O O O + ; + + + + + + O O O O O O O . . O . . . . . . . . . . . .       .     . . . . . . . . ",
"1 1 4 4 3 3 3 3 3 3 3 3 3 3 3 3 3 4 4 4 4 4 4 4 4 4 3 3 3 3 3 3 5 9 9 q ^ [ ] ] ] ] ) ^ ^ V q w q q z z w w w w q q q w q q z z z z q q z z z z w w 0 7 7 0 0 7 0 0 0 w w q q q V V V V B B B B B B ^ ^ B B B B B B B B B B B B B B A A A A / Z Z A C L | W ..W W P M M M k x x A Z P N L #.Y Y U U U U L ..L M L M k k k k k k U L L U U U U U P P U W W  .....f.f.@.@.f.f.f.f.f.f.f.@.f.@.@..... .U L L k k k k k k k k k k k k M M k k k k M M k x x k k k k k k k k k k M L P I I W u.u.u.a.h.s.h.h.h.k.k.k.c.z.c.c.c.c.c.c.x.x.x.x.x.x.x.x.x.x.S.S.S.S.S.S.S.S.S.S.S.S.S.Z.Z.Z.Z.Z.Z.Z.Z.Z.S.S.S.Z.Z.z.z.z.z.z.z.z.z.z.g.g.g.g.h.h.h.u.u.u.I I W I I P P L M M M k P I P k P P P P P P P L L P L L L L I I I ....I P ..u.u.u.u.....u.i.a.f.h.f.j.k.h.a.u.u.a.a.u.u.a.a.a...E E u.u.a.a.a.u.E W W W ..I I W F W E W I u.I R I R 6.R G K 6.H R 8.6.R K T E E E E E W p.p.T E T E p.k.a.l.a.6.E W T D m d d f D H 0.w.w.q.q.q.t.t.r.J.J.t.t.r.r.t.r.t.t.t.t.t.J.J.J.J.J.J.J.J.J.J.J.J.J.J.J.J.J.J.J.J.K.K.K.K.`.`.`.'.'.'.'.&X&X&X&X%X_.0.n t : ; ; ; O O ; + + + + O + + O O O O O O O . . O . . . . . . . . . . . .     . .     . . . . . . . . ",
"1 1 4 4 2 2 4 4 4 4 3 3 4 4 4 4 4 4 4 4 4 4 4 4 4 4 4 4 4 3 3 3 5 9 w ^ [ ] ] ] ] ] ] ) ^ V q w w w w z z z w w w w w w z z z z z z z z z z z z w w 0 9 7 0 7 7 7 0 0 w w w w l z z V V B B ^ ^ B B B B B B B B B B B B B B B B C B A A A Z / Z Z A C Y |  ...W W L L M M h x x A { C N k U Y U L W E U W L P W L k j k G L G L L L L L W ..p.f..... .I u.p.f.f.f.f.f.f.f.f.f.f.f.f.f.f.f.f.f.f.u......... .P P P P L L P L k k L L L L L k k L P P L L M k k k M k k P P L k L I P I W E u.u.u.a.h.s.h.h.h.k.k.g.k.c.c.c.b.c.b.c.c.x.x.x.x.x.Z.Z.Z.Z.Z.Z.Z.Z.Z.S.S.Q.Q.S.S.S.S.S.S.S.S.S.Z.S.S.S.S.S.Z.Z.z.z.z.z.z.z.z.z.z.g.h.g.g.h.h.i.i.u.i.I ......W P D P P P I P P P P L I  ... .I I I P P P P P P  . .....a.a.a.u.u.u.u.i.i.a.a.a.h.h.f.h.h.h.h.h.h.h.f.f.f.k.A.A.k.h.h.h.h.l.g.h.h.a.h.W a.a.u.u.I W a.E u.u.I W 6.H W W H H W I R 6.6.K 6.6.6.R W E G G F T W G T p.T W F Q p.k.k.p.T W g F E F D m G f J 7.e.5.q.5.q.t.t.q.t.t.t.t.r.r.t.r.t.t.t.J.J.J.J.J.J.J.J.J.J.t.t.t.t.t.J.J.J.J.J.J.J.J.K.K.K.K.K.K.`.'.'.'.'.&X&X&X&X$X_.w.K f : ; O ; + + + O O O O O O O O O O O O O O O O . . . . . . . . . . . . . . . .                     ",
"2 2 2 2 2 2 2 2 2 2 4 4 4 4 4 4 4 4 4 4 4 4 4 4 4 4 4 4 4 4 4 3 5 9 q ^ ] %.%.%.] ] ] ) ^ V q w w w w l q z w w w w q q z z z z z z z z z z z z w w 0 9 7 7 7 7 7 0 0 0 0 0 0 0 w z z V B ^ ^ ^ B B ^ B B ^ B B B B B B B B B B C B A A A A Z / Z Z A { | ..W  .T L L k k C x C | Z a h k @.L T Y W  .W U L P W G k k D I I I I I W W  ...p.f.j.j.j.j.f.f.f.f.f.j.j.j.j.f.f.f.f.f.f.f.f.f.f.f.f.u............. . . .U U k P  . .k P +.P P P P P  . .+.U U P P P L L L M M P I k k I W I W ..u.u.u.a.h.s.h.h.g.k.k.k.c.g.c.c.b.b.c.c.x.c.x.x.x.Z.Z.Z.x.Z.Z.Z.Z.Z.S.S.Q.Q.S.S.S.S.S.S.S.S.S.S.S.Z.S.S.S.Z.z.z.z.z.z.z.z.z.z.g.h.g.g.g.h.h.h.h.h.i.u.u...W I I I P u...I W  .......u..... .I I I I W  . . . .........u.u.u.u.u.u.u.u.u.a.a.f.h.a.h.h.h.h.h.h.h.h.h.j.h.k.M.M.k.h.h.h.h.h.k.k.l.a.a.p.a.l.a.a.E u.l.u.a.a.u.u.u.R E R I I E R 6.6.6.K 6.6.R R E E F D s d G D T W k F E T G 6.k.W.k.a.E Q ..d k F E T b 7.e.e.5.5.q.t.r.r.t.t.t.t.r.r.t.r.t.t.t.t.t.J.J.t.J.J.t.t.t.r.r.r.r.r.t.t.J.J.J.J.J.J.J.J.K.K.K.K.K.`.'.'.'.'.'.&X&X&X'._.U.7.f t ; ; + + + O O O O O O O O O O O O O O O . . . . . . . . . . . . . . . . .                 .   ",
"2 1 1 1 1 1 1 1 1 1 2 2 2 2 2 2 2 2 4 4 2 2 2 2 2 2 2 2 2 4 2 4 5 9 q ^ ] %.-.%.] ] ] ) ^ V q w w w w w q z q w q q z z q z q q q q z z z z z z w w 0 9 7 0 7 7 0 0 0 0 7 7 7 7 0 w z z z B ^ ^ / ^ ^ / ^ ^ ^ ^ B B B B B B B B C B A B A Z Z Z A Z Z |  ...W W I k M k x x k | x x h k S *.G U W  .W Y U P P W M k m L W W W  .............f.f.j.j.k.k.j.h.j.j.j.j.j.j.j.f.f.f.f.f.f.f.f.a.f.u.u.u.......................U U ....P P U I ....I I I +.+.+.+. . .k M P P L M P P I P G P I W ..u.u.a.a.h.h.h.k.k.g.g.g.g.g.c.c.c.c.c.c.c.c.c.x.x.x.x.x.x.Z.Z.Z.Z.S.Q.Q.Q.S.S.S.S.S.S.S.S.Z.Z.Z.Z.S.S.Z.Z.Z.z.z.z.z.z.z.z.z.g.h.g.g.g.h.h.h.i.u.i.i.u.u...u.I I u.I I ...... .............W ................ . .........u.u.u.u.u.u.u.i.a.a.h.a.h.h.h.h.h.h.h.h.h.j.k.k.k.k.k.h.h.h.k.k.k.k.h.h.s.s.s.a.l.a.a.s.s.s.g.k.g.s.i.a.u.6.R R u.6.6.E R K 6.6.6.K 6.T P D f p k s s F I G F T W T P E k.p.Q f T p.W T W p.K 7.e.5.q.5.q.q.r.r.r.t.t.t.r.r.t.r.t.t.t.t.t.t.t.J.t.t.r.r.r.r.r.r.r.r.r.t.t.J.J.J.J.J.J.J.J.K.K.K.K.K.`.'.'.'.'.'.'.&X&X$X%XU.7.b g : ; + + O O O O O O + + O O O O O O . . O O O O . . . . . . . . . . . .                     ",
"1 1 > > > > > > > > 1 1 1 1 2 2 1 1 1 1 1 1 1 1 1 1 1 1 1 2 1 4 3 9 z ^ ) ] ] ] ] ] ] ) ^ V q w w w w w z q q w q z z z q q q q q q q q z z z z w 0 9 8 9 0 0 7 7 7 7 9 8 7 7 8 7 0 w z z B B ^ ^ ^ ^ ^ ^ ^ ^ ^ B B B B B B B B C B A B A Z Z A A L L  . . . .U P k k x x S | N , x h h #. .L  .E #.W P U L P W k k M P P P P P ........j.h.j.j.h.h.k.M.k.j.h.f.f.j.j.f.j.f.f.f.f.f.f.f.f.f.a.u.u...................+.........+.+.................................P M M k L M P I I W I I I W ..u.u.u.a.h.h.h.k.g.g.g.g.c.c.c.c.b.b.c.c.c.c.x.x.c.c.x.x.x.Z.Z.Z.S.Q.Q.Q.Z.Z.S.S.S.Z.Z.Z.Z.Z.Z.Z.Z.Z.Z.Z.Z.z.z.z.z.z.z.z.z.g.g.g.g.h.h.h.i.u.u.u.u.u.u.f.u...u.u.i.h.i.u.u.u.....................W W I I I W  . .........u.u.u.u.u.u.i.a.a.h.h.h.h.h.h.h.h.h.h.h.k.k.k.k.h.h.k.k.k.k.k.k.k.k.h.h.z.g.s.g.s.g.k.k.h.c.A.x.g.s.g.a.u.R R u.u.6.R K 6.6.6.6.K p.T Q G L D k k p k d T F F T T F P E P E a.f.E F D G p.k.d.w.t.t.5.q.q.r.r.r.r.t.t.r.r.r.r.r.t.t.t.t.r.t.r.r.r.r.r.r.r.r.r.r.r.r.r.t.t.J.J.J.J.J.J.J.J.K.K.K.K.K.`.`.'.'.'.'.&X&X&X'.'._.0.n g : ; ; ; ; ; O O O O O O O O O O O . . O O O O . . . . . . . . . . . .           . . .     ",
"> r > r % % > > = = > > 1 1 1 1 1 1 1 1 1 1 1 1 1 1 1 1 1 1 2 4 3 9 q ^ ) ) ) ^ ^ ^ V V V z w w w w w w w w w w q q z z z z q q q q z z z z q q w 0 7 7 9 9 9 9 9 9 8 7 6 5 6 5 7 7 0 w z B B ^ ^ B B B B B B B B B B B B B B B C B A B A Z Z A A Z Y .. .W W I P k k M k *.Z x h h h S *.#.| L #.#.T Y L P W G G k P T W ..u.u.a.f.f.j.j.k.k.h.k.k.k.j.j.j.h.h.f.j.f.f.f.f.f.f.f.a.a.f.f.f.u...............+.+..... . . ...................................u.u.u.....I U I I I I I W W I I ..u.u.u.u.a.h.h.h.h.g.g.g.g.g.c.c.c.b.c.c.c.c.c.c.c.c.c.c.c.x.Z.Z.S.S.S.S.S.Z.Z.Z.Z.S.S.Z.Z.Z.Z.Z.Z.Z.Z.A.A.z.z.z.z.z.z.z.z.g.g.h.h.h.h.h.h.i.i.u.u.h.a.u.u.u.a.i.a.f.a.a.u.u.u.u.u.u.u...........W W I I I W W  .W ..........u.u.u.u.u.u.u.u.i.a.h.a.a.f.f.h.h.h.h.k.k.k.k.k.k.k.k.k.k.z.z.k.k.g.k.k.k.g.k.g.k.c.c.x.W.Q.Q.g.g.g.h.i.6.R 6.u.u.R R 6.9.s.R 8.p.T D D k k k k D p s P Y W D F G F ..F d G a.k.a.T G G c n e.q.5.5.q.q.q.t.r.r.r.t.r.q.r.r.r.r.r.r.r.r.r.r.r.y.y.y.y.y.r.r.r.r.r.r.r.r.t.J.J.J.J.J.J.J.J.K.K.K.K.K.L.`.'.'.'.'.'.&X&X'.'._.w.n b t ; ; ; O O O O O O O O O O O O O O O O O O . . . . . . . . . . . . . .                 ",
"r r r % % % > > = = > > > > 1 1 > > 1 1 1 1 1 1 1 1 1 1 1 1 2 4 3 9 q ^ ) ^ ^ ^ V z z z w w w w 0 0 w w w w w w w q z w z z q q q q z z w w w w w 0 7 7 8 8 8 8 5 5 5 6 6 4 4 6 5 8 7 0 l z B B B B B B B B B B B B B B B B B B C B A B A Z Z A A S U  . .W W I P k L L | P k h h x x P |  . .L  .#.T T Y Y W P W G P I ....u.a.f.h.k.k.k.h.k.h.k.k.k.j.h.h.h.f.f.f.f.f.f.f.a.a.a.f.f.a.f.u.........+.+....... . .+.U U U +.+. .............................u.u.u.u.u.u...........W W W u.u.W ..u.u.u.a.a.h.h.h.k.g.g.g.g.g.c.b.b.c.c.c.c.c.c.c.c.c.x.x.Z.Z.Z.S.S.Z.S.S.Z.Z.Z.S.S.S.Z.Z.Z.Z.Z.Z.Z.Z.Z.A.z.z.z.z.z.z.z.z.g.g.h.h.h.h.h.h.i.i.i.i.h.h.a.u.i.i.i.i.a.a.a.u.u.u.u.u.u.u...........I I I I I W W W W W W W W ..........u.u...u.u.u.u.a.a.a.a.a.a.h.h.h.h.k.k.k.k.k.k.k.k.c.c.k.k.k.g.k.k.k.k.k.k.c.c.x.Q.~.Q.x.x.x.x.g.s.u.s.u.u.I R 6.6.s.R 8.E W m k k k k k k p s D Y P F F G L W Q k k W k F s D T K 7.e.q.5.5.5.q.q.q.q.q.q.t.q.q.q.q.q.r.r.r.r.r.r.r.r.y.y.y.y.y.y.r.r.r.r.r.r.r.r.t.t.J.J.J.J.J.J.J.K.K.K.K.K.K.L.`.`.'.'.'.'.&X'.'.%Xb.0.n g t : ; ; O O O O O O O O O O . . O O O O . . . . . . . . . . . . . .                 ",
"% r r r = % > > = % > > > = = = > > r r r r > > > > > > r 1 1 4 3 9 q ^ ^ ^ V q w w 0 0 0 0 0 0 0 0 w w w w w w w w w w z z z q q q z z w w w w w 0 7 7 5 6 6 6 4 4 4 4 2 2 2 2 6 6 6 7 w z V B B B B B B B B B B B B B B B B B C B A C A Z Z A A S U  .W W T I P k L  . .C x h a x C +.C P Y L U #.W U W W Y W ..P W W u.a.f.f.k.k.k.k.k.k.k.k.k.k.k.k.j.f.f.f.f.h.f.f.f.f.u.u.u.u.......+... . . .+.+.I I U U P P P P P P P U U U I I  ...+.+.............u.u.u.u.u.u.u.u.u.u.u.......i.u.a.u...u.u.a.a.h.h.h.g.k.k.g.g.g.c.c.b.b.c.c.c.c.c.c.c.c.x.x.Z.Z.x.x.x.x.S.Q.Q.Q.Q.Q.Q.S.S.Z.Z.Z.Z.Z.Z.Z.Z.A.A.z.z.z.z.z.z.z.g.h.h.h.h.h.h.h.h.h.h.h.h.h.h.a.i.i.i.i.a.a.a.i.u.u.u.u.u.u.u.......E W I I I I I I I I I I I I I  .W W W W W I I ......u.u.u.u.u.u.a.a.h.a.h.h.h.k.k.k.g.k.k.k.k.k.k.k.g.k.g.g.g.c.c.c.Q.~.!.~.~.~.~.~.x.g.s.g.s.a.I I 7.6.s.K p.W E k k j j j G k u k m k E Y F F L F P D k L G Y p k m H 7.e.q.q.q.q.q.q.q.q.q.q.t.q.q.q.q.q.5.5.q.q.y.q.y.q.q.q.q.y.y.y.r.r.r.r.r.r.r.r.r.t.t.J.J.J.J.J.J.J.J.K.K.K.K.K.K.L.'.'.'.'.'.&X&X&X$X_.w.7.n g t : ; O O O O O O O O O O O . . O O . . . . . . . . . . . . .       . .         ",
"% % % % % % = = % % > = % % = = % % % % % r r r r r r > r 1 1 3 5 9 q ^ ^ ^ q w 0 0 0 0 0 0 0 0 0 0 w w w w w w w w w w z z q q q q z z w w w w 0 0 7 7 4 2 4 4 4 4 2 2 > > > > 2 6 6 7 0 z V B B B B B B B B B B B V B B B B B C B A C A ( Z A A Z U | U T T P L k P ..k x x x C P C C h L Y G Y #.T W E W P #.E P u.a.a.f.h.k.k.k.k.k.k.k.k.k.h.k.k.j.h.f.f.f.f.a.a.a.f.u.u.u.........+...{ U P P P P P P P P P P L L L L P P P P P P U  .+.+...............u.u.u.u.u.f.f.a.a.u.u.u.u.u.a.a.a.u.u.u.a.h.h.h.h.g.g.g.k.g.g.c.b.b.b.c.c.c.c.c.c.c.c.c.c.c.c.x.c.x.x.S.Q.Q.Q.Q.Q.Q.Q.Q.S.Z.Z.Z.Z.Z.Z.A.A.A.z.z.z.z.c.z.z.g.h.g.h.h.h.h.h.h.h.h.h.h.h.h.s.i.i.i.i.a.a.a.i.u.u.u.u.u.u...........W I I I I I I I I I I I I I I I I I I I P I P I W ........W ..u.u.u.u.a.a.a.a.h.h.h.h.g.g.k.k.k.g.g.k.g.g.g.g.c.c.I.~.!.~.~.~.~.~.x.g.s.g.s.s.6.K 6.9.s.6.p.W ..k j s s j L j u k k j P W T F G L P k k F F G D k d J 7.e.q.q.q.5.q.q.q.q.q.q.r.q.q.q.5.5.5.5.5.5.5.5.q.q.q.q.q.y.r.r.r.r.r.y.r.r.r.r.r.r.t.t.t.J.J.J.J.J.J.J.J.J.K.K.K.K.L.`.'.'.'.'.'.&X$X'.%X_.w.7.b g : ; O O O O O O O O O O . . . O . . . . . . . . . .     . .                 ",
"% % % % % % % % % % r r % % % % % % % % % % % % r r r r > 2 4 5 9 w q ^ ^ V z 0 0 0 0 0 0 0 0 0 0 0 0 0 w w w w w w w w w q q q z q q q z z z z w 0 7 8 6 2 2 2 2 2 2 > > > > > > 2 4 5 8 w z V B B B B B B B B B B B B B B B B C B A C A ( Z A A P U U Y T T L U U f.L M x h h a h k S k C L L j #.G U U Y W ..P ..p.f.k.k.k.k.k.k.k.k.k.k.k.k.k.k.h.f.f.h.f.u.u.u............. .U P M +.P P P P P P P L L L L k x x k k k k k k M x L P P { | U  . ... ...........u.u.u.u.u.u.u.u.u.u.u.u.a.a.a.a.u.a.a.h.h.h.k.h.g.g.g.g.g.d.g.b.b.c.c.c.c.c.c.c.c.c.c.x.x.x.x.Z.Z.S.S.S.S.S.S.Q.Q.Q.S.S.S.S.Z.Z.A.z.A.A.A.z.z.z.z.z.z.g.g.g.h.h.h.h.h.h.h.h.s.a.i.u.i.i.i.a.u.u.u.u.u.u.u.u.u.......I I I I I I P P P P P P P P L L L M M M L G G M k M P I I P P P I I I P P I W W u.u.u.a.h.h.h.h.h.g.k.k.g.g.g.g.g.b.c.x.Q.~.!.~.!.!.!.!.Q.x.c.g.g.R s.K 6.0.0.K p.W T k s p p j L s p k m k Y T ..k Y M Y Y D k G W G k D H 7.e.w.q.q.q.q.q.q.q.q.q.q.q.q.5.5.5.5.5.5.5.5.5.5.5.5.5.5.y.r.r.r.r.r.r.r.r.r.r.r.r.r.t.t.t.J.J.J.J.J.J.J.J.K.K.K.K.K.`.`.`.'.'.&X&X&X&X&X'.`._.w.7.b t ; ; O O . . . O O O . O O O O O . . . . . . . .     . .                 ",
"% % % % & & & & % % % % & % % % & & % % % % % % % % % r > 4 5 9 w q ^ ^ ^ V z 0 0 0 0 0 0 0 0 0 0 0 0 0 w w w w w w w w z q w w z q q q z z z z w 0 7 9 5 4 2 2 2 2 2 > > > > > > 2 4 5 8 w z z z z B B B B B B V V z z B B B B C B A C A ( A Z P | { P Y I T T W a.k M M j h h a h x x h C j P M  .M U Y G G ......f.f.k.k.k.k.k.k.k.k.k.k.k.k.k.h.f.a.f.f.u.u......... .I P P P P M k k k k x k k x p p u u u u u u a u u a x k x a x k k P P P U U  . . .............u.u.u.u.u.u.u.u.u.u.a.a.a.a.a.u.u.a.h.h.h.k.k.g.g.g.g.d.g.b.b.c.c.c.c.c.c.c.x.x.x.x.x.x.x.Z.Z.Z.S.S.S.S.Z.Q.Q.Q.Q.Q.Q.Q.S.Z.z.z.A.A.z.z.z.z.z.z.z.g.g.g.h.h.h.h.h.h.h.i.i.i.u.u.i.i.u.u.u.u.u.u.u.u.u.u......... .I I I I P P L P P M k k k k j j j p p j j j f f f k k M M M M L P P P L I W W W W u.u.u.a.h.h.h.h.h.g.g.g.g.g.g.b.c.x.Q.Q.~.~.!.!.!.~.Q.Q.Q.A.k.6.g.K 7.0.6.6.p.W T m s p p j L i j j m m G P L W L L F Q L k L G P m b H 7.e.e.q.q.5.w.q.q.q.q.q.q.q.q.5.5.5.5.5.5.5.5.5.5.5.5.5.q.r.r.r.r.r.r.r.r.r.r.r.r.r.r.r.r.t.t.t.J.J.J.J.J.J.J.J.K.K.K.`.`.`.'.'.'.&X&X&X&X&X'.'.`._.0.K f t ; O O . O O O O . . O O O O . . . . . . . .               .         ",
"% % % % & % & & & & & & % % % % & & & & % % % % % % % > 1 5 9 9 w V ^ ^ ^ V w 0 0 0 0 0 0 0 0 0 0 0 0 0 w w w w w w w w z z w w z z q q q q z z w 0 0 7 8 4 2 2 2 2 > > > > > > > 2 4 5 8 w z z z z V B B B B B V B V V B B B B C B A C A ( A Z { { Y U Y P T E f.s j k M j h h < a h x j k u L L  .L U G P D ..f...f.f.k.k.k.k.k.k.k.k.k.k.h.h.h.f.a.a.a.u....... .I P P L k k x p p u p p x x p p p p u a a u y u u y y u a a u : , y u x k L L P P U U I  . .........u.u.u.u.u.u.u.u.u.u.u.u.a.h.a.a.a.h.h.h.h.h.k.g.g.g.g.d.g.g.b.c.c.c.c.c.c.c.x.x.x.x.x.x.Z.Z.S.S.S.S.S.S.S.Q.~.~.~.~.~.~.Q.S.Z.z.A.z.z.c.z.z.z.g.g.g.g.g.h.h.h.h.h.h.s.i.i.u.u.u.u.u.u.u.u.u.u.u...........W I I I I G M M M k k p u u u u u u u u u u u u u u u u u p p u u u u j k k G L L P P I I I ..u.u.u.a.a.h.h.h.h.g.g.g.b.c.x.P.Q.Q.~.!.!.!.!.!.Q.Q.Q.Q.c.6.d.6.6.0.7.6.p.W T D s p p j L p s k j m k Y G P W L D Y Q m G k L F b H 7.e.e.q.q.w.q.q.q.q.q.q.q.5.q.5.5.q.5.5.5.5.5.5.5.5.5.5.r.r.r.r.r.r.r.r.r.r.r.r.r.r.r.r.r.r.t.t.t.t.J.J.J.J.K.J.J.J.K.`.`.`.'.'.'.'.'.&X&X&X&X&X&X'._.U.9.b t ; O O O O O O O O O O . . . . . . . . . . .                       ",
"& & & & & & & & & & & & & & & & & & & & & & % % % % r 1 4 9 9 w q V ^ V V z 0 0 0 0 0 0 0 0 0 0 0 0 0 0 0 0 w w w w w w w w w w w w w w w w w w w 0 0 7 7 5 4 2 2 2 > > > > > > > 2 4 5 7 w z z z z V B B B B B V B V z x C C x B C A C A ( Z ( Z P P U U I T p.W k s j M j h h a a h j k u i M L  .U L m @.Y ..M.W f.f.k.k.k.k.k.k.k.k.k.k.h.l.h.a.a.u.u.u.....W I P P k k j h h x x x j x x x k x x x h a a a y a u , y u a h a , u u y y u a x k L P P I I I W .. .......u.u.u.u.u.u.u.u.u.u.u.a.h.h.h.a.a.h.h.h.g.g.g.g.g.d.g.g.c.c.c.c.c.c.c.c.x.x.x.x.x.x.x.Z.S.S.Q.Q.Q.S.Q.Q.~.~.~.~.~.~.Q.S.Z.z.z.z.z.z.z.z.g.g.g.g.g.g.h.h.h.h.h.h.s.i.i.u.u.u.u.u.u.u.u.u.u.u.........W I I P L k j g f p u u u u u u u u u u u u u u u u u a a u u u p u u u u u u p j k k k M I I I W E u.u.u.u.i.a.s.s.s.g.b.c.x.P.Q.Q.!.!.!.!.!.~.Q.Q.Q.Q.c.6.b.6.6.s.H 9.a.W I k k p p k M M y M s m s T L D W W k F T G G M m W b H 7.e.e.q.q.w.5.q.q.q.q.q.5.5.5.5.5.q.5.5.5.5.5.5.5.5.5.q.r.r.r.y.r.r.y.y.y.y.y.r.r.r.r.r.r.r.r.r.r.r.t.J.J.J.J.K.K.K.K.K.`.`.'.'.'.'.'.'.&X&X&X&X&X&X&X%XU.7.v t ; O O O O O O O O O . . . . . . . . . . . .                     ",
"& & & & & & & & & & & & & & & & & & & & & & % & % % > 4 5 9 0 w q V V q l w w 0 0 0 0 0 0 0 0 0 0 0 0 0 0 0 0 0 w w w w w w w w w w w w w w w w 0 0 0 0 8 7 6 2 2 2 > > > > > > 2 6 6 7 0 w z z z z B B V V V V z z V V z z z z C A B B Z ( { Z Z S P U U U ..E G m k j M j h h h a h N j h C k U k  .L M ..W ..f.u.f.f.k.k.k.k.k.k.k.k.k.h.l.f.h.a.u......... .U L k k x x k k h x L M x u k k x x x h h x x u , : u , ; y h a u , , h a a a a u u p k L P I  . ...................u.....u.u.u.u.u.a.h.a.a.a.h.h.h.h.g.g.g.g.d.g.g.b.c.c.c.c.c.x.x.x.x.x.x.x.x.x.S.S.S.Q.Q.Q.Q.Q.Q.~.~.~.~.~.~.~.Q.x.z.z.z.z.z.z.z.g.g.g.h.h.h.h.h.g.h.h.s.s.i.u.u.u.u.....................I I W P G k u u y u u y u u u u u u a a a u u a x a a a y x a a y a x x x k p x p p k k j p k M P I I I W 6.u.u.u.u.a.s.s.g.b.c.x.x.Q.Q.~.!.!.!.!.!.~.Q.Q.Q.g.s.b.6.6.0.9.9.s.E I m k p u M M s p j s k s Y L D G P L W k f.Y k p d a.K 7.e.e.e.e.e.w.q.q.q.q.q.q.5.5.q.q.q.5.5.5.5.5.5.q.q.q.q.r.r.q.q.y.y.y.y.q.q.q.q.r.r.r.r.r.r.r.r.r.r.r.t.J.J.J.J.J.J.K.K.K.`.`.`.'.'.'.'.'.'.&X&X&X&X&X&X'._.7.t : ; O O O O O O O O O . . . . . . . . .   . . .               . ",
"& & & & & & & & & & & & & & & & & & & & & & & & % r 2 3 5 9 0 w w q q w w w 0 0 0 0 0 0 0 0 0 0 0 0 0 0 0 0 0 0 w w w w 0 0 0 0 0 0 0 0 w w 0 0 0 0 0 0 9 7 5 6 4 2 2 > > 2 2 2 6 6 7 0 w z z z B B B B B B V V z z z B x x x x C A A A ( } A A Z C L Y Y W j.G G m k k M j h h h a j h j j k k P M U M U ..f.a.f.j.a.k.k.k.k.k.k.k.k.k.k.h.h.a.a.u.u.......P L k j k k M k k x L k x M A y a x u u u u u a u , , : , : : u a u , , , a x x x x a a u p j k P P I W ..........................u.u.u.u.a.a.a.h.h.h.h.h.k.g.g.g.d.g.g.b.c.c.c.c.c.x.c.x.x.x.x.x.v.S.S.Q.Q.Q.Q.Q.Q.Q.Q.~.~.~.~.~.~.~.~.S.x.z.z.z.z.z.z.g.g.h.h.h.g.h.g.h.s.s.i.i.u.u.u.u.6.....................I P M k p y y u u p a u u u t t u u a a u u , u h u u , x x x u x S x P x u u k x k M k k p p f s k M P I I W u.u.u.u.a.s.s.g.c.c.x.I.Q.~.!.!.!.!.!.~.Q.~.Q.c.g.b.6.9.7.7.s.s.u.G m j j m M m j s s s m s L P G D L P p.k ..#.M i p H 9.7.e.e.e.e.e.w.q.q.q.q.q.5.5.5.q.q.q.5.5.5.5.5.5.q.q.q.q.r.r.q.q.q.q.q.q.q.5.5.q.r.r.r.r.r.r.r.r.r.r.r.t.t.J.J.J.J.J.J.J.K.K.K.`.`.'.'.'.'.'.'.&X&X&X&X&X$X%Xw.n t ; O O O O O O O O O . . . . . . . . . .   . .             . . ",
"$ $ & & $ $ $ $ $ $ $ $ $ $ $ $ & & & & & & % % % 1 4 5 9 9 9 0 w w w w 0 0 0 0 0 0 0 0 0 9 0 0 0 0 0 0 0 0 0 0 w 0 0 0 0 0 0 0 0 0 0 0 0 0 0 0 0 0 0 0 7 7 7 7 6 6 4 4 4 6 4 6 7 7 0 l z z V V B B B B V B V V z z V B B C C C A / / / ( ( C A A C L L U p.E G D m k k M k h h x h h a a h h h M M L M W  .f.k.h.h.h.k.k.k.k.k.k.k.k.h.l.f.h.a.u.u.....W P k k x x k S P Z M A k P x x a k : , : : : , , u a , , : , : , u u , , , a a a a h h h x j p p p j k M P I W W ..E ......W ..E E ....u.u.u.u.a.a.h.h.h.k.k.k.g.g.g.g.g.g.b.c.x.c.c.c.x.c.x.x.x.x.S.S.Q.Q.~.~.~.Q.Q.Q.~.~.~.~.~.~.~.!.~.~.~.S.Z.Z.z.z.z.z.z.g.g.h.h.g.g.h.s.s.i.i.u.u.u.u.6.6.....W W W W W W ..I P M p u y u u a h h a a u y y y u u u y y , , u a u , ; a x y h A x P k y u x { L P P k k x p p p f k c G I I ..u.u.u.u.a.s.g.c.c.x.I.Q.~.!.!.!.!.!.~.~.~.~.Q.c.c.6.s.7.7.d.a.p.m D s j L M k k j p p m s D Y G m G L P #.Y p.L i g D 7.w.e.e.e.e.e.e.5.q.q.q.5.5.5.5.q.q.q.q.5.5.5.5.5.q.q.5.q.y.y.q.q.q.5.5.5.q.5.5.q.r.r.r.t.t.t.r.r.r.r.r.r.t.t.t.J.t.t.J.J.K.K.K.K.`.`.'.'.'.'.'.'.&X&X&X&X$X$X_.7.g ; + O O O O O O O O O . . . . . . . . . . . .             .   ",
"$ $ $ & $ $ $ $ $ $ $ $ $ $ $ $ & & & & & & % % > 2 3 5 9 9 9 0 w 0 0 0 0 0 0 0 0 0 0 0 0 9 9 0 0 0 0 0 0 0 0 0 0 0 0 0 0 0 0 0 0 0 0 0 0 0 0 0 0 0 0 0 0 7 9 7 7 5 5 5 5 6 6 8 7 w l z z V V V B B B B V V V V z z V B B C B B A / / ( Z C A Z A C L Y W p.I m D D m k M k h h x x h u u h a h k k k M L  ...M.k.f.k.k.k.k.k.k.k.k.k.h.h.h.a.u.u...W W M k k k k k k A Z Z { { x a x h u , , , , , , , < h h , , : , , , a u , , , u , , y y y u a x h p a u u j k G I I I W W W W W W W W W E ..u.u.u.u.a.a.h.h.h.k.k.g.g.g.g.g.g.b.c.x.x.x.x.x.x.x.x.v.v.S.Q.Q.Q.~.~.Q.Q.~.~.~.~.~.~.~.~.~.!.!.!.~.~.Q.S.Z.A.z.z.z.z.g.g.h.g.h.s.s.i.i.u.u.u.u.6.6.W W W W W W W I I I P k f u u p j h h h h a h u : , y u u y , , , : , u , : ; ; : , a : , , : x x A +.P P P L k k k k k k j j k c I I ....u.u.u.s.s.b.b.c.x.I.Q.~.!.!.!.!.~.~.~.~.!.c.c.6.9.7.6.s.a.a.k D j s Y G M M k i i m k m T F m D p G f.p.p.G s d d 7.0.w.w.e.e.e.e.w.q.q.q.5.5.5.5.q.q.q.q.5.5.5.5.5.q.q.5.q.y.y.q.q.q.5.5.5.q.5.5.5.q.r.r.t.t.t.r.r.r.r.r.r.r.t.t.t.t.t.J.J.J.K.K.K.K.`.`.`.'.'.'.'.'.&X&X&X'.$X_.7.g ; ; O O O O O O O O O . . . . . . . . .   . .                 ",
"$ $ & & $ $ $ $ $ $ $ $ $ $ $ $ $ $ & & & & % r 2 3 5 5 9 9 9 9 0 0 0 0 0 0 0 0 w 0 0 0 9 9 9 0 0 0 0 0 0 0 0 0 w 0 0 0 0 0 0 0 0 0 0 0 0 0 0 0 0 0 0 0 0 0 7 7 7 7 7 7 7 7 7 7 w z z V B B B B V V V V B B B B B B C B C B A A A A Z Z A A A C N M L Y a.W T G D D k k M N h h k j h u a k a x x x j M P  .I M.A.k.k.M.k.k.k.k.k.k.h.h.f.f.a.p.u.W I G k k k k P P C C Z A x x < , ; ; > > ; ; , u a a < x , , : ; ; : , ; ; : : , , , , , , , y u a a j j p u u u k M P I I I W  .W W W W W ......u.u.u.u.h.h.h.h.h.g.g.g.g.g.g.g.b.c.c.x.x.x.x.v.v.v.v.S.Q.Q.Q.~.~.~.Q.Q.~.!.!.~.!.!.!.!.!.!.!.!.!.~.~.Q.S.Z.Z.z.z.z.g.g.g.h.h.s.s.a.u.u.u.u.6.W W W W W W W W W I I M k u u u f p p h h h h a a y : , , , , , , , , , h a : u , , , ; ; : : , ; y x { { { { P u u p x x x x k k k k k k I ....u.u.u.s.g.b.c.x.P.Q.Q.~.!.!.!.!.~.~.~.!.~.b.6.9.6.s.s.p.a.D d k k j L L G p p i m k m P F m D D G W G k.Y s f g n 7.w.w.e.e.e.e.w.5.q.5.5.5.5.5.q.q.q.q.5.5.5.5.5.5.5.5.5.y.q.y.q.q.q.q.5.5.5.5.5.q.r.r.t.r.r.r.r.r.y.y.y.r.r.r.r.r.r.t.J.J.J.J.K.K.K.K.`.`.'.'.'.'.'.'.'.&X$X_.0.d : ; O O O O O O O . . . . . . . . . . . .     . .             ",
"$ $ & & $ $ $ $ $ $ $ $ $ $ # # $ $ & $ & % % 1 3 3 5 5 9 9 9 9 0 0 0 0 w w 0 0 0 0 0 0 9 9 9 9 0 9 9 0 9 9 0 0 9 0 0 0 0 0 0 0 0 0 0 0 0 0 0 0 0 0 0 0 0 0 0 7 7 7 w w w w z z z z V V B B B B V V V V B B B C B A A B B C A A A A Z A A A C M m G Q W a.E W G D D k k M M h x k j h a h h a x x j j M P  .I W.W.M.k.k.k.k.k.k.k.k.h.l.f.a.p.u.E I I G k k P P k h A x h 6 , , , ; ; : , , , , < h x h a , , ; ; : : ; : : : : : : : : , , , , y y u u p k x p u u f j k P I I I I W W W W W W W ....u.u.u.i.h.h.h.h.g.g.g.g.g.g.g.b.c.c.x.x.x.v.v.S.S.Q.Q.Q.Q.Q.~.~.~.~.~.!.!.!.!.!.!.}.}.|.}.}.!.!.!.~.~.Q.S.Z.z.z.z.g.g.g.h.s.s.s.i.u.u.u.u.W W W W I I W W I I I M f u g f j p f j p h h h a y : ; : , , , , : : : , , , u u , , ; ; : : : , : ; : a a a a , a a x x k k x k k k k f k k G W u.u.u.s.g.b.b.c.x.I.Q.~.!.!.!.(.(.!.~.!.Q.d.6.9.9.d.s.s.a.I k k G s M D #.D p i L k m L P D D F k I T k f.s g d n 7.w.w.q.w.e.w.w.q.q.5.5.5.5.5.q.q.q.q.5.5.5.5.5.5.5.5.5.q.q.y.q.q.q.q.5.5.5.5.5.q.r.r.t.r.r.r.r.r.y.5.5.q.q.r.r.r.r.t.t.J.J.J.J.J.J.K.K.`.'.'.'.'.'.'.'.&X'.`.0.v : ; O O O O O O O . . . . . . . . . . . .       . .           ",
"# # # # # # # # $ # # # # # # # # # & & & % 1 4 3 3 5 9 9 9 9 9 0 0 w w w w 0 0 0 0 0 0 9 9 8 8 8 8 8 8 9 9 9 9 9 9 9 7 0 0 0 0 0 0 0 0 0 0 7 7 0 0 7 7 7 0 0 0 w w l z z z z z V V B V B B B B B B B B B B B C B A B B C C C C A A A A C S Y T T R ! a.l.6.E F G D m k M M k N k j h a a a a x x x k M G W T W.^.A.k.k.k.k.k.k.k.k.h.l.f.a.p...I P G M k k k A x x , , , , , , > , , , ; > , 6 x x x h ; ; : *., ; : : , , , , , , : , , , , , , , y y u p x k j f g u f k P I P I I I W W W W W W W ..u.u.i.a.h.h.h.g.g.g.g.g.g.g.b.c.x.x.x.x.v.S.Q.Q.Q.Q.Q.~.~.~.~.~.!.!.].].].].].!.!.!.!.!.!.!.!.!.!.~.~.Q.S.Z.z.z.z.g.g.h.s.s.a.i.u.u.u.6.W W W W W W I I I I c f u u j k k j j j h p p u u y : : : : : : : : : : , ; ; , , , , : : : : : , , : ; ; ; ; ; u u y k x x x x k k k k j j k k G I 6.u.i.s.g.b.c.x.I.Q.Q.~.!.!.(.(.!.!.!.I.s.6.0.0.b.s.k.a...k G L p M s L ..#.p k M G D T G k F k I I G #.Y G D H 7.w.w.q.w.q.w.q.5.5.5.5.5.5.5.q.q.q.q.5.5.5.5.5.5.5.q.q.q.q.q.q.q.5.5.5.5.5.5.5.y.r.r.t.t.t.r.r.r.q.5.5.5.5.5.r.r.r.t.t.t.J.J.J.J.J.J.K.K.`.'.'.'.'.'.'.'.'.'.w.b t ; O O O O O O O O . . . . . . . . . . .     . . . .         ",
"# # # # # # # # # # # # # # # # # # $ & & > 2 3 3 3 5 5 9 9 9 9 0 0 0 w w w 0 0 0 0 0 0 9 8 8 5 8 5 8 5 5 5 8 8 9 9 7 7 0 0 0 0 0 0 0 0 0 0 0 0 0 0 7 7 7 0 w w w w z z z z V V V V V V V B B B V V B B B B B B B B B B z z C C A A A C Y W ! p.9.l.d.l.l.8.E F G D m k M M N N j h a u a a h h x x x L k  .T W./.A.k.k.k.k.k.k.k.k.h.l.a.a.u.W I P M k k x h u < , , , , , , , , , , , 6 h x A A Z x < , , , h x , ; , , , , , ; ; ; , , , , , , , : y y a p k k j f u u f k G P P P I I I I I I I W W E u.u.i.a.h.h.h.g.g.g.g.g.g.b.c.x.v.x.x.v.Q.Q.Q.Q.Q.~.~.~.~.~.!.!.!.].}.}.}.}.}.}.}.].!.}.}.!.!.!.!.~.~.Q.Z.A.z.z.g.h.h.s.s.i.u.u.u.u.6.W W W W W W I I I M f t f f j k k k k k x j u y t t : : : : : ; : ; ; ; ; ; ; : : , , : : : : : , a u , ; ; ; ; ; ; , y h h a h x k k k j j k k m G W 6.u.s.s.b.c.c.x.Q.Q.~.!.!.(.(.!.!. Xx.s.9.0.0.c.d.c.a.p.D L G s M s M s m p...M Y D W L k D G W G k P L k J K 7.e.w.w.w.w.w.q.w.q.q.5.5.e.5.q.q.q.q.5.5.5.5.5.5.5.5.q.q.5.q.q.5.5.5.5.5.5.5.5.y.r.r.t.t.t.r.r.r.q.5.5.5.5.5.5.r.r.r.t.t.t.J.J.J.J.J.J.K.K.`.'.'.'.'.'.'.'.'.w.n g ; O O O O O O . O . . . . . . . . . . .     . . . .         ",
"# # # # * # # # # # # # # # $ $ # # $ % % 2 4 3 3 3 5 5 5 9 9 9 0 0 0 w w w 0 0 0 0 0 9 9 9 9 5 5 5 5 5 5 5 5 5 5 8 9 0 0 0 0 0 0 0 0 0 0 0 0 0 7 7 7 7 7 7 0 0 w w l l l l l l z z z z l l l l V V V V B B B B B z B B z z z z Z Y N L T R 0.P.!.U.P.K c.s.E P G D M M M L M k h h a u u a h a x x x L P ..W W./.W.A.k.k.W.M.M.k.k.h.l.a.a.....W I L k u u , , , , , , , ; ; , , , h x A Z Z Z { Z x ; , ; ; , < , , ; ; : : ; ; ; ; ; , , , , : , : , y p u j k k k j p u u f P P I I I I I I I I W W ..u.u.i.a.s.s.h.g.g.g.g.g.b.c.x.x.v.v.v.S.Q.Q.Q.Q.Q.~.~.~.~.[.].].].}.}.}.}.|.|.|.}.}.}.].}.!.!.!.!.!.~.Q.S.Z.z.z.g.g.h.s.s.i.u.u.u.u.W I I I I I I I I k f u g k k k k k k k k p u u y , : : : : : ; ; ; ; ; ; ; ; ; ; : , , , , , , , , h A h : : , , : ; ; ; u h x k k L M k k k k k d G I R 6.i.s.g.b.c.P.~.~.!.!.!.{.{.!.!.!.s.6.s.0.b.x.b.g.u...F E s s j s G s p i k W U T W P G s E G F G F W D b J 7.e.w.e.w.w.w.w.w.q.q.q.5.5.5.q.q.q.q.q.q.q.5.5.q.q.q.q.5.q.5.5.5.5.5.5.5.q.q.q.q.r.r.t.t.t.r.r.r.q.5.5.5.5.5.5.5.q.r.r.r.t.t.J.J.J.J.J.J.K.`.`.'.'.'.'.'.'.'.w.H g ; O O O O O O O O O . . . . . . . . . . . . . . . . .       ",
"# # # # * * * * * * # # # # $ # # # & & > 4 3 3 3 3 5 5 5 5 9 9 8 0 7 0 0 0 0 0 0 0 9 9 9 5 5 5 5 5 3 3 5 5 5 3 3 5 8 0 0 0 0 0 0 0 0 0 0 0 0 0 7 7 7 7 7 7 0 0 w w l l l l z z l l l z l l l l z z B V B z B z B z B B B B x C A Y M W E 0.U..X.XU.U.0.d.a.E F G D M L L L M k h h a u a a x a x x x L  .W I (./.(.(.k.k.A.A.M.k.k.h.f.a.u...E  .P L k u u , , , , , , , ; , < x C Z { Z { +.*.{ +.x < < , , < < , , ; ; : : ; ; , ; , , ; , , , , , , y u t u p k k k k j f g k P P I I I I I I W W ....u.u.i.a.h.s.h.g.g.g.g.g.b.c.x.v.v.S.Q.Q.Q.~.~.~.~.~.~.~.[.].].}.}.}.}.}.|. X X X|.|.}.}.}.}.].}.].!.!.~.Q.Z.z.z.g.g.h.s.s.i.u.u.u...W I I I I I I P G k g p f k k k k k f j j t u p u y , , y , : ; ; ; ; ; ; ; ; ; ; ; , , , , , , , , h A x h u : ; ; : : : , , u h M x x k L k k p k k c I 6.i.s.s.b.c.I.~.~.!.!.!.{.{.!.!.Q.a.6.b.0.b.c.c.g.p.p.E T p s j s G j s s p p k P W #.T T T G P W P T T D J 7.e.w.w.e.w.w.t.w.w.q.q.q.q.q.q.q.q.q.5.q.q.5.5.5.5.q.q.5.5.5.5.5.5.5.5.5.y.r.q.y.y.r.r.t.t.r.r.r.r.q.5.5.5.5.5.5.5.q.r.r.r.r.t.J.J.J.J.J.J.K.`.`.`.'.'.'.'.'.U.7.g ; O O O O O O O O O . . . . . . . . . . . . . . . .         ",
"# # * * * * * * * * # # # # # $ $ $ & r 2 3 3 3 5 3 5 5 5 5 8 8 8 8 8 8 9 9 9 9 9 9 9 5 5 5 5 5 3 3 3 3 3 3 4 4 4 3 5 8 7 7 0 0 0 0 9 9 9 9 0 9 7 7 7 7 7 7 0 0 w w l l l l z z z z z z l l l l z z z z z x z z x x B C B B B C A { Y p.d.U..X$X{._.b.0.s.9.W P G G M L L L M j h h h a a a h a x x x L W T I ^./.(.(.k.p.W.k.M.j.h.j.a.p.....T P L k p a u , , , , , , , , , h A A A A { { o.&.+.*.*., , < < , , , : ; ; : : , , ; , ; ; , , , , , y y u a : u p x k k k k j j j k L P I I I I I I W ....u.u.u.a.h.s.h.g.g.g.g.b.c.x.x.v.S.Q.Q.Q.~.~.~.~.~.~.~.!.].].|.}.}.|.|.|. X X X X X X|.|.{.}.}.}.}.}.!.~.Q.S.Z.z.z.g.h.s.s.i.u.u.u.E W I I I I I P m k f f k k k k k s p p p f u k k p y y y y , , : ; ; ; ; ; ; ; ; ; ; : , , , , , , , a Z Z P k a , : : : : : : : , , : , u a h k k k f k H 6.6.i.s.b.c.I.~.~.!.!.!. X{.!.!.b.b.s.6.s.s.b.x.s.p.W p.L p s m p G k k j p i u D D P T k G u.W T T F E J H 7.e.w.e.e.w.w.q._.t.q.e.5.q.q.q.q.q.r.r.r.r.r.t.r.r.r.r.r.r.r.r.r.y.q.q.q.q.q.q.q.q.q.r.t.t.r.r.r.r.r.5.5.5.5.5.5.5.5.y.r.r.r.r.t.J.J.J.J.J.K.`.`.`.`.'.'.'.'._.7.g ; ; O O O O O O . . . . . . . . . . . . . . . . . . . .     ",
"* * * * * * * * * * # # # # # $ & & % 1 4 3 3 5 5 3 5 5 5 5 5 5 5 8 5 5 8 8 8 8 8 8 5 5 3 3 3 3 3 3 3 3 3 3 4 4 4 4 3 5 8 7 7 7 9 9 7 7 7 7 7 7 7 7 7 7 7 7 7 0 7 7 w w l l l l l z l l l l l l z z z z z z z z z z x x V V B C A  .E l.!.@X$X$X_._.b.7.9.6.K Q F G M L L L C k h h h a a a h a x x j L I E W W.wX(.^.W.j.P h.k.h.f.f.a.#... .I k h u y , , , , , , , , , , u x ( Z Z Z { { } { | { x u x A A x , , : ; ; : : : , ; , ,X; h x a u u u y u h y u x x x k k k k k k j k P I I I I I W W W ..u.u.u.a.a.s.h.g.g.g.g.b.c.x.x.S.Q.Q.Q.Q.~.~.!.].!.].].].].|.|.|.|. X X X X X X X X X X X|.|.}.|.}.}.}.!.~.Q.Z.z.z.g.g.h.s.i.u.u.u.E W I I I I I G k g k k k k k k k f u p u u k P M p y y u u , , : ; ; ; ; ; ; ; ; ; ; : , , , , , , u a P { | { Z k h , ; : : : ; ; : , y , , u u u u k m c I 6.u.s.b.c.I.~.~.!.!.!.{.{.!.!.P.c.s.6.s.s.b.x.s.a.T p.G i j m p m k m s p s s m F P W T g W G D E G G R H n e.w.w.w.w.5.w.w.t.t.q.q.5.5.q.q.q.q.r.r.r.r.r.r.r.r.r.r.r.r.r.r.r.r.r.y.5.5.q.5.5.q.r.r.t.r.r.r.r.r.5.5.5.5.5.5.5.5.5.y.r.r.r.t.t.J.J.J.J.K.`.`.`.`.'.'.'.'._.7.g ; ; O O O O O O . . . . . . . . . . . .   . . . . . . .     ",
"* * * * * * * * * * * @ # # # $ & & > 4 3 3 3 3 5 3 3 3 5 5 5 5 5 3 3 3 3 5 3 3 5 5 5 5 3 3 3 3 3 3 3 3 3 4 3 4 3 3 5 5 8 8 8 8 8 8 0 0 0 7 7 7 9 9 7 7 9 9 7 7 7 7 0 0 l l l l z z l l l l l l l l l l l l z z z z C C x z z x M ..E k.{.$X$X%X{.U.b.0.9.a.K F F G M L L M M N j j h a a a a a x x k M I ..E W.wX(.(.W.W...j M U ..W Y U L k a p a u , , , , , ; , , , y h x x Z { { | | | | | o.{ h < u *.B.+.a , ; , ; h h ; , a h *.; x M.x a a u y u k k k x x x k k k k k j k k G I I P I I W W W ....u.u.i.a.s.h.g.g.g.g.b.c.x.x.S.Q.Q.~.~.~.!.].].].}.}.|.|.|.|. X X.X.X.X.X.X.X.X.X X X X X X|.|.}.}.}.!.!.Q.S.Z.z.g.h.h.s.i.u.u.u...I W W W I c j j k k k k k k k j p u k L P P P k x y y a k h u , ; ; ; ; ; ; ; > > ,X, a *.x x { u a a { | | | { P x x a , , : , : : : , , , , , , : p j d Q 6.a.s.g.x.Q.Q.Q.].].!.].~.~.].P.b.s.s.s.s.b.~.g.l.W #.G i k k p s k m s p s j k F P E s k W I F p.G F H 7.7.7.w.5.w.5.w.w.5.q.q.q.q.q.5.5.q.q.q.q.q.q.q.y.r.r.r.r.r.r.y.q.y.y.y.q.5.5.5.5.5.5.q.y.r.r.r.t.r.r.r.y.5.5.5.5.5.5.5.5.5.q.r.r.r.t.t.J.J.J.J.J.K.K.K.`.'.'.'.`.w.g t ; O . . O O . O . . . . . . . . . . .     . . .           ",
"* * * * * * * * * * @ @ # # # $ & > 2 4 3 3 3 3 3 3 3 3 3 3 5 5 3 3 4 2 2 4 2 2 4 3 5 5 3 3 3 3 3 3 3 3 3 4 3 3 3 3 5 5 5 5 8 8 8 8 8 8 8 8 9 9 7 7 7 7 7 7 7 7 7 7 7 0 l l l l l l l l l l l l l l l l l l l l l l V V z x x k M W p.P.]..X_._._.U.0.0.6.9.J F F G M L L M M N k j h a a a a a h x k M U W E W. X/.(.W.W.W.p.k p i k j j p a , , , , , , , , , , , , u u h x x P { { | +.+.+.+.o.| x < h x x k C.h u a x h a ; , p a k k x u x a a u u a k k M k x x k k k k j j k k M P I P P I W W W ....u.u.u.a.s.h.g.g.g.g.b.c.x.x.S.Q.Q.~.~.].].].}.|.|.|. X X X X.X.XXXXXXXXXXXXXXXXX X X X X X X X|.|.}.].!.~.Q.Z.A.z.h.h.s.i.u.u.u...W W ..I P k k k k k k k k f p p p x k P P P f...k u a +.*.k x , ; , , , > , 6 h +.| , x | x x Z a a h { +.*.+.| { Z x x a , , : : : : : , , , , , , y u p k I u.h.k.x.W.A.x.Q.~.Q.P.b.P.{.P.d.0.s.s.s.c.Q.g.l.I ..L s j s p s k k s p s j d G P W D t m p.T a.T H H 7.7.e.w.w.5.w.w.w.5.5.q.q.q.q.q.q.q.q.q.q.q.q.q.q.y.q.q.y.q.5.5.5.5.5.5.5.5.5.5.5.5.5.5.q.y.r.r.t.t.t.r.r.y.5.5.5.5.5.5.5.5.5.y.r.r.r.t.t.J.J.J.J.J.K.K.K.'.'.'.`.w.n t ; O O . O O . O . . . . . . . . . . .     . . .           ",
"* * * * * * * * * * @ @ @ @ # $ % 1 4 3 3 3 4 4 3 3 3 3 3 4 4 4 4 4 2 1 1 1 1 > 2 4 3 3 3 3 3 3 5 5 3 3 3 4 4 4 3 3 4 5 5 5 8 8 8 8 8 8 8 8 8 8 7 7 7 7 7 7 7 7 7 7 0 0 l l 0 0 w w 0 0 l l l l l l l l h h l l l l z x x x k k M P #.s.d.b.w.w.b.0.0.9.9.9.J F F G M L L M M N j j h a h h h h h x k M U W E W. X X(.W.A.M.M.j.W M s p u u a a a a a u , , , , , , u a u a x k P | | +.*.*.*.*.*.*.A , h h a , k h a N C j , ; ; ; : x x h x x h a u u x L L P L k x x x p j j j k k k L P P P P I W W W ..u.u.u.a.h.h.g.g.s.g.b.c.x.x.S.Q.Q.~.].].{.{.|.|.|. X X X.X.XXXXXXXXXXXXXXXXXeXqXXXXXXX X X X X X X}.}.!.!.~.Z.A.z.g.h.s.i.u.u.u...W ..u.I G k k k k k j k f p p p j k M P P P  .P k x u k y | L h , a , , , u , h u x a h h h h x h u h | *.*.*.*.+.P S k x u : , : , : : : , , , , , , , a p k P u.j.k.M.k.k.s.6.6.s.P.~.I.x.s.0.s.s.s.Q.x.c.s.I T P k p p s s j k j p s j s D F W T f d m p.h.a.H K 7.0.7.w.w.w.w.e.e.5.5.q.5.5.q.q.q.q.q.q.q.q.q.q.q.q.q.q.q.r.q.q.5.5.5.5.5.5.5.5.5.5.5.5.5.q.y.r.t.t.t.r.r.r.y.5.5.5.5.5.5.5.5.5.y.r.r.r.t.t.J.J.J.J.J.K.K.`.'.`.`._.7.g ; ; O O . O . O . . . . . . . . . . .   . . .             ",
"* * * * * * * * * * @ @ @ # $ & = 2 4 3 3 3 4 4 3 3 4 4 4 4 4 4 2 2 1 = % % = % = 1 2 3 3 3 3 3 5 5 5 3 4 2 2 2 4 4 4 4 5 5 8 8 8 8 8 8 5 5 7 7 5 5 7 7 7 7 7 7 7 7 0 7 l l 0 0 0 0 0 0 7 7 7 7 l l l l h h h l l l x x x x k k M m Q T H J H 7.7.7.7.K 9.9.J F F G D L L M M N j j h a h h h h h x k M T W E W.#X X/.(.W.W.M.k.k.j.W U L M C k x h h a , , , , , y u a u a x k { | +.*.*.@.*.*.*.*.Z , h < , a , h h a h a , : ; ; : , : a y h a a u u x P P { { L k x p p p p f k k k G P P P P I I W ....u.u.u.a.h.h.g.g.s.g.b.c.x.x.S.Q.Q.~.].}.|.|.|.|. X X X.X.XXXXXXXXXXX@X@X@X@XeXeXqXXXXXXX X X X X X|.}.}.!.~.S.Z.z.g.h.s.i.u.u.u.u...u...I M k k k k f f f f j j k k P P P P {  .P k u a a y a x x x h , ; ; , , , x h x h h h h a a y h +.f.j.f.*.*.{ P S k h , , : : , : , , , , , , , , a u u p k L I U P G F 6.g.I.~.~.I.c.s.0.s.0.s.!.c.c.s.G P Y m i p s p s k j p s j s D G T Q i f m F ..a.6.9.n b.e.w.w.w.5.5.5.w.5.5.5.5.5.5.q.q.q.q.q.q.q.q.q.q.r.y.r.r.y.q.q.q.5.q.5.5.5.5.5.5.5.5.5.5.q.r.r.r.t.t.r.r.r.r.q.5.5.5.5.5.5.5.5.r.r.t.t.t.t.J.J.J.J.J.K.K.`.`.`._.7.g : ; O O O O . O . . . . . . . . . . .   . . .             ",
"* * * * * * * * * * * @ # $ = 1 1 2 4 3 3 4 4 4 4 4 4 4 4 4 4 4 2 1 = & & $ & & % 1 2 3 3 3 3 3 5 5 3 3 4 4 4 4 4 4 4 4 5 5 5 5 7 7 5 5 5 5 5 5 5 5 5 5 7 5 7 7 7 7 7 w 0 0 0 0 7 7 7 0 7 7 7 7 l l l 7 7 7 h l l x x x j k M G P F F F F d H K n 7.7.7.9.6.K J F G G L M M L N j j h a a h h h j j k M U T E W.XX X/.!.~.A.k.k.g.f.a...P L k k x h a a u a u u a a a a a a x k P | | +.*.j.j.*.*.o.| A a a h h u u < , , , , , : : : : a a x h a a u h M P { | { P k k k k j p u p k k M P P P P P I W W ..u.u.u.a.h.h.g.g.g.g.b.c.x.v.I.Q.~.].].}.|. X X X.X.X.XXXXXXXXXeXeXeX@X@X@X@XeXeXqXXXXXXX X X X X|.|.}.}.!.~.Q.Z.z.z.g.h.s.i.u.u.u.u.u...P M k k k f p u p f f k k L L P P I P I P k u a h a a a u u u , ; ; ; , , : a a a a a a a a , M *.m.j.j.f.f...P L M x x u : , , , , , , , , , , , u u p u u p k k f W g.g.Q.~. XI.I.I.d.0.0.b.d.~.!.~.l.T F T G p s j p p k j s s s d m L Y W D g f m W F s.9.0.0.w.w.w.w.q.e.5.w.5.5.5.5.5.5.5.5.q.q.q.q.q.5.q.q.q.y.r.r.r.r.r.q.q.y.5.5.5.5.5.5.5.5.5.5.q.y.r.r.r.t.t.t.t.r.r.q.5.5.5.5.5.5.5.5.q.r.r.t.t.t.J.J.J.J.K.`.`.`.`._.0.g : O O O O O O . . . . . . . . . . . . . . . . . . . .     ",
"X X X X X X * * * * @ # $ & = 1 4 4 4 4 4 4 4 4 4 4 4 2 4 4 4 4 2 1 % & $ # $ $ & = 1 3 3 3 3 3 3 3 4 4 4 2 4 4 4 4 4 4 4 4 5 5 5 5 5 5 5 5 5 5 6 6 6 5 5 5 7 7 7 7 7 7 7 7 7 7 7 7 7 7 7 7 7 7 l l 7 7 7 7 h l l x x h M L P W 6.R 6.6.G b H 7.n 7.0.9.0.8.K J F L G G G L L M N j h a a h p h j j k M U Q E Q.XX X{.!.~.A.c.k.s.a.u.W I k j k h u , , , a x x x x x x x h x k P { | ..@.f.j.f.*.*.+.| , h x x C k h u : : , , , , , : a x x h a u a k P P P { P P M k k k k p u u p j k G P P I I I I W ..u.u.u.a.h.h.g.g.g.g.b.c.x.v.I.Q.~.].|. X X|..XXXXXXXXXXXeXeXeXeXeXeX@X@X@X@XeXqXqXXXXXXX X X X|.|.|.}.}.!.~.Q.S.A.z.g.g.s.s.u.i.i.i.u.I P M s f f f u u p k k k k k M P P P P I I P j u h h h a u u u y , : , , , , , a x x a a a a x { f.m.C.j.j.f...U L L k x u , , , , , , u u a a a a a u u u y u f f E A.g.}.|.!. XI.I.I.b.s.d.s.x.I.!.~.s.T F W m s j k i i k j s s s k k G P E F f g d T T p.7.7.0.b.w.e.w.e.e.5.5.5.5.5.5.5.5.5.5.q.q.q.q.q.5.q.q.q.r.y.r.r.r.r.q.q.y.5.5.5.5.5.5.5.5.5.5.q.y.r.r.r.t.t.t.t.t.r.r.q.5.5.5.5.5.5.5.q.r.r.t.t.t.J.J.J.J.J.`.`.`.`._.w.b t ; O O O O O . . . . . . . . . . . . . . .   . . . .     ",
"X X X X X X * * * * @ # & = 1 2 4 4 4 4 4 4 4 4 4 4 2 2 2 2 4 1 2 1 % & # # # # $ % 1 4 3 3 3 3 4 4 4 4 4 2 4 4 2 2 4 4 4 4 6 6 5 5 5 5 5 5 6 6 6 6 6 6 5 6 7 7 6 7 7 7 7 7 7 7 7 7 7 7 7 7 7 7 7 7 7 7 7 7 7 l h x x j k G Q K s.0.0.0.7.7.7.9.0.0.b.0.0.9.R T Q I G G L M M M M k h a a p p h j j k M U P E Q.eX#X X!.~.I.x.c.h.a.u.u.I P L k u , u a x x k k k k k k k x x k P U  ...@.f.f.f.*.*.*.+.A a a Z S N h a u u y u u u , u a x h a a u h L U P P P P L L L p u u u u u p f j k P I I I I W W ..u.u.u.a.h.h.g.g.g.g.b.c.x.v.Q.~.].}. X X.XXXXXXXXXXX@XeXeXeXeXeXeXeXeXeX@XeXeXeXqXqXXXXX X X X|.|.|.}.].!.~.~.Q.S.z.z.g.g.s.s.s.h.h.i...G k p f j f p u u p u p k M P P P P I I I P k a a x x j p u u u y , y y y y u h x k h h h h C *.j.j.m.C.j.j...| P k k p u u u u , , , u a h j j j j s p f k m G a.h.g.Q.].].].|.~.I.x.b.d.b.s.I.~.!.~.l.T G T m s j k i i k j s s s d k m L ..I d g f P W R b.7.7.w.w.w.w.w.e.5.5.5.e.w.5.5.5.5.5.q.q.q.q.r.q.r.q.q.r.r.r.r.r.r.r.r.y.y.q.5.5.5.5.5.5.5.5.q.q.q.r.r.r.t.t.J.t.t.r.y.5.5.5.5.5.5.5.q.q.q.r.t.t.t.J.J.J.J.K.`.`.`._.U.n t ; O O O O O . . . . . . . . . . . . . .         . .     ",
"X X X X X X X * * * # & % 1 2 4 4 4 4 4 4 4 4 4 4 4 2 1 2 4 4 1 2 1 % & # # # # $ & = 1 4 4 4 4 4 4 2 2 2 2 4 4 2 2 4 4 4 4 6 6 5 5 5 6 5 5 6 6 6 6 6 6 5 6 7 7 6 7 7 7 6 6 6 6 6 6 7 7 7 7 7 7 7 7 7 7 7 7 7 l l x h j G H 6.9.b.b.b.b.0.0.0.w.b.U.U.b.0.9.8.R T Q L G L L k M M k j h a h p p h j k M W P E Q.eX@X X{.!.Q.P.c.c.g.s.a.a.T P I P M P | +.L S P M M M S M x k k P U  ...@.f.f.*.*.*.*.*.{ x a x x h h h p a u u u a u a a h a a u a k { | P L M k M L P x p u u p j p f u k P I W I I W W ..u.u.u.a.h.h.g.g.g.b.b.c.x.v.Q.~.].|. X.XXXXX@XeXeXeXeXeXeXeXyXeXeXeXeXeXeXeXeXeXeXqXXXXX X X X|.|.|.}.}.!.~.Q.Q.S.Z.A.z.g.g.h.h.h.h.a...M k f k k M k p u u u u p k k M P P P P P P L k p h k x h u u u u u u u u y x h x x x x x x { *.j.f.m.C.C.j.....P L k p p h j a u u u y , : p j k k G m G I 6.6.a.c.v.Q.[..X{.|.I.I.b.s.d.b.s.c.{.Q.~.l.W F T m s j k i i k j s p s d k m G ..F k k g F E H s.0.0.7.w.e.w.5.e.5.5.5.e.w.5.5.5.5.5.q.q.q.q.q.r.r.q.r.r.r.r.r.r.r.r.r.y.y.q.5.5.5.5.5.5.5.5.q.q.5.y.r.r.t.J.J.t.t.t.r.q.5.5.5.5.5.5.5.q.q.y.r.r.t.t.t.J.J.K.K.`.`.`._.7.g ; O O O O O . . . . . . . . . . . . . .         . .     ",
"X X X X X X o * @ # $ % > 2 2 2 4 2 4 4 2 2 4 4 4 4 2 2 2 2 2 2 2 > % & # # # # $ & = 1 2 2 2 2 4 4 2 2 2 1 2 2 2 2 4 4 4 4 4 4 4 4 4 4 6 6 5 5 5 5 5 5 6 6 6 6 6 6 6 6 6 6 6 6 7 7 7 7 7 7 7 7 7 7 7 7 7 7 l l x x k G H K 7.9.0.w.b.v.v.w.w.w._._.U.b.0.9.8.T T T L G L L k M C N h p p p h h h j k M U P W (.eX@X.X X{.!.Q.I.x.c.g.s.h.a.a........... ...+.+.+.{ L M k M k M P P U  .........@.*.f.f.*.| M x a j N S h a a a u u u a a u y , u x L P L L k k k k x j p p p p f f g g u f M I  .I I I W ..u.u.u.a.h.h.g.g.g.b.b.c.x.I.Q.].|.|..XXXXXeXeXuXuXuXuXuXuXuXuXuXyXeXeXeXeXeXeXeXeXqXXXXX X X X X}.|.|.}.].!.!.~.Q.Q.S.A.z.g.g.g.g.g.i.c f u f f f f f f u u u u u g f k k k M L L P P k p u p p h p u u u u p a u u a j j k x x k P ..f.f.j.m.f.f..... .I L k k j j k h k u y k p u t t t t g F R I 6.s.c.v.[.[.{.{.|.{.{.v.b.d.d.b.d.~.].I.~.l.W P T j s k k i i k k s p p d m m D T W G k g d E 6.6.0.0.e.w.e.w.e.e.5.5.5.5.5.5.q.q.q.q.q.q.q.q.y.y.r.r.r.y.y.y.y.r.y.y.y.r.y.y.q.5.5.5.5.5.5.5.5.5.5.y.r.r.t.t.t.J.t.t.r.y.5.5.5.5.5.e.5.5.q.q.y.r.r.r.t.t.J.J.K.K.`.`._.w.g t ; O O O O O O . . . . . . . . . . . . .               ",
"X X X X X X o * @ # & % > 2 4 4 2 2 4 4 2 2 4 4 4 4 2 2 2 2 2 2 2 > % & $ # # # $ & = 1 2 2 2 2 4 4 4 2 2 1 2 2 2 2 4 4 4 4 4 4 4 4 4 4 6 6 6 5 6 5 5 5 6 6 6 6 6 6 6 6 6 6 6 6 7 7 7 7 7 7 7 7 7 7 7 7 7 7 l l x k M Q 7.n n n 7.7.w.b.v._.w._._._.U.b.7.9.8.T T T L G L L k M C M k j p p h h h j k M I P W /.eX@X@X.X X{.!.~.I.x.c.g.g.h.h.h.a.a.a.a...@...| P M k k k M S L P P L P P U  . .......@.*...{ k x j k M k k h u u u u u u u y y p k L k k k k k x j h p u u u u u u u u g f M I ..W I I W ..u.u.u.a.h.h.g.g.c.c.c.x.v.Q.~.}. X|.XXXXeXeXuXuXuXuXpXpXpXgXgXpXuXuXuXeXeXeXeXeXqXqXXXXX.X X X X|.|.|.}.}.].].!.~.~.~.Z.A.z.g.g.k.k...k f u g g f f f f g g f f f f f k k k k k M M P P k u t u p j p u u p p p a u j k M M h x P ..f.f.j.m.j.f... .W P P L M k k k j j L P k k L k M P I I c G I a.s.b.v.Q.[.[.{.{.|.{.I.I.x.b.b.b.c.!.~.~.~.l.W T I j s k k p p k k j p p s m m D F T I m d d F E 6.0.0.e.w.e.e.e.e.5.5.5.5.q.5.5.5.q.q.q.q.q.y.r.y.r.r.r.y.y.y.y.r.y.y.y.r.y.y.y.y.y.5.5.5.5.5.5.5.5.y.r.r.r.t.t.J.t.t.t.r.q.5.5.5.5.e.e.5.5.q.q.q.q.r.r.t.J.J.J.K.`.`._.w.n t ; O O O O O O . . . . . . . . . . . .                 ",
"X X X X X X * @ $ $ % 1 2 2 4 4 2 2 2 2 2 2 2 2 2 2 2 > 2 2 2 2 2 > % & $ $ $ & & % = 1 2 2 2 2 4 4 2 2 2 1 2 2 2 2 4 4 4 4 4 4 4 2 4 4 6 6 6 6 6 6 5 5 6 6 6 6 6 6 6 6 6 6 6 6 7 7 7 7 7 7 7 7 7 7 7 7 7 7 l x k k F 6.7.7.n n n 7.0.w.v._.v._._._.w.0.7.6.8.T T T L G L L k N M M N j p p h h j j k G P I E  XeX@X@X.X.X.X{.!.~.Q.x.c.z.k.k.g.k.h.j.j.f.f.@.U L P  . .| P M k L P P P P P U +.P ..j.M.@... .P x h a u u u u u u u u u u p p j k k L M k k k k k k j j p p p p f f f f f k M I  ...W W W ..u.u.u.a.a.h.g.g.c.c.c.x.I.~.]. XXXXXeXeXyXuXgXiXiXiXsXsXsXsXsXiXgXpXuXuXeXeXeXeXeXqXqXXXXXXX X X X X X|.}.}.}.}.!.~.~.S.Z.z.c.z.k.k.u.G G k k k k k k k k k k k k k k k M M M M M M P P P k u t t u p u u u a p j h p p j k h L ....@.f.f.f.f...I I P P P L G M k k k f f G W P I I I I P G H R 6.6.s.c.v.~.[.[.{.}.|.{.I.I.I.x.b.b.~.!.I.!.~.k.W W L k p M k s s j M k s p p k m m G T W G D d k J 6.d.0.7.w.w.e.e.e.5.5.5.q.q.q.5.q.q.q.q.q.y.r.r.r.r.r.r.y.r.r.r.r.r.y.y.y.y.y.y.y.y.y.5.5.5.5.5.5.5.y.y.r.r.t.t.J.J.t.t.t.r.5.5.5.5.e.5.5.5.5.q.q.q.q.r.r.t.J.J.J.`.`.`.U.7.t ; O O O O O O . . . . . . . . . . . .         . .     ",
"X X X X X X o # & & = 2 2 2 2 2 2 2 2 2 2 2 2 > 2 2 > > 2 2 2 2 2 > % % & & & & & % = > 1 2 2 2 2 2 2 1 1 1 > > > > 2 2 2 2 4 4 2 2 4 4 4 4 6 6 6 6 6 6 6 6 6 6 6 6 6 6 6 6 6 6 6 6 6 6 7 6 6 7 7 7 7 7 7 7 h x k G K s.0.7.7.n n 7.7.0.b.U.v._._.U.7.K H K 6.K T T F G L L k N N M M k j p h h j j k G L L E  XeX@X@X@X.X.X X{.].!.Q.v.x.z.x.x.z.k.k.k.k.j.a. ... .U P L P P U P P P P P P I  . . .....u..... .P L k x x k p u u u u a j k k M M L P P P P L L M M k k k k k k j j j j k M G I I  . .W W ..u.u.u.a.a.h.g.c.c.x.x.x.Q.!.]..X@X@XyXuXuXgXsXfXfXfXfXfXfXfXfXsXiXgXpXuXuXeXeXeXeXeXqXXXXXXXqX X X X X|. X}.}.}.!.!.Q.Q.Z.z.c.c.z.k.u.W E I M M M M c M c k k k k k k M G P P I I I I P P P  .P k j p p u u p j k k k k k M M  .................I I P P L G G G M c M c f W a.u.E h.k.k.z.z.g.u.6.i.b.c.S.[.].[.{.|..X].{.x.I.P.b.b.{. XI.!.W.k.T W G k p L s s s j M M s p f d k k D F W P F k d D 9.b.0.0.w.w.e.e.5.5.5.5.q.q.5.5.q.q.q.q.q.y.r.r.r.r.r.r.r.r.r.r.r.r.r.y.y.y.y.y.y.y.y.y.5.5.5.5.5.5.5.y.r.r.r.t.t.t.t.t.t.r.5.5.5.5.e.e.e.5.5.5.5.5.5.q.r.t.t.J.J.`.`.`._.7.g : O O O O O O . . . . . . . . . . . . .       . .     ",
". . . X X o # $ & = > 1 1 2 2 2 2 2 2 2 2 1 > > > > > > 2 > > > 1 1 = % = & % % % % > > 1 1 1 1 1 1 2 1 1 1 > > > > > > 2 2 2 2 2 2 2 2 2 2 6 6 4 6 6 6 6 6 6 6 6 6 6 6 6 6 6 6 6 6 6 6 6 6 6 6 6 6 6 6 7 7 h x k H 6.s.0.7.7.n n n 7.7.b._.v.U.b.0.K H H K 6.K T W F G L M k k N M M k j p p h j j k L L L u. XeXeX@X@X.X|.|.|.{.].~.Q.Q.Q.Q.Q.A.A.x.W.k.h.h.a.u.u..... . .......u.P I I I ......f.u...u...u.............+.P U P P P P P P L M +.....u.u.u.....I I P P P G M k k k k k M G P I ..........u.u.u.a.a.h.g.k.c.c.c.x.v.Q.!.{..X@XeXuXiXgXsXfXfXfXfXfXfXfXfXfXdXfXsXiXpXuXyXyXeXeXqXqXqXXXXXqXXXXXXX X X}.}.}.}.}.!.~.Q.Z.x.z.c.c.k.g.a.u.u.I I I P P G P P G P I I I I I I I I ..u.............I ..u.p... . ...f.f.p.f.f...u.....f.a.....I ..I I ....I I P I P W I P c c I a.k.s.s.k.A.A.z.z.z.c.x.x.Q.[.[.}.|..X.XXX].{.~.|.I.b.P. X XQ. X/.k.I T G k j M s p s s k L s p f s d k F I F c F D G G 9.7.v.0.0.w.e.w.w.5.5.5.q.q.5.5.q.q.q.q.y.y.r.r.r.r.r.r.y.r.r.r.r.r.y.y.y.y.y.y.r.r.y.y.y.5.5.5.5.5.5.q.y.r.r.t.t.t.t.t.t.r.q.5.5.5.5.e.e.e.e.e.5.5.5.5.r.r.t.J.J.`.`.`._.w.b t ; O O O O O O . . . . . . . . . . .         . .     ",
". . . X * # $ & % = > > 1 1 1 1 1 1 1 1 1 1 > > > > > > > > > > 1 1 = % = = = % % % > > > 1 1 1 1 1 1 1 1 1 > > > > > > 2 2 2 2 > > 2 2 > > 2 2 2 2 4 4 6 6 6 6 6 6 6 6 6 6 6 6 6 6 6 6 6 6 6 6 6 6 6 6 7 7 h x G 6.s.s.0.7.7.K H n 7.9.b.U.b.0.9.H n H Q K 6.K T T G G G L k k N M M k j p h h h j k L L L u. XeXeX+X+X@X.X|.|.|.{.].].~.~.~.Q.Q.Q.Q.W.x.A.f.h.h.h.a.a.u.u.u.u.....P I ..I ......u.W a.u...W I W I ..a.u...I k L P I +. . . .I ....u.u.u.u.u.....I I I I I I G M P M M G I P I ........u.u.u.a.h.h.h.k.c.c.c.c.x.I.~.].|.XXeXuXgXsXfXfXfXfXfXfXfXfXfXfXfXfXdXfXsXiXpXuXyXeXeXqXqXqXXXXXXXXXXXXX X X}.}.}.}.}.!.~.~.Q.Z.x.z.z.g.g.s.u.6.W I I I I I P P I I ..........u.u.u.........u.u.P I u...h...u.u.a.a.a.f.j.j.f...h.M...u.u.h.u.I I u.u.I I W ....W I Q I I I I R a.k.g.s.x.Z.Q.S.S.S.Q.S.~.[.[.}..X.XoXoXXX|.].|.|.I.d.I.|. X~.wX(.W.F T P s G k s p p s j L s s s d k k F I F c G Q D H 7.d.v.0.0.w.e.w.w.w.5.5.q.q.q.5.q.q.q.q.y.y.r.y.r.r.r.r.y.r.r.r.r.r.y.y.y.y.y.y.r.r.y.y.y.5.5.5.5.5.5.5.y.r.r.r.t.t.t.t.t.r.r.5.5.5.5.5.e.e.e.e.5.5.5.5.q.r.t.t.J.K.`.`.`.w.7.g ; O O O O O . . . . . . . . . . . .         . .     ",
". . . X # $ & = > = > > 1 1 1 1 1 1 > > 1 1 > > > > > > > > > > > > > > = = % = % = = > > > > > 1 1 1 1 1 1 1 1 1 1 > > 2 2 2 2 2 2 2 2 > > 2 2 4 4 4 4 6 6 6 6 6 6 6 6 6 6 6 6 6 6 6 6 6 6 6 6 6 6 6 6 7 7 h h F 6.b.s.7.7.K K H 7.7.0.b.U.0.7.H b H Q H K R J J J G G L L M k m M M k j p p p j x M L L L .. XeXeX+X+X@X+X.X|.{.{.{.].].!.].!.!.~.~.~.A.W.h.k.M.k.k.a.a.u.f.h.u.u.I I ..........I u.W W I I I I I ..u.u. .I P I I  .........u.u.u.u.u.i.u.u.u..... . .W I I I P P P P P I I ..u.u.u.u.u.u.a.h.a.h.k.k.z.c.c.x.v.~.].|.XXeXyXsXfXfXfXfXfXfXzXzXfXfXfXzXfXfXfXfXfXfXiXuXyXeXeXeXXXXXqXXXqXXXXXXX X|.|.}.}.}.}.}.!.~.~.S.x.x.x.c.g.s.i.6.6.6.I I W W I I I I u.u.u.u.u.u.u.u.u.......u.u...I M u...h.I ..W W ......h.h.I g.g.u.A.u.i.i.u.u.....u.u.u.i.i.i.u.I I E u.u.6.s.c.c.c.Q.!.!.!.!.].].].].}.|..X.XoXoXoXXX.X[..X|.I.b.]. X@X~.eX~.A.W T I j L k s s p p j L s s s d d d F Q H c m T G G K b.b.0.w.e.w.w.w.q.w.q.q.q.q.5.q.q.q.q.y.r.r.r.r.r.r.r.y.y.r.r.r.r.r.y.r.r.r.r.y.y.y.y.y.5.5.5.5.5.5.5.5.r.r.r.t.t.t.t.t.t.r.q.5.5.5.5.5.5.5.5.5.5.5.5.5.r.r.t.J.J.K.`.'._.0.g y - O O O O O . . . . . . . . . . . .       . .     ",
". . X o $ & % > > = = = > > > > = = = = = = > > > > > % % % = = = = = > = = % = % = = = > > > > > > 1 1 1 1 1 1 > > > > > > 2 2 > > > > > > 2 2 2 4 4 4 6 6 6 6 2 2 2 2 6 6 6 6 6 6 6 6 6 6 6 6 6 6 6 6 7 h h j I s.b.s.7.7.K K K 6.7.s.c.b.7.b b G H G b Q K Q J J G G L G M k m M M k j p p p j x M M L G u. XyXeX+X+X+X+X@X.X|.|.{.].].].].].!.~.!.!.Q.x.x.k.A.A.g.h.i.a.h.h.f.f...u...........u.u.F I I I I G u.u.......I I I I ........u.u.i.f.f.f.f.u.u.u.............W I I I P I I I I ..u.u.u.u.u.a.h.a.h.k.k.k.z.c.x.x.Q.].{.XX@XeXiXfXfXfXfXnXnXnXnXnXnXnXnXnXnXnXfXfXfXfXsXpXuXeXeXeXXXXXXXXXXXXXXXXX X|.}.}.}.}.}.].!.~.~.S.S.Z.Z.x.g.s.i.6.6.6.6.I W W ..u.I I I I ..u.u.u.u.u.u.u.u.u...I I P I u...u.I ..P I ..u.I ..u.h.u.h.i...h.u.u.h.u.u.u.u.i.i.i.u.h.g.u.u.6.i.i.6.s.c.c.v.~.}.}.}.|.|.|.|.|.|..XoXoXoXoXoXXX{.XX.X{.I.b.{.@X@XQ.XXQ.k.a.P P L k D j s p p s L k s s d d d F Q H D c D T G 7.b.0.b.w.e.w.w.5.w.w.q.q.q.q.q.q.q.q.q.r.r.r.r.r.r.r.r.y.y.r.r.r.r.r.y.r.r.r.r.y.r.y.y.y.5.5.5.5.5.5.5.5.y.r.r.t.t.t.t.t.t.r.r.q.5.5.5.5.5.5.5.5.5.5.5.5.y.r.t.J.J.K.`.'._.w.n u ; O O O O O O . . . . . . . . . . .       . .     ",
"X X * # & % = = > = > > = = > > = % % % > > = = % % > > = = = = = = = = = = = = = = % % % = > > > > 1 1 1 1 > > > > > > > > > > > > > > > > 2 2 2 2 4 6 6 6 2 2 2 2 2 2 6 6 6 6 6 6 6 6 6 6 6 6 6 6 6 6 h h h k 6.s.s.7.H n n H K 6.9.d.0.K n G H F F G Q R 8.K J J G G L G M m N M M k j p h h x x M k G G u.wXyXyX+X+X+X@X@X@X.X|.{.{.].].].].!.~.~.!.~.A.W.z.z.z.z.k.k.g.h.h.h.h.h.h.u.u.u.....u.u.I I W W W ............I I I ..........u.u.i.i.a.a.u.u.u.u.u.u...........W W I I I I W ..u.u.a.a.u.u.a.a.h.h.h.g.k.z.x.S.Q.!.]. XXXeXuXdXfXnXnXnXnXnXnXnXnXzXzXzXzXnXnXnXzXfXfXsXgXuXyXyXeXqXXXqXoXXXoXXXoX|.}.}.].].}.].].[.~.Q.Q.S.S.S.S.z.g.s.i.6.6.6.W W W ..u...I I I I ....u.u.u.u.u.u.u.......I I ......I I I I ......u.u.u.i.i.i.i.I h...h...u.h.u.h.h.g.M.A.z.h.g.i.u.s.s.s.c.x.v.~.].|.|.|..X.X.X.X.XoXoX+X+XoX.XXXXX.X.X{.I.].{.+X!.{. X~.l.f.T Y L s L k s p i s m G s s d d d D P F G v D J K 7.0.0.[.0.e.w.w.w.q.q.q.q.q.q.q.q.q.y.y.y.y.r.r.q.q.r.r.r.r.r.r.r.r.r.r.r.r.r.r.r.r.r.y.y.y.q.q.5.5.5.5.5.q.r.r.r.t.t.t.t.t.t.r.y.q.5.5.5.5.5.5.5.5.5.5.5.y.r.t.J.J.K.K.'.`.U.7.g ; O O . O O O . . O . . . . . . . . .             ",
"X * @ & % % % % = = = = % % = % = % % % = = = = % % % % = = = = = = = = = = = = = = = % % = > > = = 1 1 1 1 > > > > > > > > > > > > > > > > > > 2 2 2 2 2 2 > > > > > > , > , > 2 2 6 6 6 6 6 6 6 6 6 < 7 h h M K 6.7.H c c n J H 7.6.9.7.b H H H H J J K 8.8.8.K J F G G G m m N M M k j j j h x x M k G c u.wXyXyX+X+X+X+X@X@X.X.X{.{.].{.].].~.~.~.~.Q.A.Z.c.z.z.z.z.A.k.g.h.h.h.h.h.h.u.u...u.u.u.......................................u.u.u.u.u.u.u.u.u.u.u.u.............W W I I W ....a.a.a.a.a.a.h.h.h.h.g.k.c.x.Z.S.Q.]. XXXXXuXiXfXzXnXnXnXnXnXnXnXnXzXnXzXzXnXnXnXnXfXfXfXsXgXuXeXeXeXqXqXoXXXXXXXoX|.|.}.].].}.].].].~.~.Q.S.S.Q.Q.S.z.g.s.u.6.6.R W W W W ......I I I ..u.u.u.u.u.u.u.u.u.u.....u.u.........u.u.u.u.u.u.i.h.h.h.h.i.u.i.h.i.h.A.z.g.h.M.A.A.z.z.g.g.6.s.c.b.c.x.v.Q.~.{.|.{.|..X.XOXOX.X.XoXoXoX.X.XoX+X+X.XI.{.{.@X|. X X~.k.a.W Y L s M M s p i p k L k s d d d m F F H c D Q K 7.0.0.U._.w.w.w.w.q.q.q.q.q.q.q.q.q.y.q.y.y.r.r.q.q.r.r.r.r.r.r.r.r.r.r.r.r.r.r.r.r.r.r.r.r.r.r.q.q.q.q.y.y.y.y.r.r.r.t.t.t.t.r.r.q.q.5.5.5.5.5.5.5.5.5.q.r.t.t.J.J.K.`.'.'._.0.g : ; O O O O O . . O . . . . . . . . .         . . ",
"* @ $ & % % % % = = = = % % % % = = % % = = % = % % % % = = = = = = = = = = = = = = % % % % > > > > > > 1 1 > > > > > > > > > > > > > > > > > > > > > 2 > > > > > > > > > > > > > > 2 2 6 6 6 6 6 6 6 < < a h k H K H c d c D H H 7.6.H H H H H H J R R 9.9.9.9.6.K J F F L M M M M M m k k j j j k L k k d 6.wXyX$X+X+X+X+X@X@X.X.X|.|.{.].].{.~.~.~.~.Q.x.S.x.z.A.A.A.A.z.k.g.h.h.h.h.h.h.u.u.u.h.i.u...u.u.u.u.u.u.....u.u.u.u...u.....u.u.u.u.u.u.u.u.u.u.u.u.u...............W W W ..u.u.a.a.f.a.h.s.h.h.h.g.g.c.x.Z.Q.Q.~.|.XXeXeXuXdXfXnXnXnXnXnXnXnXnXnXnXnXnXnXnXnXnXnXzXfXfXsXsXuXyXeXeXqXqXXXXXoXXXXX.X|.|.}.].}.}.].}.}.].!.~.~.~.~.].S.c.g.i.6.u.6.W W I I I I ....I I I ..u.u.u.u.....u.u.u.u.u.u.u.u.u.u.u.u.i.i.i.i.h.h.h.h.h.h.h.i.M.h.h.A.W.A.z.h.A.A.A.D.A.z.z.i.g.x.c.c.c.x.I.~.].{.|.|.|.OXoXoX+X+XyXyXyXpXuXyX+X+X.X].XX{..X@X X{.(.k.....P m s m m j p i p k F m m d s s d D Q Q D b G K 7.7.w.w.$Xw.w.w.w.q.q.q.q.q.q.q.q.q.y.q.q.q.r.r.r.r.r.r.r.r.r.r.r.r.r.r.r.r.r.r.r.r.r.r.r.r.r.r.r.y.r.r.q.y.y.q.y.r.r.r.t.t.t.t.r.r.q.q.5.5.5.5.5.5.5.y.r.r.t.t.J.J.K.`.'.'._.w.c t ; O O O O O O . . . . . . . . . . .         .   ",
"* # $ % % % % % = = = = % % % % = = & & & % % % % % % % & & = = = = = = = = = = = = % % % % > > > > > > = = > > > > > > > > > > > > > > = = > > > > > > > > > > > > > > > > > > > > 2 2 6 6 6 6 6 6 6 , < < u j c c g g d c c d b 7.7.b K K H H b H 7.9.9.6.9.0.8.K J F F G M m M M M m k k j j j k M k k d E #XyX+X+X+X+X+X@X@X.X.X.X|.{.{.].[.~.~.~.~.Q.x.S.x.A.Z.Z.A.A.A.z.k.k.k.k.k.h.h.h.u.i.a.f.u.u.u.u.u.u.u.u.u...u.u.u.u.u.u.u.u.u.u.u.u.u.u.u.u.u.u.u.u.u.u...................u.u.u.h.h.h.h.h.h.h.h.g.g.z.c.A.S.Q.~.]..XXXeXuXgXfXfXzXnXnXnXnXzXzXzXzXnXnXnXnXnXnXnXnXzXfXfXfXsXsXuXyXeXqXqXXXXXXXXX.X.X.X|.}.}.}.|.}.}.}.}.].!.!.!.!.}.~.Z.c.s.u.u.6.W W W I I I I ....I I ......u.........u.u.u.u.u.u.u.i.a.u.i.s.h.h.h.h.h.g.g.g.h.k.k.k.k.g.g.Z.g.z.g.A.A.z.A.A.Z.z.g.x.c.x.x.c.x.v.Q.].].{.{.{.|.OX|..X.XoX+XyXyXyXyXyXpXoX[.$X{.|.eXXX{.(.k.W ..L k s k k k p i i s L G m k s s f c F Q D b b H 7.7.w.0._.w.w.w.w.q.q.q.q.q.q.q.q.q.y.q.q.q.r.r.r.r.r.r.r.r.r.r.r.r.r.r.r.r.r.r.r.r.t.t.t.r.r.r.r.r.r.r.y.q.q.q.y.r.r.t.t.t.t.t.r.r.r.q.q.q.5.5.5.5.5.r.r.t.t.t.J.J.K.`.`.'.`.U.n g ; O O O O O O . . . . . . .     . . . .         ",
"@ $ & & % % % % % % % % % % % % % % & & & & & & & & & & & & & & & & = = = = = = = = & > = = > > > > > > = = > > > > > > > > > > > > > > = = > > > > > > > > > > > > > > > > > > , , 6 6 6 6 6 6 6 6 6 , , , a p f g g f c c c D H 7.H n K K J H 7.7.0.0.d.9.6.9.8.K J F F G M m M G M m k k k j j N M M k d W tXeX+X+X+X+X+X@X.X.X.X.X.X{.{.].[.].~.~.~.Q.v.Q.S.x.Z.Z.Z.A.A.z.k.k.k.k.k.k.h.h.h.h.h.a.u.u.u.u.u.i.i.u.u.u.u.u.u.u.u.u.u.u.u.u.u.u.u.u.u.u.u.u.u.u.u.u.u.u.u.u...u...u.u.u.a.s.h.h.h.h.g.g.g.g.g.g.z.x.Z.S.v.~. XeXyXuXgXfXfXfXnXnXnXnXnXzXzXzXzXnXnXnXnXnXnXnXzXzXfXfXdXsXsXgXuXyXeXqXoXXXXX.X.X.X.X|.}.}.}.}.}.}.}.}.].].].].].].].S.z.z.u.u.6.W W I I I I I ..W W W W I I 6.u.u.u.u.u.u.u.u.u.u.u.u.u.u.i.s.h.h.g.k.g.z.z.k.z.z.z.k.g.k.z.z.A.x.x.x.A.x.Z.S.Q.Q.S.S.v.v.v.v.v.v.v.I.[.[.[.[.{.OX|.|..XoX.X$XaXpX+X+XpXoX[.$X[.yXpXeX X~.l.W W G s s j k k i i i s G G D k s s f D b H H H b H 7.7.0.U._._.w.w.w.q.q.q.q.q.q.q.q.q.q.q.q.q.r.r.r.r.r.r.r.r.r.r.r.y.r.r.r.r.r.r.t.t.t.r.r.r.r.r.r.r.r.y.q.q.q.q.y.r.r.t.t.r.t.r.r.r.r.r.r.q.5.5.5.5.5.r.r.r.t.t.J.J.J.K.`.'.`._.0.g : ; O O O O O O . . . . . . . . . . . . . . . . ",
"$ & & & % % % % % % % % % % & & & & & & & & & & & & & & & & & & & & & & - - % % & & & & = = = > = = = = = = = = = = > > > = = = = = - = = = = = > > > > > > > > > > > > > > > > , , 6 6 6 6 6 6 6 6 6 , , y u p g g g g d c c D J J H K 7.J J 7.0.0.0.b.b.9.7.6.6.K J Q F G G m M G M m k k k j j N M M M m 6.tXeX+X+X+X+X+X@X.X.X.X.X.X|.{.{.[.].~.~.~.Q.Q.S.v.x.Z.A.Z.A.A.z.c.k.k.k.k.g.h.h.h.h.h.a.u.u.i.u.i.a.a.u.u.u.u.u.u.u.u.u.u.u.u.u.u.u.u.u.u.u.u.u.u.u.u.u.u.u.u.u.u.u.u.u.a.s.h.g.k.k.k.k.k.g.g.g.g.z.z.A.S.Q.Q.]..XyXyXpXiXfXfXfXnXnXnXnXnXzXzXzXzXzXzXnXnXnXnXnXnXzXzXfXfXsXsXsXgXuXeXqXqXXXXX.X.X.X.X.X|.}.|.|.}.}.}.}.].].].].].].].~.Z.z.z.u.i.u.W I I I I I I ..u.u.u.W W I u.u.u.u.u.u.u.u.u.u.u.u.u.i.h.h.g.g.h.g.g.z.z.z.z.z.c.g.c.k.z.A.A.x.x.x.x.S.Q.Q.Q.S.S.S.v.v.v.v.v.v.v.v.v.v.I.I.[.[.OX|..X+XoX.XoX+X+X+XyXoX{..X+XyXpXeX X~.l.T T D s s k k m i i i s m G G k p s d G D H D G c H 7.7.w.U.w._.w.w.w.w.q.q.q.q.q.q.y.q.y.q.q.q.q.r.r.r.r.r.r.r.r.r.r.y.r.r.r.r.r.r.r.r.r.r.r.r.r.r.r.r.r.r.q.q.q.q.y.r.r.t.t.t.t.r.t.r.r.r.r.r.q.q.5.5.5.q.r.r.t.t.J.J.J.K.`.`.'._.w.b t ; O O O O O O . . . . . . . . . . . . . . . . ",
"& & & & & & & & % % % % & & & & & & & & & & & & & & & & & & & & & & & & - - % & & & & & % % % % = = % % = = % % % & & & & - - - = = - = = - = = = = > > > > > > > > > > > > > > > > > > > > > > 2 6 6 , , y a p p u u g g c G H K K 7.6.6.H 7.0.w.w.w.b.b.0.7.6.6.R J J Q F G M M G M M M m k k k N M M m G p.eXeX+X$X+X$X+X+X@X.X.X.X.X.X|.|.{.].].~.~.~.Q.v.x.x.x.A.Z.A.x.z.c.g.k.g.g.g.h.h.h.h.h.a.u.a.a.a.a.a.a.u.u.u.u.u.u.u.u.u.u.u.u.u.u.u.u.u.u.u.u.u.u.u.u.u.u.u.u.u.u.u.a.a.h.g.g.k.k.k.k.k.k.z.k.c.c.c.x.S.~.~.}..XXXuXuXiXfXfXfXnXnXnXnXnXnXnXzXzXzXzXzXzXzXzXzXnXnXnXnXzXfXfXsXsXsXgXyXeXqXoXXXXX.X.X.X.X.X|.|.|.|.|.|.}.].].].].].].].!.S.z.Z.i.g.h.u...I I I I I I W u.u...W W W u.u.u.u.u.u.u.u.u.u.u.i.h.h.k.k.g.g.h.g.z.z.z.z.c.c.c.c.c.x.Z.Z.Q.I.Q.Q.Q.Q.Q.Q.Q.Q.S.v.v.v.v.v.v.v.v.v.v.I.I.[.[.OXOXOXoX$XpXpXoX+X+XoX{.+X+X+XeXuXeX X~.l.W T m s s k k m i p p p k G G k p d d G D H D H c K 0.0.b.U.w._.w.w.w.w.q.q.q.q.y.y.r.r.y.q.q.y.y.r.r.r.r.r.r.r.r.r.r.r.r.r.r.r.r.r.r.r.r.r.r.r.r.r.r.r.r.r.r.y.y.r.r.r.r.r.t.r.t.t.t.t.r.t.r.r.r.q.5.5.5.5.q.r.t.t.J.J.J.K.`.`.`.`.U.7.t ; O O O O O O . . . . . . . . . . . . . . . . ",
"& & & & & & & & & & & & & & & & & & & & & & & & & & & & & & & & & & & & - - & & & & & & & & & & & & & & = = = & & & & & & - - = = = - - - - = = = = = = > > > > > > > > > > > > > > > > > > > > 2 2 , , , , a p p t t g g c F H K H 6.9.9.7.7.b.w.w.w.b.b.0.7.7.9.6.K J Q F G M M L M M M m k k k k M M m F s.eXeX+X$X$X$X+X+X@X.X.X.X.X.X.X{.{.].].].~.~.Q.v.x.x.x.x.Z.A.x.z.z.g.g.k.g.g.g.g.g.h.h.h.a.h.h.h.h.a.a.u.u.u.u.u.u.u.u.u.u.u.u.u.u.u.u.a.u.a.u.u.u.u.u.u.u.u.u.u.u.a.h.h.h.g.g.k.k.k.z.k.k.z.z.c.c.c.Z.Q.~.!. XeXeXuXgXsXfXfXfXnXnXnXnXnXnXzXzXzXnXzXzXzXzXzXzXnXnXnXnXzXfXfXfXfXsXsXuXyXeXoXXXXX.X.XXX.X.X.X.X X|.|.|.|.}.].].].].].].].~.S.Z.g.z.g.h.i...I I I I I I W ..W W u.u.u.u.u.u.u.u.u.u.u.u.u.u.a.h.h.h.g.h.k.g.z.z.z.z.c.c.c.c.x.x.Q.Q.Q.Q.Q.Q.Q.Q.~.Q.Q.Q.v.v.x.x.v.v.v.v.v.v.I.I.[.[.{.OXOXOXOX+XuX$X+XiXiX+X.X|.$XyXyXuXeX X~.l.T T m s j k k k p p p s m G G k p s d D D F H H c H 0.0.b.b.w.w._.w.w.w.q.q.q.q.y.y.y.y.y.y.q.y.r.r.r.r.r.r.r.r.r.r.r.r.y.y.r.y.r.r.r.r.r.r.r.r.r.r.r.r.r.r.r.r.r.r.r.r.r.r.t.t.t.t.t.t.t.t.t.r.r.r.q.q.5.5.q.r.t.t.t.J.J.K.`.`.`.`._.7.d t O O O O O O . . . . . . . . . . . . . . . . ",
"& & & & & & & & & & & & & & & & & & & & & & & & $ $ $ $ $ $ & & & & & & & & & & & & & & $ $ & & & & & & & & & & & & & & = = = = - - - - - - = = = = - - > > > > > > > > > > > > > > > > > > 2 2 , , , , , u a p p t t g g c H 6.K 7.9.7.0.w.w.w._.U.U.b.w.0.7.7.9.6.R T Q F G D M G M M M m k k k k M M k G x.eXeX+X$X$X$X+X+X+X+X@XoX.X.X.X{.{.{.].].!.~.~.Q.v.x.x.x.c.c.c.c.c.z.z.k.k.k.g.g.k.h.h.h.h.a.a.a.a.a.a.i.u.u.u.u.u.u.u.u.u.u.u.u.u.u.u.u.u.u.u.u.u.u.u.u.u.u.u.u.u.h.h.g.k.k.z.z.z.c.k.z.z.z.c.c.z.x.Q.~.!.|.XXeXyXpXiXfXfXzXnXnXnXnXnXnXzXfXfXnXnXnXnXnXnXnXnXnXnXnXnXnXfXfXfXfXfXsXpXuXeXqXXXXXXXXXoX.X.X.X.X.X|.|.|.|.}.}.}.}.}.}.].].!.~.Q.A.A.A.k.h.a...W I P I I I I I ..u.u.u.6.u.u.u.u.u.u.u.u.u.u.a.s.h.g.g.g.g.g.g.z.z.z.c.x.x.x.x.v.I.I.Q.Q.Q.Q.Q.Q.Q.~.Q.v.v.x.c.c.c.b.v.v.v.v.I.[.[.[.{.OX|..X.X+X+X+X$XpXpX+X.X+XpXyXeXuXeX X!.a.T T m s k k k s s p p s k G G k s d d D D F G H n H 0.0.w.b.b.w.b.w.w.w.q.q.q.q.q.q.q.q.y.y.y.y.r.r.r.r.r.r.r.r.r.r.r.r.r.r.y.y.y.y.r.r.r.r.r.r.t.t.t.t.t.r.r.r.r.r.r.r.r.r.r.t.t.t.t.t.t.t.r.r.r.y.q.5.5.5.r.r.t.t.J.J.J.K.`.`.`.`._.0.n t ; O O O O O O . . . . . . . . . . . . .     ",
"& & & & & & & & & & & & & & & & & & & & & & & & $ $ $ $ $ $ & & & & & & & & & & & & & & $ $ $ $ $ & & & & & & & & & & & = = = = - - - - & - = = = = - - - - > > > > > > > > > > > > > > > > 2 2 > > , , , y u p u t t g g c H 7.7.7.7.7.0.U._.t.J.J.U.w.w.0.0.7.9.6.R J Q F G D M G M M M M k k M k k M k G A.eXeX$X$X$X$X+X+X$X+X+XoXoX.X.X.X{.{.{.].~.~.~.Q.v.x.x.c.c.z.c.c.c.c.c.k.g.g.g.k.g.g.h.h.s.i.i.a.a.a.a.i.i.u.u.u.u.u.u.u.u.u.u.u.u.u.u.u.u.u.u.u.u.u.u.u.u.u.a.h.h.h.k.k.k.z.z.z.z.z.z.z.z.c.z.x.Z.Q.~.!. XXXeXyXuXiXfXfXfXnXnXnXnXnXnXnXfXfXfXfXzXzXnXnXnXnXnXnXnXnXnXnXfXfXfXfXfXfXsXpXuXeXoXXXXXXXoXXX.X.X.X.X.X X X|.|. X}.}.}.}.].].].!.~.S.Z.A.A.k.h.h.u.I P I I I I I I 6.6.6.6.6.u.u.u.u.u.u.u.u.u.a.s.h.g.g.g.g.g.g.g.z.c.z.x.x.x.x.x.x.x.v.v.x.x.x.x.x.x.v.x.v.x.c.c.b.b.b.b.b.v.I.[.[.{.{.|..X.XoX+X+X+X$XyXpX+X.X@XpXyXyXuXeXXX~.a.T T k k k k k s s p p s k L G k p d d D D F G H H 7.0.0.w.b.b.w.w.v.w.w.w.q.q.q.q.q.r.r.r.r.y.r.r.t.r.r.r.r.r.r.r.r.r.r.r.r.r.r.r.r.r.r.r.r.r.r.t.t.t.t.t.r.r.r.r.r.r.r.r.r.r.r.t.t.t.t.t.t.r.r.r.y.q.q.5.q.r.r.t.t.J.J.J.J.`.`.`._._.b.K g ; O O O O O O . . . . . . . . . . . . . .   ",
"& & & & & & & & & & & & & & & & $ $ $ $ $ $ $ $ $ $ $ $ $ $ $ $ & & & & & & & & & & & & $ $ $ $ $ $ $ & & & & & & & & & & & - - - - - - & & & - - - - - - - - - > = > > > > > > > > > > > > 2 2 > > , , , y u u u t t g g c H 7.0.7.7.0.b._._.J.J.J.U.U.b.w.0.9.9.6.R J J F L G M L M M M M m k M k k M k G W.eXeXyX$X$X+X+X+X+X$X+X+X@XoX.X.X|.{.].].~.~.~.Q.v.Z.x.c.c.c.c.c.c.g.g.g.g.g.g.g.h.h.h.s.i.i.a.a.a.i.i.i.i.u.u.u.u.u.u.u.u.u.u.u.u.u.u.u.u.6.u.u.u.u.u.u.a.h.h.g.g.z.z.z.c.z.c.c.z.z.z.z.z.z.x.S.~.Q.~.|.XXeXeXuXgXfXfXfXnXnXnXnXnXnXnXzXnXnXnXnXzXfXfXfXzXnXnXnXnXnXnXnXfXsXfXsXsXsXsXiXuXyXeXoXXXXXoXXX.X.X.X.X.X.X.X X X X X}.}.}.}.].].].!.~.~.Q.A.z.k.g.s.u.I I I H H I I I I I I 6.6.6.u.u.u.u.u.u.u.i.s.h.g.h.g.g.g.g.g.g.z.c.z.c.c.c.z.z.z.b.b.c.c.b.x.v.I.Q.~.Q.v.v.v.v.v.v.b.b.b.I.[.[.[.{.|..XoX+X+X+X$XyXpXpX$X.X+XpXyXyXuXeXXX~.a.T T k m k k k k p p p p k G G k p d d D G G D H J 7.0.0.w.v.w.w.v.w.w.w.5.5.q.q.q.r.r.r.r.r.r.r.t.t.r.r.r.r.r.r.r.r.r.r.r.r.r.r.r.r.r.r.r.r.r.r.t.t.t.t.t.t.t.t.t.t.r.r.r.r.r.r.r.t.t.t.t.t.r.r.r.y.q.q.5.q.r.r.t.t.t.J.J.J.J.J._._._.U.6.g : ; O O O O O O . . . . . . . . . . . . . . ",
"$ $ & & & & & & & & & & & & & & $ $ $ $ $ $ $ $ # # # # # # $ $ $ $ $ $ $ $ $ $ $ $ $ $ $ $ $ $ $ $ $ $ $ $ & & & & & & & & & - - - & $ & & & & - - - - - - - - - - = = > > > > > > > > > > > > > > , , , , u u u t t g g c H 7.7.7.7.b.U._._._.J.J.U.b.b.w.0.0.9.6.R K J F G G G L G M M M m m M k k M k F W.eXeXyX$X$X+X+X+X+X+X+X+XoXoX.X.X{.{.].].~.~.~.Q.I.x.x.c.c.g.g.g.g.g.g.g.g.g.h.s.s.h.s.a.u.u.a.i.i.i.i.u.u.u.u.u.u.u.u.u.u.u.u.u.u.u.u.u.u.u.u.u.a.i.a.a.h.h.g.z.z.z.z.c.z.c.z.z.z.z.z.z.z.x.S.Q.~.~.{. XXXeXuXgXsXfXfXfXnXnXnXnXnXnXzXfXzXfXfXfXfXfXfXfXfXnXnXnXnXnXnXnXfXsXsXsXiXsXsXiXpXuXeXXXXXXXXXXX.X.X.XXXXXXX.X X X X X X}.}.}.].].].!.}.}.!.Z.A.z.z.z.z.g.u.I H H H H I I I I I I 6.6.u.u.u.u.u.u.i.s.h.h.g.g.g.g.g.g.g.g.c.c.c.b.g.g.b.b.b.b.b.b.I.I.~.].{.{.].].[.[.[.[.I.v.v.v.I.[.[.[.{.|..XoX+X+X+XyXyXpXpX$X.X+XyXyXyXuXeXeX~.a.F T k m k s s k p p p p k G L k g d d m G G D H 7.0.0.w.0.b.w.w.w.v.w.w.5.5.q.q.r.r.t.t.t.t.t.t.t.t.t.t.t.r.r.r.r.r.r.r.t.t.t.t.t.t.t.t.t.t.t.r.r.r.t.t.t.t.t.t.J.J.t.r.r.r.r.r.r.t.t.t.t.t.r.r.r.y.y.q.q.q.r.r.r.t.t.t.J.J.J.J.J.J._.U.0.c : ; O O O O O . . . . . . . . . . . . . . . ",
"$ $ $ $ & & & & $ $ $ $ $ $ $ $ $ $ # # # # # # # # # # + + + + + + $ $ $ $ $ $ $ $ $ $ $ $ $ $ + $ & & & & $ $ $ $ & & & & & & - & $ $ & & & & - - - - - - - - - - - - = = > > > > > > > > > > > > , , , y y u t t t g f b 6.7.7.7.w._._._._._.J._._.U.b.w.0.0.9.6.6.K T J F L L G G M M D m m M k k M M F ~.eXeXyX$X$X$X+X+X+X+X+X+XoXoX.X.X{.[.].~.~.Q.I.v.x.c.b.g.g.s.s.g.g.g.s.s.s.h.s.s.s.s.s.i.i.i.i.u.u.u.u.u.u.u.u.u.u.6.6.6.u.6.6.u.u.u.u.u.u.u.a.a.s.s.s.h.g.g.z.z.A.A.x.x.c.c.z.x.x.z.c.z.z.Z.S.Q.~.!. XqXeXuXuXgXiXfXfXfXzXnXnXnXnXfXfXfXfXfXfXfXfXfXfXfXfXnXnXnXnXnXnXnXfXsXsXsXiXiXgXgXuXuXyXeXXXXXXXXX.XoXoXoXoXXXXX.X.X.X|. X|.}.}.].}.}.}.|.|.}.Q.~.Z.z.z.z.z.g.g.u.I H H H I I I I I I I 6.u.u.u.u.u.u.i.a.s.s.s.s.s.s.g.g.g.g.g.g.g.g.b.c.c.x.v.Q.~.~.].].].{.|.{.{.{.[.[.[.[.[.[.[.[.[.[.[.{.|..XoX+X+X$XuXyXpXpX$XyX$XyXyXuXuXeXeX(.a.G Y k m k j j k p s p p k L L D s d d m D D G H 6.0.0.b.0.w.w.w.w.w.w.w.q.w.q.q.t.t.t.t.t.t.t.t.t.J.J.J.t.r.r.r.r.t.t.t.t.t.J.J.J.J.J.J.J.t.t.t.t.t.r.r.r.J.r.t.J.J.J.t.t.r.r.r.r.t.t.J.t.r.r.r.r.r.r.r.r.r.t.t.t.t.t.t.J.J.t.t.t.J.J._.w.n t ; O O O O O . O O O O . . . . . . . . . . ",
"$ $ $ $ $ $ $ $ # # # # $ $ # # # # # # # # # # # # # # # # # # + + + + $ $ # # $ $ $ + $ + + + + + + & & & $ $ $ & & & & & & & - & $ $ $ & & & & & & & - - - - - - - - - - = = > > > > > > > > > > , , , y u y t t t t c H 7.7.7.0.w._._._._._.J._._.U.v.b.0.0.9.6.7.K J T P L L G G M M M m m k M M k L F (.eXeXyX$X$X$X+X+X+X+X+X+X+XoXoX.X.X.X.X{.|.}.].!.!.c.b.b.g.s.s.s.s.s.s.s.s.s.s.s.s.s.s.i.u.u.u.u.u.u.u.u.u.u.u.u.u.u.6.R R 6.u.u.u.u.u.a.a.s.h.g.g.h.g.k.z.z.x.Z.Z.Z.Z.A.x.x.A.Z.Z.x.z.x.S.S.Q.~.].|.XXeXeXuXpXgXsXfXfXfXnXnXnXnXnXfXfXfXsXfXfXfXfXfXfXfXfXfXnXnXnXnXnXnXfXsXsXsXiXgXpXpXuXuXuXyXqXoXXXXX.XoXoXoXoX.X.X.X.X|..X X X|.}.}.].}.}.}.|.|.].!.S.x.Z.x.z.c.z.g.g.u.6.I I I I H I I I 6.6.I 6.6.6.u.u.u.i.i.a.a.s.s.s.s.g.g.g.g.g.b.c.x.v.v.Q.~.~.[.].].].|.{.|.|.{.|.|.OXOX{.{.OX{.{.{.{.|..X.X+X+X$XyXpXpXpXpXyXyX$X$XyXuXuXeXeX/.l.G G m k k k j j p s p p k G G m D f c D D D F K 6.0.0.w.w.w.w.w.w.w.w.w.w.w.w.q.t.t.J.J.J.J.J.J.J.J.J.J.t.t.t.t.t.J.J.J.J.J.J.J.J.J.J.J.J.J.J.J.J.J.J.J.J.J.J.J.J.J.J.J.J.t.r.r.t.t.t.J.t.r.r.r.r.r.r.r.r.t.t.t.t.t.t.t.t.t.t.t.t.t.J.J.w.n t ; O O O O O . O O O O . . . . . . . . . . ",
"$ $ $ # # # # # # # # # # # # # # # # # # # # # # # # # # # # # + + # # # # # # $ $ $ $ + + + + + + + + & & & $ $ $ & & & & & & - & $ $ $ & & & & $ & & - - - - - - - - - - - - = = > > > > > > > > , , , , y y t g g g c J K 7.7.w._._.J.J._._.J.J.J._.U.b.0.0.9.6.6.K J T Q F L G D M m D m D m M M M L F ~.eXeX$X$X$XyXyX$X$X$X$X+X+X+XoXoXoX+X+XXX.X|.{.].!.Q.v.x.x.b.g.s.s.6.6.u.u.i.i.a.a.a.i.u.u.u.u.u.u.u.6.E E 6.W 6.6.I 6.i.s.s.s.s.h.h.g.g.g.k.z.z.g.k.z.A.A.Z.Z.Z.Q.Q.Q.S.x.Z.S.S.Z.x.x.S.Q.~.Q.].|. XqXeXuXpXiXfXdXfXfXnXnXnXnXnXzXfXfXfXiXsXiXsXsXfXfXfXfXfXnXnXnXnXnXnXfXsXsXsXsXgXpXpXuXuXuXuXyXXXXXXXXXXXXXoXoX.X.XXX.XXXXX.X.X X|.}.}.}.}.}.}.}.|.].].Q.Q.S.x.x.z.c.z.g.s.s.u.6.6.I I I I I I I I R 6.6.6.u.u.i.i.i.s.s.s.s.g.g.g.z.z.c.x.v.Q.Q.~.].].|.|.|.|.{.|..X.X.X.X.X.X.X.X.X|.|.|.|.|..XoX+X+X$XyXpXpXpXpXpXyXpXyXyXyXuXuXeXeX/.k.F G m k k k k j s p p k m G D k G d m D G G Q 6.9.0.w.w.w.w.w.w.w.w.w.w.w.w.w.t.t.t.J.J.J.J.J.J.J.J.J.J.J.J.J.J.J.J.J.K.K.K.K.K.K.K.K.K.K.K.K.K.K.K.K.K.K.K.K.K.K.K.J.J.J.J.t.t.t.t.t.t.r.r.r.r.r.t.t.t.t.J.t.t.t.t.t.t.t.t.t.t.q.q.t.t.w.n t ; O O O O O . O O O . . . . . . . . . . . ",
"$ $ # # # # # # @ @ @ @ @ @ # # # # # @ @ @ @ @ @ @ @ @ @ @ # # # # # # # # # # # # # # # # # # + + + + + + $ + + + $ $ & & & & - & $ $ $ $ $ $ & & & & & & - - - - - - - - - - - - - - > > > > > > , , , : , t y g g g D H H 7.w._._.`.J.J._._.J.J.J._.U.b.0.0.0.6.6.R J T Q F L G D m D m m m m M M M L F !.eXeX$X$X$X$XyXyXyX$X$X$X+X+X+X+X+X+X+XXX@X@X@XXX|.}.].!.~.~.Q.x.z.g.g.s.s.s.a.i.i.i.u.u.u.6.u.u.6.6.E 6.6.u.u.u.u.a.s.g.g.g.g.z.z.z.z.z.z.z.z.z.z.z.Z.Z.Q.Q.Q.Q.Q.Q.Q.Q.S.S.S.Z.Z.Z.S.~.~.~.].|. XXXeXuXuXiXsXfXfXfXnXnXnXnXnXnXfXfXfXfXiXiXsXsXfXsXfXsXfXfXnXnXnXnXnXnXfXsXsXiXgXpXpXuXuXuXuXuXuXeXoXoXXXXXXXoXoX.X.XoX.XXX.X.X.X X|.|.}.}.}.}.}.]. X].].].~.Q.S.Z.Z.x.z.z.z.z.z.c.g.s.i.6.6.I H H I I K 6.6.6.6.u.u.u.i.s.s.s.s.c.c.c.c.x.v.Q.Q.~.~.].].].].{.{.{.{.|.|..X|..X.X.X.X.X.X.X.X.X.XoX+X+X$X$XyXpXyXyXpXpXyXpXyXyXyXuXuXuXeX!.k.T P m k k k j j p p p k G G m k k D D D G H K 6.0.0.w.w.w.w.w.w.w.w.w.w.w.w.w.t.t.J.J.J.J.J.J.J.J.J.J.J.K.K.K.K.K.K.K.K.`.`.`.`.`.`.`.K.L.L.L.L.`.`.K.K.K.K.K.K.K.K.K.K.J.J.t.t.t.r.t.r.r.r.r.t.t.t.J.J.J.J.J.J.J.t.t.t.t.r.t.q.q.q.q.w.w.n t ; O O O O O O O O . . . . . . . . . . . . ",
"# # # # @ @ @ @ @ @ @ @ @ @ @ @ @ @ @ @ @ @ @ @ @ @ @ @ @ @ @ @ # # # # # # # # + + + + # # # # # $ $ $ $ $ $ $ $ $ $ $ $ & & & & & & $ $ $ + + + + + + & & - - - - - - - - - - - - - - - > > > > > > > , : : : t i g f H J K 0.w._.`.`.J.J._._.J.w.J._._.b.b.d.0.6.K R T T T F L G G D D D D D D D M M L G !.eXyX$X$X$XyXyXyX$X$X$X+X+X+X+X+X+X+X+X+X+XeX+X+XXXXX.X|.|.].].~.Q.x.c.z.g.g.s.s.s.i.i.i.u.6.6.i.s.s.s.g.c.c.z.z.c.z.z.z.A.z.x.A.A.A.A.Z.Z.Z.Z.Z.Z.S.Q.~.~.Q.Q.Q.Q.Q.~.Q.Q.S.S.S.S.S.Q.~.~.[.}..XXXeXyXuXuXiXfXdXsXfXnXnXnXnXnXzXfXfXsXsXsXsXiXiXiXsXfXsXsXfXnXnXnXnXnXnXfXsXsXsXsXgXgXuXyXuXuXuXuXyXeXoXoXoXoXoXoXoXoXoXoX.X.X.X.X.X|.|.}.}.}.}.}.}.|.].|.}.].!.~.~.~.Q.S.S.S.S.S.S.S.Z.Z.c.g.s.i.u.6.6.6.6.6.6.6.6.6.6.6.i.s.s.s.s.s.g.F.g.b.x.x.v.v.v.v.v.S.[.].[.[.{.{.{.{.|.|.|..X.X.XoXoX.X.XoX+X+X$XyXpXpXpXyXpXpXpXyXyXyXyXuXpXpXeX(.l.W Q m j k k k k s s p k D G D k s G G G F F K 7.9.0.0.w.w.w.w.w.w.w.w.H.w.w.w.t.t.t.J.J.J.J.J.J.K.K.K.K.K.K.`.`.`.`.`.`.`.`.`.`.`.`.`.`.`.`.`.`.`.'.'.'.'.'.'.'.'.'.'.`.K.K.K.J.J.J.J.J.t.r.r.J.J.J.J.J.J.J.J.J.t.t.t.t.t.t.q.q.q.q.w.w.0.H g ; O O O O O O . O . . . . . . . . . . . . ",
"@ @ @ @ @ @ @ o @ @ @ @ @ @ @ @ o o o o o o o o @ @ @ @ @ @ @ @ # # # # o o # # # # # # # # # # # # # $ $ $ $ $ $ # + $ + + + $ & & & $ $ + + + + + + + & & - & - - - - - - - - - - - - - - > > > > > > > : : : y i d c H 7.7.w.J._.`.K.J.J._._._.t.J._._.U.v.b.0.6.K R K T T F F G G D D D D D D D M M P P  XeXyXyX$X$XyXyXyXyX$X$X$X$X$X$X$X$X$XyXyXuXyXyX+X@X@XXX.X|. X|.].].!.Q.v.x.c.c.c.c.g.g.g.g.s.g.x.Q.Q.Q.Z.x.Z.Q.Z.Z.Z.Z.Z.Z.Z.Z.Z.Z.Z.S.Q.Q.S.S.S.S.~.!.!.!.!.~.~.~.~.~.~.Q.~.Q.Q.~.~.[.[.].}.|..XXXyXuXuXpXsXfXfXfXfXfXfXnXnXnXzXfXfXsXsXsXfXsXsXsXsXsXsXsXfXnXnXnXnXnXnXfXsXsXsXiXgXuXuXyXyXuXuXuXuXuXeXXXoXoXoXoXoXoXoXoX.X.X.X.X.X.X|.}.}.}.}.}.|.|.|.|.}.}.].].].!.~.~.Q.~.~.~.~.~.~.~.~.~.S.S.S.S.S.x.z.z.g.b.g.g.g.F.g.s.s.s.s.s.s.s.b.c.v.v.~.[.[.].[.[.}.|.|..X.X.XoXoX+X+X+X+X+X+X+X+X+X+X+X$XyXyXyXpXpXpXpXpXpXyXyX$XyXyXuXpXpXeX(.l.W P m k k k k k k s s k D G G k d k D D F H K 7.9.0.w.w.w.w.w.w.H.H.b.H.H.w.w.t.J.J.K.K.`.K.K.K.K.K.K.K.`.`.`.`.`.`.`.`.K.K.K.K.K.K.K.K.K.K.K.K.K.`.`.`.'.'.'.'.'.'.'.'.'.`.K.K.K.K.J.J.J.J.J.J.J.J.J.J.J.J.J.t.t.r.t.t.t.t.t.q.q.q.w.w.0.H g ; O O O O O O . . . . . . . . . . . . . . ",
"o o o o o o X X o o o o o o o o o o o o o o o o @ @ @ @ @ @ o o o # # # o o # # # # # # # # + # # # # $ & & & & $ $ # + + + + $ & & $ $ + + + + + + + + & & - - & & - - - - - - - - - - - - - > , , > > ; ; : : u g m H 7.7.0.U._.`.`.J.J.J._._._.t.J._._.U.b.b.0.6.K R K T T F F L G D m G D D G G M L L W qXeXpX$XpX$XpXpX$X$XyXyX$X$XyXpXpXpXpXpXiXiXuXyXyXeX@X+XXX.XXX.X X|.}.].!.Q.S.Q.Q.Q.Q.Q.Q.~.!.].!.!.].!.!.~.~.Q.Q.Q.Q.Q.S.S.Q.Q.Q.Q.Q.Q.~.~.~.Q.~.~.!.].].!.~.~.~.~.~.~.~.~.[.[.].].[.[.[.].|.XXXXyXuXpXpXgXsXsXsXfXfXfXfXnXnXnXzXfXfXsXsXsXfXsXsXsXsXsXsXsXfXnXnXnXnXnXnXfXgXsXsXgXgXuXuXyXyXyXuXuXuXuXuXeXoXXXXXoXXXXXoXoXoX.X.X.X.X.X X|.|.|.|.|.}.|.|.}.}.}.}.].].].].~.~.~.~.~.~.~.[.].].}.].].}.].[.~.~.[.[.[.!.].].].}.}.|.|.|.}.}.].].}.|.|..X.XXXXXXXXXXXoX+X+X$X+X+X+X+X+X+X$X+X$X$X$X$X$X$X$XyXyXpXpXpXpXpXpXpXpXpXyXpXpXuXpXpXeX/.a...L m k k m k k k j s k D D D k k k D G Q H H K 0.0.0.w.w.w.w.H.H._.H.w._.t.t._.J.J.`.`.`.`.K.K.K.K.K.K.`.`.K.K.K.K.K.K.K.K.J.J.J.J.J.J.J.J.K.K.K.`.`.`.`.`.`.'.'.'.'.'.'.'.'.`.`.`.K.K.K.K.K.J.J.J.J.J.t.t.t.t.r.r.t.t.t.t.t.t.q.q.5.w.0.H i ; ; + O O O O . . . . . . . . . . . . . . ",
"X X X X X X X X o o X X X X o o o o o o o o o o @ @ o @ o o o o o o o o o o o o # + + + + + + + # # # $ & & & & & $ $ $ + + $ $ $ $ $ + + + + + + + + + + + & & & & - - - - - - - - - - ; - - > , , > > > ; : , u f D K 7.0.w._._.`.K.K.J.K._._._.t.J._.U.w.b.w.0.9.K 6.W T T F L L G D m G G D D G M M L ..wXeXpXpXpXpXpXpX$XyXyXuXyXpXpXpXiXiXiXiXiXiXiXuXyXyXeXeX@XoXoXXX.X.X X X|.].~.].}.|.|.}.}.}.|.|.|.}.].{.|.|.].].!.!.!.!.~.~.~.~.~.~.~.~.!.!.~.~.~.~.~.~.].].!.~.!.!.~.~.!.].].].].].[.].].].oXXXeXyXuXpXpXiXsXsXsXgXsXfXfXfXnXnXzXfXfXsXsXsXsXsXsXsXsXsXfXsXsXfXnXnXnXfXnXfXsXgXgXgXuXuXuXyXyXyXyXuXuXuXuXyXeXXXXXoXXXXXoXoXoX.X.X.X.X.X X|. X X X|.|.|.|.}.}.}.}.}.}.}.].].].].].].].].].].].].}.|.|.|.}.}.|.|.|. X X X X X.X.X.X.X.X.X.X.XoXXXqXqXXXXXXXoXoXoXoXyX$XyXyXyXuXuXyXyX$X$XyXyXyXyXyXyXyXyXyXpXpXpXpXpXpXpXpXpXpXpXpXyXuXpXuXeX(.....P m k m m k k k k k M k k k k m m D G H H H K 0.0.w.w.b.w.w._._._._.w._.H._._.J.J.`.`.`.`.K.K.K.K.J.J.K.K.J.J.J.J.J.J.K.J.J.J.J.J.J.J.J.J.K.K.K.K.K.`.`.`.`.`.`.`.'.'.'.'.'.'.'.'.'.`.`.`.`.`.K.K.J.J.t.t.t.r.r.r.r.r.t.t.J.t.q.5.e.w.0.H i ; ; + O O O O . O . . O . . . . . . . . . ",
"o o o o o o o X X X X X X X X X o X X X X o o o o o o o * o o o o o o o o o o o o o + + + + + + # # # $ & & = = & & $ $ + + + $ $ + $ + + + + + + + + + + + + + + + - - - - - - - - ; ; ; ; - - > , , , , ; , , u d H 9.0.w._._._.`.`.K.J.K._._._.J._._._.w.w.w.0.9.6.6.R W T F F G D m D G G D D D M M G E  XeXpXpXpXpXpXyXyXyXpXpXpXiXiXiXaXaXaXiXaXaXiXiXuXuXuXyXyX+XoXoXXXXXXXXXXXXXXX.X.X.X.X.X.X.X X|.{.|.|.|.|.{.{.{.{.{.].].].].].].].].].].].].].].].].].].].].].].].].].].].].].].].].[.}.|.|.XXXXyXyXuXpXgXiXsXsXsXsXsXfXzXzXzXzXlXfXsXsXfXsXsXiXsXsXaXsXfXfXsXfXfXnXnXfXnXfXsXgXgXuXuXuXyXyXyXyXuXuXuXuXgXyXeXoXXXoXXXXXoXXXXXoXoX.X.X.X X X X X X|.|.|.|.|.}.}.}.|.|.}.].].].].].].].].}.|.{.|.|.|.|.|.|.|.|.|.|.|.|.|..X.XXX.XXXXXXXXXXXoXoXeXeXyXyXyXyXyXyXuXuXuXuXuXuXuXuXuXuXuXyXyXyXyXyXyXyXyXyXpXpXpXpXpXpXpXpXpXpXpXpXpXyXyXpXiXuXeX(.E W Y M m k k k k k k k M k M k k m D D F Q G H 7.7.w.b.w.v.v.t._.t._._.w._._._._.t._.J.`.`.J.J.J.J.J.J.J.J.J.J.J.J.J.J.J.J.J.J.J.J.K.K.K.K.K.K.K.K.K.`.`.`.`.K.K.`.`.`.'.'.'.'.'.'.'.'.'.'.'.'.`.`.`.K.J.J.t.t.r.t.t.q.q.q.t.t.t.q.e.e.e.7.H i ; ; + O O O O O O O O O O . . . . . . . . ",
"o X X o X X X X X X X X X X X X X X X X X X X X o o o o o o X X o o o o o o o o o o + o o o + + # + # $ & = = = = & & $ $ + $ $ $ $ + + + + + + + + + + + + + + + + - - - - - - - - - - ; ; - - ; , , > ; , , , u d H 7.0.w._._._.`.`.K.K.K.`._._.J._._._.w.b.w.0.9.6.6.R W T T F G G D D G G G m M M G L E  XeXpXpXiXpXpXpXpXpXpXpXaXaXaXaXaXaXaXaXaXdXiXiXiXuXuXuXyXyXyXyXeXoX@XqXeXeXeXeXqXXXXXXXXXXXXX.X.X|..X.X.X{.{.|.|.{.{.|.{.].}.].].].].].].].].].].].].].}.}.|.}.|.|.|.|.|.|.|.|.|.}.}.|..XXXXXeXyXuXuXpXgXiXsXsXsXsXsXfXzXzXlXfXsXsXsXsXfXsXiXiXiXiXsXsXfXfXfXfXnXnXnXfXfXfXgXgXuXuXuXuXyXyXyXyXuXuXuXuXuXyXeXoXXXXXXXXXoXoXoXoXXXXXXX.X.X.XXX.X X X|.|.|.|.|.|.|.|.|.|.|.].].].].].}.|.|.|.|.|.|.|.{.{.|.|.|.|..X|.|..X.X.X.X.XoXoXoXoXoXoXoX+XeXyXyXyXyXyXyXuXuXuXuXuXuXuXuXiXiXiXpXpXpXpXpXyXpXpXpXpXpXpXiXiXiXiXpXpXpXpXpXpXyXyXpXiXuXeX(...P T M m k k k k k k k k k D D k k G G F T G H 7.7.w.U._._._._._._._._.H._._._._.t._.J.`.`.J.J.J.J.J.J.J.J.J.J.J.J.J.J.J.J.J.J.J.K.K.K.`.`.`.`.`.`.`.`.`.`.`.K.K.K.K.K.`.'.'.'.'.`.`.'.'.'.'.'.'.`.`.`.K.J.J.t.t.t.r.q.q.t.t.t.t.q.5.e.e.7.n i ; ; + + O O O O O O O O O . . . . . . . . ",
"X X X X X X X . X . . . . X X X X X X X X X X X o o o o o o o o o o o o o o o o o o o o o o + + + + # $ & = = = & & & & & & & & $ $ $ + + + + + + + + + + + + + + + - - - - - - - - - - - ; ; - - > > ; , , , , u b K 0.w._.`.J._.`.`.K.K.`._._._._._._._.w.w.w.0.9.6.6.E W T T F F F G G L P G D k M M L E  XuXpXiXpXpXiXiXiXpXiXaXdXdXaXdXdXdXdXdXdXdXdXsXiXiXiXiXuXyXuXyXyXyXyXyXyXyXyXyXyXyXyXyXeXeX+XoXoX.X.X.X.X.X.X.X|.|.|.|.|.|.|.|.|.|.|.|.|.|.|.|.|.|.|.|.|.|. X|. X X X X X X X X X|.|..X.XXXeXyXuXgXgXgXgXiXsXsXsXsXsXfXzXzXlXfXsXsXsXsXfXsXsXiXiXiXaXaXfXfXfXfXfXfXfXfXfXsXsXgXgXuXyXyXuXyXyXyXuXuXuXyXyXeXeXeXeXXXXXoXXXoXqXqXqXXXXXXXXXXXXXXX X|.|.|.|.|. X X X X X X|.|.|.|.|.|.{.|.|.|.|.{.{.{.{.{.|.OXOXOXOXOXOXOX.XoXoXoXoXoXoX+X+X+X+XyXyXyXyXyXyXuXuXuXuXuXuXuXpXpXiXiXaXaXiXiXiXiXiXpXpXpXpXpXaXaXaXaXaXaXiXiXiXpXpXpXpXpXpXiXuXeX(.p.L U G M M k k k k k D k p G G d d G F Q E H J 7.7.w._._._._._._._._._._.t._._.t._._.J._.`._.J.J.J.J.J.J.J.J.J.J.J.J.J.J.J.J.J.J.K.K.`.`.`.`.`.`.`.`.`.`.`.`.K.K.K.K.K.K.`.`.`.`.`.`.'.'.'.'.'.'.'.'.'.`.`.J.J.t.t.r.q.t.t.t.t.t.q.5.e.e.7.n i ; ; + + O O O O O O O . O O . . . . . . . ",
". . . . X X X   .   . . . . . . . X X X X X X X o o o o o o o o o o o o o X o o o o o o o o + + + + # $ & & & = & & & & & $ $ $ $ $ $ + + + + + + + + + + + + + + + - - - - - - - - - - - - ; ; - - > - , , : , i H 7.w.w.`.`.J.`.`.`.K.K.`._._._._._._._.w.w.w.0.9.6.8.6.W T T T Q F G G G P G D M M M L W  XuXpXpXiXiXaXaXaXaXaXdXdXdXdXdXdXfXfXdXzXzXdXdXsXiXiXiXiXuXuXuXuXuXyXyXyXyXyXyXyXyXyXyXyXyX+X+X+XoX+X+X+XoXoXoX.X.X.X.X.X.X.X.X.X.X|.|.|.|.|.{.{.{.|.|.|.|. X X X X X X X X X X X X.X.XXXXXeXuXgXgXpXgXsXiXsXsXsXsXfXfXzXzXnXnXfXsXsXsXfXsXsXiXiXaXaXaXfXsXsXsXsXfXfXfXfXsXgXgXgXuXyXyXyXyXyXuXuXuXyXyXyXeXeXoXoXoXXXoXXXXXeXeXqXqXqXXXXXXXXXXX X|.|.|. X X.XXX X X X X X X|.|.|.|.{.|.|..X.X|.|.{.|.|.OX|.OXOXOXOXOXOXoXoXoXoX+X+X+XyXyX+XyXyXyXyXyXyXyXuXuXuXuXuXpXuXpXpXiXiXaXaXaXaXaXaXaXiXpXpXpXiXaXaXaXaXaXaXiXiXiXpXpXpXpXpXpXiXuXeX!.a.D Y G m M M k k k m G k p D G k d D F F 6.G J 6.9.b._._._._._.%X%X_._._._.t.v.v._.w._._._._._._._._.J.J.J.J.J.J.J.J.J.J.J.J.J.J.J.K.K.`.`.`.`.`.`.`.`.`.`.`.K.K.K.K.K.K.K.`.`.`.`.`.`.'.'.'.'.'.'.'.'.'.'.`.J.J.t.r.q.q.t.t.t.t.q.5.e.e.7.n i ; ; + + O O O O O O O . O . . . . . . . . ",
"    . . .   . . . . . . . . . . X X X X X X X X X o o o o o o o o o o X X X o o X o o o o o o o + + # $ & & - & & & = & & $ $ $ $ $ $ + + + + + + + + + + + + + + + + + + + + + + + + + ; - ; - ; - - - - : : t d n 7.b._.'.`.J.`.`.`.`.`._._._._.J.J._.w.w.w.0.0.9.8.9.8.R W T T T F D D G P G k k G G G E  XuXiXiXiXiXaXaXaXaXdXdXdXdXfXfXzXzXzXfXfXfXdXdXaXaXsXsXiXiXiXiXiXiXuXuXuXuXuXyXyXyXyXyXyXyXyXyX+X+X+X+X+X+XoXoXoXoXXXXXoXXXXX.X.X.X.X.X.X.X.X|.|.|.|.|. X X.X.X.X.XXXXXXXXXXXXX.X.X.XXXXXeXyXuXuXuXpXiXiXiXsXsXsXsXfXfXzXzXnXnXzXsXsXfXfXfXsXiXsXsXfXsXsXsXsXsXsXfXfXfXfXsXgXgXuXuXuXuXyXuXuXuXuXuXyXyXeXqXXXoXoXeXXXoXXXoXeXeXqXXXqXXXXXXXoXXX X}.}.|..X|.XXXX.X.X|..X X X.X.X.X|.|..X.X.X.X|.|.|.|.}.{.|.OXOXOX.XOX.XoXoXoXoX+X+X+X+XyXyXyXyXyXyXyXyXyXuXuXuXuXuXuXuXuXiXiXiXaXaXaXaXaXaXaXaXaXaXaXaXaXaXaXaXaXaXaXaXiXpXpXpXpXpXpXiXpXeX!.u.D s Y M G G k k D D L k p D G m c D G F W F 8.6.6.0.b._.v._.v._.%X_._._._.w.H._.w.w._._._._._._._._.J.J.J.J.J.J.J.J.J.J.J.J.J.J.K.J.K.K.K.K.`.`.`.`.`.`.`.`.K.K.K.K.K.K.K.`.`.`.`.`.`.`.'.'.'.'.'.'.'.'.'.'.'.`.J.J.t.q.q.w.t.t.q.e.e.e.7.n t ; ; ; + + + O O O O O . O O O . . . . . . ",
". .                         . . X X X X X X X X X X X X X X X X X X X X X X X X X X o o o o o o + # # $ & & & & & & = & & & & & & $ $ + + + + + + + + + + + + + + + + + + + + + + + + + + + - ; - ; ; - ; ; : t b 7.w._.`.`.`.J.J._._._._._._._._._._._.v.w.w.0.0.0.8.9.p.8.E R W T G m m G L G k k D L G W  XuXiXiXiXiXaXaXaXaXdXdXdXdXfXfXzXzXzXfXfXfXdXdXdXaXdXsXsXsXsXsXsXiXiXiXiXiXiXuXuXyXyXyXyXyXyXyXyX+X+X+X+X+X+X+XoXoX@X@XoXoXXXXX.XXX.X.X.X.X.X.X.X.X X X.X.X.XXXXXXXXXXXXXXXXXXXXX.XXXXX@XeXyXuXuXuXpXiXiXiXsXsXsXsXsXfXfXzXnXnXfXsXfXfXfXfXsXiXsXsXfXfXsXfXfXfXsXsXfXzXfXsXgXgXgXuXuXuXuXuXuXuXuXyXyXyXeXqXoXoXoXeXoXoXXXoXeXeXqXqXqXXXXXXXoXXX X|.|.XX|.}. X.X.X|..X.X.X.X.X.X.X|.|.|..X.X.X.X|..X|.|.|.|.OXOXOX.X.XoXoXoXoXoXoXoX+X+XyX+X+X+XyXyXyXyXuXuXuXuXuXuXuXiXiXiXiXiXaXaXaXaXaXaXaXaXaXaXaXaXaXaXaXaXaXaXaXaXiXpXpXpXpXpXpXiXpXeX(.W m s Y M L L k k D L L k s D G m m G F T E F 8.6.6.0.b._.w._.v._._._._._._._._._._.w.w._._._._._._._.J.J.J.J.J.J.J.J.J.J.J.J.K.K.K.K.K.K.K.K.`.`.`.`.`.`.`.`.K.K.K.K.K.K.L.`.`.`.K.K.K.`.`.'.'.'.'.'.'.'.'.'.'.`._.J.t.t.q.w.t.w.q.e.e.e.7.b t ; ; ; ; + + + + O O O O O O O . . . . . . ",
"                                X X X X . . . . X X X X X X X X X X X X X . X X . . X o o o o # # $ $ $ & & & & & & & & & - & & - & $ + + O O O O O + + + + + + + + + + + + + + + + + + + + + - - - ; ; + ; : g H 0.H.`.`.`.J.J.J.J._._._._._._._._._._.b.w.w.0.0.0.9.a.a.8.R R W T G D m G G G k k M L L W  XuXiXiXiXaXaXaXaXaXdXdXdXdXfXfXzXzXzXzXzXfXfXdXdXdXdXdXdXdXdXdXdXdXsXiXiXiXiXiXiXuXuXuXuXuXuXyXyXyXyX+X+X+X+X+XoX+X+X+X@XoXoXoXXXXXXXXX.X.X.X.X.X.X.X.XXXXXXXXXXXXXXXXXXXXXXXXXXXXXXXXXeXyXyXuXuXuXpXiXsXsXsXsXsXdXfXfXfXzXnXnXfXfXfXfXfXfXsXsXsXsXfXfXfXfXfXfXfXfXzXzXfXsXsXgXgXgXuXgXpXuXuXuXuXyXyXyXeXqXoXoXoXoXeXeXoXoXeXeXqXXXqXXXXXXXoX.X|.|.|.XX|.}.}. X.X.X.XXX.X.X.X.X.X|.|.|..X.X.X.X.X.X.X|..X.XOXOX.X.XoXoXoXoXoXoXoXoXoXyXyXyXyXyXyXyXyXuXuXuXuXuXiXiXiXiXiXiXiXaXiXaXaXaXaXaXaXaXaXaXaXaXaXaXaXaXaXaXaXaXaXiXiXpXpXpXpXiXpXeXW.W k s M M L L k k k P L k s D G m m G T W 6.J 8.6.6.s.U._.b.v.v._._.{.b.v._._._.%X_.U.b.U._._._._._._._.J.J.J.J.J.J.J.J.J.J.J.K.K.K.K.K.K.K.K.K.K.L.K.`.`.`.`.`.`.`.`.`.`.`.`.`.`.K.K.K.K.`.`.'.'.'.'.'.'.'.'.'.'.`.J._.t.q.t.t.w.w.e.e.e.7.d t ; ; ; - - + + + + + O O O O O O O . . O . ",
"                                    X X . . . .           . . . . . . . . . . . . . X X o o o # $ $ $ $ & & & & & & = = - = = - - & $ + + O O O O O O O + + + O + + + + + + + + + + + + + + + + - - ; ; O ; t f 7.b._.'.`.K.J.J.J._._._._._._._._._._.w.b.b.b.0.0.0.9.9.8.R K J W T G D D G F G D k G L L W  XuXpXpXiXiXaXaXaXaXdXdXdXdXfXfXzXzXzXzXzXzXzXfXfXfXfXdXdXdXdXdXdXdXdXsXsXsXsXiXiXiXiXiXiXiXuXuXpXyXyXyX$X+X+X+X+X+X+X+X+X+X+X+XoXoXoXoXoXoXoXoXXXXX@X@X@X@X@X@X@XXXXXXXXXXX@X@X@X@XXX@XeXyXyXuXuXuXuXpXiXsXsXsXsXfXfXzXzXnXnXfXsXfXsXsXfXfXfXfXsXsXsXsXfXfXfXfXzXnXnXnXfXsXgXgXgXgXgXpXpXpXuXuXyXyXyXyXeXqXoXoXoXeXeXeXoXoXeXeXeXqXqXXXXXXXoX.X|.}.}.|.XX|.|.}..XoX.X.X.X.X.X.X.X|.|.|..X.XoXoXoXoXoXoX.X.X.X|.|..XoXoXoXoXoXoXoXoXoXyXuXuXuXuXuXuXuXuXuXuXuXuXiXiXiXiXiXiXpXiXiXiXaXaXaXaXaXaXaXaXaXaXaXaXaXaXaXaXaXaXaXiXiXpXpXpXpXiXpXeXA.Q k j k M L L k k k U L k s D G m m G T E 8.K 6.6.6.s.U._.b.b.b._.b.{.b.b._.v.v.%X%X_._.U.U._._._._._._._.J.J.J.J.J.J.J.J.J.K.K.K.K.K.K.K.K.K.K.K.K.K.L.`.`.`.`.`.`.`.`.`.`.`.`.`.K.K.K.K.K.`.`.`.'.'.'.'.'.'.'.'.`.`.`.J.t.t.t.w.w.e.e.e.n g t ; ; ; - - - + + + + O O O O O O O . . O O ",
"                                        .     .                     . . . . . . . . . X o @ # $ $ $ & & & & & & & % > > > > > = - - $ + + o O O O O o o o o O O O + + + + + + O O O + + + O + + + ; - + ; ; y v 7.v.`.'.`.J.J.J.J.J.J._._._._._._._.U.b.b.b.b.d.d.s.9.9.8.R J J T T G D G L L L G k L L L W ~.pXiXpXiXaXaXdXaXaXdXfXfXfXfXfXzXzXzXzXzXzXzXzXzXzXzXfXfXfXfXfXfXfXdXsXsXsXsXaXiXiXiXiXiXuXuXuXpXyXpXyXyX+X+X+XyXyXyXyX+X+X+X+X+XoX+X+X+X+X@XXX@X+X+X@X+X@XeXeXeXeXXXXXXXXX@X@X@X@XXX@XeXyXyXuXuXuXuXiXiXiXgXsXdXfXfXzXnXnXnXfXfXfXsXfXfXfXfXfXsXaXsXfXfXfXfXfXzXnXnXnXfXsXgXgXgXgXgXpXgXgXuXyXyXyXyXyXeXeXXXXXeXeXeXeXeXeXeXeXqXqXqXXXXXXX.X.X|.|.}.|.XX|.}.}..X.X.X.X.X.X.X.X.X.X|.|.|..XoXoXoXXXXXoXoXXX.X|..XoXoXoXoXoXoXoXoXoXoXyXuXuXiXuXiXuXuXuXuXuXuXuXiXiXiXiXiXiXiXiXiXiXiXaXaXaXaXaXaXaXaXaXaXaXaXaXaXaXaXaXaXiXpXpXpXpXpXpXuXeXz.P k k j M L P k k D P G k s m G m m G T E 8.6.6.8.k.b.U._._.U.b.b.U.{.U.b.v.U.b._.%X_.w._._.%X_._._._._._._.J.J.J.J.J.K.K.K.K.K.K.K.K.K.K.K.K.K.K.K.`.`.`.'.'.'.'.'.'.'.'.'.'.'.`.`.K.K.K.`.`.`.K.`.`.'.'.'.'.'.'.`.`.`.`.J.t.t.w.w.e.e.e.n g : ; ; ; - - - - + + + + + + O O O O O O O O ",
"                                        . .                                     . . . . o @ # & & & & = = & & & = > 2 4 2 > > = - & $ # + o o O O O O O o o O O + + + + + O + + O O + + + O O + + + + + ; , p b w._.`.`.`.J.J._.J.J.J._._._._.U.U.U.b.b.b.b.d.d.d.s.9.9.9.6.K K T T G D D G L L G D D L L I ~.pXpXpXiXaXaXdXaXaXdXfXfXfXfXzXzXzXzXzXzXzXzXzXzXzXzXzXfXfXfXfXfXfXdXdXsXsXsXsXaXaXsXuXuXiXuXuXpXpXpXyXyXyXyXyXyXyXyXyXyXyXyX+X+X+X+X+X+X+X+X+X+X+X+X+X+X+XeXeXeX@XXXXX@X@X@X@X@X@X@XeXyXyXuXuXuXuXuXuXiXiXgXsXdXdXfXnXnXnXnXzXfXfXfXfXfXiXiXiXaXsXsXsXfXfXfXfXzXnXnXnXfXsXsXgXgXgXuXgXgXgXuXyXyXyXyXyXeXeXoXeXeXeXeXeXoXoXeXeXqXqXqXXXXX.X.X.X|.|.}.}.|.|.}.}.|..X.X.X.X.X.X.X.X.X|..X.X|.|.oXXXoXXXoX.X.X.XXXXXoXoXoXoXoXyX+XoXoXoX+XyXuXiXiXuXuXuXuXuXuXiXiXiXiXiXiXiXiXiXiXiXiXiXaXaXaXaXaXaXaXaXaXaXaXaXaXaXaXaXaXaXiXpXpXpXpXuXyXeXeXk.I k k j M L Y k k L L D k d m D m D F T E 8.8.l.l.s.~.U.U.U.v.U.U._._.U.b.U.U.b._._._.U._.{.%X%X_._._._._.`._.J.J.J.K.K.K.`.`.`.`.`.K.K.K.K.K.K.`.`.`.'.'.'.'.'.'.'.'.'.'.'.'.'.'.'.`.`.`.`.`.`.`.K.K.`.`.'.'.'.'.'.`.`.`._.J.J.t.w.w.e.7.n t ; ; ; + + + + + + + - + + + + O O O O O O O ",
"                                                                                  . . . o @ $ & & & = = = = = = > > 2 2 2 2 > > - & + + o o O O O O O O o O O O O O + + O O O O O O + + + O O + + - + + ; y m K b._.`.`.`.J.J._.J._._._._.U.v.v.b.b.b.b.b.b.d.d.d.s.a.a.9.6.R R K J G D m D G L F G M L G H Q.eXpXpXiXaXdXdXdXdXdXfXfXfXzXzXzXzXzXzXzXzXzXzXzXzXzXzXzXzXfXfXzXfXfXfXdXdXdXdXdXiXiXsXaXyXyXuXpXpXpXpXyXyXyXyXyXyXyXyXyXyXyXyXeX+XeX+X+X+XyXyXeXeXeXeX+X+XeXXXeXeXeXeXeXeX@X@XeXeXeXeXyXuXuXuXpXuXuXpXgXgXgXsXdXfXfXfXfXnXnXnXfXfXfXfXfXiXiXiXaXsXsXsXsXfXfXzXnXzXnXfXiXsXsXgXgXpXgXgXgXgXuXyXyXyXyXyXyXeXeXeXeXeXeXoXeXoXeXeXqXqXqXXXXX.X.X.X|.|.|.}.}.|.}.}.|..X.X.X.X.X.X.X.X.XoXoXoX.X|.oXXXoXoXoX.X.XXX+XyXoXoXoX+XyXyXyX+XoX+X+XyXuXuXuXuXuXuXuXuXiXiXiXiXiXiXiXiXiXaXiXaXaXaXaXaXaXaXaXaXaXaXaXdXaXaXaXaXaXaXaXaXiXpXpXpXpXyXeX@XeXk.L j j j M L Y k j P G D k k D G D G Q T E 8.8.d.d.d.!.I.{.[.I.U.[.[._.[.v.U.U._._._._.U._..X{.%X%X`._._.`.`.`._.`.`.`.K.`.`.`.`.`.`.`.`.`.`.`.`.`.`.`.'.'.'.'.'.'.'.'.'.'.'.'.'.'.'.'.`.`.'.`.`.`.K.K.K.`.`.`.'.'.'.'.'.`.`._.J.t.w.w.e.7.b t ; O O + + + + + + + + + + + + + O O O O O O ",
"                                  .                                                   . X # $ & = = = > > > > > > > 2 4 4 2 > > - + + + o O O O O O O O O O O O O O O O O O O O O O + O O O O + + - + ; : u G 9._.`.`._.`.J.J._._._._._.U.v.b.b.b.b.b.b.d.b.b.d.d.s.a.a.9.8.R R R J H D m m G G G G G G D H x.eXpXpXiXaXdXdXdXdXdXfXfXfXzXzXzXzXzXzXzXzXzXzXzXzXzXzXzXzXzXfXzXfXfXfXfXdXdXdXdXsXaXiXiXuXuXuXpXpXpXpXpXpXyXpXyXpXyXyXyXyXyXyXyXyXyXyXyXyXyXyXyXeX+X+X+X+XeXeXeXeXeXeXeXeXeXeXeXeXeXyXyXuXpXuXpXuXuXpXgXgXgXsXdXfXfXfXnXnXnXnXzXfXfXfXfXfXfXfXfXsXsXsXsXsXfXzXnXzXzXfXgXsXsXgXpXpXpXpXgXuXuXyXyXyXyXyXyXeXeXeXyXeXeXoXeXoXeXqXqXqXqXXXXX.X.X|.|.|.|.|.}.|.}.}.|..X.X.X.X.X.X.XXXXXXXXXoXXXXXXXoXoXoXXXXXXXeX+XyXyXyXyXyXyXyXyXyX+XyXyXyXuXuXuXuXuXuXuXuXiXiXiXiXiXiXiXaXaXaXaXaXaXiXpXaXaXaXaXaXaXaXaXdXaXaXaXaXaXaXaXaXiXpXpXpXpXyX@X@XwXk.G s j j M L L D s P G D k k D G G F T W E 8.8.p.s.P.P. X@X@X|.I.{.{._.].U._._._._._._.U._.{._._._.`._.%X%X%X`.`.`.`.`.`.`.`.`.`.`.`.`.`.`.`.`.'.`.'.'.'.'.'.'.'.'.'.'.'.'.'.'.'.'.'.'.'.'.'.'.`.`.K.K.K.K.J.K.`.'.'.'.'.'.`.`.J.J.w.w.e.7.d : ; O O O O O O O O + + + + + + + + O O O O O ",
"                                                                                        X o # & = = = > > > > > > > 2 4 4 2 > - & + + O O O O O O O O O O O O O O O o o o o O O O O + O O O O + O ; ; : u d J 0._.`.`.`._.J.J.J._._.U.U.U.U.U.U.b.b.b.b.b.P.c.d.d.d.a.a.9.9.6.6.R R F D m m D G L G G G W Q c.eXpXiXiXaXaXdXdXdXdXdXdXzXzXzXzXzXzXzXzXzXzXzXzXzXzXzXzXzXzXzXfXfXfXfXzXdXsXaXaXiXiXiXiXuXuXuXuXuXuXuXpXyXpXpXpXyXyXyXyXyXyXyXyXyXyXyXyXyXyXyXyXeXeX+X+X+XeXXX+XXXeXeXeXeXeXyXyXyXyXyXyXuXuXuXiXuXuXiXiXiXsXsXfXdXfXnXnXnXnXnXnXfXfXfXfXfXfXfXfXfXfXfXfXfXfXzXnXnXnXzXsXsXsXsXgXgXiXiXpXpXuXuXuXyXyXyXyXyXyXyXeXeXyXyXoXoXoXoXoXXXXXXX.X.X.X|.|.|.|.|.}.}.}.OX|..XoX|..X.X.X.X.X.XXXXXoXoXoXoXoXoXXXXXoXeXeXoXyXyXyXyXyXyXyXyXeXeXyXyXyXyXuXuXuXuXuXiXiXiXiXiXiXiXaXaXaXaXaXaXiXuXiXaXaXaXaXaXdXdXdXdXdXaXaXaXaXaXaXaXaXpXpXpXyXyXuXeXeX{.p.D k k j M L P G k L G D k k G F G F T W ! s.8.R g.W.k.Q.@XpX X X!..X{.{.[.{.[.U.{._._._._._._._._._._.%X%X'.%X'.'.`.`.`.`.`.`.`.`.`.`.`.`.'.'.'.'.'.'.'.'.'.'.'.'.'.'.'.'.'.'.'.'.'.'.'.'.'.'.'.'.'.`.`.`.`.K.`.`.`.'.'.'.`.`.`._.w.w.7.n f : ; O O O O O O O O O O + + + + + + + O O O O ",
"                                                                                        . X o # & & = = = = > = = = > > > > & & + + O O O O O O O O O O O O O O O O O O O O O O O O + + + + O + ; ; , u s D 7.w.`.`.`._.J.J.J.U.U.U.U.U.U.U.U.U.U.P.P.P.P.P.P.d.d.d.l.a.9.9.6.6.6.R H D D D G G L L G G T I d.eXpXiXiXaXaXdXdXdXdXdXdXdXzXzXzXzXzXzXzXzXzXzXzXzXzXzXzXzXzXzXfXfXfXfXzXdXsXaXaXaXaXaXiXiXiXuXiXiXiXuXiXpXuXpXpXiXuXuXuXuXuXyXyXyXyXyXyXyXyXeXeX+X+X+X+X+XeXXXXXXXeXeXeXeXeXyXyXyXyXyXuXuXuXuXiXiXiXiXiXiXsXdXdXfXfXnXnXnXnXnXnXfXfXfXfXfXfXfXfXfXfXfXfXfXfXnXnXnXnXnXfXsXsXsXsXsXiXiXiXpXgXuXuXuXuXyXyXyXyXyXeXeXyXyXeXoXoXoXoXXXXX.X.X X|.OX}.}.}.OX}.}.}.}.|..X.X|.|..X.X.X.X.XXXXXoXoXoXXXoXoXoXoXoXoXXXoXoXyXyXoXoXyXyXyXyXyXyXyXyXyXuXuXuXuXuXiXiXiXiXiXiXiXaXaXaXaXaXaXiXiXiXaXaXaXaXaXdXdXdXdXdXaXaXaXaXaXaXaXaXpXpXyXyXyXuXeXeX!.E D k k j k L Y L G D G D k m G F F F W R ! s.8.R s.W.g.c.{.pX#X XI.~.{.{.[.{.{.{.{._._._._._._._._._._.%X%X%X%X'.'.'.'.`.`.`.`.`.`.`.`.`.`.'.'.'.'.'.'.'.'.'.'.'.'.'.'.'.'.'.'.'.'.'.'.'.'.'.'.'.'.'.'.'.`.`.`.`.`.`.`.'.'.'.`.`._.t.w.7.b t ; ; O O O O O O O O O O O + + + + + + + O O O ",
"                                                                                            X o $ $ & & & & & & & & - > > & + o O O O O O O O O O O O O O O O O O O O O O O O O O O O + + + + + ; , u a i c 7.b._._._._.J.J.J.J.U.v.U.U.U.P.U.P.P.P.P.P.I.I.P.d.d.d.s.0.a.9.8.8.8.R J D D D G G G L G G F T s.eXpXpXiXaXdXdXdXdXdXdXdXdXdXdXdXdXdXdXzXzXzXzXzXzXzXzXzXnXnXzXzXfXzXzXzXfXdXdXsXsXdXdXaXaXiXiXiXiXuXuXyXyXyXyXiXiXuXuXuXuXuXuXuXyXyXyXyXyXyXeXXXXXXX+X+X+XeXXXXXeXeXeXeXeXeXyXyXuXuXuXuXpXiXiXiXiXiXiXiXiXdXfXfXfXfXnXnXnXnXnXnXnXfXfXfXfXfXfXfXfXfXfXfXfXfXzXnXnXnXnXfXfXsXsXsXsXgXaXgXgXiXpXgXgXuXuXyXyXyXyXyXeXyXyXeXoXeXqXXXXXXX.X X X}.}.].].].}.}.}.}.OX|.|.|.}.}.|..X|..X.XXXXXXXXXoXoXoXoXoXXXXXXXoXoXoXoX+XyXyXeXeXyXyXyXyXuXuXuXuXuXuXuXiXiXiXiXiXiXiXiXaXaXaXaXiXiXaXaXaXaXaXaXaXaXdXdXdXdXdXaXaXaXaXaXaXaXaXpXpXyXyXpXyXeXeX(.Q D k j j k L Y T G d G D D D G F F F K R ! a.8.R 8.W.s.c.!.wX#X{.I.U.{.{.].|.{.@X{.{.{.{.{._._._._._.{._.%X%X%X$X$X$X'.'.'.`.`.`.`.`.`.`.`.'.'.'.'.'.'.'.'.'.'.'.'.'.'.'.'.'.'.'.'.'.'.'.'.'.'.'.'.'.'.'.'.`.`.`.K.K.K.`.'.'.'.'.`.J.w.7.d t ; + O O O O O O O O O O O O + + + + + + + + O ",
"                                                                                            . X o o $ $ & & & $ + + & & + + X O O O . O O O O O O O O O O O O O O O O O O O O O O O O + + + + ; ; ; , u d H 0._._._.J._._.J.U.U.w.b.b.b.b.b.P.P.P.P.P.I.~.).I.P.d.d.s.s.0.9.9.8.8.R J D D D G M G L G F G J a.eXyXpXiXaXaXdXdXdXdXdXdXdXdXdXdXdXdXdXdXdXfXzXzXzXzXzXzXzXnXzXzXzXzXzXzXfXdXdXdXdXdXdXdXaXsXaXaXiXiXiXpXpXpXpXpXpXyXyXyXyXyXuXuXyXyXyXyXyXeX+XXXXXXX+X+X+XeXeXeXeXeXeXeXeXeXyXuXuXuXuXuXpXiXiXiXiXiXiXiXsXdXdXdXfXnXnXfXnXnXnXnXnXnXnXzXfXfXfXfXfXfXfXfXfXnXnXnXnXnXzXfXfXsXsXsXsXaXgXgXgXgXgXgXiXuXuXyXyXyXyXyXeXeXeXeXoXeXqXqXXX.X.X X|.}.].].[.[.].].].[.}.OX|.|.[.].|.|.|..X.XXXXXXXoXoXoXoXXXoXXXXXoXoXoXyXyXyXyXyXyXyXyXyXyXyXyXuXuXuXuXgXgXiXiXiXiXaXiXiXiXaXaXaXiXiXiXaXaXaXaXaXaXaXaXaXaXaXaXdXaXaXaXaXaXaXaXiXpXpXyXyXpXeXuXeX!.I L k s s k G Y W G k D G m G G F F Q K R ! s.8.K 6.W.a.Q.Q.{.{.I.!.U.I.{.~.{.{.pX{..X{.|.{.~.I.I.{.].{..X%X%X%X$X$X$X$X$X'.'.`.`.`.`.`.`.`.'.'.'.'.'.'.'.'.'.'.'.'.'.'.'.'.'.'.'.'.'.'.'.'.'.'.'.'.'.'.'.'.'.`.`.`.`.K.J.`.`.'.'.`.J.w.7.g : ; + O O O O O O O O O O O O O O + + + + + + + ",
"                                                                                            .   . X o @ @ @ o o o o o o O O . . . . . . O O O O O O O O O O O O O O O O O O O O O O + + - - ; ; ; ; ; t d 7.b._._._._.J.w.w.w.w.w.b.b.b.b.b.P.P.P.P.P.I.~.(.).P.b.c.s.d.0.9.9.9.8.R J D b m M M M G G F F Q p.XXyXpXiXsXaXaXaXaXaXaXdXdXaXdXdXdXdXdXdXdXfXfXzXzXzXzXzXzXzXzXzXzXzXzXfXfXfXdXsXsXsXsXsXaXsXaXaXiXiXiXiXiXuXuXuXyXyXyXyXyXuXuXyXyXyXyXyXyXyXeXXXXXoXeXeXeXeXXXeXeXeXeXeXeXeXyXuXuXuXuXpXpXiXiXiXiXiXiXsXsXdXdXdXzXnXfXfXnXnXfXnXnXnXnXnXzXzXfXfXfXfXfXfXzXnXnXnXnXzXzXfXfXsXsXsXsXaXgXgXgXiXiXiXpXuXyXyXyXyXyXyXoXeXeXeXXXqXoXXXXX.X.X|.|.}.].[.[.~.[.[.[.[.[.}.|.OX[.[.|.|.|.|..X.XoXXXoXXXXXoXoXoXoXXXoXXXeXeXyXuXuXeXeXyXyXyXyXyXyXuXuXuXgXiXiXiXiXiXaXaXaXiXiXiXaXaXiXiXiXaXaXaXaXaXaXaXaXaXaXaXaXaXaXaXaXaXaXaXaXiXpXpXpXpXuXeXeXtXW.I D k j j k L Y W G k m G m L G G F J R R a.k.a.6.a.k.k.P.I.)./.{.I.I.{.{.I.{.{.$X#X#X!.eX@X#X X!. X{.@X@X{.$X%X$X$X$X$X$X$X'.'.'.'.'.`.`.`.`.'.'.'.'.'.'.'.'.'.'.'.'.'.'.'.'.'.'.'.'.'.'.'.'.'.'.'.'.'.'.'.'.'.`.`.`.`.`.`.`.'.'.`.J.w.7.g : ; + + O O O O O O O O O O O O O O o + + $ + + ",
"                                                                                            . . . . . . . . . . O O O . . . . . . . . . . . O O O O O O O O O O O O O O O O O O O + + + ; ; - ; ; ; t p G 0.U._._._._.U.b.w.w.w.b.b.b.b.b.c.P.P.P.P.I.~.(./.(.P.c.P.d.d.a.9.9.9.8.R J D b D m M M L G F W F 6. XeXpXpXiXaXaXaXiXaXaXaXaXaXdXdXdXdXdXfXfXfXfXzXzXzXzXzXzXzXzXzXzXfXfXdXfXfXfXdXdXsXsXsXaXsXsXiXiXiXuXiXuXuXyXuXyXyXyXyXuXuXuXyXyXyXyXyXeXeXeXXXXXXXXXXXXXXXXXXXXXXXXX@X@XeXeXeXyXuXuXpXpXiXiXiXiXiXiXsXsXdXfXfXzXnXzXfXnXnXfXnXnXnXnXnXzXzXfXfXfXfXfXzXnXnXfXnXnXnXnXzXfXfXfXsXsXaXaXgXgXiXiXiXpXpXuXyXyXyXyXyXoXoXoXoXXXqXoXXX.X|.|.|.|.}.].[.[.~.~.[.~.[.[.[.].[.}.}.}.[.[.OXOX|.|..XoXoXoXXXXXoXoXXXXXeXeXoXeXeXeXeXqXoXyXyXuXuXuXuXuXuXgXiXiXiXiXiXiXaXaXiXiXiXaXaXiXaXaXaXaXaXaXaXaXaXaXaXaXaXaXaXaXaXaXaXaXiXiXpXpXpXpXpXpXeXeXeXW.G k m k j k L Y W G k k G D L G F Q K R R s.k.s.a.d.d.d.P.I.).!.#X{.{.{.{.!.!.!.$X#X#X#XtXwXtXwX XeXeXpXpX+X+X@X$X$X$X$X$X&X&X$X'.'.'.'.'.`.`.`.`.`.'.'.'.'.`.`.`.`.K.K.K.K.`.`.`.`.`.'.'.'.'.'.'.'.'.'.'.'.'.'.'.'.`.`.`.`.`.`.`.`._.w.n g : ; + + O O O O O O O O O O O O O O O O o + + + ",
"                                                                                                . . . . . . . . . . . . . . . . . . . . . . O O O O O O O O O O O O + + + + + + O + + ; - - - ; : : p D 7.b._._._._.U.b.w.w.w.w.b.b.b.b.c.k.P.P.P.W.).).#X#X{.~.c.I.k.d.a.9.9.9.8.6.J D b D D M M L L F W F E /.eXpXpXiXiXiXiXiXaXaXaXaXaXaXdXdXdXdXdXdXfXfXzXzXzXzXzXzXzXzXzXzXzXzXzXzXzXfXdXdXsXsXsXsXsXiXiXiXiXuXuXuXpXyXuXyXyXuXuXuXuXyXyXyXyXyXeXeXeXXXXXXXoXXXXXXXXX.XXXXXXXXXXXXXXXXX@XeXyXuXuXpXiXiXsXiXsXsXdXdXdXfXfXzXnXnXnXnXnXnXnXnXnXnXnXnXnXzXfXfXzXzXzXnXnXfXnXnXnXnXzXfXfXfXsXsXaXaXiXgXiXiXiXpXpXpXuXyXyXyXyX+XoXXXXXXXoXoX.X|.|.|.|.}.}.].[.[.~.~.~.~.[.[.[.].}.[.[.}.}.}.[.}.[.}.|.|..X.XXXoXoXoXXXoXeXeXoXoXqXyXgXsXpXuXyXyXyXuXuXuXiXiXaXaXaXaXaXaXaXaXiXiXiXaXaXaXaXaXaXaXaXaXaXaXaXaXaXaXaXaXaXaXaXaXaXaXpXpXpXpXpXpXpXpXuXeXeXA.M M m j j k L Y T L k k G G D F Q T R 8.8.s.P.d.s.k.k.d.P.P.).!.#X{.{.{.{.!.!.!.#XpXeXwXtXtXxXtXwXtXtXsXxXxXsXpX+X+X$X$X$X$X&X$X'.'.'.'.'.'.'.`.`.`.'.'.'.'.`.`.`.K.K.J.J.J.K.K.`.`.`.`.`.'.'.'.'.'.'.'.'.'.'.'.'.'.'.`.`.`.`.`.`.`.`.w.7.g : ; + + O O O O O O O O O O O O O O . . O O O + ",
"                                                                                                    .               . . . . . . . . . . . . O O O O O O O O + + + + + + + + + + + + - - - - - ; , t d H 9.v._._._.U.U.U.b.w.w.b.b.b.b.c.k.k.P.P.W.W.(.(.#X@X#X).P.).P.d.a.a.9.9.8.6.J D b m m m M G G L F Q E Q.eXpXiXiXiXiXiXiXaXaXaXaXaXaXdXdXdXdXdXdXfXfXzXzXzXzXzXzXzXzXzXzXfXfXfXdXdXdXsXsXsXsXsXsXiXiXiXuXuXuXuXuXuXyXuXuXuXuXuXyXyXyXyX+X+X+X+X@X@XXXoXXXoX.X.X|.|.|.|.|..X.X X X X.XXX@XyXuXuXpXiXiXsXiXsXsXdXdXdXfXfXzXnXnXnXnXnXnXnXnXnXnXnXnXnXzXfXzXzXzXzXzXnXnXnXnXnXnXzXfXfXfXfXsXsXaXiXgXiXiXiXiXiXpXpXuXyXyXyX+XoXXXXXoXoX.X|.|.|.}.}.].}.].[.[.[.[.~.~.[.[.[.[.[.[.[.].}.}.OXOX}.}.|.|.|.|..X.X.X.XoXXXoXXXoXeXeXyXyXuXuXyXuXuXpXuXuXuXuXiXiXiXaXaXiXiXgXaXiXiXiXiXaXaXaXaXaXaXaXaXaXaXaXaXaXaXaXaXaXaXaXaXaXaXiXiXpXpXpXpXpXuXuXeXwXA.G M m j j m G W Y P m k D L D F T W E 8.8.l.P.d.p.d.P.P.P.P.).!.{.I.I.{.!.!.!.!.#XxXtXwXxXtXmXxXtXrXbXkXmXmXMXxXtXtXpXpX$X$X$X$X$X$X'.'.'.'.'.'.'.'.'.'.'.'.'.`.K.K.K.K.J.J.J.K.K.K.K.K.`.`.`.'.'.'.'.'.'.'.'.'.'.'.'.'.'.`.`.`.`.`.`.J.7.c t ; + O O O O O O O O O O O O O O O . . . . O O ",
"                                                                                                                    . . . . . . . . . . . . O O O O O O O O O O O O O O + + + + + - - - ; ; ; ; t i f n 0.v._.v.b.b.b.b.b.b.b.b.d.d.d.k.k.k.P.(././.#X#X#X#X/.P.P.(.P.d.l.a.9.9.8.6.J G D D m D m G G L F Q K c.eXpXpXiXiXiXiXaXaXaXaXaXaXaXdXdXdXdXdXdXdXdXzXzXzXzXzXzXdXdXdXdXfXfXdXdXaXaXaXaXaXsXsXaXiXiXuXuXuXuXuXuXyXyXyXyXyXyXyXyXyXyXyXoXoXoXoXoXXXXXXX.X|.|.|.|.OX}.}.}.|.|.|.{.|.|..XXXeXuXuXiXiXiXiXsXsXdXdXdXfXfXzXzXzXnXnXnXnXnXnXnXnXnXnXnXnXnXnXnXfXnXnXnXnXnXnXnXnXnXnXfXfXfXfXfXfXsXiXiXiXiXiXiXiXiXpXuXuXyXyXoXXXoXoXoX.X|.|.OX}.}.].].].[.~.~.[.[.~.~.~.S.S.~.[.].].].}.}.}.}.}.}.|.|.|.|.|.|..X.XoXoXXXoXeXeXyXyXyXyXyXyXyXuXuXuXuXuXpXpXiXiXiXiXpXpXiXiXiXiXiXiXiXiXaXaXaXaXaXaXaXaXaXaXaXaXaXaXaXaXaXaXpXpXpXpXpXpXpXpXuXuXeXeXqXk.G M k k j m G U W P D k D L D F T E E 8.p.d.k.s.p.d.c.c.c.I.~.!.I.~.!.!.P.!.{./.#XtXtXwXwXtXGXmXkXrXmXbXmXbXbXmXmXmXmXmXxXxXpX$X$X$X$X'.'.'.'.'.'.'.'.'.'.'.'.'.`.L.K.K.`.`.`.K.K.K.K.J.J.J.K.`.`.`.`.`.`.'.'.'.'.'.'.'.'.'.'.`.`.`.`._.0.d i ; + O O O O O O O O O O O O O O O O . . . O O ",
"                                                                                                                    . . . . . . . . . . . . O O O O O O O O O O O O O O + + + + - - - - ; ; ; : t i d H s.b.b.b.b.b.b.b.b.b.b.d.d.l.d.d.c.z.W./.wXwXwXwX#X#X(.P.P.).P.d.s.a.0.9.8.6.K Q G G G G G G G G F F I k.eXpXpXpXiXiXaXaXaXaXaXaXaXaXdXdXdXdXdXdXfXfXzXzXzXzXzXfXdXdXdXzXzXzXfXdXaXaXaXaXaXsXsXaXiXiXuXuXuXuXuXyXyXyXyXyXyXyX+X+XyXyX+XoXoXoXoXoXXXXX.X|.|.|.|.}.}.].].].].].].].{.|..X.X@XyXuXiXiXiXiXsXdXdXdXdXfXfXzXzXzXzXnXnXnXnXnXnXnXnXnXnXnXnXnXnXnXnXnXnXfXfXnXnXnXnXzXfXfXfXdXfXdXfXsXaXaXiXiXiXiXiXpXuXuXyXyXoXXXoXoXoX.X|.|.}.}.].].].~.~.~.Q.~.~.S.~.S.S.S.S.~.[.}.}.}.}.}.}.}.OX|.|.|.|.|..XoXoXoXoXoXoXeXeXeXyXyXyXeXuXuXyXyXyXuXuXpXpXiXiXaXaXfXfXsXaXaXaXiXiXiXiXaXaXaXaXaXaXaXaXaXaXaXaXaXaXaXaXaXaXpXpXpXpXpXpXpXpXuXuXeXeX Xh.G M k k s m G Y W P D k D G G F T E E 8.p.s.d.l.d.k.c.d.b.I.~.~.~.).).(.(. X#X/./.wXwXwXwX5XbXbXtXkXmXZXSXvXtXrXtXkXbXbXmXmXnXnXaX$X$X$X%X%X$X$X$X$X$X'.'.'.'.'.'.'.L.L.`.`.`.`.`.`.`.`.K.K.J.J.J.J.K.`.`.`.'.'.'.'.'.'.'.`.'.'.`.'.`.`.v.K d : + O O O O O O O O O O O O O O O O . . . . . ",
"                                                                                                                  . . .     . . . . . . . . O O O O O O O O O O O O O O + + + + - - ; ; ; ; ; ; : g b 6.d.b.b.0.d.d.d.d.d.d.d.d.s.s.d.k.k.c.W./.wXwXwXwX/./.~.k.P.W.k.d.s.a.0.9.8.6.R J F G G G G G G G D F Q h.eXpXpXpXiXiXiXaXaXaXaXaXaXaXdXdXdXdXdXdXfXdXzXzXfXfXfXfXfXfXfXzXzXzXdXdXdXaXaXaXaXaXaXaXaXiXiXuXuXuXuXyXyXyXyXyXyX+X+X+XeX+XoXoXoXoXoXoXXX.X|.{.}.}.}.[.[.[.~.~.~.~.Q.~.].|..XXX+XyXuXiXiXsXsXdXdXdXfXfXfXzXzXzXnXnXnXnXnXnXnXmXnXnXnXnXnXnXnXnXnXnXnXnXfXfXnXnXnXnXzXfXzXzXfXfXfXfXfXfXiXiXiXiXaXaXiXgXuXyXyXeXXXoXoXXX|.|.|.}.}.[.].~.S.S.S.S.S.S.S.S.S.v.v.S.S.[.[.}.}.}.}.}.}.}.|.|.|.|..X.XoXoXoXoXXXoXoXeX+XeXyXyXyX+X+XyXuXuXuXuXyXyXyXyXyXuXiXiXiXiXiXiXiXiXiXiXaXaXsXsXaXaXaXaXaXaXaXaXaXaXaXiXaXaXpXpXpXpXpXpXpXpXuXyXeXeX!.a.M k k k j m P Y P P G m D G G P W E E 8.9.s.d.d.d.k.k.d.d.P.Q.Q.(.(.).).(././.).W.(./././.(.<XtXrXkXmXGXFXGXmXbX5X5XrXrXmXmXmXmXnXxXsXpX@X@X$X$XpXpXpXpX$X$X'.'.'.'.'.L.'.'.'.`.`.`.`.`.'.'.`.`.J.J.J.J.`.`.`.'.'.'.'.'.'.'.`.`.'.'.'.'.{.0.b : ; O O O O O O O O O O O O O O O . . . . . . ",
"                                                                                                                  . . . . . . . . . . . . . O O O O O O O O O O O O O + + + + + - - ; ; ; ; ; ; : g G 9.s.s.0.0.s.s.s.s.d.d.d.s.s.d.k.c.k.k.P.(.#X#XwXtX#X/.).P.P.P.d.d.s.l.a.0.9.8.6.K F G m m M G G G d F Q a.wXeXpXuXiXiXiXiXiXiXaXaXaXaXaXaXdXdXdXdXdXdXzXzXzXfXfXfXfXfXfXdXdXfXdXdXaXaXaXaXsXsXiXiXaXiXiXuXuXuXuXyXyXyXyXyXyX+XeX+X+XoXoXXXoXoX.XXX.X|.}.].[.[.[.~.~.v.v.v.v.v.v.v.].{..XXX@XyXuXiXiXsXdXdXdXdXfXfXfXzXzXzXnXnXnXnXnXnXnXmXnXnXnXnXnXnXnXnXnXnXnXnXnXzXfXzXnXzXfXfXzXzXfXfXfXfXdXfXaXiXiXiXaXaXiXiXuXuXyXeXoXoXoXXX|.OX}.}.[.[.~.Q.S.S.S.S.S.S.v.v.v.v.v.S.S.~.[.[.].}.}.}.}.}.|.|.|.|..X.XoXoXoXoXoXoXoXeXoX+XeXyXyXyXyXyXyXyXuXuXuXuXpXpXpXuXiXiXiXiXiXiXiXiXiXiXaXsXsXsXaXaXaXaXaXaXaXaXaXiXiXiXaXaXpXpXpXpXpXpXpXpXyXyXeXeX!.u.k k k m j m Y Y P L L D D G L P W E E 8.8.s.d.d.p.k.c.c.d.P.P.W./.(.).W.~.).W.P.P.W.W.^.W.W.^./.rXkXbXSXZXFXFXZXvXbXtXrXkXbXmXFXGXmXmXxXtXtXtXtXMXMXxXnXdX$X$X$X'.'.'.'.'.'.'.'.'.'.'.'.`.`.`.'.`.K.J.J.J.`.`.'.'.'.'.'.'.'.'.`.`.'.'.'.%XU.H p ; + O O O O O O O O O O O O O O . . . . . . ",
"                                                                                                                . . . X O O X . . O O O O O O O O O O O O O O + + + + + + + ; ; ; ; ; ; ; ; , , i s D J 8.8.6.6.9.9.s.s.l.d.d.d.k.k.k.k.k.k.c.P.(.#X#X#X/./.(.P.P.P.k.d.s.s.s.s.0.9.6.K F D m m M G G G Q G F W  XeXpXeXiXiXiXpXaXaXaXaXaXaXaXaXdXdXdXdXdXdXfXfXfXfXdXdXdXdXdXfXdXdXaXaXaXaXaXaXaXaXiXiXaXaXiXuXuXuXuXyXyXyXyXyXyX+X+XoXXXoXXXoXXX.X|.}.[.[.[.[.~.~.S.v.v.v.x.c.b.x.v.v.].|. XXX@XyXuXiXiXsXdXdXdXdXfXfXzXzXzXzXnXnXnXnXnXnXnXmXnXnXnXnXnXnXnXnXnXnXnXnXnXnXfXfXzXnXnXnXzXzXzXzXnXnXfXfXaXaXaXaXaXaXsXiXpXuXyXyXoXoXXXoX|.OX}.}.[.[.Q.Q.v.v.v.v.v.v.v.v.v.v.v.v.v.v.S.[.[.].].].[.}.OX|.|.|.|.|.|.oXoXoXXXoXXXXXoXoXyX+XyXyXyXeXyXyXuXuXuXuXpXpXiXiXiXpXiXiXiXiXiXiXiXiXiXiXaXsXaXaXaXaXaXaXaXaXaXiXiXiXaXaXaXaXiXiXiXiXpXpXyXeXeXeXQ.W M k k k k M P P P F P G D G L Q W E E 8.p.l.d.d.s.c.c.c.k.(.W.(././.(.(.W.P.P.k.k.W.(./.(././.tXrXtXtXmXZXGXGXFXmXSXSXmXmXbXkXmXZXGXFXZXSXmXbXmXZXSXmXmXtX{.I.[.%X`.'.'.'.'.'.'.'.'.'.'.'.`.`.`.`.K.K.J.K.K.`.`.`.`.`.`.'.'.'.`.`.`.'.'.`._.7.f : ; + O O O O O O O O O O O . . . . . . . . ",
"                                                                                                                . . X o # + # + o o o o O O + + o o + + + + + + + + + + + ; ; ; - ; ; ; ; ; , u p D T E 8.8.8.8.8.p.s.s.l.l.k.d.k.k.k.k.k.k.c.P.W.(././.(.(.W.P.P.P.k.d.d.d.d.d.0.9.R K Q G D D G G G G L L Q W (.wXpXeXpXuXiXpXpXpXaXaXaXaXaXaXdXdXdXdXdXdXdXdXfXfXfXfXfXfXfXfXdXdXaXaXaXaXiXiXiXaXsXsXaXiXuXuXyXuXyXyXyXyXyX+X+XoXoXoXXXoXXXXX.X|.}.[.[.[.[.~.S.v.v.c.c.b.b.b.b.c.v.S.].|. XXX@XyXuXiXiXsXdXdXfXfXfXfXzXzXzXzXnXnXnXnXnXnXnXnXnXnXnXnXnXnXnXnXnXnXnXnXnXfXfXfXnXzXzXnXzXzXzXzXnXfXfXfXfXfXsXsXaXaXsXaXiXuXuXyXeXXXoXXXoX.X|.].[.~.v.v.v.v.v.v.v.v.x.x.x.x.x.x.v.v.v.~.[.[.[.[.[.}.}.OXOXOXOXOX|.|.oXoXoXXXoXXXoXXXyXyXyX+XoXyXyXuXuXuXuXuXpXpXiXiXiXiXiXiXiXiXiXiXiXiXiXiXaXaXaXaXaXaXaXaXaXaXaXaXiXiXaXaXaXaXiXiXiXiXpXyX+X+XeXeXW.W M k k j k G G P P P P G D D P T W E E 6.p.l.d.d.s.z.c.k.k.).W.(.(.(.W.W.P.P.P.k.k.(.wXrXwX/./.tXtXbXkXmXZXGXGXFXGXZXZXGXGXmXkXrXrXbXZXKXGXZXSXZXCXSXCXvXtX/.W.c.U._.{.%X%X'.'.'.'.'.'.'.'.'.'.`.`.`.K.K.K.K.K.K.`.`.`.`.`.'.`.`.`.`.'.'.`._.0.b : ; ; + O O O O O O O O O O . . O O . . . . ",
"                                                                                                                . . X o o # + + + + + + + + + + + + + + + + + + + + + + + + ; ; > ; ; ; , u a j m F W ..p.p.#.#.p.a.a.l.l.l.k.j.d.d.k.k.k.k.c.P.W.(.(.(.(.~.W.P.k.k.c.d.d.d.d.d.s.6.R J Q G D D G G G G G Y T T z.eXgXgXpXuXiXpXpXpXaXaXaXaXaXaXdXdXdXdXdXdXdXdXdXdXdXdXdXdXdXdXdXsXaXaXaXiXuXpXuXiXsXaXiXuXuXyXyXyXyXyXyXyXyX+XoXoXoXoX.X|..X|.|.}.[.[.[.[.S.v.v.v.c.b.b.b.g.g.b.c.v.S.].|. XXXXXyXuXiXdXdXfXfXfXfXfXfXzXzXzXnXnXnXnXnXnXnXnXnXnXnXnXnXnXnXnXnXnXnXnXnXnXfXfXnXnXnXnXzXzXzXzXzXnXfXfXfXdXdXdXdXsXsXsXsXaXpXuXyXyXoXoXXXoXoX.X|.[.~.v.v.c.c.c.c.c.c.c.c.D.D.D.D.c.v.v.S.~.~.~.~.[.[.}.}.}.}.}.}.OX|.|.oXoXoXXXoXXXXXoXyXyX+X+XyXyXuXuXgXuXuXpXpXiXiXuXuXuXuXiXiXiXiXiXiXiXiXaXaXaXaXaXaXdXdXaXaXaXaXiXiXiXiXiXiXiXiXiXiXpXyX+XeXeXeXW.W k k k k m G G L P T P F L G P T E E E 6.p.s.l.d.l.z.c.k.d.W.W.W.W.k.k.k.k.k.k.Y.W./.wXtXtX<X5XkXtXmXbXmXZXGXGXFXFXZXZXFXFXZXmXtX<XwXkXZXFXFXZXvXvXNXCXmXmXkX<X^.(. XeXsXaX$X%X`.'.'.'.'.'.'.'.'.`.`.`.`.K.J.J.K.K.J.J.K.K.`.`.`.`.`.`.'.`._.b.b y ; ; O O O O O O O O O O . . . O O . . . . ",
"                                                                                                                . . . X O X o + + + + + + + + + + + + O + O O O O + + + + ; ; ; > ; ; ; h x k G L Q W #.#.#.#.#.p.p.a.l.l.l.k.k.d.d.k.k.k.k.k.c.W././.(.).W.P.P.k.k.k.k.d.d.d.d.s.6.K J Q G D D M L G G G Y T F d.wXgXgXuXuXuXiXpXpXiXaXaXaXaXaXaXaXdXdXdXdXdXdXdXdXdXdXdXaXdXdXdXaXaXaXiXiXpXuXyXuXyXyXyXyXyXyXyXyXyXyXyXyXyX+XXXXX.X.X|.|.|.|.}.[.[.[.[.S.v.x.c.c.c.b.b.F.F.F.b.c.v.S.].|.|..X@XyXuXiXdXdXfXfXzXfXfXfXzXzXzXnXnXnXnXnXnXnXnXnXmXnXnXnXnXnXnXnXnXnXnXnXnXfXfXnXnXnXnXzXzXzXzXzXnXfXfXfXfXfXdXdXdXsXsXsXaXiXpXuXyXeXXXXXXXXX.X.X|.[.v.v.b.b.b.b.b.b.b.b.b.b.b.b.D.c.v.v.S.Q.Q.~.~.[.[.}.}.}.}.}.}.OX|.|.|.oXoXXXoXXXoXoX+XyXyXyXyXyXuXuXuXuXpXpXuXuXuXuXuXuXuXuXiXiXiXiXiXiXaXaXaXaXdXdXdXsXaXaXaXaXiXiXiXiXiXiXiXiXiXiXpXyX+XeXyXeXW.W k k k M G G G L P T P P L G F T E E E 6.p.a.l.l.l.k.k.k.a.k.Y.k.k.j.l.j.l.k.k.Y.(./.wXtXtXwXtXrXrXmXmXmXZXGXGXGXFXSXSXFXKXKXZXmXtXwXwXxXZXFXJXFXmXkXvXSXFXZXCXkXhXkXmXmXnXfX$X%X`.`.`.`.`.'.'.'.'.`.`.`.`.K.J.J.J.J.J.J.J.K.K.`.`.`.`.`.'._.U.7.i : ; O O O O O O O O O O O . . O O O . . . ",
"                                                                                                                . . . . . . O O + o o O O O O O O O O O O O O + + + O + + ; ; : : : , a k M L F Q E ! p.E E 6.6.a.a.l.k.k.k.k.k.d.d.k.k.k.k.k.z.c.P.P.P.P.P.P.P.c.k.k.k.d.d.d.d.s.9.K J F D m k M L G G G F T G W wXeXgXuXuXuXpXpXpXpXiXiXiXaXaXaXaXaXaXdXaXaXaXsXaXaXaXaXiXaXaXaXaXaXaXiXpXuXuXuXuXyX+X+X+X+XyXyXyXyX+XyXyX+X+XoXoX.X.X|.}.}.[.[.[.[.~.S.S.v.x.c.b.b.g.g.s.F.F.z.c.v.}.|.|.|..X@XyXuXiXsXdXfXfXzXzXzXzXzXnXnXnXnXnXnXnXnXnXnXnXnXmXnXnXnXnXnXnXnXnXnXnXnXnXzXnXzXzXnXnXzXzXzXzXnXzXfXfXfXfXfXfXdXsXsXsXsXiXuXuXyXeXXXXXoXoXXX.X|.}.~.v.g.g.g.g.b.b.g.g.g.g.b.b.b.c.v.v.S.S.S.S.[.[.[.[.[.}.}.}.}.OX|.|.|..XXXXXoXXXeXoXoXeXyXyXyXyXyXyXuXuXuXuXuXuXuXuXuXuXuXuXuXuXiXiXiXiXsXsXaXaXaXaXaXaXaXiXiXaXiXiXiXiXiXiXiXiXiXiXpXuXyXeXeXeXW.W k x k L L D L G L P P P G L G Y E E E p.p.a.a.a.l.k.k.a.a.l.j.l.j.M.Y.k.Y.k.^.^.(./.wXtXtXwX5XwXtXbXkXmXmXGXFXGXFXGXZXGXFXKXFXmXtX/.#XwXmXZXFXFXFXCXhX4XCXFXFXmXvXvXSXFXFXZXsXpX_._.J.K.K.`.`.'.'.'.'.'.`.`.K.J.J.J.t.r.t.J.J.J.J.J.`.`.`._._.0.H g ; O O O O O O O O O O O O . . . . . . . ",
"                                                                                                            . . . . . . . . O O + o o O O O O O O O O O O O + + + + + + + ; , : : , u s k G P T E p.p.p.p.p.p.a.l.d.k.P.P.P.P.k.k.d.k.k.d.k.k.k.c.P.P.W.k.c.P.P.c.k.k.d.d.d.d.d.0.9.K K F D k k m P G G L L T G T (.wXeXuXuXpXpXpXpXpXiXiXiXaXaXaXaXaXaXaXaXaXaXaXiXiXuXyXpXuXpXiXiXiXiXiXiXpXuXuXyX+X+X+X+X+X+X+X+X+X+XoXoXoXXXoXXX.X|.OX}.[.[.[.[.~.S.S.v.v.c.b.b.F.s.s.s.s.g.z.x.S.}..X.X.X.X@XyXuXiXsXdXfXfXzXfXzXzXzXnXnXnXnXnXnXnXnXnXnXnXmXmXnXnXnXnXnXnXnXnXnXnXnXnXnXnXnXnXnXnXzXzXzXzXnXzXfXfXfXfXfXfXdXsXsXsXsXaXiXuXyXeXoXXXoXoXXXXX|.|.].S.b.g.F.F.F.F.b.F.b.b.g.b.b.b.c.v.v.v.S.S.G.[.[.[.[.[.}.}.}.OX|.|.|.|.oXXXoXoXXXXXXXoX+XyXyXyXyXyXuXuXuXuXuXuXuXuXuXuXuXuXuXuXiXiXiXiXaXaXaXaXaXaXaXaXiXiXiXiXiXiXiXiXiXiXiXiXiXpXuXuXyXeXeXeXA.W k j k G G m G G G P P P G L G W E E E p.p.a.a.a.a.l.l.a.l.j.k.k.M.^.^.W.W.W./.(.(.<XwXrXtXwXwXwXrXMXkXkXmXGXFXGXFXGXZXZXFXKXFXSXxX/./.wXtXmXGXGXJXKXCXhX4XvXFXFXNXCXvXCXFXFXmXxX%X_.J.J.J.K.K.`.`.`.'.'.'.`.`.`.J.J.J.t.t.t.t.J.J.J.J.J.J.`._.U.7.n g : ; O O O O O O O O O O O . . . . . . ",
"                                                                                                      . . . X . . . . . . . O o o + + o O O O O O O O O O O O O O + + + ; , u , u p k k D F E p.a.a.a.a.l.l.k.k.P.P.W.W.P.W.P.P.k.k.d.d.k.k.k.k.k.c.P.W.d.k.k.k.d.d.d.d.d.d.d.d.0.9.K K F D k k m P G G L L Y G F W.eXeXuXuXpXpXpXpXpXiXiXiXaXaXaXaXaXaXaXaXaXaXaXiXpXyXyXyXpXpXuXiXiXiXaXiXpXuXyXyX+XoXoX+X+X+X+X+X+X+XXXoXoXoX.X.X|.}.[.[.[.[.~.~.S.v.v.x.c.b.g.g.g.s.i.s.s.g.z.S.]. XXXXX.XXXeXyXuXiXdXfXzXzXzXzXzXzXnXnXnXnXnXnXnXnXnXnXnXnXnXnXnXnXnXnXnXnXnXnXnXnXnXnXnXnXnXnXzXzXzXzXzXzXzXzXzXfXfXfXfXfXfXdXsXsXsXsXaXiXyXeXXXXXoXXX.X.X.X|.}.~.v.b.g.s.s.s.g.g.F.F.F.F.g.g.b.c.v.v.v.S.S.S.[.[.[.[.[.[.}.OX}.|.|.|..X.XoXXXXXXXXXoX+XyXyXyXyXyXyXyXuXuXyXuXuXuXuXuXuXuXuXuXiXiXiXiXaXsXaXaXaXaXaXaXiXiXiXiXiXiXiXiXiXiXiXiXiXpXuXuXyXeXeXeXA.W k h k M D m m m G P Y P L P P W E E E p.a.a.a.p.a.l.l.a.k.k.W.W.^./././.^./.wX/./.<X5XwXrXrXwX5XrXkXtXkXbXmXZXZXZXmXmXZXFXFXFXZXmXwX#XwXtXmXZXGXKXJXFXvX4X2XvXKXFXvXCXvXvXSXZXxX+X%X_.J.J.J.J.J.J.K.`.`.`.`.`.`.K.J.J.J.J.t.t.t.t.J.J.J.J.J._._.w.0.7.n g : ; O O O O O O O O O . . . . . . ",
"                                                                                                      . . . X X . . . . . O O o o o o + + + O O O O O O O O O O O + + + ; , a u M L L I F W a.k.l.a.s.l.k.k.c.z.W.W.).(.W.W.W.P.P.k.d.l.k.k.k.k.k.k.P.W.c.d.s.p.d.d.d.d.d.d.d.d.0.9.K K F G k k m P G G G L Y G G k.wXeXuXuXpXpXpXpXpXpXiXiXaXaXaXaXaXaXaXaXaXaXaXiXyXyXyXyXpXpXpXpXpXpXpXpXpXuXyX+XoXoXoXoXoXoXoXoX+XoXoXoX.X.X.X|.}.}.[.[.[.~.S.S.v.v.v.x.b.g.g.F.s.i.i.i.g.g.z.Q.}. XXXXXXXoXeXyXuXiXdXdXfXzXzXzXzXzXnXnXnXnXnXnXnXnXnXnXnXnXnXnXnXnXnXnXnXnXnXnXnXnXnXnXnXnXnXnXnXzXzXzXnXnXnXzXzXfXfXfXfXfXfXdXsXsXsXaXaXiXyXeXoXoXeXoXoX.X.X.X|.].S.c.s.i.i.i.s.s.g.g.s.F.F.g.g.b.c.v.v.S.S.S.G.[.[.[.[.[.[.OX|.}.|.|.|..X|.oX.XXXoXoXeXyXyXyXyXyXuXuXuXuXyXyXyXyXuXuXuXuXuXuXiXiXiXiXaXaXaXaXaXaXaXaXiXiXiXiXiXiXiXiXiXiXiXiXpXuXuXuXyXeXeXwXA.U k h k M M G k k D Y U P P P Y W E E E p.a.a.a.a.a.d.j.j.k.W.).(./.wXwX5X/.5XtX<X<X<X5XwXwXtXrX<X5XrXrXrXrXbXmXmXmXmXmXZXFXFXFXZXxXtXtXwXMXmXZXGXFXKXKXZXkX,X2XSXKXNXvXSXhXrXmXmXtX@X%X_.t.t.t.t.t.J.J.K.`.`.`.`.`.`.`.K.J.J.t.t.t.t.t.t.r.t.J.J._.t.w.0.7.n g : ; O O O O O O O . . . . . . ",
"                                                                                                      . . . X . . . . . . O O O O o o o + + + + + + + + + + O O + + ; , u j k k T ..u.a.a.s.d.k.d.s.a.s.k.z.W.W.(.(.#X#X/.(.(.W.P.k.k.k.k.k.k.k.k.k.d.k.s.s.a.a.s.s.s.s.d.d.d.d.0.9.K K Q G m d m L G G L L Y G L p.wXeXuXuXuXyXpXpXpXiXpXpXaXaXaXaXaXaXaXaXaXaXaXiXpXyXyXpXpXpXuXuXuXuXuXuXuXyXyX+XoXoXoXoXoXoXoXoXoXXXXX.X.X|.|.}.}.].[.[.~.~.S.v.v.v.v.c.b.g.g.s.i.i.i.i.s.g.z.~.|.XXeXeX@X@X+XyXuXiXdXfXzXzXzXzXzXzXnXnXnXnXnXnXnXnXnXnXnXnXnXnXnXnXnXnXnXnXnXnXnXnXnXnXnXnXnXnXzXzXnXnXnXnXnXnXzXzXfXfXfXfXfXfXfXaXaXaXiXuXyXyXyXyXyXyX@XoX.X.X X].[.v.F.i.i.i.i.i.s.s.s.s.s.g.F.g.b.c.v.v.v.S.S.S.~.~.[.[.].}.}.}.}.|.|.|.|.oXoXXXXXoX+XyXyXyXyXyXyXyXyXyXuXuXuXyXuXuXuXuXuXuXiXiXiXiXiXiXaXaXaXaXaXaXiXiXiXiXiXiXiXiXiXiXiXpXuXuXuXuXeXeXeXwXk.L k j k G L L M k D P T P P P Y W ..E E p.a.a.a.a.f.k.k.k.Y.W.(././.wXtXtX<XrXtX<XwX<XrX5XwX<X5X^./.<X/.W.^./.<X5XtXkXmXmXmXSXmXbXtXrXwXwXmXmXZXGXFXFXFXFXvX4X,XvXFXFXvXCXCXhX5XkXmXxXpX@X_.J.J.J.t.t.t.t.t.J.J.J.`.`.`.`.`.J.J.J.t.t.t.r.r.t.r.t.J.J.J.J.w.w.7.n g t ; ; O O O O O . . . . . ",
"                                                                                                      . . . . . . . . . . O O O O O o o O + + + + - - - ; - ; + + ; ; : p k L L W p.h.s.s.d.d.d.d.d.k.k.k.k.k.k.W.)./.#X/./.(.W.P.P.k.k.k.k.k.k.k.k.k.k.s.s.a.a.s.s.s.s.d.d.d.d.s.9.R K Q G m d m G G G G L L G L T !.eXeXuXuXyX$X$XpXpXpXpXpXpXpXpXiXpXiXaXaXiXaXiXiXpXpXpXpXpXuXuXuXyXuXuXuXyXyX+XoXoXoXoXoXoXoXoX.X.X.X.X.X|.}.}.].[.[.~.~.S.v.v.v.v.c.b.b.F.s.i.i.u.u.i.s.g.Z.]. XqXeXeXeXeXyXuXuXiXdXdXfXzXzXzXzXzXnXnXnXnXnXnXnXnXnXnXnXnXnXnXnXnXnXnXnXnXnXnXnXnXnXnXnXnXnXnXzXzXnXnXnXnXnXnXzXzXfXfXfXfXfXfXfXaXaXiXiXuXuXyXyXuXuXyXyX+X+XoX.X|.[.S.z.i.i.i.6.i.i.i.i.i.i.s.s.g.b.b.c.v.v.S.S.S.~.~.~.~.[.].}.}.}.}.}.|.|..XXXoXXXXXoXyXyXyXyXyXyXyXyXyXyXyXyXyXuXuXuXuXuXuXiXuXuXiXiXiXiXiXaXiXaXiXiXiXiXiXiXiXiXiXiXiXiXuXuXuXuXuXeXeXeX Xk.L k M j G G D M k D P T P P Y Y W ..E E p.a.a.l.l.l.k.j.k.k.W.)./.5XrXtXtXwXrXrX<X<X<X5X5X5X<X<X^.Y.Y.Y.j.M.Y.^.^.<X5XrXkXkXbXkXtX5X5X5XwXmXZXGXFXFXFXFXFXvX4X2XkXZXKXNXhXCXcX,X2XkXSXmXsX+X_._.J.t.t.t.r.t.t.t.t.J.J.`.`.`._._.J.J.t.t.r.r.r.r.r.t.t.t.t.`.J.w.w.7.n c t ; ; O O O O . . . . ",
"                                                                                                      . . . . . . . . . . O O O O O O O O O + + + - - - - - > - ; : , y j M L T E p.a.s.d.d.k.k.k.c.c.c.c.k.k.k.P.W.(././././.).W.P.P.k.k.k.k.k.k.d.k.d.s.s.a.a.s.s.d.d.d.d.d.d.s.9.6.K J G m d m G G D G F L L G G k.tXeXuXuXyX$X$XpXpXpXpXpXpXpXpXpXpXpXiXiXiXiXaXaXiXiXpXpXpXuXuXuXyXuXuXyXyXyX+XoXoXoXoXoXoXXXoX.X.X.X.X|.|.}.].[.[.~.~.S.v.v.v.c.c.b.b.g.s.i.i.u.u.u.i.g.b.[.|.XXeXyXyXyXyXyXuXiXiXsXdXfXfXzXzXzXzXnXnXnXnXnXnXnXnXnXnXnXnXnXnXnXnXnXnXnXnXnXnXnXnXnXnXnXnXnXnXzXzXnXnXfXfXfXfXfXfXfXfXfXfXfXfXfXaXaXiXiXpXuXuXuXuXpXuXyXyX+X+XXX X].S.z.i.i.i.i.i.i.i.i.i.i.i.s.s.s.b.b.c.x.v.S.S.S.~.~.~.~.[.].}.}.}.}.}.|..XXXoXoXXXXXoX+XyXyXyXyXyXyXyXyXyXyXyXyXyXuXuXuXuXuXuXuXuXiXiXiXiXiXiXiXiXiXiXiXiXiXiXiXiXiXiXpXuXuXuXuXeXeXeXeX Xh.M k M j G L M M k D P T P P T W ....E ..p.a.a.l.l.l.k.j.k.j.k.W.^.5XrXrXrXwX5X<X/.^././.5X5X5XrX<X^.<X/.Y.Y.Y.^./.<X5X<X5X<XrXrXwX<X5XrXtXmXZXGXFXFXFXFXFXCX4X,X4XCXJXFXhXjXvX4XR.2XSXHXmXiX%X_.J.J.J.t.t.r.r.r.r.t.t.t.J.J._._._._.J.t.t.r.r.q.r.r.r.r.r.r.J._._.w.w.e.n g t ; ; O O O . . . ",
"                                                                                                      . . . . . . . . . . O O O O O O O O O O + + + + - - - - > , u j j L L L W W u.a.a.d.k.c.c.P.P.W.W.W.W.c.k.P.W.(./.#X/./.(.(.W.W.P.k.k.k.k.k.k.k.d.s.s.a.p.s.d.d.d.d.d.d.d.s.9.6.K J G m d m G G D G P L G D F a.wXeXyXyXyX$X$XyXyXyXyXyXyXyXyXpXpXpXpXiXiXiXiXiXiXiXpXpXpXuXuXuXyXuXuXyXyXyXoXoXoXoXoXoXoXoX.X.X.X.X|.|.}.].[.[.~.~.S.v.v.v.x.c.b.b.b.g.s.i.u.u.6.u.i.s.b.}.XXeXuXuXuXuXyXyXuXiXiXsXdXfXfXzXzXzXnXnXnXnXnXnXnXnXnXnXnXnXnXnXnXnXnXnXnXnXnXnXnXnXnXnXnXnXnXnXnXzXnXnXnXfXfXfXfXfXfXfXfXfXfXfXfXfXaXaXiXiXiXpXiXiXiXiXiXuXyXyXeX@X.X}.S.z.s.i.i.i.i.i.i.i.i.i.i.i.i.s.s.g.b.c.x.v.S.S.S.~.~.~.~.[.].}.}.].}.OX|..XXXXXXXXXXXoXoXeXyXyXyXyXyXyXyXyXyXyXyXuXuXpXuXuXuXyXpXuXiXiXiXiXiXiXiXiXiXiXiXiXiXiXiXiXiXuXuXuXyXuXyXeXeXeX/.l.k k k k k D k k k D P T T P Y W E E E #.p.a.a.j.l.j.k.j.k.l.k.Y.^.<X5XwX5X5X(.^.^.M.(.^.<XrXrXbXrX<X5X5X^.^.<X5XrXkXkX5X<X^.<X5X<XrXtXkXmXZXGXFXFXFXFXFXFXmX4XR.,XNXFXJXAX8XcXhX,XR.jXKXFXnXyX{._.J.J.t.t.r.r.r.q.q.q.t.t.t.J.J._._._.J.t.t.t.r.r.r.q.q.q.r.r.t.t.J.t.t.w.7.n g t ; O O O . . ",
"                                                                                                        . . . . . . . . . . O O O O O O O O O O o + + + + + ; , a j k L Y Y Y T W W p.a.s.d.k.x.P.W././.(.(.).W.Q.W.).).(.W.(.(.(.(.(.W.P.c.k.k.k.k.d.d.s.s.a.a.s.d.d.d.d.d.d.d.s.9.6.K J G D d k G G G G P L F G D H {.eXyXuXyX$XyXyXpXyXyXyXyXyXyXyXyXpXpXpXpXiXuXpXpXuXyXyXyXyXyXyXyXyXyXyXyXoXoXoXoXoXoXoXoX.X.X.X.X|.}.].[.[.[.~.~.S.S.v.v.v.x.c.b.g.F.g.i.i.u.u.6.u.i.g.x. XeXuXgXuXuXuXuXuXuXiXiXsXdXdXfXfXzXzXzXnXnXnXnXnXnXnXnXnXnXnXnXnXnXnXnXnXnXnXnXnXnXnXnXnXnXnXnXnXnXnXnXnXnXfXfXfXfXfXfXfXfXfXfXfXfXfXaXiXiXiXiXiXiXiXiXiXiXiXiXuXyXeXeX!.!.S.g.i.u.u.u.i.i.i.i.i.i.i.i.s.s.F.g.b.b.v.v.v.S.S.S.~.~.~.[.].].].].}.|..X.XXXXXXXXXXXeXyXyXyXyXeXyXyXyXyXyXyXyXyXyXyXyXyXyXyXyXpXiXiXiXiXiXiXiXiXiXiXiXiXiXiXiXiXiXuXuXuXeXeXeXeXeXeX(.f.s M j M k k k k k k P W W P Y W E E E #.p.a.a.l.f.l.k.k.k.j.j.Y.^./.<X/.^.Y.M.M.Y.^.^.^.<X5X<XrX5X5X^.^.^.^.<X5XtXbXmXbXhX<X<X5XrXkXbXmXZXFXFXFXFXFXKXKXFXbX4X,X,XvXFXJXHXjXjXCXhX,XjXDXKXGXtX|._._.J.J.J.t.r.r.q.q.w.w.w.w.w.w.w.J.J.J.J.J.J.J.t.r.q.q.q.5.q.q.q.t.t._._.w.w.e.n g t ; O O O ",
"                                                                                                        . . . . . . . . . . O O O O O O O O o o o o O O + ; , a p j M L U W E W T W 6.p.a.a.k.c.P.W.(./././.(.(.(.W.W.P.P.W.Q.Q.W.(.(.(.W.W.W.W.k.k.d.d.l.l.s.s.s.d.d.d.d.d.d.d.s.9.6.K J G D k k G G G L P L F G D G x.eXeXyXyXyXyXpXyXyXuXyXyXyXyXyXyXyXyXyXpXiXpXyX+X+XyXyXyXyXyXyXyXeXeX+XoX+XoXoXoXoXoXoX.X.X|.|.|.}.].[.[.[.~.~.S.S.v.v.v.v.c.c.b.F.g.s.i.i.u.u.u.u.i.s.}.XXyXgXsXpXuXiXiXuXuXiXiXsXdXfXfXdXfXfXzXnXnXnXnXnXnXnXzXzXzXfXfXfXfXnXnXnXnXfXnXnXnXnXzXzXzXnXnXnXnXnXnXnXnXnXzXfXfXfXfXfXfXfXfXfXfXfXaXiXiXiXiXiXiXaXsXfXfXdXfXiXuXuXyX|.}.~.c.i.u.u.6.6.6.6.i.i.i.i.i.s.s.s.F.g.b.b.c.x.v.S.S.S.S.~.[.[.[.].[.].|.|..X.X.XXXqXeXeXeXyXeXyXyXyXyXyXyXyXyXyXyXyXyXyXyXyXyXyXpXiXiXiXiXiXiXiXiXiXiXiXiXiXiXiXiXiXuXuXuXeXeXeXeXeXeX~.W L M k M j j M k k M P T T P P W W E E #.p.a.a.l.l.l.k.j.j.j.k.Y.^.(././.W.M.j.j.Y.^.^././.5X<X5X<X/.Y.Y.^.^.^.5X5XkXbXbXbX4X5X5XkXSXZXZXGXFXFXFXFXFXFXFXSXkX5X,X4XCXFXJXHXAXNXNXCX8XNXFXJXHXmXwX{._.J.J.J.J.t.t.q.w.w.w.w.q.q.q.q.q.q.t.t.J.J.J.t.t.q.q.q.q.5.5.5.q.q.w.t._._.w.w.9.H g ; + O ",
"                                                                                                        . . . . . . . . . . O O X O O O O O o o + O O O ; ; , h s k G P ......E E E 6.u.8.a.h.k.z.W.(.(././.(.(.(.(.W.W.P.P.P.P.W.W.W.W.W.(.(.(.W.k.k.d.s.s.s.s.l.d.d.d.d.d.d.d.s.9.6.R J G D k k G G G L P L F F D v a.eXeXeXyX$X$X$XyXyXyXyXyXyXyXyXyXyX$X$XyXpXyX+X+X+X+X+X+X+X+X+X+XoXoXXXXXoXoXoX.X.X.X.X.X|.}.}.}.}.[.[.~.~.S.S.v.v.v.v.x.c.c.b.g.F.s.s.i.i.i.u.u.u.u.g.qXeXgXfXfXiXiXiXiXuXuXiXiXsXdXfXfXfXfXfXfXzXnXnXnXnXnXnXzXfXdXfXfXfXfXfXfXfXfXfXfXzXzXzXfXfXfXnXnXnXnXnXnXnXnXnXnXnXnXfXfXfXfXfXfXfXfXaXaXiXiXiXiXiXiXaXsXfXfXdXdXsXiXuXuXeX X!.z.g.i.i.u.u.6.6.6.i.i.i.i.i.s.s.s.F.F.g.b.b.z.v.S.S.S.S.~.~.[.].[.[.OX|..X.X.XXXXXXXXXXX+X+XeXyXyXyXyXyXyXyXyXyXyXyXyXyXyXyXyXpXiXiXiXiXiXiXiXiXiXiXiXiXiXiXiXiXiXpXuXuXeXeXeXeXeXeXW.W Y k k L p s k k k L Y Y Y P P W ..! #.#.p.a.a.l.l.l.j.l.j.j.Y.^.^.^.^.^.Y.j.j.j.Y.^.^.^.<X<X^.<X^.^.Y.Y.Y.^./.<X5XrXrXkXrXrX5XrXbXZXGXGXGXFXFXFXFXFXFXZXmXhX<X5XbXFXHXKXKXKXFXNXNXvXNXDXJXJXGXMX#X!._._._.J.t.t.t.t.q.q.5.5.5.e.e.5.q.q.q.w.t.t.t.t.t.q.q.q.5.5.e.5.5.5.q.w.t._._.w.0.7.n t : ",
"                                                                                                        . . . . . . . . . . O O X X O O O O O o O O O O ; , u s j m F T p.p.p.8.p.u.u.p.8.p.s.h.k.z.W.W.(.W.W.W.(.(././.(.W.P.c.k.c.z.W.W.(././.(.W.c.k.d.s.s.l.d.d.d.d.d.d.d.d.s.9.6.R J G m d D G G G L P G L F D m 6.qXeX@X+X+X+X$X$X$X$XyXyXyXyXyXyXyX$X+X+X+X+X+X+X+X+X+X+X+X+X+XoXoXoXXXoXoX.X.X.X.X.X.X.X}.[.[.[.[.[.~.~.S.S.v.v.v.v.x.c.c.b.b.F.s.s.i.i.i.i.u.u.u.a.~.qXuXsXfXfXiXiXiXiXuXuXuXuXiXdXdXdXdXdXfXfXfXzXnXnXnXnXnXfXsXsXfXfXfXfXfXfXfXfXfXfXfXfXnXfXfXfXfXnXnXnXnXnXnXnXnXnXnXnXnXfXfXfXfXfXfXfXaXaXiXiXiXiXiXiXiXiXaXaXsXsXsXiXiXgXuXqX}.z.g.i.i.u.6.u.6.6.i.i.i.i.i.s.s.s.s.s.F.g.z.z.x.v.v.S.S.S.~.[.].].[.].}.|..X.X.X.XXXXXoXXXXXXXeXeXyXyXyXyXyXyXyXyXyXyXyXyXyXyXpXpXpXpXpXpXpXpXiXiXiXiXiXiXiXiXiXpXuXeXeXeXeXeXeXeXeXA.a.P k M L p s j k M L Y Y F P P W ..E E p.p.p.p.l.l.l.l.l.k.l.W.).^.W.W.W.M.j.j.Y.^.^.^.^.,X<X^.^.^.Y.Y.Y.Y.^./.<X<X5X5X<X,X5X5X5XvXCXZXGXGXFXFXFXFXFXGXCXbXrX,X5XCXFXKXKXJXJXKXNXjXNXNXCXHXJXHXmXwXwX#X X{._.H.t.t.t.q.q.q.e.e.e.5.5.5.e.5.5.q.w.t.t.t.w.w.q.q.5.e.e.e.e.5.q.w.w.w._.v.w.e.n c ",
"                                                                                                        . .     . . . . . . . . O O O O O O O + O + + ; , a j k G W 8.p.p.p.p.8.p.p.p.p.p.a.l.h.k.k.k.k.c.W.W.W.(./.wXwX#X/.(.W.k.k.c.W.W.(.(.(.W.W.P.k.d.l.s.d.d.d.d.d.d.d.d.d.0.9.8.R J G m m D G G G L P G L F D D 6.Q.XX@X+X+X+X$X$X$X$XyXyXyXyXyXyX$X+X+X+X+X+X+X+X+XoX+X+XoXoXoXoXeXoXoXXX.X|.}.}.|.|.|.}.[.[.[.].].~.Q.S.S.v.v.v.v.v.x.c.z.b.z.g.s.s.i.i.i.u.u.u.u.i.qXeXsXfXfXfXiXiXiXuXuXuXuXuXuXiXsXsXdXdXdXdXfXfXzXzXzXnXzXdXsXsXfXdXfXdXfXfXfXfXfXfXfXfXfXfXfXfXfXzXnXnXnXnXnXnXnXnXnXnXzXfXfXfXfXfXfXfXsXsXiXiXiXiXiXiXiXiXiXsXsXdXdXsXsXsXuXeXqXz.F.i.i.i.u.6.6.6.6.u.i.i.i.i.i.s.s.s.s.g.z.b.c.x.Z.S.S.S.~.[.[.[.].].}.|..X.X.X.X.X.XXXoXXXXXXXeXeXyXyXyXyXyXyXyXyXyXyXyXyXyXuXuXpXpXpXpXpXpXpXpXiXiXiXiXiXiXiXuXeXeXeXeXeXeXeXeXXXk.p.m M p L p s j k L L P Y L P Y W E ! #.#.p.p.p.f.f.l.l.f.a.l.Y.^.W.W.Y.k.f.j.M.W.^.^.(.^.<X<X^.^.M.M.Y.^.^.,X<X<X/.^.^.^.^.<X<X5XrXkXCXZXmXvXbXCXZXFXCXvXhX5X<XrXCXFXHXKXHXHXAXvX4X7XvXcXNXHXJXDXvXkXtXtXeX+X_.b.H.t.w.q.5.q.5.5.5.e.e.e.e.e.e.e.w.q.w.t.t.w.w.q.q.q.5.e.e.e.e.w.w.w.w.t.t.w.7.",
"                                                                                                          .     . . . . . . O . O O O . O O + + + + ; , h k L Y E l.k.d.l.a.a.p.p.a.a.a.a.s.k.k.k.k.k.k.k.z.W.W.(./. X#XwX#X X/.(.W.W.W.W.(.(.W.W.P.c.k.k.d.l.k.k.d.d.d.d.d.d.d.0.9.6.R K D d v G G L G L L G G L G D u.a. XXXeX+X+X+X+X$X$XyXyX$X$X$X$X+X+X+X+XoXoX+X+XoXoXoXoXoXoXXXXXoXoXoX.X|.}.[.[.[.{.{.].[.[.[.[.~.~.S.v.v.v.v.v.v.v.c.c.c.b.g.g.s.i.i.u.u.u.u.u.u.g.eXuXsXfXfXdXsXiXuXuXuXuXuXuXuXiXiXsXsXsXsXsXdXfXfXfXfXzXfXsXsXsXfXfXfXdXfXfXfXfXfXfXfXfXfXfXfXfXfXfXnXnXnXnXnXnXnXnXnXnXfXfXfXfXfXfXfXfXsXiXiXiXiXiXiXiXiXiXaXfXdXdXdXsXsXsXuXuXqXz.i.i.i.i.6.6.6.6.6.6.i.i.i.i.i.i.s.s.g.g.g.z.z.z.Z.Z.S.S.S.~.[.[.].[.].}.OX|..X.X.X.X.XXXXXXXXXXXoXoXeXyXyXyXyXyXyXyXyXyXyXyXyXuXuXuXpXpXpXpXpXpXiXiXiXiXiXiXpXuXeXeXeXeXeXeXeXeXqXk.u.D M p k j j k M L L L Y L P Y W E ! #.#.p.p.p.l.l.l.l.l.l.f.Y.W.W.Y.M.j.j.j.M.W.^.^.(.,X<X^.^.Y.M.M.^.,X<X<X5X<X/.R.Y.Y.R.<X5XrXkXkXbXrX<X2XrXbXmXZXSXvXhX5XrXbXSXFXFXKXHXHXCX8X,X;XvXNX8XNXFXHXDXBXSXbXmXnXsX{.v.b.w.w.q.q.q.q.q.5.w.e.e.e.e.e.e.e.w.w.w.w.w.w.w.q.5.w.e.e.e.e.e.e.5.q.w.H.w.",
"                                                                                                                . . . . . O O O O O O O O + + + + ; , h k Y E a.k.c.P.c.d.d.s.s.s.s.s.l.l.l.l.k.d.k.k.k.k.k.z.W.W.(./././. XwXwX#X/.(.W.(.(.(.(.P.k.k.k.k.k.d.k.k.d.d.d.d.d.d.d.0.9.8.6.K G D D G F F L L L G G F G D W H !.eX@X+X+X+X@X+X+X@X@X+X+X+X+X+X+X@X@XoXoXoX+XoXXXoXoXXXoXoXoXXX.X|.|.{.[.[.[.[.[.[.].~.~.~.~.~.Q.S.v.v.v.v.c.c.c.z.z.z.z.g.g.s.i.i.u.u.u.u.u.u.Z.gXfXfXfXfXfXsXiXiXuXuXuXuXyXuXuXiXiXiXiXiXiXsXdXfXfXfXfXfXsXsXfXaXaXaXaXfXfXfXfXfXfXfXfXfXfXfXnXfXfXfXnXnXnXnXnXnXnXnXnXfXfXfXfXfXfXfXfXaXiXiXiXiXiXiXiXaXiXaXfXdXdXdXdXfXfXgXgXeXx.i.i.i.i.6.6.6.6.6.6.6.u.i.i.i.i.s.s.s.g.g.z.z.z.x.Z.Z.S.S.S.~.~.[.].[.}.}.}.|..X.X|.|.|..X.XXXXXXXXXXX@X+XeXyXyXyX+XyXyXyXyXyXuXpXpXpXpXpXpXpXpXiXiXiXiXiXpXuXuXeXeXeXeXeXeXeXeXwXg...L M k k j j k G L L L W P P Y W E ! #.#.p.p.p.l.f.l.j.j.j.k.W.).W.k.j.j.l.k.M.W.^.^.(./.(.^.^.M.M.Y.^.<X<X<X5X<X^.Y.m.Y.^.rXrXkXkXbXhX,XR.E.2XhXvXSXCXvXhX5XrXbXSXFXFXKXFXAXjX3X,X,XNXAXcXhXvXAXKXCXvXZXFXGXZXxXeXI.b.w.w.w.w.w.w.w.w.w.w.5.e.e.e.e.e.e.5.w.w.w.w.q.q.q.5.w.e.e.e.e.e.e.w.w.w.",
"                                                                                                                . . . . . O O O O O O O O + + + - , h j L W a.k.c.P.P.c.c.c.k.g.d.d.k.g.l.l.l.l.d.d.k.d.k.k.k.P.W.W.(././././.wXwXwX#X/.(.(.(.(.k.k.k.d.k.k.k.k.k.d.d.d.d.d.d.d.0.9.8.6.K G b m G G F L L L D G P F G P G c.eX@X@X@X@X@X@X@X+X+X+X+X+X+X+X+X@X@XoXoXoXoXoXXXoXXXXXXXoX.X.X.X|.}.[.[.[.~.[.[.[.[.~.~.~.~.~.S.v.v.v.v.x.c.c.c.z.z.z.z.g.s.s.i.u.u.u.u.u.u.u.!.sXnXfXfXfXfXsXiXiXuXyXyXyXyXyXuXuXiXiXiXiXiXiXsXdXdXdXfXdXsXsXfXaXiXaXaXfXfXfXfXfXfXfXfXsXfXfXnXnXfXfXnXnXnXnXnXnXnXnXfXfXfXsXsXsXsXfXsXiXiXiXiXiXiXiXaXaXaXaXfXdXdXdXfXfXfXsXgXeXZ.i.i.i.i.6.6.6.6.6.6.6.6.6.i.i.i.i.i.i.s.F.g.z.b.z.x.v.Z.v.S.Q.Q.~.].[.].].}.}.|.|.|.|.|.|..X.XXXXXoXoXXXoXoX+X+X+X+X+X+XyXyXyXuXpXpXpXpXpXpXpXpXpXpXpXpXpXuXuXeXeXeX@XeXeXeXeXeXwXs.E L m k j j j k G L G L W Y Y Y W E #.#.#.p.p.p.l.l.j.j.j.j.Y.W.^.W.j.j.f.f.k.M.W.^.(././.^.Y.Y.Y.W.^.<X<X<X<X5X<XR.R.m.Y.5XrXhXkXkXkX4X,XR.B.2XkXmXmXCXCXkX5X<XrXSXFXFXKXFXvX4X2X1XhXCXFXAXhXrXvXFXHXCXvXSXJXKXGXmXeX{.v.w.w.w.w.w.w.w.w.w.w.5.e.e.e.e.e.e.e.e.w.w.w.w.w.w.w.w.w.e.e.e.e.e.e.w.",
"                                                                                                                . . . . . O X X O O O o + + ; ; ; , h M #.l.k.W.P.P.P.Q.~.W.P.c.k.k.k.k.k.k.h.h.k.k.k.k.k.k.k.k.z.P.W.W.(.(././././.wX/././././.k.k.k.k.k.k.c.c.k.d.d.d.d.d.d.d.0.9.8.6.K G b v G F F G L L D D Q P G D m u. XXX#X.X@X@X@X@X+X+X@X@X@X@X+X+XoXoXoXoXoXoXXX.X.X.XXX.X.X.X|.|.{.].].].~.~.~.~.~.~.Q.Q.Q.Q.S.S.Z.v.x.x.c.z.c.c.z.z.c.g.g.s.s.u.u.u.u.u.u.u.6.qXfXfXfXfXfXfXfXiXpXuXyXyXyXyXyXuXuXuXpXpXpXpXiXiXaXsXsXsXsXsXsXaXaXiXiXiXaXaXaXaXaXaXaXaXaXfXfXfXfXfXfXfXfXzXnXnXnXnXzXfXfXfXsXsXaXaXsXaXiXiXiXiXiXaXaXaXaXfXfXfXdXfXfXdXfXfXsXgXeX!.s.i.i.u.u.6.6.6.6.6.6.6.6.u.i.i.i.i.i.i.s.s.g.g.z.c.c.x.v.v.S.S.Q.~.[.[.[.].}.}.}.}.|.|..X.X.XXXXX.XXXoXoXXX+X+X+XeX+X+X+XyXyXyXyXyXuXpXpXpXpXpXuXuXuXuXuXyXuXeXeX@XeXeXeXeXeXeXqXa.W L j j s j k m G L L L Y Y Y Y T W #.#.#.a.a.a.l.l.j.j.j.j.Y.W.W.W.k.j.f.l.Y.Y.W.^.).(.).W.Y.Y.Y.^./.<X<X<X<X<X^.^.^.Y./.rXrXrXhXhX4X2X^.B.;X4XvXmXSXCXhX2X^.,XrXvXSXFXFXNXhX4X2XhXBXAXFXKXAX7X4XjXFXFXvXjXSXKXJXFXZXbXwX!.v.w.t.t.w.w.w.w.w.q.w.e.e.e.e.e.e.e.e.e.w.5.w.w.w.w.e.e.e.e.e.e.e.e.",
"                                                                                                              . . . . . . . O X O O + + + ; ; , , h M U a.d.P.Q.P.P.P.Q.~.W.P.P.z.z.P.P.W.k.k.k.k.k.k.k.k.k.k.k.k.k.k.k.P.W.W.W.(.(.(.(./.(.(.(.P.P.k.k.k.k.c.c.k.d.d.d.d.d.d.d.0.9.8.6.J G D m G F G G L G D D T P G D d W (. XXX@X#X@X@X@X+X@X@X@X@X@XoXoXXXXXXXXXXX.X.X.X.X.X.X.X|.|.}.].].].].~.~.~.~.Q.~.~.S.v.v.S.S.v.x.x.x.c.z.z.c.c.z.z.g.s.s.s.i.u.u.u.u.u.u.u.s.eXfXfXfXfXfXfXfXiXuXyXyXyXyXyXyXyXuXuXuXuXpXuXuXuXiXiXiXiXsXiXiXiXiXiXiXiXiXiXaXaXaXaXaXaXiXfXfXfXfXsXiXgXsXfXfXfXfXfXfXfXsXsXsXsXsXsXaXiXiXiXiXiXiXiXiXiXaXfXsXfXfXfXfXfXfXfXsXgXeX Xg.i.i.u.u.u.6.6.6.6.6.6.6.u.i.i.i.i.i.i.i.s.s.s.g.g.c.c.c.v.v.S.S.Q.~.[.[.[.].].].}.|.|..X.XXX.XXXXXXX.XoXXX@X+X+X+X+X+X+X+XyXyXyXyXyXyXyXyXuXuXuXuXuXuXuXyXyXeXeX@XeXeXeXeXeXeX Xu.T L s j k k k k M G L L Y Y W Y T W E #.#.a.a.a.f.f.j.j.j.k.k.W.W.W.Y.Y.Y.Y.Y.W.^.^.).).^.Y.Y.Y.W.(.<X<X<X<X/.^.Y.Y.^.<XrXkXrXhXhX4X<X2X,X^.2XhXvXvXCXvXrX,X^.2XhXvXSXZXCXkX2X2XrXNXFXKXKXKXFXBXhX7X7XvXAXcXkXAXFXJXFXZXCXMX XU.b.H.t.w.q.q.w.w.w.w.e.e.e.e.e.e.e.e.e.e.w.w.w.w.w.e.e.e.e.e.e.e.",
"                                                                                                            . . . . . . . . O O O + + + ; ; , a j M  .f.k.k.P.Q.Q.Q.W.W.W.W.W.W.W.W.W.W.W.W.W.k.k.k.k.k.d.d.d.d.k.k.k.k.k.k.k.z.P.P.P.W.W.W.W.P.k.k.k.l.l.l.k.c.k.d.d.d.d.d.b.d.d.0.8.6.K F D D G F G G G G D G P P G D d F k.wXXX#X#X#XXXXXXXXX.X.X.X.XXXXX.X.X.X.X.X.X|.|.|.|.|.|.|.{.].].].].~.~.Q.Q.Q.S.S.S.v.v.v.v.v.v.x.x.c.z.z.z.z.z.z.g.g.s.s.a.u.6.u.6.u.u.u.u.z.gXfXfXfXfXzXfXfXiXuXyXyXyXyXyXeXyXyXyXuXuXuXuXuXuXuXuXuXuXiXiXiXuXuXuXiXiXiXiXiXiXiXiXiXiXiXaXaXiXaXaXaXaXfXfXfXfXfXfXfXfXaXiXsXsXaXaXaXiXiXiXiXiXiXiXiXiXiXaXaXfXfXfXfXfXfXfXgXgXeXqXg.s.s.i.u.6.6.6.6.u.6.6.6.u.u.i.s.s.i.i.i.i.i.s.g.g.b.z.c.x.v.v.S.S.Q.~.[.[.[.[.].].].|..X.XXX.X.X.XXXXXXXoXXXXX+X+X+X+X+X+X+XyX+X+X+XyXyXyXuXuXuXuXuXyXuXyXyXeXeX@XeXeXeXeXeXwX(.W P G M M j j j j k M L L Y W W W T T E #.#.a.a.a.a.f.j.j.j.j.k.k.Y.Y.Y.Y.W.W.W.W.^.(.(.).W.Y.Y.W.(./.5X5X<X<X^.Y.Y.Y./.rXkXkXtXhXrX2X2X2X5X4XhXkXvXvXkXkX5XR.2XhXvXmXSXSXhX5XR.2XkXFXKXKXKXKXJXFXvX2X,XR.kXCXvXrXNXFXJXJXKXZXxX XI.U.w.q.q.q.w.w.w.w.w.e.e.e.7.7.n 7.7.e.7.7.e.w.w.e.e.e.e.e.e.e.",
"                                                                                                            . . . . . . . O O O + + - ; ; , a h G W f.k.W.W.~.~.~.~.~.W.W.W.W.W.k.k.k.k.k.W.W.W.P.k.k.k.k.d.d.k.k.d.d.l.l.d.d.d.k.d.k.d.k.k.k.l.l.l.a.a.8.s.k.c.d.d.d.d.d.d.d.d.s.0.9.6.K H D D G F G G G G D D Q Q G D k c a./.#XXX#X X X.X.X.X.X|.|.|..X.X|.|.|.|.|.|.|.{.{.{.|.|.|.}.].].].~.~.~.Q.v.v.v.v.v.v.v.v.v.v.x.c.c.c.c.z.z.z.z.g.g.s.s.a.i.u.u.u.6.6.u.6.6.A.gXsXfXfXfXfXfXfXiXuXyXyXyXyXyX+XeXyXyXuXuXuXpXuXuXyXyXuXuXuXuXuXuXuXuXuXuXuXuXuXuXuXiXiXiXuXuXuXuXuXuXiXiXaXaXfXfXsXfXfXsXiXiXaXaXaXaXaXiXiXiXiXiXpXpXpXpXpXiXiXaXfXfXdXfXfXsXgXgXeXqXz.F.g.s.i.u.u.6.u.u.6.6.6.6.u.i.i.s.i.i.i.s.s.s.s.g.g.g.z.c.x.v.S.S.S.Q.[.[.[.[.[.[.].}.|..X.XXX.X.X.X.X.XXXXXXXXX@X+X+X+X+X+XyX+X+X+X+XyXyXyXyXyXyXyXyXyXyXyXeX@X@X@XeXeXeXeXwXW.P L M U L j s s j k k G P P W  .W W T W #.#.p.l.l.a.l.l.j.j.j.j.k.k.Y.Y.W.W.^.^.^.^.(.(.W.Y.Y.W.(././.5X5X<X<X^.Y.Y./.5XtXbXkXtXrX<X,X,X5XrXkXvXvXvXkXrXrX2X2XrXmXSXZXSXvX4X,X,XrXvXZXKXKXKXKXLXKXvX,XB.E.R.kXCXhX4XvXFXJXLXJXGXmX#XI.w.w.w.w.q.w.w.w.w.w.e.7.7.7.n n n n 7.7.e.e.0.0.e.e.e.e.e.e.",
"                                                                                                    . . . . . . . . . . O O O + + ; - , , a j L W l.z.W.(.!.!.!. X X/././.(.(.W.W.k.l.k.k.k.k.k.k.k.k.l.l.k.k.k.k.l.l.l.a.l.l.l.l.l.l.a.p.p.a.l.a.a.p.8.E a.k.c.d.d.d.d.d.d.d.d.0.0.9.6.K F D D G F G G G G D D Y T D m m c E  XwXwX#X X X X X|.|. X X|.|.|.|.|.|.|.|.{.|.{.{.{.{.].].].].~.~.~.~.Q.Q.v.v.v.v.v.v.x.x.x.x.c.z.z.z.z.z.z.z.z.g.g.s.s.i.u.u.u.u.u.E 6.6.6.Q.gXgXfXfXfXfXfXfXiXuXyXyXyXyX+X+X+XeXyXyXyXuXuXuXyXyXyXyXyXyXuXuXuXuXuXuXuXuXuXuXuXuXiXiXuXuXuXyXuXuXuXuXiXaXaXaXaXgXaXgXiXiXgXiXiXaXaXaXiXpXpXpXiXpXpXpXpXpXpXgXsXfXfXfXfXfXsXgXuXeXqXc.b.g.g.s.i.i.u.u.u.u.6.6.6.u.i.i.i.s.s.s.s.i.i.s.g.g.g.b.b.c.x.v.Z.S.S.~.~.[.[.[.].].].].|..X.X.X.X.X.X.X.XXXoXXXXX@X+X+X+X+XyXyXyXyXyXyXyXyXyXyXyXyXyXyXeXeX@X@X@X@XeXeXeXeXwXz.G G D L L j s s k k k M Y P U  . .W W W E #.a.f.l.l.l.l.k.k.j.j.j.k.k.Y.W.^./.(.k.W.(.(.W.W.W.(./.5XwXwX/././.(.(./.5XrXbXbXkXtXwX/.^.,XrXhXbXvXSXmXrX5X5X4X4XkXmXSXZXmXrX^.^.5XkXCXFXKXCXvXZXKXAXkX4X,X,XR.R.kXNXrX4XvXKXJXLXPXFXmXtX{.U.w.w.w.w.w.w.w.w.w.e.e.e.7.n n n n 7.7.7.7.7.7.7.e.e.7.e.",
"                                                                                                    . . . . . . . . O X O O + + ; - , , a j L E l.c.W.(././.{. XeXeXwXwX X/.(.(.W.W.W.W.W.k.k.k.k.k.k.h.k.k.k.k.d.l.l.l.j.l.l.a.p.p.p.p.! #.p.a.p.p.p.p.8.p.d.k.d.d.d.d.d.d.d.d.d.0.9.6.K F G D G F F G G D D D T Y D D m m W (.wXwX X X X X|.|.|. X X|.|.|.|.|.|.{.{.{.{.{.{.].].].].].~.~.~.~.Q.I.v.v.v.v.v.v.x.x.x.c.c.c.c.c.z.z.z.z.z.g.g.s.s.i.i.u.u.u.u.u.u.6.6.6.!.gXgXgXfXfXfXdXaXpXyXyX+X+XoXoXoXoXeXyXyXyXyXyXyXyXyXyXyXyXyXyXuXuXuXuXuXuXuXuXuXuXuXuXuXuXuXyXyXyXuXuXuXiXaXaXaXaXgXgXgXgXiXiXgXiXiXiXiXpXgXuXuXpXuXuXuXuXuXuXpXiXfXfXfXfXsXgXuXyXeXXXv.c.c.g.g.s.i.i.u.u.6.6.u.6.u.u.u.i.i.s.i.s.i.i.s.s.g.g.g.b.z.c.x.x.v.S.S.Q.~.~.~.[.].].].].|. X.X.X X X.X.XXXXXoXXX+X+X+X+X+XyXyXyXyXyXyXyXyXyXyXeXeXyXeXeXeX@XXXXXXXeXeXeXeXwXk.G D D L G m s j M M j G Y P U  .W W W W E #.a.l.h.h.j.k.l.k.k.l.j.k.k.Y.W.(./.(.Y.W.).^.W.W.^././.5XwXwX/././.)./.5XtXtXbXbXtXwX/.^.^.5XrXkXbXmXmXbXrX^.2X4XhXkXvXmXmXkX5X,X5XvXSXFXFXSXvXvXCXHXAXvXkXNXvX7XR.,XNXkX4X2XvXFXJXPXPXFXmXtX!.b.w.w.w.w.w.w.w.w.w.e.e.e.7.n n n n 7.7.n 7.n 7.e.e.e.e.",
"                                                                                                    . . . . . . . O X X O + + - - , , h j L ..l.z.W.(./.{. X#XwXtXtXwXwXwX#X X/././.<X/./.(.W.k.k.k.j.h.l.k.k.k.k.k.k.k.h.j.a.p.E E E E E E #.p.p.p.8.8.p.a.d.d.d.d.d.d.d.d.d.d.d.0.9.6.K Q G D G F F F G D D D W L D D D k G A.wXwX X X X X X X X X|.|.|.|.|.|.{.{.{.{.{.{.].].].].].~.~.~.I.I.v.v.v.x.v.x.x.x.c.c.c.c.c.c.z.c.z.z.z.g.g.g.s.s.i.u.u.u.u.u.u.u.u.u.6.6. XgXgXgXfXfXfXsXiXuXyXoXoXXXoXoXoXoXXX+XeXeXyXyXyXyXyXyXyXyXyXyXyXyXyXyXyXyXyXyXuXuXuXuXuXuXyXeX+XyXuXuXuXiXaXaXaXgXgXgXgXgXgXgXiXiXiXiXiXuXyXyXuXuXuXuXyXuXyXyXpXiXfXfXfXsXgXgXuXuXeXXXv.v.c.z.g.s.s.i.i.u.u.u.u.6.u.u.u.u.i.i.i.i.i.i.s.s.g.g.g.g.b.z.z.x.v.Z.S.S.S.Q.Q.[.].].].].].|.|. X X X.X.X.XXXXXoX@X+X+X+X+XyXyXyXeXyXeXyXeXeXeXeXeXeXeXeXeX@XXXXX@X@XeXeXqXwXa.F m m k L M s j M M j G Y L U ..W W W W E #.p.l.j.k.k.k.l.l.l.l.j.k.Y.W.^././.).W.^.W.W.Y.W.(././.5X5X<X(.(./.).<XtXbXbXbXkXrX5X^.^.^.rXkXbXmXmXmXkXrX^.5XkXbXbXvXbXhXrX2X<XkXCXSXSXCXvXvXCXFXJXFXvXhXBXZXAXhX2X2XNXjX,X2XmXHXKXLXPXFXSXtXI.b.w.w.w.w.w.w.w.w.q.e.e.e.e.n n n n n n n n n n 7.7.7.",
"                                                                                                    . . . . . . . O X O + + + ; > , h j L  .j.k.W.!././. X#XwXtXtXtXwXwXwXwXwX XwXwXtXwXtXwX/.W.W.k.k.h.l.j.k.k.k.k.k.k.h.j.a...W T T T W E p.p.p.! ! 8.p.a.s.s.d.d.d.d.d.d.d.d.d.0.9.6.K Q G G G F F F G D D G W D D D G d m k.wXwX X X X X X X|.|.|.|.|.|.|.{.{.].{.].{.{.].].].].~.~.I.Q.I.v.v.v.v.v.x.x.x.x.x.c.c.c.c.z.c.c.z.z.g.g.g.s.s.s.i.u.u.u.u.u.u.u.u.u.6.6. XgXuXgXiXiXiXiXuXyXeXXXoXoXoXoXoXoXoXoXXXoXeXeXyXyXyXyXyXyXyXyXyXyXyXyXyXyXyXyXyXyXyXuXuXyXyX+X+XyXyXuXuXiXaXaXgXgXgXgXiXiXiXpXgXgXuXuXuXyXyXyXyXyXyXyXyXyXyXuXpXgXsXfXsXpXuXuXuXyXeXXXS.S.x.z.g.g.s.s.i.u.u.u.u.6.6.u.u.u.i.i.i.i.s.i.s.s.s.g.F.g.g.b.z.x.x.v.v.S.S.S.Q.~.].].].].].}.|.|. X X.X.X.X.XXXXXoXXX+X+X+XyXyXyXeXeXeXyXeXeXeXeXeXeX@XeX@X@XXXXX@XeXeXeXeX XE F m k s L L j j M M k M P P U .. .W W W E E #.a.j.j.Y.k.k.l.l.l.l.k.W.^.(./.(.W.W.).W.Y.Y.W.(./././.<X).W.W.^./.rXkXbXbXbXtX5X5X<X/.wXkXbXmXmXmXbXtX5X4XtXbXmXbXbXkX5X5X<XrXkXSXCXvXkXvXCXFXKXAXCXcXhXvXFXFXvX2XR.2XjX4XR.4XSXFXKXPXPXHXmXwXI.b.w.w.w.w.w.w.q.q.q.e.e.e.e.n n n n c n c n n n 7.7.",
"                                                                                                    . . . . X X X X O o + + ; > < h k L T a.k.W.W.(./. XwXwXwXtXtXwXwXwXwXwXwXwXtXtXMXxXMXtXwX/./.(.W.k.k.k.k.k.k.k.k.h.l.a.p.E W T T T T E #.#.! W E E p.p.a.s.d.d.d.d.d.d.d.d.d.0.9.6.K J G G G F F F G D D G T m D D G k f E (.wX X X X X X|.|. X|. X X{.].].].].].].].].].!.!.~.~.~.Q.Q.S.v.x.x.x.v.x.x.x.x.c.c.c.z.c.z.z.z.g.g.g.g.s.s.s.i.u.u.u.u.u.u.u.u.u.u.6.6. XeXuXgXgXiXiXiXuXyX+XoX.XXX.X.X.X.X.X.X.XXXoXXXeXyXyXyXyXyXyXyXyXyXyXyXyXeXeXeXyXyXyXyXyXyXyX+X+XeXyXuXuXuXiXiXiXiXgXgXgXgXgXgXuXuXuXyXyXyXoXoXeXeXeXeXeXeXyXuXgXpXiXiXgXgXuXgXgXuXeXXX~.S.v.c.z.g.g.g.s.u.u.u.u.u.6.u.6.u.u.i.i.i.i.s.i.s.s.s.g.g.g.g.z.z.c.x.Z.S.S.S.Q.Q.~.].].].].].{.|.|. X|.|..X.XXXXXXXXX@XeXeXeXeXeXeXeXeXeXeX+X+X+X@X@X@XeXeX@XXXXX@XeXeXeXeX/.F D G j p s L k k L k k D P P W  . .W E E E E #.a.k.j.Y.k.j.l.l.l.l.k.W.^.(./.(.W.W.W.Y.k.Y.W.^./././.^.^.W.W.^.<XrXrXrXbXtX5X<X/.<XrXtXtXbXmXmXbXtX5XrXtXbXmXmXmXkXrX<X<XrXbXmXmXvXhXkXvXCXGXFXvXhX7XvXNXAXCXcXhX4X1X4X4X-X,XrXGXFXPXJXPXFXbXwXI.w.w.w.w.w.q.q.w.w.w.e.e.e.e.e.n n n n c c c n n n ",
"                                                                                                    . . . . X X o o + + + ; ; , a h M  .p.k.W.(.(./. X XwXwXwXwXwX X X/././. XwXwXtXtXtXtXtXwXwXwX/.(.W.W.W.W.W.W.W.k.l.a.p.#.E W W W T W #.#.E W Q T E p.8.9.s.d.d.d.d.d.d.d.d.d.0.9.6.K J F F G F F F G G G F F D D D G k d I W.wX X X X X X|. X X|. X{.].].!.].].].].!.!.!.!.~.~.~.~.~.Q.Q.v.x.x.x.x.x.x.x.c.c.c.c.z.c.z.c.g.g.g.s.s.s.s.i.u.u.u.u.u.u.u.u.u.u.u.u.u.}.eXeXuXpXpXpXpXuXyX@XXX.X.X.X.X.X.X.X.X.X.X.XXXoXoX+X+X+X+XyX+XeX+XeXeXyXyXyXyXeXeXeXeX+X+XyX+XqXyXyXuXyXuXuXiXgXuXgXgXuXuXuXuXyXyXyXyXyXeXXXoXoXoXoXoXeXeXyXuXuXuXuXuXuXuXuXuXuXyXqXXX[.~.S.x.z.z.g.g.s.i.i.u.u.u.u.u.6.6.u.i.u.i.i.i.i.s.s.s.s.g.g.g.z.c.c.x.v.S.S.S.Q.Q.!.].].].].}.{.|.|. X|.|..X.XXXXXXXXX@X+XeXeXeXeXeXeX+X+X+X+X@X@X@X@X@X@X+X@XXXXX@XeXeXeXeX!.G m G s i p L L M L k k M L Y W ....W ..#.E E #.a.j.l.Y.k.k.l.a.l.l.j.Y.W.^.(./.W.Y.k.k.Y.W.W.)././.^.W.Y.W.^.^.5XrXrXrXrX5X<X^./.<XrXtXkXbXbXkXrX5X5XrXkXmXmXmXbXkXrX5XrXbXCXmXvXkXkXbXCXFXCXbX4X7XjXNXvXvXCXAXNXNXhX4X2X4XR.E.hXDXHXPXPXJXFXbX Xv.w.w.w.w.w.q.w.w.w.w.w.e.e.e.e.e.n n n c c c n n ",
"                                                                                            . . . . . . . . O X o + + + ; ; , a h M U a.h.A.(./././. XwXwX#X X X/.(.(.~.W.W.(.(./.<XwXwXwXwXwXwXwXwX<X/.(.(.^.^.W.W.k.j.l.a.p...E W W W W E E T Y F T E p.8.9.s.d.d.d.d.d.d.d.d.d.0.9.6.K J Q F F F G F F G G F G G G D M k k c k.wXqX X X X X X X X X{.].].!.!.].].].].!.!.~.~.~.~.~.~.Q.Q.Q.v.v.x.x.x.x.x.c.c.c.z.z.z.z.z.g.g.g.s.s.s.s.i.u.u.u.u.u.u.u.u.u.u.u.u.u.u.~.eXeXqXuXuXuXuXyX+XoX.X.X.X|.|.|.|.|.|..X.X.X.XXXoX+X+X+X+X+X+X+X+X+X+X+XyXyXyXeXeXeX+X+X+X+X+XeXyXyXuXyXuXuXiXgXuXuXuXuXuXuXuXyXyXyXyXeXeXoXoXXXoXXXXXeXeXyXuXuXyXuXuXuXuXuXuXyXeXXX|.}.[.S.Z.x.z.c.g.s.s.i.i.u.u.u.6.6.6.u.u.u.i.i.i.s.s.s.s.s.g.g.g.b.z.c.c.x.Z.S.S.Q.Q.].].].].].}.{.|.|. X|.|..X.XXXXXXXXXoX+XeXeX@X@X@X@X@X@X@X+X+X+X@X@X@X@X@X@XXXXXeXeXeXeXeXA.G d k j p p M L L D j k D L P W E ..E #.#.....#.a.j.l.Y.j.l.a.a.l.l.j.k.W.W.^.(.W.k.k.Y.W.W.^.(.(.W.Y.Y.Y.W.^./.5XrXrXrX<X/.^.^.^.<XrXkXbXbXkXrX<X5XrXtXbXmXSXmXbXtXrXrXkXCXSXbXhXkXvXmXSXCXvXhXhXcXvXhXvXvXNXFXFXAXCXhX,X2X,XR.R.vXDXPXPXJXHXZXtX].b.0.0.w.5.w.q.w.w.w.w.w.e.e.e.e.e.n n n c c c n ",
"                                                                                            . . . . . . O O X O + + + - ; , a h N U @.f.M.W././././. XwX/./.(.(.~.W.W.A.k.g.k.z.W.W.(././.(.(.^.(./.wXwX/.(.^.W.W.Y.k.j.f.a.p.#.#...E E W W T L G L T E p.8.9.a.s.d.d.d.d.d.d.d.0.0.9.7.J J J Q F F G G F F F T G G D G D k k m a. XwX X X X X}.}.{.{.}.].].!.].].].!.!.~.~.~.Q.Q.Q.Q.Q.Q.Q.v.v.v.x.x.x.x.c.c.c.z.z.z.z.g.g.g.s.s.s.s.s.i.u.u.u.u.u.u.u.u.u.u.u.u.u.u.u.Z.qXeX XyXyXyXyX+XXXXX.X.X.X|.|.|.|.|.|..X.X.X.XoXoXoXoXoXoX+X+X+X+XeXoXoXoX+X+X+XoXoXoX+X+XoX+XeXeXuXuXuXuXuXuXuXyXyXyXyXyXyXyXyXeXyXeXoXXXoX.XoXoXoXXXeXeXyXuXyXyXyXyXuXuXuXuXeXqX.X|.}.].~.S.Z.x.z.z.s.s.s.i.i.u.u.u.6.6.6.u.u.u.i.i.s.s.s.s.s.s.s.g.g.g.z.c.x.v.S.S.Q.Q.~.].].].].].}.|.|. X|.|..XXXXXXXXXXXXXXX+X+XeX@X@X@X@X@X@X+X+X@X@X@X@X@X@X@XXXXXeXeXeXeXwXk.D s k s s s j M L M s k L L Y W E E ..#.#.....#.a.h.l.Y.j.l.a.p.a.k.j.j.k.Y.W.W.W.k.k.W.W.W.^.(.W.M.Y.Y.M.W.(.<XwXrXrXrX^.^.^.^.,XrXrXkXkXkXrX5X<XwXtXkXmXmXSXmXkXtXrXkXmXSXmXkXkXbXmXSXmXkXhXkXNXCXvXjXvXNXNXCXFXFXAXNX2X,X4X1XB.1XCXHXPXJXHXFXmXwXQ.d.0.w.w.w.w.w.w.w.w.w.w.e.e.e.e.e.e.n n n n n ",
"                                                                                          . . . . . . X O O O + + + ; ; , a x M L  .@.j.W.(././. X/./.(.(.(.(.(.(.W.W.z.k.k.k.k.k.M.Y.W.k.j.j.j.^./.wXtX<X^.Y.Y.Y.M.k.k.j.f.a.a.@.#.#...T T P G L P T E 8.8.9.a.d.d.d.d.d.d.d.d.0.0.9.7.J J J Q Q F G G T T ..T F G D G M k s d F /.wX X|.|.{.{.{.{.{.{.{.!.].!.!.!.!.!.!.Q.Q.Q.Q.Q.Q.Q.S.v.x.x.x.x.x.x.c.c.c.c.c.c.c.g.g.s.s.s.s.s.s.i.u.u.u.u.u.u.u.u.u.u.u.a.u.u.u.i.g. XeXqXqXqXeXXXXXXXXXXX.X.X|.{.|.|.|.|.|.|..X.X.X.XXXXXoXoXoXoXoXoXoXoXoXoXoXoXoXoXoXoXoXoXqXqXqXeXyXuXuXuXuXuXuXeXeXeXeXeXeXeXeXeXeXoXoXXXXXXXoXXXXXXXoXeXeXyXyXeXeXyXyXyXyXeXqXXX.X|.}.].[.~.S.Z.z.z.g.s.s.s.a.u.u.u.u.u.u.u.u.u.i.i.i.h.g.s.s.s.s.g.g.g.g.z.z.z.x.S.S.Q.~.~.].].].}.{.|.|.|. X|..X.X.XXXXXXXXXXX@X@X@X@X@X@X@X@X@X@X@XXXXX@X@X@X@X@XXXXXeXeXeXeXwXk.G s j p s j j L L L s M L L Y W E E  .#.#.....p.a.l.l.l.l.l.l.p.a.j.k.k.k.k.k.k.k.k.Y.^.^.^.^.W.W.Y.M.M.Y.^./.<XwXwX5X<X^.^.^.rXrXrXtXkXtXrX5X/.<XrXkXvXmXmXmXbXkXrXtXmXmXmXkXkXkXbXmXCXkXrXhXmXZXCXNXCXNXvXNXAXAXHXFXBX7X,X4XhX1X,XjXDXHXKXJXJXFXmXwXk.9.0.w.w.w.w.w.w.w.w.w.w.e.e.e.e.e.e.7.n n n ",
"                                                                                          . . . . . . X O o + + + ; > , u x M L  .@.j.M.(.wXwXwX X X X/. X X X X/.(.W.W.k.k.k.k.k.k.k.k.f.f.f.j.M.^.5XtX5X(.W.W.Y.M.k.j.k.j.f.a.a.p.#...W T Y L L Y W E 8.8.8.a.d.d.b.d.d.d.d.d.0.0.9.R J J J J J F G G T T E T F D G m k k s d G M.wX(.}.}.}.{.{.].{.{.{.].].!.!.!.!.!.~.Q.Q.Q.Q.Q.Q.Q.v.x.x.x.x.x.x.z.z.c.c.c.c.z.g.g.s.s.s.s.s.i.i.i.u.u.u.u.u.u.u.u.u.u.a.a.i.i.a.a.g. X|.qXXXXXXXXXXXXXXXXX.X|.{.[.{.}.{.{.{.{.|.|..X.X.X.X.X.XoXoXoXoXoXoXoXOXOXOXoXoXoXoXoXoXoXoXoXqXeXeXeXeXeXeXeXeXoXoXoXoXoXoXoXoXoXoXXX.X.X.XoXXXXXXXXXoXeXyXeXeXeXeXeXeXeXeXXX.X|.|.}.].[.~.~.Z.z.z.g.s.s.s.i.i.i.i.u.u.u.u.u.u.u.i.i.s.g.g.s.s.g.g.g.g.g.z.z.z.c.v.S.S.Q.~.~.].].].}.{.|.|.|. X.X.X.X.XXXXXXXXXXX@X@X@X@XXXXXXXXXXXXX.XXX@X@X@X@X@XXX@XeXeXeXeXqXl.G s s s s j k M L T L G L L Y W  .W  .#.#.....p.a.l.l.j.l.h.l.a.f.j.k.k.k.k.k.j.k.k.Y.^./.(.(.W.W.Y.M.Y.W.^.<X<XwX<X(.^.^.^.<XrXkXkXkXkXkXrX<X^.5XrXkXmXmXmXbXkXkXtXkXmXvXkXrXkXkXmXvXhXhXhXvXCXCXCXAXZXNXNXNXCXAXCXCXCXjX,X1XjX7X,X4XNXFXKXJXPXKXSXkX(.s.0.0.w.w.w.w.w.w.w.w.w.q.w.w.e.e.e.e.e.e.n ",
"                                                                                    .     . . . . . . O o + $ - ; ; , a h k L Y @.j.M.^.<XwXtXtXwXwXwXwXtXwXwXwXwX/.(.W.A.A.W.W.W.M.k.j.j.j.j.j.M.Y.^.(././.^.^.Y.M.k.j.j.k.j.f.a.p.#...W W T Y L Y W E 8.8.8.a.d.d.b.d.d.d.d.d.0.0.9.R K H J J J F G G F E W T F G D k k s s d k u.wX/.}.}.{.{.!.!.{.{.{.!.!.!.!.!.!.!.~.Q.Q.Q.Q.Q.S.v.v.x.x.x.x.x.x.z.z.c.c.c.c.g.g.s.s.s.s.s.i.i.i.u.u.u.u.u.u.u.u.u.i.i.a.a.a.a.a.s.s.Q.].XX X X X.X.X.X.X X|.|.].].].].].].].].}.{.{.|.|.|.|.|.oXOX|.OXOXOXOXOXOXOXOXOXOXOXOXoXoXoXoXoXoXqXqXqXqXqXqXoXoXoXoXoXoXoXXXXXXX.X.X.X.X.X.X.X.X.XXXXXoXqXoXXXoXoXoXoXoXoXXX.X}.}.}.].[.!.~.S.z.c.z.g.s.s.a.a.i.i.i.u.u.u.u.u.u.u.i.s.g.g.s.g.g.g.g.g.g.z.z.z.c.c.v.S.Q.Q.~.~.].].].{.|.|.|.|.|.|.|..X.X.XXXXXXXXXXXXXXXXX.X.X.X.X|.|..XXX@X@X@X@X@XeXeXeXeXeX/.p.G f s s j j m M L W P L L L P W E W ..#.p.E E p.a.a.l.l.l.j.j.l.f.j.k.k.j.j.j.j.k.M.W.).(.).^.^.M.M.Y.Y.^./.<X5X<X^.Y.M.Y.^.<XtXkXkXkXkXtX5X^.^.rXkXmXmXmXkXtXtXtXbXmXmXbXtXkXkXbXkXrX5XrXkXvXCXCXSXFXZXBXCXBXvXNXvXvXCXCX4X2XjXjX,X,XhXFXHXJXJXPXHXmXwXc.0.e.e.w.w.q.q.w.w.w.w.q.q.q.w.w.e.e.e.e.e.",
"                                                                                    .       . . . O X O o + - - ; , u a s M L U j.Y.^.(.wXtXtXtXtXtXtXtXtXtXtXtXtXwX X(.(.(././.(.W.Y.M.M.M.M.M.j.j.j.M.^.^.^.^.Y.Y.k.j.k.k.j.f.f.p.#...W W T Y L P W E 8.8.8.9.s.d.b.d.d.d.d.d.0.0.9.R H Q J J J J G G F E T T F G D m k s s d s G /./. X!.{.].!.!.!.!.!.!.!.!.!.!.!.!.~.Q.Q.Q.Q.Q.S.v.x.x.x.x.x.x.z.c.z.c.c.c.g.g.s.s.s.s.s.a.i.i.u.u.u.u.u.u.u.u.u.u.i.i.a.a.a.a.s.s.g.g.|.|. X X X X|.|.|.|.}.].[.[.!.].].].].].].].}.}.|.|.|.|.OXOXOX[.[.OXOXOX}.}.}.}.}.}.OXOXOXOXOXoXoXoXoXoXoXoXoXoXoXoXoXoXoXoX.X.X.X.X.X.X.X.X.X.X.XXXXXXXXXoXoXoXoXoXXXoXoX.X.X|.}.}.].].[.!.!.S.Z.c.z.g.g.s.a.i.i.i.i.i.u.u.u.u.u.u.u.i.s.g.s.g.g.g.g.g.g.z.z.z.z.c.x.v.v.S.Q.~.~.].].{.{.|.|.|.|.|.|.|..X.XXXXXXXXX.X.X.X.X|.|..X|.|.|.|..X@X@X@X@XeX@XeXeXeXwX(.E G i s s j j M m M L L L L L P W E E E #.#.E E p.p.p.a.a.j.k.k.k.k.j.j.k.k.l.f.l.j.Y.W.^.^.W.Y.Y.k.M.Y.W.(./.5XwX^.Y.M.M.^.^.5XtXkXtXrXrX5X/.(.<XrXkXmXmXbXkXtXtXkXmXSXmXbXkXvXbXkX5X<X5XkXkXbXmXZXFXFXCXCXCXCXvXjXjXvXNXCXjX1XhXNX4X,X5XCXFXHXJXPXLXFXkX(.d.0.e.e.e.w.w.w.w.w.w.q.q.q.q.w.w.w.e.e.e.",
"                                                                            . . . . . . . . . O O O O + + + + ; , , a p s L E f.M.^./.<XtXtXtXtXMXxXtXxXsXsXsXsXtXtXtXwXwXwXwXwX(.^.Y.Y.Y.Y.M.a. ...@.f.M.Y.Y.Y.Y.Y.M.j.j.j.f.f.f.p.#.#. .W W Y Y Y W ! 8.8.8.9.s.d.d.d.d.b.P.d.0.0.9.K H J J J J J F G T T T T F D D m k s p s s k (.wX X X!.!.!.!.!.!.!.!.!.!.!.!.!.!.~.Q.Q.Q.Q.Q.Q.x.x.x.x.c.x.x.z.c.c.c.c.c.g.g.g.s.s.s.s.i.u.u.u.u.u.u.u.u.i.i.a.i.a.a.a.h.s.s.s.s.g.s.x.|.}.}.|.|.}.}.}.}.].].].~.~.~.~.~.~.].].].}.}.}.}.].}.].[.[.[.[.[.[.[.[.[.[.[.[.[.[.}.OXOXOX|.oXoX|.|.oXoXoXoXoXoX.X.XoXoX.X.X.X|.|.|.|.|. X.XXXXXoXoXXXXXXXXXXXXXXX.X|.|..X.X|.}.].].].[.!.~.Z.z.c.g.g.s.s.i.i.i.i.i.u.u.u.u.u.u.u.i.s.s.s.g.g.g.g.g.g.c.z.z.z.z.c.x.x.S.Q.Q.~.!.].].}.}.|.|. X|.|.|.|..X.XXX.X.X.X.X.X|.|.|.|.|.{.{. XXX@X@XeXeX@XeX+XeXeXwX/.G M i s s j j M m k M M G G L P W W ..#.p.#.E E p.p.a.a.f.l.k.k.k.j.j.k.j.k.j.f.j.j.Y.^.^.W.Y.M.M.k.Y.W.^./.wXrXrX/.Y.M.M.^.<XrXkXhXrXrX<X^.^.<XrXtXmXmXkXtXrXrXkXmXSXmXbXkXSXmXvXrX<X<XhXkXbXmXmXZXFXCXCXAXNXhXjXvXvXvXvXNXAXhX4XCXjX-XR.rXFXFXJXKXPXKXCXrXW.s.7.0.0.0.w.w.w.w.w.q.q.q.q.w.w.q.w.e.e.",
"                                                                            . . . . . . . O O O O O + + + + + - , u h j M W a.k.W.^.^.(.wXwXtXtXsXxXtXsXsXtXtXtXtXtXtXtXtXwXwXwX).^.^.W.Y.M.f. .U U  . .f.j.Y.Y.Y.Y.M.j.j.j.f.f.a.a.p.#.....W W Y W W #.p.p.8.8.l.d.d.d.d.b.U.d.0.0.9.K H J K K J H G F 8.F G Q G D m k k s p s s k j./. X X!.!.!.!.!.!.!.!.!.!.!.!.!.!.~.Q.Q.Q.Q.Q.Q.x.x.x.x.c.x.z.z.c.c.c.c.c.g.s.h.s.s.s.a.i.u.u.u.u.u.a.u.u.i.i.a.a.a.a.h.h.s.h.h.h.g.g.c.~.].].}.}.].].].].].[.~.~.Q.Q.Q.Q.Q.~.~.].].}.].].].].[.[.[.[.[.[.G.G.G.G.G.G.G.G.[.[.[.}.OX}.OXOXOX}.|.|.oX.X.X|.|..X.X.X.X|.}.[.}.}.}.].}.|..X.X.X.X.X.X|.|..X.X.X|.|.|..X.X|.}.].].].].!.~.S.z.c.z.g.g.s.i.i.i.i.i.i.u.u.u.u.u.u.u.i.s.s.s.g.g.g.g.g.c.z.z.z.z.c.z.x.v.S.Q.~.!.!.].}.}.{.|.|.|. X|.|.|..X.X.X.X.X.X|.|.|.|.{.{.{.{. X@XeXeXeXeXeXeX+XeXeXXXW.D k p s s j j M m k M D D G L P T W E ..#...E E p.p.p.a.f.l.k.k.k.k.k.j.j.j.f.f.j.k.Y.W.W.Y.Y.M.M.M.Y.W.^.<X5X5X<X(.^.Y.^.<XrXtXhXrX5X<X^.M.^.<XtXkXbXbXrX<X<XrXbXmXSXmXkXmXSXvXkXrXrXkXbXkXbXmXSXGXSXCXAXCXvXNXvXvXvXcXcXNXZXjX4XvXvX4XR.E.vXFXFXHXJXPXDXkX/.h.6.7.7.7.0.e.0.w.w.w.w.w.w.w.w.w.w.e.e.",
"                                                                    . .     . . . . . . O O O O o + + + + + - , < h j L U #.k.W.(./././.wXwXtXtXtXtXkXtXtXtXtXtXtXtXtXtXtXwXwXwX<X).^.Y.j.f. .U L Y Y |  .@.j.M.Y.Y.M.j.j.j.j.f.f.f.a.p.#.#...W W ....E p.p.p.8.s.d.d.d.d.P.U.d.0.0.9.K J K R R Q D G J R G G T F D m m k s p s p s W (. X/.!.!.!.!.!.!.!.!.!.!.!.!.!.!.~.Q.Q.Q.Q.Q.Q.x.A.x.x.c.z.z.z.c.c.c.g.g.g.g.s.s.a.a.u.u.u.u.u.u.u.a.i.i.i.i.a.a.i.s.h.h.h.h.g.g.g.g.g.Z.!.!.!.!.!.!.!.!.!.~.~.~.Q.Q.Q.Q.Q.Q.~.~.!.!.!.!.!.!.~.~.~.~.S.S.S.v.S.S.S.S.S.S.G.G.[.[.[.[.[.[.[.}.}.|.|..X.X.X.X.X.X.X|.|.].].].].[.[.].}.|.|.|.|.|.|.}.}.}.}.}.}.|..X.X.X|.}.].].].].].~.Q.Z.z.c.z.g.g.i.i.i.i.i.a.i.i.i.i.u.u.u.u.i.s.s.g.g.g.g.g.c.z.z.z.z.c.c.x.x.S.Q.Q.~.!.].].}.{. X X X|. X X|.|. X X.X X|. X|.{.].].].].{.|.@XeXeXeXeXeXeXeXeXeX Xl.m p m s s k j M M k M G L L L P T W W E E E E E p.p.a.a.f.f.k.Y.M.k.k.j.j.f.f.f.j.M.Y.Y.Y.Y.M.k.k.Y.Y.^./.<X<X/.^.^.Y.^.<X5XrXrXrXrX<XY.M.M.^.rXkXbXbXtX<X^.<XrXmXmXmXkXkXmXmXkXrXrXbXbXbXkXkXmXSXSXmXCXZXNXvXAXNXvXcXjXhXvXDXvX,XhXNXcX,XE.4XAXJXHXJXLXJXAX5Xk.6.7.7.7.7.7.e.e.w.w.w.w.w.w.w.w.w.e.e.",
"                                                                      .     . . . . . . O O + + + + + - + ; - , h j N U  .f.M.W.(.<XrXtXtXtXtXtXtXtXMXtXtXtXtXtXwXwXtXtXtXrXwXwXtX<XW.M.j.#.U U L L Y U  . .#.j.M.M.M.j.f.f.j.j.j.j.f.a.p.@.#.....p.p.E ! 8.8.8.l.d.d.d.d.P.U.d.0.0.9.R K K R R J b D R b G Q T P G G m k s s j g p P W.wX/./.!.!.(.!.!.!.!.!.!.!.!.!.!.~.Q.Q.Q.x.Z.Z.Z.x.x.z.z.z.z.c.c.c.c.g.g.g.g.s.a.p.u.u.u.u.u.u.u.u.i.i.i.i.i.a.a.i.s.h.h.h.h.g.g.g.g.g.g.~.~.~.~.~.~.~.~.~.~.~.~.Q.Q.Q.Q.Q.Q.~.~.~.~.~.!.~.~.~.~.~.S.S.Z.v.v.v.S.S.S.S.S.S.S.S.S.~.[.[.[.[.[.}.}.|.|.|.|..X.X|.|.|.}.].[.[.[.[.[.].].}.}.}.}.}.}.}.[.[.[.].}.|.|..X X|.}.].].].].].~.Q.S.A.c.z.g.g.s.i.i.i.i.a.a.i.i.i.u.u.u.u.u.i.s.s.g.g.g.g.z.c.z.z.z.z.c.x.x.S.Q.Q.~.~.!.].].{.{. X|.|.|. X X|.|.|. X X|.|.|.{.].].~.].{..X@XeXeXeXeXeXeXeXeXeX/.! m i M s j k j M m k M M L L L P T T W W E E E E p.p.p.a.a.l.k.Y.W.M.k.j.j.f.f.j.j.M.Y.Y.k.M.k.j.j.Y.^./.<X<X<X^.Y.M.Y.^.5XrXrXrXrX<X^.M.M.Y.2XrXtXkXkXrX<X/.5XkXmXmXmXkXhXbXvXrXrXkXvXvXkXkXbXvXmXmXmXGXCXCXGXCXvXvXcXhX7XvXAXvX1X4XNXvX4XR.2XCXFXFXJXPXPXHXhXY.E J K K 7.7.7.7.e.e.e.e.e.w.e.e.e.e.e.",
"                                                                    . . . . . . . . . . O + + + + + + - ; ; , < h N U @...j.^.(.5XtXkXMXxXMXxXxXmXxXMXMXMXtXtXwX<XwXwXtXtXtXtXtXrX5XY.j.@.| P Y Y Y Y U |  .@.f.j.M.M.j.j.j.j.M.j.j.j.f.f.a.p.@.a.a.p.! ! 8.p.a.d.d.d.d.d.b.d.d.0.0.9.K K K 6.K J J D R D D F F F G G k d s s d s p k f.<X/. X!.!.!.(.(.(.!.!.(.!.!.!.!.~.Q.Q.Q.Z.Z.A.x.x.A.A.x.x.x.c.c.z.g.g.g.h.h.s.a.u.u.u.u.a.u.a.a.i.i.i.i.i.i.i.i.a.a.a.h.h.g.g.g.z.z.g.c.z.Z.Q.Q.Q.Q.Q.Q.S.Q.!.!.!.~.Q.S.S.Z.Z.S.Q.~.~.~.Q.~.Q.~.Q.S.Z.Z.x.z.v.D.S.S.S.S.S.S.S.S.S.S.S.~.~.}.}.}. X X X X X|.}.}.[.!.~.~.~.~.[.[.~.~.~.~.S.S.Z.S.S.~.[.].}.OX|.|..X|.|.}.}.].].].].!.~.S.Z.z.z.g.g.s.s.i.i.i.i.i.a.i.i.i.u.u.u.u.i.a.s.h.g.g.g.z.c.c.z.c.c.c.x.Z.S.Q.Q.~.~.!.!.].].}.{. X|.|. X X|. X|.|.|.|.|.{.].~.~.I.!.{..X@XeXeXeXeXeXeXeXeX@X~.Q s p m m j j k M m k k D L L P Y Y T W W E E E E p.#.p.a.a.f.k.Y.^.M.k.j.j.f.j.j.M.Y.M.j.j.j.f.j.M.^.^.<X5X5X^.Y.M.M.Y.<XrXrXrXrX5X,XM.m.M.^.rXhXkXhXrX<X^.<XrXkXmXvXrXkXbXbXkXrXkXkXrXrXkXkXkXkXkXvXvXmXmXZXZXvXvXjXhXkXkXvXAXvX1X1XNXZXkX2X2XjXFXFXKXPXPXPXNX,X..G F H H H H 7.7.7.7.e.7.e.e.e.e.e.e.",
"                                                                        . . . . . . O O O + + + + + + + ; , < h x L  .f.j.M.^.5XtXtXbXmXmXmXmXmXmXmXMXtXkXtXtXwXwXwXwXwXwXrXrXrX5X<XY.j.*.| P U Y Y Y U |  .#.*.f.j.j.j.j.j.M.M.M.j.j.j.j.f.f.a.a.a.p.! ! 8.p.a.l.d.d.d.d.d.d.d.d.0.8.R K R R K J G Q G D D F F G G G k s s s s k i s W /./. X/.!.!.(.~.~.~.~.~.~.~.~.~.Q.Q.Q.Z.A.A.x.x.A.x.x.x.x.c.z.g.g.g.h.s.s.s.a.u.u.u.u.u.a.a.a.a.i.i.i.i.i.i.i.i.s.s.a.h.h.g.g.g.z.z.z.c.z.Z.S.Q.Q.Q.Q.Q.S.Z.x.z.g.g.s.s.g.Z.~.Z.S.S.~.~.~.Q.Q.Q.Q.S.Z.Z.x.x.x.x.v.D.Z.S.S.S.S.S.S.S.~.~.~.}.}.}.}.}.}.}.}.}.}.!.!.~.~.S.S.D.z.z.g.g.g.z.b.z.c.c.~.~.[.}.OX|.|.|.|.|.|.|.}.}.].].].[.~.Q.S.x.z.z.g.s.s.s.i.i.i.i.a.i.i.i.u.u.u.u.i.i.a.s.h.g.g.z.c.z.c.z.c.c.c.x.S.S.Q.Q.~.~.!.!.].].].{. X X|. X|.|.|.|.{.{.{.].~.I.I.I.!. X@XeXeXeXeXeXeXeXeXeX#Xk.G p s p L j k M M k k m M L L P Y T W W E E E E E ! #.p.p.a.f.k.Y.Y.Y.k.j.j.j.j.j.M.M.j.j.j.j.f.j.Y.^.^.<X<X<XY.j.j.Y.^.5XrXrXrXrX<X^.M.M.^.<XrXkXkXrX<X^.^.rXkXbXbXkXrXbXvXkXrXrXkXhXrXrXhXkXkXkXkXkXvXCXZXFXNXvXkXkXkXcX7XvXAXvX,X,XvXAXvX7X2X7XCXFXHXKXPXPXAX4X*.L G m G G H H H 7.7.7.7.7.7.7.e.7.e.",
"                                                                        . . . . . X X O + + + + + + + - , 6 h h C U *.M.M.^.<XrXkXMXmXmXmXmXmXmXmXMXkXtXtXtXtXtXtXtXwXwXwXwX5X<X<X/.Y.f.*.| Y U Y Y Y Y U  . .@.f.f.f.j.j.M.M.M.M.M.M.j.j.j.f.f.f.a.p.! E 8.p.a.s.d.d.d.d.d.d.d.d.0.8.6.R 6.R J G H J d D D G F G G G k s s s s s i t M W.wX X X!.!.(.(.~.Q.Q.Q.Q.Q.Q.Q.Q.Q.Z.x.x.A.x.x.A.x.x.x.c.z.g.g.g.s.a.a.a.a.u.u.u.u.i.i.a.a.a.a.a.a.a.a.i.i.i.i.h.h.h.h.h.g.g.z.z.z.c.c.z.Z.S.Q.Q.Q.Q.Q.Z.x.z.z.s.i.u.u.i.s.g.Z.Z.Z.Z.S.Q.Q.Q.Q.Q.S.Z.x.z.z.z.z.x.x.x.x.x.Z.S.S.S.S.S.~.!.!.}.}.}.].].].}.!.~.S.!.S.z.g.i.g.z.z.z.z.z.z.z.z.v.S.[.[.}.}.|.|.|.|.|.|.|.|.|.}.].].].].!.~.S.Z.z.z.g.g.s.s.i.i.s.s.a.a.a.i.i.i.u.u.i.u.i.a.s.h.g.g.z.c.c.c.c.c.c.x.x.x.S.Q.~.~.!.!.!.].].{.{.{.{.|.|.|.|. X{.{.!.~.I.I.I.~.].|.@XeXeXeXeXeXeXeXeXeX X8.s i s p L j m M k m m m M G L P Y T W W E E E E ! ! #.p.p.a.j.k.k.Y.M.k.j.j.j.j.M.M.M.j.j.f.f.j.j.Y.^.^.^.^.Y.M.j.j.Y.<XrXrXrXrX5X^.R.M.Y.<XrXhXkXkX<X^.^.<XrXkXbXkXrXkXvXkXrX5XkXkXrXkXhXrXrXrXrXrXhXvXCXFXZXvXcXhXvXhXcXcXcXCXcX;XR.vXFXBXkX2X,XhXFXHXKXPXJXDX8Xn.L k p k c c c H n n n n H 7.7.7.7.7.",
"                                                                        . . . X . X X o + + + + + + ; > < h h N P ..j.Y.M./.rXtXtXbXbXbXmXmXmXmXMXkXtXtXtXtXtXtXtXtXtXtXrX5X/./.^.^.Y.j.f. .U | Y Y Y Y U |  . .#.@.a.f.f.j.j.j.k.M.M.M.k.k.k.j.f.a.p.! E 8.a.l.s.d.d.d.b.d.d.d.d.9.8.6.6.6.K J G J D b D D G G G G L d s s s s s i y s k./.(. X X!.(.(.~.Q.Q.Q.Q.Q.Q.Q.Q.Z.x.x.x.x.x.x.A.x.z.z.z.g.g.h.s.i.u.u.u.u.u.u.u.u.i.i.i.a.a.a.a.a.a.a.a.a.i.a.h.h.h.h.g.g.g.g.z.z.c.c.x.Z.Q.~.~.Q.Q.S.Z.Z.Z.S.g.g.s.i.u.u.i.s.z.D.A.Z.Z.S.Q.Q.S.Z.Z.x.z.z.c.c.z.z.z.z.z.z.Z.Z.Z.S.S.Q.~.!.}.}.!.].].!.~.S.S.Z.h.g.g.z.z.z.z.g.g.z.z.z.z.v.S.~.[.}.}.|.|.|.|.|..X.X.X.X|.}.}.].].].!.~.Q.S.x.z.z.g.s.s.s.s.s.i.a.a.a.i.i.i.u.u.u.u.i.u.u.u.i.s.g.z.c.c.c.c.c.c.c.x.x.S.Q.~.~.!.!.!.].].{.{.{.{.|.|.|. X{.].~.I.x.I.~.].|.XXeXeXeXeXeXeXyXeXeXeX/.T s i p j M M M m k m m m M L F P Y T W W E E E E ! E p.p.a.a.f.k.j.k.M.k.j.j.j.M.M.M.j.j.f.@.f.j.Y.^.^.^.^.^.M.j.M.Y.^.5XrXrXrX5X,XY.Y.R.,XrXkXhXhX4X<X^.^.rXrXkXkXrXrXbXmXrX5XrXkXrXrXkXkXrXrXrXrXrXhXvXCXZXCXvXhXkXjXjXNXvXjXCXjX;XT.cXFXCXhX,XR.,XCXFXHXKXKXHXjXN.( h y h j k c c c c c b n n K 7.7.7.",
"                                                            . . . . . . . . X O O O O O + + + + + + - , h h k Z ..f.M.Y.^.<XwXtXtXtXtXkXbXmXmXmXmXkXtXtXtXtXtXrXtXtXtXtXrX5X/.Y.^.Y.M.j.j.j.@...| P L U U |  . . . ...@.@.f.f.j.k.j.M.M.M.M.k.j.a.f.a.! E 8.a.a.0.s.d.d.b.b.d.d.d.0.9.9.6.6.K J F J d b b D G G G D G m k d d d p i y i T /. XqX X!.!.!.~.Q.Q.Q.Q.W.Q.Q.Z.A.x.x.x.x.x.x.z.z.k.g.g.g.s.s.u.u.u.u.u.u.a.a.u.u.i.i.i.a.a.a.i.i.i.i.a.a.a.h.h.h.h.g.g.g.g.z.z.z.z.c.x.Z.~.~.!.~.~.Q.Z.Z.Z.Z.z.g.s.i.i.u.u.u.i.h.g.A.A.Z.Z.Z.Z.Z.Z.A.z.z.z.z.z.z.z.z.c.z.z.z.z.x.S.Q.~.!.!.!.!.!.~.Q.S.A.z.z.g.g.g.g.g.g.g.g.z.z.b.c.v.S.~.~.].}.|.|. X X.X.X X X X X X|.|.}.}.}.].!.~.S.Z.z.c.g.g.s.s.s.s.s.a.a.i.i.i.u.u.u.u.u.u.u.u.6.6.6.s.h.g.c.z.c.c.c.c.x.x.x.v.Q.~.!.!.!.!.].].].{. X X X X X{.~.I.x.x.I.~.].|.@XeXuXeXeXeXeXuXeXeXeXk.G k i p s k M M L s m m m m G L Y Y T W E E E E E p.! p.p.l.a.l.k.j.j.f.k.k.j.j.M.Y.M.j.j.f.@.f.M.^./.^.^.Y.j.j.j.Y./.<XrXrXrXrX<XR.M.M.Y.<XhXkXhX5X,X^.^.<XrXkXkXhXhXhXmXbX4X<XkXhXkXkXkXhXrXhXrXrXhXkXvXvXvXAXvXvXvXvXCXCXjXvXAXcX;Xn.hXDXDXjX1XR.-XvXDXHXHXKXKXAX=X_ h , a u u p f d d d c b b n H H 7.",
"                                                            . . . . . . X X O O O X O O + + + + + - , 6 h x C U @.j.M.M.^./.5XwXwXwXrXrXtXtXtXkXkXtXrXwXrXtXtXtXtXtXrXtXrX5X/.^.Y.Y.M.j.m.m.j.@...Y L U U |  . .| |  . ...a.f.f.f.j.j.j.M.k.j.f.a.f.a.6.6.8.a.a.0.l.d.d.b.b.d.d.d.0.9.9.6.6.K Q H F d b D D G G G D G P D d d s p i y y M k./. X X!.!.!.!.Q.W.W.Q.Q.Q.Q.Z.A.x.x.z.z.x.x.z.k.g.g.s.s.s.i.u.u.u.u.u.u.a.a.u.i.i.i.i.i.a.a.i.i.i.i.a.a.h.h.h.h.g.g.g.g.g.z.z.z.z.z.Z.S.!.}.!.!.~.Q.S.Z.Z.Z.Z.z.g.s.i.i.i.u.u.u.i.g.D.A.Z.A.Z.Z.A.A.z.z.z.z.A.A.x.x.z.x.z.z.z.z.S.Q.~.!.~.Q.Q.S.S.Z.z.z.g.g.g.g.g.g.g.g.g.z.z.D.c.x.Z.S.~.[.}.|. X X.XXXXXXX.X.X X X X X X X X X|.].!.~.S.x.z.z.g.s.s.i.s.s.a.a.i.i.i.u.u.u.u.u.u.u.u.u.u.u.u.u.a.s.g.z.c.c.c.x.x.x.x.x.Q.~.~.~.!.!.].].{. X X X X X].~.v.x.x.I.!.{. X@XeXuXeXeXeXeXuXeXeX Xa.k j p p p s k L L m m m M m G L P T W W E E E E p.p.p.p.p.l.l.f.k.j.l.f.j.j.j.M.M.M.j.j.j.f.f.f.j.^.^./.^.M.j.m.j.^.5X5XrXrX4X<X^.M.m.Y.^.5XhXhX4X^.M.^.<XrXkXbXrXrXkXbXvXrX<XrXkXhXkXhXrXrXrX4XrXhXkXkXkXkXvXBXvXvXBXZXCXcXhXvXAXcX,XN.8XDXDXvX4X-X-XjXDXHXKXKXJXUX1XO.l , u , y u p i p s f d c c b H H ",
"                                                    . . . .     . X . . X . X X X O O + + + + + - > 6 h x C L | f.j.M.M.^.^.<X/./././.5XwXwXrXrXrXwXwXwXwXtXtXtXrXrXrXrXwX<X/.^.Y.Y.M.j.M.M.m.j.@.| Y U |  . . . .U |  . . .a.f.f.f.f.j.k.j.f.f.a.f.a.6.6.p.a.a.0.l.d.d.b.b.d.0.0.0.9.6.8.6.K J H D d b D G G G G G G Q G d s s p i y t i ..(. X X X!.!.!.~.Q.Q.Q.W.Q.Q.Z.Z.x.z.z.z.x.c.k.g.g.s.s.s.a.u.u.u.u.u.u.u.a.a.i.i.a.a.h.h.h.h.a.a.a.a.h.h.h.h.h.g.g.g.g.g.g.g.z.z.z.z.S.~.!.}.}.!.!.~.S.Z.Z.Z.Z.Z.z.g.h.s.i.i.i.u.u.u.s.g.z.Z.A.A.A.A.z.z.A.A.A.A.x.x.z.z.z.z.x.Z.S.Q.Q.Q.Q.S.Z.z.z.g.g.g.g.g.h.h.g.g.g.g.g.z.z.z.x.D.S.~.[.].}.|..X.XXXXXXXXX.X.X.X.X.X X.X X X X X}.].~.S.Z.z.c.g.s.s.i.i.i.a.a.i.i.a.a.a.a.u.u.u.u.u.u.u.u.u.u.u.i.s.g.c.c.c.c.x.x.x.x.v.Q.Q.~.~.!.].{.{. X X X X|.].I.x.x.I.~.].|. X@XeXuXeXeXeXeXeXeXeX!.W s p p s p p s Y L L M M M G L P Y W W E E E E E p.p.p.p.a.a.l.f.k.f.f.f.f.k.M.Y.Y.M.j.j.f.f.f.f.j.Y.^.^.Y.j.j.M.M.<X5X5XrX5X<X^.M.j.m.^.<XrXrXrX,XB.M.<XrXkXkXhXrXhXkXvXhX5XrXkXkXkXbXrX4X4X4X5XhXkXhXrXrXhXvXvXCXNXCXCXvXjXjXNXAXvX1XB.7XAXIXNX7X-X-XhXAXHXKXKXPXKX9X>.z 6 , , , , y y y u i g g d d c c ",
"                                                    . . . .     . . . X X X X X O o + + + + + + , 6 h x C S U ..j.j.M.M.^.^./.(.^.^.(././././.<X<X<X<X<XwXtXtXtXrXrXwX5X<X/.^.^.Y.Y.M.m.m.M.M.m.j...| |  . ..... .| | | W  ...@.f.f.f.f.j.f.a.a.p.a.a.p.8.p.s.a.0.l.d.d.d.d.d.0.0.9.9.6.6.R J J G b b b D G G D D L D G G d f p i u y t u G A.(. X X!.(.(.!.~.Q.Q.W.Q.Q.Z.A.x.z.c.c.c.z.g.g.s.s.s.i.u.u.u.u.u.u.u.u.u.u.i.i.a.a.h.h.h.h.a.h.a.a.h.h.h.h.h.g.g.g.g.g.g.g.z.z.z.x.Q.~.}.|. X}.!.!.S.Z.Z.Z.Z.Z.A.z.g.g.s.s.a.i.i.u.i.i.s.g.z.z.z.A.z.z.A.A.A.A.A.A.Z.x.x.Z.S.S.Q.Q.S.Z.Z.Z.c.g.g.s.g.g.g.g.g.g.g.g.g.g.g.z.z.D.D.S.~.~.].}.|..XXXXXXXXXXXXXXX.X.X.X.X.X.X XXX X X X}.[.Q.S.Z.z.g.s.s.i.i.i.i.i.i.i.a.a.a.a.u.u.u.u.u.a.u.u.i.u.6.I i.s.g.z.c.c.x.x.x.x.x.v.I.Q.Q.~.].{.{.{.|. X X{.~.I.v.I.I.~.].|..X@XeXeXeXeXeXeXeXeXeXW.Q p s p s s s p W G Y G G G G L P Y W W E E E E E p.p.p.p.l.p.l.f.j.f.f.j.j.j.Y.Y.M.j.f.f.f.j.j.j.j.M.Y.M.j.j.m.Y.^.5X5X5X5X5X^.Y.j.f.M.,X4XrX5X2XR.B.R.5XhXkXkXrXrXkXbXhX5X5XbXmXkXbXkX5X5X5X5XrXkXkX4XrX4XrXkXvXSXvXCXhXkXvXNXCXFXBX3XR.7XAXHXCX8X;XR.hXAXHXJXJXPXKXjX1.^ 6 > ; , : : : : t t t g g g d c ",
"                                                    . .     . X . . . X O o O O o + + + + - - - , 6 h x A P  .*.j.j.M.^.<X<X<X<X(./.<X(././././.^.^.^./.wXrXtXtXkXrX5X<X/.^.^.Y.Y.M.m.m.M.M.M.M.M.j.j.f.*... ... .| U U Y U  .@.a.f.f.f.f.a.a.a.a.a.a.p.8.a.a.0.0.s.d.d.d.d.d.0.0.9.6.6.6.K J H G b b b D G G D D G D G F k g f i u u t u k h./.!. X/.!.!.(.!.Q.Q.Q.Q.Q.Z.A.x.c.c.z.k.g.h.h.s.s.a.u.u.u.u.u.u.u.u.u.a.a.a.a.a.a.h.h.a.h.a.a.a.a.a.h.h.h.g.g.g.g.g.g.k.k.z.z.z.A.Q.!.}.|.|.}.!.!.Q.S.S.Z.Z.Z.Z.A.z.g.g.s.h.s.a.i.i.u.u.i.s.g.z.z.z.z.z.A.A.A.A.Z.A.Z.Z.Z.S.S.Z.Z.A.z.z.g.g.g.g.g.g.g.h.g.g.g.g.g.g.z.z.z.D.S.S.!.!.].}.|. XXXXXXXXXXXXXXXXXXXXXXXXXXX X.X X X X X|.}.}.!.S.Z.c.g.g.s.i.i.i.i.a.a.a.a.i.i.i.i.a.a.a.a.h.s.i.u.u.u.I 6.s.g.z.c.z.x.x.x.x.x.v.Q.Q.~.].{.{.{.|.|.|.{.I.I.I.I.~.!.{.|.@X@XeXeXeXeXeXeXeXeXXX6.D s s s s j j j L L  .M G G G L P Y W E E E #.E E p.p.p.p.l.a.f.f.f.a.a.j.j.k.Y.Y.M.j.f.f.f.j.j.M.M.M.M.j.*.f.j.R.,X5X4X5X<X^.Y.j.j.m.^.<XrX4X,XR.m.M.2XrXkXkXrX<XrXkXkX4X,XrXmXkXmXmXhXrX4X5X5XrXkXrX4XhX4XhXvXCXAXCXjXhXCXAXCXNXAXCX8X-X4XAXHXDXhX-XB.,XNXDXJXJXPXKXVX-X' 7 - - ; ; ; : ; ; : : t t g g g ",
"                  . . . . . . .                 .   . .     X X . . X X o o O O o + - - - - - > , 6 h x P  .*.j.j.M.^.<XtXtXrXrXrXtXtXrXrX5X/./.^.Y.^.^.<XwXrXrXrXrX5X<X^.^.Y.M.M.M.M.M.M.M.Y.Y.M.M.j.f.f. .|  .U U P L L Y  ...#.f.f.f.a.p.a.a.a.a.a.p.p.a.a.0.0.0.d.d.d.d.d.0.9.9.6.6.R K J H G b b b D G G D D D D G G k f f p i u y u p I W./. X}.!.!.!.(.~.~.Q.Q.Q.Z.x.x.c.c.z.k.g.h.h.s.a.p.u.u.u.u.u.u.u.u.u.a.a.a.a.a.a.h.h.a.a.h.a.a.a.a.h.h.h.g.g.g.g.g.g.k.z.z.z.z.Z.Q.!.}.}.}.}.!.!.~.Q.Z.Z.Z.Z.Z.Z.A.z.g.g.h.h.h.s.s.i.i.u.i.i.s.g.g.z.z.z.z.z.A.A.z.z.A.Z.A.z.c.z.z.g.g.g.g.g.g.g.g.g.g.g.g.g.g.g.z.z.Z.Z.S.~.].].].}. X XXXqXXXXXXXXXXXXXXXXXXXXXXXXX.X.X X X X X X|. X|.].~.Z.z.g.g.s.i.i.i.a.a.a.a.s.s.a.i.a.h.h.h.h.h.a.i.u.u.6.I 6.a.g.z.c.z.x.x.x.x.v.Q.Q.~.!.{.{.{. X.X X].~.I.~.~.~.!.{.|.@X@XeXeXeXeXeXeXeXXXQ.I c s j s s s j j m W W G D L L L P Y W E #.E p.! E ! E E p.l.l.f.f.l.f.f.j.k.j.M.M.j.j.f.f.f.j.M.M.M.M.M.f.f.f.M.^.,X5X5X5X,XY.m.j.m.E.,X<X4X2X^.m.f.M.,XrXkXhX4XrXrXrXrX<XrXkXkXkXmXmXhXrX4X4XrXrXrX4X4XhXkXkXvXvXZXCXhXvXCXCXjXvXAXBX7X-X1XAXHXFXjX,XR.R.hXCXHXKXJXKXAX:XX.7 > > > ; ; ; ; ; ; ; : t t y t ",
"    . .     . .     . . X . .   .   .           . . . . . . X X X X X X o o o o + + - - - - > , , 6 h C { *.j.m.M.^.<XrXkXkXkXkXbXmXmXbXkXtXwX^.Y.M.M.Y.(./.<X5XwX5X<X/.^.Y.M.m.m.M.M.M.Y.Y.Y.Y.Y.M.j.j.j.| U U P P L L L L U  ...@.f.a.a.a.a.a.a.a.a.p.p.a.a.0.0.0.d.d.d.d.0.0.9.9.6.K R K J G b b b b D G G D D D D D D m s g p p u u u y k g.!.}. X X X!.!.~.~.Q.Q.Q.A.x.x.c.z.c.g.h.s.s.s.a.u.u.u.u.u.u.u.u.a.a.a.a.a.a.h.h.h.h.a.a.a.h.h.h.h.h.h.h.g.g.g.g.g.g.z.c.z.z.x.Z.!.}.}.{.}.}.!.!.!.Q.Z.Z.Z.Z.A.A.A.A.z.g.g.g.h.s.s.s.s.a.s.i.s.s.s.g.g.z.z.z.z.z.z.z.z.z.z.g.g.g.g.g.g.g.g.g.g.g.g.g.g.g.g.g.z.c.z.S.Q.Q.Q.~.].}.|. X XXXXXXXXXXXqXqXqXqXqXqXXXqXXXXXXXXXXX X X X X X X X|.].~.S.z.g.g.s.s.s.a.a.a.a.s.s.s.a.s.s.h.s.h.s.s.a.a.a.u.6.I I i.g.c.c.c.c.c.x.v.v.Q.~.!.{.{. X|.@X@X].~.~.!.~.~.!.{. X@X@XeXeXeXeXeXeXeXeXg.c d s s s s s j j P G #.m G G G L P T W E #.E p.#.8.! E E p.l.l.l.f.f.f.l.k.k.k.j.j.f.f.f.f.j.j.M.Y.M.M.j.j.f.j.^.^.,X5X<X<X^.M.j.f.m.^.2X4X<X,XM.*.f.R.2XrXhX4X5XrXrX5X<X2XhXvXhXkXmXbXhX4XrXhXhXrX4X2X2XrXhXkXkXNXCXNXbXCXCXvXhXvXAXBX7X-X,XBXHXHXNX4X-XE.4XCXHXHXJXJXIX1X$.l > > > > , ; ; ; ; ; : : : t t ",
"      .   . .   . X X X X X X . X .   .     . . . . . . . . . X . X X X o o o o + + + - - > > , , < h A | m.M.M.^.<XrXrXrXkXvXmXmXmXSXmXmXkX5X/.M.j.j.M.Y.Y.^.^.^././.^.^.Y.M.j.m.C.M.Y.Y.Y.Y.Y.Y.M.m.j.j.| P Y L L L L L L Y U  ...#.p.a.a.a.p.p.a.a.p.p.a.a.9.0.0.d.d.d.d.0.0.9.9.7.K K J F G b b b b D G G D D D D D m d d f i p i u u y f u./. X X}. X{.!.!.~.Q.Q.Q.A.x.c.c.c.g.g.s.s.s.s.u.u.u.p.p.u.u.u.u.a.a.a.a.a.a.h.h.h.h.a.a.a.h.h.h.h.h.h.h.g.g.g.g.g.g.z.c.c.z.x.Z.!.}.{.!.!.!.!.!.!.~.Q.Z.Z.Z.A.Z.Z.A.A.z.z.g.g.g.h.h.s.s.s.h.h.s.s.s.h.g.g.g.g.g.g.g.g.g.g.g.g.g.g.g.g.g.g.g.g.g.g.g.g.g.z.z.z.z.S.Q.~.~.~.].].}. X XXXqXqXqXXXXXqXqXqXqXqXqXXXqXXXXXXXXXXX X X X X X X X X}.!.~.S.z.g.g.h.s.s.s.s.a.s.a.a.s.a.h.h.h.h.h.h.a.a.a.s.u.I H R i.g.c.c.c.c.c.x.v.Q.~.!.{.{. X X@X@X!.].].].!.!.].{.|.@X@XeXeXeXeXeXeXwX!.6.m s s s s s j k j U M L Y P P P P Q W E #.#.E p.#.p.p.E E p.l.l.a.a.a.f.k.M.k.j.j.f.a.f.f.f.j.M.Y.Y.Y.j.f.j.j.Y.^.,X<X<X<X,XY.m.m.m.Y.,X<X5X,XR.m.*.m.,X4XrXrX<XrXkX4X,X<XhXhXhXkXkXvXbXhX4XhXkXrX4X5X2X2X4X5X4XkXBXvXvXCXAXjXhXcXjXCXNX3X-X;XNXHXHXCX7X-X;X1XNXDXHXJXKXIX6X-.l > > > > , , : ; ; ; ; : : : : ",
"        . . . . X X X X X X X X X X X X X X . . . . X . . . . . X X X X O O o + + + - - > > , , , < C | j.Y.Y.Y.<XrXrXkXkXkXvXmXSXGXCXmXbXtX<XY.j.f.*.*.@.f.j.m.M.M.Y.Y.j.j.j.j.j.M.M.Y.Y.Y.Y.Y.Y.M.M.j.j.@.U Y L L L L L L Y W  . .#.#.#.a.a.p.a.a.a.p.p.a.a.a.0.0.0.d.d.d.0.0.9.9.7.K K J H b b b D b D D D D m m m m k p m s u i u y u y s D A. X X!. X X/.!.~.Q.W.Q.x.c.c.c.k.g.g.s.s.s.a.i.u.u.p.p.p.i.a.a.a.a.h.h.a.a.h.h.h.h.h.h.h.h.h.h.h.h.h.g.g.g.g.g.g.g.z.z.c.x.Z.~.!.}.{.!.}.}.!.!.!.~.~.S.Z.Z.A.A.Z.Z.A.x.z.z.g.g.g.g.h.s.h.h.h.h.s.s.s.s.h.s.h.h.s.s.s.h.g.g.g.s.g.g.g.g.g.g.g.g.g.g.g.z.z.Z.Z.S.Q.~.!.!.].}.|. X XXXqXqXXXXXqXqXXXXXqXqXqXqXqXqXeXeXXXXX.X X X X X X X X X X|./.!.Q.A.z.g.g.h.h.s.a.a.a.a.h.s.h.h.h.h.h.h.h.h.a.s.u.I I I 6.i.s.g.c.z.z.c.v.Q.~.].{.|. X X@X@X].].].].].].{. X|.@X@XeXeXeX@X@XeXtXM.F s s s s s s j k M F k D T T Y Y Y T T E #.! E p.p.p.p.! p.p.a.f.l.f.a.f.j.M.k.j.f.@.#.@.f.j.j.M.M.M.j.f.f.f.j.Y./.<X<X<X^.^.M.M.M.Y.,X<X<X<X^.B.C.E.^.<XhX5XrXrXhXkX5X,X<XhX4X4XkXCXCXvXhXrXrX4X5X2X2X2X2X4X4XrXkXjXhXvXFXCXhXBXNXNXAXNX3XB.-XvXHXKXCX7X,X-X1XBXFXIXKXKXHX8X-.l > > > , , , : : : : : : ; ; ; ",
"                . X X X X X X X X X X X o o X X X X o X X X X X X X X X O O + + + - - - , > ; ; , x { f.C.Y.Y.^.<X5XrXhXkXbXmXCXZXSXbXbXtX5X^.Y.*.@.@... . .@.*.f.f.j.j.f.f.f.f.j.m.M.Y.Y.Y.Y.Y.M.M.M.m.j.f. .| Y Y L L L L Y W U E E  ...@.a.a.a.p.p.p.8.8.p.a.l.d.d.d.d.d.0.0.9.6.K K K J F b b b D D D D D D m m m m m p M j i u u y p y u k s.!./. X X X{.!.(.~.Q.Q.Q.x.c.c.k.g.g.s.s.s.a.u.u.u.p.p.a.a.s.s.h.h.h.h.h.h.h.h.h.h.h.h.h.h.h.h.h.g.g.g.g.g.g.g.g.z.z.z.x.Z.Q.!. X X|.|.{.}.}.].!.!.~.Q.S.Z.Z.A.Z.Z.A.A.x.z.z.c.g.g.g.g.h.h.h.s.h.h.h.h.h.s.h.h.s.s.s.s.g.g.g.g.g.g.g.g.g.g.g.g.g.g.c.z.Z.Z.Q.~.!.!.}.|.|.|. XXXXXqXqXqXqXqXeXeXXXXXqXqXqXqXqXqXeXeXqXXXXX X X XXX.X X X X X X X X!.~.Q.A.z.g.g.h.s.s.a.s.h.h.h.g.h.h.h.h.h.h.a.s.u.I I I 6.u.s.s.g.z.z.c.x.Q.~.!.{. X X.X@X@X].].].].].]. X|. X@X@XeXeXeX@X@XeX<Xa.m p s s s s s j k M L m D Y W Y Y Y T T E ! #.E p.p.p.p.p.p.p.a.a.l.f.f.f.j.M.k.j.f.@...#.f.j.j.M.M.M.j.f.@.f.M.^.,X<X<X,X^.M.m.M.Y.^.<X<X<X,XY.B.M.^.2X2XrX5X4XrXhXrX2X2X4XrX4X4XkXvXvXvXhXrX4X4X2X2X2X2X2X2X7XhXhXhXjXCXFXvXjXCXCXNXAXBX7XB.R.vXHXKXAXhX,XB.;XvXDXHXKXKXHX8X-.V > > > , , : : , , : : : : ; ; ",
"                .   X X X X o o o o o o @ @ o o o o o o X X X X X X X O O + + + - - - > , , , , < Z *.C.M.Y.R.,X5X5XrXhXkXbXmXCXCXmXhXhX5X^.Y.j.#.#.@.@. .|  . .#.#.@.*.@.@.@.@.f.j.m.M.M.Y.Y.Y.M.M.M.m.j.f.@. .| U Y Y Y Y U W U U W W W #.p.f.a.#.E E ! 8.8.9.l.d.d.d.d.0.0.9.6.7.K J J J G b v D D D D D D D D D G G m p j m y y y y i i y s P A.(. X X X X/.!.~.~.Q.Q.A.c.c.c.g.g.s.s.a.p.u.p.p.p.a.a.s.s.s.h.h.h.h.h.h.h.h.h.h.h.h.g.g.g.g.g.k.k.k.z.z.z.z.z.z.A.Z.Z.S.~.|. X X X X X X|.|.].!.!.~.Q.S.Z.Z.Z.Z.x.x.A.x.z.z.k.g.g.h.h.h.h.h.h.h.h.h.h.h.h.h.s.s.s.s.h.h.g.g.g.g.g.g.g.g.g.g.c.c.z.Z.S.Q.~.~.].}. X X X XXXqXqXXXqXqXqXqXeXeXqXqXeXeXeXeXeXeXeXeXeXqXXXXXXXXXXXXXXXXXXXXXXXXX X X!.!.Q.Z.z.k.g.g.s.s.s.s.g.g.g.g.h.h.h.h.s.s.a.u.I I R I 6.s.s.s.g.g.z.x.Q.~.!.{. X@XXX@X@X].].].].].{.|..X@X@XeXeXeXeX@X@XeX^.U s p s s s s s j k D F G D F W T Y Q T W W E #.E p.#.p.p.p.p.a.a.l.l.f.l.j.j.M.j.j.f.@...@.f.j.M.M.Y.j.f.@.#.f.M.^.<X<X,X^.Y.j.j.M.^.,X5X5X^.Y.M.M.R.,X5X5X5X5X<XhXrX<X,X<X4X5X4XrXbXkXbXkXhX7X4X5X2X2X2X2X2X4X7X7X4XhXNXCXNXjXNXAXNXcXAXBX7XN.T.cXFXKXDXcX,XB.R.jXDXHXKXKXHX9X>.^ 6 > > , , ; ; , , , , : ; ; ; ",
"                        . X o o o o @ @ @ @ @ @ @ @ o o o o X X o o o o o + + - - > > - , , ; : x | j.C.B.Y.R.5XrXhXkXbXbXvXmXCXvXvXrX<X^.Y.j.j.#.#.@.@... . . . .#.@.@.@.@.@.@.@.f.j.m.C.M.Y.Y.M.M.M.j.m.f.@.f.#. .U U U U W U W U U U W E #.p.@.#.E W W E 8.8.l.0.d.d.0.0.0.6.7.K K H Q F b v v D G D G D D D D G G G m s s M u t t : y k p s G a.^.(. X X X{.!.!.~.Q.W.W.x.c.k.g.g.s.s.a.p.u.p.p.p.a.s.h.h.h.h.h.h.h.h.h.h.h.h.h.h.h.g.k.g.k.k.k.k.z.z.z.z.z.z.x.A.A.S.Q.}. X X XXX X X X X X}.!.!.~.Q.Q.Z.Z.Z.x.x.x.A.A.x.z.z.k.g.g.g.g.h.h.h.h.h.h.h.h.h.h.s.s.s.s.g.g.g.g.g.g.g.g.g.g.z.z.c.z.S.S.Q.~.~.!.}.|. X XXXXXqXqXXXXXXXqXqXqXeXeXqXqXeXeXeXeXqXeXeXeXeXqXqXXXXXXXXXXXXXqXqXeXeXqXXX X X!.!.~.Z.A.z.g.g.s.g.g.g.g.g.g.g.h.h.h.h.s.a.u.I I 6.6.6.i.s.s.s.g.b.c.v.~.!.{. X.X@X@XXX].].].].]. X X@X@X@XeXeXeX@X@X@XeXk.L p p s s s s s j k D F F G G Y ..Q T T W W E E E p.! E ! p.p.a.a.l.a.f.f.j.k.k.j.f.f.@.#.@.f.j.Y.Y.Y.j.f.@.#.j.Y.^.5X<X,X^.M.f.M.R.^.<X5X<XM.M.m.M.R.5X5X,X5X4X5XrX5X,X,X<X4X2X4XhXkXrXhXhXhX4X5X5X5X2X2X2X2X4X4X2X4XcXAXCXhXjXAXAXjXjXCXBX7X,.N.jXFXHXHXvX,XE.T.hXAXIXKXKXHXjX>.^ 6 > , , : ; ; ; ; , , : ; ; ; ",
"                      .   . X X o o @ @ # # + # + + + + + + + o + + o o + + + $ + > , ; ; ; , h Z *.B.E.R.M.,XhXmXvXvXvXbXkXkXvXkX4X,XY.Y.f.@.f.*.@.@.@.#. .| ..@.#.#.@... . . ...@.*.f.j.m.M.M.Y.M.M.m.m.f.f.f.@. . .| U  . .U U U W W W E #.@.p...W E W W 8.9.0.0.d.d.d.0.9.6.7.K K J Q Q D b v b D D D D D D D G G G m j s k i t t : y i j k s G M.(. X X X/.!.!.~.~.Q.W.W.x.c.k.g.h.s.s.a.p.p.p.p.p.s.h.h.h.g.h.h.h.g.g.g.g.h.h.h.h.k.k.k.k.z.z.A.A.z.A.A.A.A.x.A.A.~./. X XXXXXXXXXXXXX X X|.].!.~.Q.Q.S.Z.Z.Z.A.A.A.A.A.A.z.c.k.g.g.h.g.h.g.g.g.h.h.h.h.h.g.g.g.g.g.g.g.g.g.g.g.g.g.z.c.z.z.x.S.Q.~.!.!.{.|. X XXXXXXXqXqXXXXXXXXXqXqXeXeXeXeXeXeXeXeXeXeXeXeXeXqXqXXXqXXXXXXXXXXXeXeXqXqXqXqXqXqX X!.Q.A.c.g.g.s.s.g.g.g.g.g.g.s.h.h.h.s.a.u.I I 6.6.u.u.s.s.s.s.b.x.I.~.!.{.|.XX@X@X.X].].].].{. X.X@X@X@X@X@XeX@X@X@X!...m p p s s s s s k m D L F G G P ..T T T T T W E E p.8.E E 8.a.a.a.l.a.l.l.k.k.j.f.a.f.@.@.f.f.j.Y.Y.j.f.@.@.*.M.Y.^.^.,X^.M.*.f.M.^.^.<X<X^.M.j.m.M.^.<X^.,X5XrXrX4X,X,X<X5X5X5X4XhXrXhXkXkXhXhXhX4X4X4X2X2X4X4X2X4XkXBXCXhXhXvXFXCXjXjXBXNX4XT.B.hXDXKXKXNX3XB.B.4XCXDXKXKXHXNX1.^ 2 > , > , ; ; , , , , ; ; ; ; ",
"                            . . X X o o @ @ # # # # + + + + + + + + + + + $ + $ - , 6 ; , , < x +.m.E.R.,X^.rXvXvXkXbXbXbXbXkXbXrX,XR.m.@.#.#.#.*.*.*.*.f.*.*.*.@.#.#. . .| | | |  ...@.*.j.m.m.M.M.M.M.m.j.f.f.@. . . . . . .W U U U E E E ..#.#...W E W T E a.0.0.d.d.d.0.9.6.6.K K K J J G b b b D D D D D D G G L G m j j k p y t t y u j k i p #.(./. X X!.!.!.(.~.Q.W.W.x.c.c.g.g.s.s.a.a.u.p.p.p.h.h.h.h.k.g.g.g.g.g.g.g.g.g.g.g.k.k.k.z.z.A.A.A.A.A.A.A.A.A.A.Z./. X XqXqXqXXXqXXXXXXX X|.}.].!.~.Q.Z.Z.Z.Z.A.A.A.A.A.A.x.c.k.g.g.h.g.g.g.g.g.h.h.h.h.h.g.g.g.g.g.g.g.g.g.g.g.g.z.c.z.x.x.Z.S.~.~.!.{.|. XXXXXXXqXqXXXXXXXXXXXXXqXqXeXeXeXeXeXeXeXeXeXeXeXeXeXqXeXeXeXqXeXXXXXeXeXqXqXqXqXqXqXqX X/.~.Z.z.c.g.g.s.g.g.g.g.g.s.s.s.s.s.s.a.u.R I R 6.u.u.i.s.s.s.b.x.I.~.].{.|..X@X@X|.].].].].{. X.X@X@X@X@X@X@X@XXX|.c.P j p p s s p s s k m G G L L G F W W W T T T W E E p.8.8.8.p.a.a.a.l.a.l.l.j.k.j.f.f.f.a.f.f.j.j.M.M.j.f.a.*.j.Y.Y.^.^.^.Y.m.*.j.Y.^.^.^.^.M.m.m.M.Y.,X,X^.^.5XrX5X,X^.<X2X<X<X4XrX4X4XhXhXkXkXhX7X4X4X4X3X4X2X2X4XhXbXcXhX7XjXCXDXBXhXhXBXNX3XV.N.8XDXHXHXNX1XN.n.1XBXDXHXKXHXVXN.^ 2 > > > , ; ; ; ; , , ; ; ; ; ",
"                                . . X X o @ + + # # & & & + & + $ $ + + $ $ $ - - 6 6 , < 6 x Z f.C.R.,X<X5XkXkXrXhXkXbXbXbXkXhX2XR.C.f. .@.*.*.M.M.M.M.Y.Y.Y.M.j.f.#.#.U U U U | | |  .@.*.*.f.j.j.M.M.M.j.f.f.@. . . . . . .U U U U ....W ....W  .W W W T W 8.0.0.d.d.0.0.9.6.6.K K K J Q D b b b G G G G F G G F F G k s k j p t t t y u j j j i m k././. X!.!.!.(.~.Q.Q.Q.A.x.c.k.g.h.s.s.a.a.a.a.a.h.h.h.g.k.k.k.k.k.g.k.k.k.k.k.k.k.k.z.z.z.A.A.A.A.A.A.A.Z.W.W.Z. X XqXqXeXeXeXeXqXXXXX X X|.}.!.~.Q.Z.Z.Z.Z.A.A.A.A.A.A.x.z.k.g.g.g.g.g.g.g.g.h.h.h.h.h.g.g.g.s.g.s.g.g.g.g.g.g.c.c.x.Z.Z.S.S.~.!.}.|. X XXXeXeXeXqXXXXXXXXXXXXXqXqXeXeXeXeXeXeXeXeX@XXXeXeXeXeXeXeXeXeXeXeXXXXXXXXXXXqXqXqXqXqX X X!.Q.x.c.c.g.g.g.g.g.g.h.s.a.a.a.a.s.a.u.R I R 6.u.u.i.s.s.s.b.x.I.~.].{.|..X@X@X X].{.{.{.{. X.X@X@X@X@X@X@X@X@X!.6.k s s s s s s s s k m G G F F L Q Y p.W T W W E E E p.p.p.a.l.l.l.p.l.l.l.h.j.j.j.a.@.@.f.f.j.j.j.j.j.j.f.f.f.M.Y.Y.R.^.Y.m.f.*.m.R.,X,X^.M.f.f.m.M.^.<X,X^.^.5X2X^.^.^.<X,X,X<X4X4X4X4XrXhXbXkXhX7X4X4X4X4X2X,X4X7XhXkX7X4XhXvXAXCXvX7X6XBXNX1XN.n.8XAXHXHXNX1Xn.n.1XBXDXKXKXHXBXV.) 6 > > > : ; ; ; ; ; ; ; ; ; : ",
"                                  . . X X o o o + # & & & & & & & & $ $ $ - - - > 6 6 6 h h C { m.B.,X2X5XrXkX5X5XhXkXkXkXbXkX4X^.B.j.*.*.m.Y.M.^.^.,X,X<X5X<X/.Y.M.f.@.| | U U { { | |  .#.@.@.@.*.j.M.M.j.f.f.@.@. . . . .W U U U W ..E W W W P U U Y T T W 8.l.d.d.d.0.9.7.7.6.K K K J J G b b D G F F F F F G F F G k s s s p t : t u u a a k j i F (./././.!.!.(.~.Q.Q.W.W.x.c.c.g.g.s.s.a.a.a.p.p.a.h.h.g.k.k.k.k.k.k.k.k.k.k.k.k.z.z.z.z.A.A.A.A.A.A.A.Z.Q.Q.Q.Q. XqXqXqXeXeXeXeXqXXXXX X X X|.!.~.Q.Z.Z.Z.Z.A.A.A.A.A.A.z.z.k.g.g.g.g.g.g.g.g.h.h.h.h.g.g.g.g.g.s.s.g.g.g.g.g.g.z.c.x.Z.S.S.~.!.}.|. X XXXqXeXeXeXqXXXXXXXXXXXXXqXqXeXeXeXeXeXeXeXeX@XXXeXeXeXeXeXeXeXeXeXeXXXXXXXXXXXqXqXqXqXqX X X!.Q.x.z.c.g.g.g.g.g.s.s.a.a.a.a.a.a.a.u.I I R 6.u.u.i.s.s.s.b.x.I.~.].|.|..X@X@X|.].{.{.{.{.|..X@X@X@X@X@X@X@X XQ.G d s s s s s s s k k m G G F F P Q Q #.E T W E W E E p.a.a.l.l.k.l.a.l.l.j.h.j.j.j.a.#.p.f.j.j.j.j.j.j.j.f.f.j.M.R.^.Y.Y.M.f.*.f.m.^.,X,XM.f.*.f.M.R.<X,X^.R.^.<X^.R.^.^.2X2X2X,X5X4X4X4XhXkXkXhXhX7X4X4X4X2X,X,X7XhXhX4X4X4XNXBXAXvXhX;X1XNXNX1Xn.:.4XAXDXDXvX1XN.:.,XBXAXHXKXKXBXV.) 6 > > > ; ; ; ; ; ; ; ; ; ; ; ",
"                                      .   . X o @ # $ $ $ & & & & & & & - - - = 6 6 7 z h x Z | m.E.,X5XhXvXrXR.5XrXkXbXvXkX5X,X^.E.M.E.R.^.^.^.<X5XrXrXrXkXrX5X^.Y.m.f... . .| | | | | |  .| { U  .@.f.m.m.j.j.f.f.@.@. .| U Y L Y U W U U U W Y U W Q T T R 8.0.0.d.d.0.9.7.7.7.K K J J J G b b G F Q Q H G G G G G G s p p p u p t t y u u y p j s s l.(.(. X!.!.!.~.~.Q.W.W.W.x.c.k.g.h.s.s.s.s.s.s.s.s.g.g.k.g.g.k.k.k.k.k.k.k.z.A.z.z.z.z.A.A.A.A.Z.Z.Z.S.Q.~.!.|. XqXqXwXeXeXqXqXqXXX X X X X}.!.~.Q.Q.Z.x.x.x.x.A.x.x.z.z.z.z.z.g.k.g.g.g.g.g.g.g.g.g.g.g.g.g.g.g.g.s.g.g.g.g.z.c.x.v.S.S.Q.~.!.}.|. XXXXXqXeXeXXXXXXXqXqXqXXXXXeXqXeXeXeXeXeXeXeXeX@XXXXXXXeXeXeXeXeX@X@X@X@XXXXXXXXXXXqXXXXX X X|./.~.Z.z.c.c.g.g.g.h.s.a.a.a.a.a.a.a.u.6.I I 6.6.6.i.s.s.s.b.c.v.Q.~.].|.|..X@X.X|.].{.{.{. X XXX@X@X@X@X@X@XeX~.6.d s p s s s s s k k k m G L L Q T T Q W E E E E W E E p.l.l.a.l.d.l.l.l.a.f.j.k.j.l.f.a.f.f.j.j.j.j.f.f.f.f.j.m.Y.^.^.R.R.j.f.*.j.R.R.^.^.M.f.*.*.m.^.<X<X^.5X,X,XR.R.^.,X,X2X2X,X2X2X2X5XhXhXhXhXhX4X4X4X2X,X;X4XrXrX4X4X4XhXNXDXCXvX7X,X6XNXNX1Xn.>.4XAXDXDXvX1XB.n.,XBXAXHXKXJXBX:X' 7 > - > ; ; ; ; ; ; ; ; ; ; ; ",
"                                .         . . X o o # # # + $ & & - - - - - > > , 6 h l h h Z | m.R.2XrXbXbX4XR.5XhXbXbXbXrX<X^.,XR.R.^.,X<X<X<X5XrXrXtXrXrXrXrX,XY.C.j.*.@.#... . .| | | Y L L Y U |  .*.f.j.m.j.j.f.f.@.| U Y L Y U U W U U U U U W P T T E 8.0.d.d.d.0.9.6.7.R K K J J J G b D G F J F H G D G G D D k p p p k : y u y y y y y i s s T W.(./.!.!.(.(.~.~.Q.W.W.x.c.k.g.g.s.s.s.s.s.s.s.s.g.g.g.h.h.k.k.k.k.k.z.A.A.A.z.z.z.z.A.A.A.A.W.W.Q.S.Q.~.!. X XqXqXeXeXqXqXqXqXXX X X X X{.!.~.~.Q.Z.x.x.x.x.A.x.x.z.z.z.z.z.z.g.g.g.g.g.g.g.g.g.g.g.g.g.g.g.g.g.g.g.g.z.z.c.x.v.S.S.Q.~.!.}.|.|.XXXXqXqXqXqXXXXXXXqXqXqXXXXXeXqXeXeXeXeXeXeXeXeX@XXXXXXXeXqXeXeX@X@X@X@X@XXXXXXXXXXXXXXXXX XXX X X!.Q.Z.x.z.k.g.s.a.p.a.a.a.a.s.a.a.u.6.I I 6.u.i.s.s.g.g.c.x.v.~.].{. X|.XX@X X{.{.{.{. X|. X@X@X@X+X@X@X@X Xk.F s s p s s s s k m m k m G L G Q T T Y T W p.E T E E E p.l.l.a.l.d.d.k.d.l.l.j.k.f.f.f.f.f.j.j.j.j.j.f.@.f.j.m.M.Y.^.^.R.Y.j.*.f.m.Y.Y.Y.Y.M.f.*.j.Y.^.<X^.,X5X,X,XR.^.,X,X,X<X,X,X2X2X<X4XhXhXhXhXrX4X4X2X2X,X,X4XhX4X4XrXkXNXCXCXvXvX7X-X7XBXNX1Xn.:.7XAXIXIXNX7XT.N.1XBXDXIXHXKXBX:X' 7 > - > ; ; ; ; ; ; ; ; ; ; ; ",
"                                . .           . . X X o + # + $ & - - - - > , 6 6 6 h x 7 h Z $.m.;X4XkXmXvX2X^.5XkXbXbXhX4X<X,X,X,X,X2X5X5X5X5XrXrXkXkXkXrXrXrX<X^.M.j.j.f.*.*.*.@.@. .| L L Y U P L L U ..*.j.m.j.j.j.f...U Y U Y U U Y Y W W U U W Y P T W 8.9.d.d.d.0.9.8.6.R K K J J J D D D G F Q F G D b D D m k j p p p k t u u y y y y y y p s d k.(.!.!.(.!.!.(.~.Q.W.Q.W.x.c.k.g.h.s.s.s.s.s.a.s.h.g.g.h.h.g.k.k.z.z.k.k.A.A.A.z.A.A.A.A.A.A.W.W.W.W.Q.!.(. X XqXqXeXeXqXqXqXXXXX X X X X{.!.!.~.Q.Z.x.c.c.x.A.x.z.z.x.z.z.z.z.z.g.g.g.g.g.g.g.g.g.g.g.g.g.g.g.g.g.c.c.z.c.z.v.S.Q.~.~.!.}.|.|. XXXqXeXqXeXeXXXXXXXXXeXeXeXqXeXeXeXeXeXeXeXeXeXeX@XXXXXXXqXqXeXeX@X@X@X@X@X@XXXXXXXXX XXX X X X|.!.!.Q.A.z.g.s.s.u.6.u.p.p.p.i.a.a.a.u.6.R 6.u.i.s.s.g.g.z.c.v.Q.~.{. X X X@X@X X{.{. X|. X@X@X@X@X@XXXXXXXXX!.6.d p s s s s s k m G m k m G F F Q T T T T T p.E E E E E p.l.d.l.a.l.l.d.d.k.j.k.j.f.f.f.f.j.j.j.j.j.f.@.@.@.j.M.Y.Y.^.^.^.m.f.*.f.C.Y.M.M.m.j.f.j.M.^.,X<X^.2X4X,X^.^.,X,X,X,X,X,X,X<X2X2XrXhXhXhXrX4X4X4X2X2X2X2X4X4X4X4XkXvXCXCXvXjXjX1X;X8XBXNX;Xn.n.7XAXHXIXNX7XT.T.4XBXIXHXHXHXBX:X' 7 > - ; ; ; ; ; ; ; ; ; ; ; ; ",
"                                .           . . . . . O X o + + $ & - - = > , 6 6 6 h x 6 h ( &.C.,X4XkXmXkX5X^.5XkXvXhX4X5X<X,X,X,X,X5XrXrXrXrXhXkXbXbXvXrX5X5X<X^.M.j.j.j.f.f.f.f.*.*.{ | U Y Y P M M L U ..*.j.j.j.j.j.*. .U U U U Y Y Y W W Y U W P F Q W 8.9.d.d.d.0.9.8.7.R K K J J F D b G F Q H G b b v m d d k s p p p p k a u y y y u y y u p D F W.(.(.(.!.(.(.~.Q.Q.W.W.x.c.c.g.g.s.s.s.s.s.a.s.h.h.h.s.s.h.k.k.k.z.k.z.z.z.A.A.A.A.A.A.A.A.W.W.W.W.Q.!.(. X XXXXXqXqXXXXXXXXX X X X X X{.!.!.!.~.Q.A.x.c.x.A.x.z.z.x.z.z.z.z.z.k.g.g.g.g.g.g.g.g.g.g.g.g.g.z.c.z.c.z.x.x.Z.S.~.~.!.!.}.|. X X XXXqXeXqXeXeXXXXXXXXXeXeXeXqXqXeX@X@XeXeXeXeXeXeX@XXXXXXXqXqXqXqXXX@X@X@X@X@XqXXXXXXX XXXXX X!.!.~.Z.Z.z.s.u.6.6.6.u.u.u.u.u.u.a.s.s.u.6.6.u.i.s.s.s.g.z.c.x.v.~.~.|. X X X@X.X X X X X X|.@X@X@X@X@XXXXX X Xk.G p j s s s s k k D G m m D L F Q Q T W T T T E p.p.E E E p.l.k.l.a.l.l.l.l.l.j.k.j.a.a.a.f.j.j.j.j.j.f.@. .@.m.M.Y.^.^.^.R.m.*.*.j.M.Y.M.m.f.j.j.m.^.,X^.^.,X<X4X,X^.,X,X,X,X,X^.^.,X2X2X4XrXrXrXrXrX4X5X4X2X2X4X4X4X,X2XhXkXjXNXvXhXjX8X-X1X8XBXNX;X,.N.hXAXDXAXNX4XR.R.4XCXIXHXHXHXVX>X' 7 > - ; ; ; ; ; ; ; ; ; ; ; ; ",
"                . . . .               . . . . . . . . . O O o + + - - - = > 6 6 6 7 h l h x } n.E.,XhXcXhXhXrX2X4XrXbXhXrX4X4X5X,X,X<X<XrXrXhXkXbXvXmXmXmXkXrX5X<X^.Y.M.m.m.j.j.f.j.j.f.f.*.@...U P L L L U  .@.f.j.j.j.j.f.@. .W U U L L Y U U L Y W L G F T E 9.l.d.d.0.9.6.R R K K J J F G D G F F F D b b b v d d d d p p p h j j p u t y y y y y i d D s.~.(.(.!.!.~.~.Q.W.W.Q.A.x.c.k.g.h.s.s.s.a.a.s.h.h.s.s.s.h.g.h.g.k.k.z.z.z.A.W.W.A.A.A.W.W.W.W.Z.Z.Q.~.(.}. X XXXXXXXXXXXXXXX X X X X|.|.}.!.!.~.Q.Z.A.x.x.A.A.A.A.A.A.z.z.z.z.z.z.g.g.g.g.z.z.z.z.g.g.c.z.z.z.z.z.x.S.S.~.~.[.].].].}.|. XXXXXXXeXeX@XqXqXqXqXeXeXqXeXeXeXXXXX@X@X@X@X@X@XeXeX@XXXeXeXeX@XqXXXXXXX@XXXXX@XXXXX.X XXXXX X|.!.Q.c.s.i.6.K 6.6.i.s.s.s.a.a.p.a.s.g.s.s.u.i.a.s.s.s.g.c.x.x.Q.~.~.].{.|. X X X X|.|. X X|. X.X@X@X@XXXXX X XW.Q k s s j j j j k m G G D D G F Q Q T W T W T T T ! a.l.8.E 8.l.d.d.l.s.l.l.l.l.l.k.k.a.a.a.f.j.j.j.j.j.f.#...f.M.M.Y.^.,X^.R.j.j.m.m.C.M.M.j.*.f.m.Y.^.,X^.^.,X2X2X,X^.,X,X,X,X^.^.^.,X4X4X4X4X4X4X4X4X4X4X2X2X,X2X2X,X,X4XhXjXvXjX4X7XNX1XR.1XNXBXjX;X>.R.hXAXDXAXNX4XT.n.7XCXDXHXHXHXVX=X' 0 > - ; ; ; ; ; ; ; ; ; ; ; ; ",
"                . . .             . . . . . . . . . . . O X O o + $ - - = > 6 6 6 7 h h x Z o.m.R.,XhXcXhXhXhXrX4XrXhXrXrXrX5X2X<X<X<X<X4XrXkXbXvXmXmXmXkXrX5X<X/.^.Y.M.m.m.j.j.j.j.j.j.j.j.m.j... .Y P P U |  .#.*.j.j.f.f.@. . .W U Y Y Y U Y L L U L G F J W 8.l.l.d.9.9.7.R R K K R T J Q F F Q F G D b D D b d d d s p p p p p p p u t t t y y y i g D Q c.(.(.(.!.~.~.Q.W.W.W.W.x.z.k.g.g.s.s.s.s.s.s.h.h.h.h.h.g.g.h.h.s.s.s.g.k.k.A.W.z.A.A.W.W.Q.W.Z.Z.Q.~.(.}. X XXXXXXXXX X X X X X X X|.|.}.!.!.!.~.Q.W.A.x.A.A.A.A.A.A.z.z.z.z.z.z.z.z.z.z.z.z.z.z.c.c.z.z.Z.Z.Z.S.S.~.!.].].].].].].}.|. XXXXXqXeXeX@XqXqXXXqXeXeXeXeXeXeXXXXXXXXXXXXX@X@XeXeX@XXXeXeXeX@XXXXXXXXXXXXXXX@XXX.X X X].|.].S.g.i.6.H H 6.6.6.s.s.c.c.c.g.g.h.g.c.c.g.s.s.s.s.s.g.g.z.x.S.Q.~.!.].].{.|.|. X X|.|.|. X|. X X.X@X@X@X@X X X Xp.k s s s j j j k m G G m D G F F Q T W W W W W T T E 8.a.a.8.8.a.l.d.l.s.s.l.l.l.l.k.j.f.a.f.f.j.j.j.j.j.f.@.a.j.M.Y.R.^.^.^.C.j.f.Y.R.C.j.j.j.*.j.m.R.^.^.^.,X,X,X,X^.^.,X,X,X,X^.^.,X,X4X4X4X4X4X4X4X4X4X4X2X2X2X2X,X;X4XhXkXcXjX4X4XjXhX,XR.7XNXBX9X=X>.-XjXAXDXAXNX1XB.,.4XBXAXHXKXHXNX=X) 0 - - ; ; ; ; ; ; ; ; ; ; ; ; ",
"            . .                           . . . . . . . . O X O + $ & - = > 6 6 6 7 l h C { $.B.,X2XhXbXhXbXbXhX4X4X2X4XhXrX5X<X,X,X,X,X<X4XtXkXkXkXrXrX<X^.^.Y.Y.m.f.*.*.*.*.*.f.j.j.j.j.m.m.m.j.*.@.| U { | | |  .@.f.f.f.f.@...U U U Y Y Y Y G L U F D G Q T ! 9.l.l.9.8.R R 6.R K R R R J F F Q F G D b D D b d d d s p i p p u u p u y , , y y y y t i G u.W.(.(.!.~.~.Q.Q.Q.Q.Q.x.x.c.k.g.g.h.h.s.s.s.s.g.g.g.g.g.g.h.s.s.6.6.6.u.s.k.A.x.A.W.W.W.Z.Z.Z.Z.Q.~.!. X X X X XXX X X X X X X X X X}.!.!.!.!.~.~.~.Q.Z.A.A.A.A.A.A.z.z.z.z.z.z.z.z.c.c.z.z.z.z.z.z.A.A.Z.S.~.!.!.].].}.}.].].].].}.|. XXXXXeXeXeXeXeXeXXXXXXXeXeXqXeXeXqXqXXXXXXXXX@X@X@X@X@X@X@X@X@X@XXXXXXXXXXXXXXXXX.X X X}.|.~.g.6.6.6.i.i.a.s.s.s.g.c.x.x.c.c.c.c.c.x.x.c.g.s.s.s.g.g.z.x.S.Q.~.!.].].{.{. X|. X.X|.|.|. X.X.X.X.XXXXX@X@X X XW.m s j j j s j s j m G G m D F F Q T W W W E W W W W E E p.l.8.! 8.l.d.d.s.s.l.l.a.l.l.h.f.f.f.j.j.j.j.j.f.f.@.f.M.M.Y.^.^.^.M.f.*.C.M.M.R.f.*.*.*.j.M.R.^.^.^.<X<X,X^.^.^.^.^.^.^.^.^.,X2X5X4X5X5X4X4X4X4X4X2X,X2X2X,X,X,X7XhXjXjX7X3X4XhX1XR.R.hXVXNX6XN.>.;XvXAXIXAXjX,XB.N.7XBXAXHXKXHXNXV.) 7 > - ; ; ; ; ; ; ; ; ; ; ; ; ",
"            . .                   X X X .   . . . . . . . . O X o + $ - - > 6 6 6 7 l h Z | &.-X2X4XkXcXvXvXbXhX4X5X^.5XkXrX5X,X,X,X,X,X<X<X5X5X5X<X^.Y.M.m.f.f.*...U P L Y | | *.*.*.*.f.m.C.C.m.j.f.*.| | { U U U  .@.@.f.f.@.#.U U U W Y Y L M G W Y D D F J ! 8.9.9.8.8.R R 6.R K R R J F G F Q F G D b D D b d d d s g i i p u u u u u y , , y y y t i d I k.(.(.(.Q.Q.Q.Q.Q.Q.W.x.A.x.c.g.g.g.g.s.s.s.s.g.g.g.g.k.k.g.g.g.s.a.u.E R H R s.A.W.W.W.Z.Z.Z.Z.Q.~.!. X X X X X X X X X X X X X X X}.!.!.!.!.!.~.~.~.Z.A.A.A.A.A.A.A.A.z.z.z.z.z.A.z.z.z.z.Z.Z.Z.Z.S.S.S.~.!. X!.].].}.}.].].].].}.|. X XXXqXeXeXeXeXeXeXeXeXeXqXqXeXeXeXqX@XeX@X@X+X+X@X@X@X@X@X@X@XXXXX.XXXXXXXXXXXXX X X}.].g.i.s.c.c.x.v.x.c.x.x.x.x.x.x.x.x.x.c.c.c.P.x.c.b.s.s.g.g.b.c.x.Q.~.!.!.].].].{. X|. X.X X|.|.|..X.X.X.XXXXX@XwXqX(.W d s p s j j j j k M G m m G F F T W E W ! E E T W E E ! p.a.p.8.8.a.d.d.l.l.l.l.l.l.l.l.a.a.f.j.j.j.j.f.f.a.f.j.M.M.Y.Y.^.Y.m.*.j.C.Y.Y.C.m.j.*.*.j.M.R.^.R.,X5X,X^.R.R.^.^.R.R.R.,X,X,X2X5X5X5X5X5X4X4X4X2X,X,X2X,X;X,X4XhXkXjXhX4X4XhX4X-XB.-XjXCXcX1X<.;.,XNXAXIXAXjX;XB.T.hXAXAXHXKXIXNXV.^ 7 6 , , , , , , , > ; ; ; ; ; ",
". .                 . . . . . . . . . . . . . X . . X X O O O O o + $ - - > 6 6 6 7 z B ( o.B.2X4X-XjXvXvXvXvXvX4X4X4X2XrXrX5X,X^.^.,X2X2X5X5X^.M.m.f.*.*.*.*.*.*. .P M L L P U |  .@.@.*.j.m.C.M.M.m.m.f.@.U L L P U  .@.*.f.@.@. .U U U T P L L L Y Y G m D T ! ! 9.9.8.8.7.7.6.R K K J J G D G J F D b b D D D d d s s p p p u u y t u u u y y y y y : t i k a.W.!.Q.~.Q.Q.Q.Q.Q.Q.W.A.x.c.k.g.g.g.h.s.s.g.g.g.g.g.g.g.g.g.g.g.h.s.s.6.R I I u.g.A.A.W.W.Q.Q.Q.~.!.!.}. X X X X X X X X X X|.|.}.!.!.!.!.!.!.!.~.~.Q.S.Z.D.D.A.A.A.A.z.z.z.z.Z.Z.Z.Z.Z.x.x.x.Z.S.S.Q.~.!.].].].}.}.}.}.}.}.}.}.}.}. X XXXqXeXeXeXeXeXeXeXeXeXqXqXqXqXeXeXeXeX@XXXXX+XXXXXXXXXXXXXXXXX.X.X X XeX X|. X}.~.c.s.s.z.S.~.].].!.!.~.~.Q.Q.Q.Q.Q.Q.Q.I.x.c.x.x.x.c.b.g.g.g.b.c.x.x.Q.Q.!.!.!.].].{. X X X#X X X.X.X.X.X.X.XXX XXX X Xa.D s p p j j j j k m D D D D F F Q ! E 8.W 8.E E T E p.! p.p.p.p.p.p.s.d.d.d.d.l.s.l.l.l.a.p.a.f.j.j.j.j.f.@.@.f.j.Y.Y.Y.Y.Y.M.*.@.j.E.Y.M.j.*.f.f.*.m.M.R.^.R.<X<X^.R.R.R.^.,XR.Y.R.,X,X,X2X2X2X2X2X4X4X4X4X;X,X2X2X,X2X4XhXhXhX7X1X4X8X4X;Xn.N.1XBXAXjX;X,.:.7XBXAXIXAXhX;XT.R.hXAXAXHXHXIXcX1./ 7 6 6 , , , , , ; ; ; ; ; ; ; ",
". .                 X X . . . . X . X X X X X X X X X X O O O O + + - - - > 6 6 6 h z A { &.R.4X1X-XhXvXvXvXvXbXhXhXrX4XrXrX5X,X^.^.^.<X,X,X^.M.j.f.*.@..... ...@...U P L S S L U | | | ..*.f.j.m.C.M.M.j.*...{ L P |  . .@.@.@.@. .U U W Y P L L G L L G M G T R ! 8.8.8.8.7.6.6.R R J J J G G F F G D v b D D v d f f s f f i u y y t t u u u u u u u t t u k P a.W.(.Q.Q.Q.Q.Q.Q.Q.W.W.x.c.c.k.g.g.d.h.g.g.g.g.g.g.g.k.k.k.g.k.k.g.s.a.p.u.u.u.6.6.g.A.W.Q.Q.Q.Q.Q.(.!.{.}.}.}.{.{.{.{.{.{.}.}.!.!.~.!.!.!.~.~.~.Z.Z.Z.Z.Z.D.A.A.A.A.z.z.A.Z.Z.Z.Z.Z.Z.Z.Z.Z.S.S.Q.~.!.].}.}.}.|. X|.}.}.}.}.}.}.}. X XXXqXeXeXeXeXeXeXqXqXqXqXqXqXXXqXqXeXXXXXXXXXXXXXXXXXXXXXXX|..X.XXX X X|. X}.Q.b.s.s.F.S.~.}. X X X X X|.}.{.!.!.!.!.!.!.~.I.x.P.P.x.c.b.g.g.b.c.x.x.x.Q.Q.!.!.!.].].{. X X X#X X X.X.X.X.X.X X X X X XA.I j p i p j j j k m M D D D D F Q W E ! 8.E 8.W W T #.p.! E E E E 8.p.8.s.k.k.d.l.l.s.l.l.a.p.p.a.j.j.j.j.f.@.@.f.m.Y.Y.Y.Y.Y.C.*.*.m.M.M.C.f.*.*.*.f.m.M.R.R.^.<X,XR.R.R.^.^.^.R.R.R.,X,X,X2X2X2X2X2X4X4X4X4X,X,X,X2X,X2X4XhXhX4X,X,X7X7X,XB.,.N.jXAXBXhX-X,.:.7XBXAXDXCXhX-XT.R.jXAXAXHXHXUXjX>.^ 6 6 > , , , , ; ; ; ; ; ; ; ; ",
". .             X X . X . . X X X X X X o o o o o o o o o o o + + - - - - > 6 6 7 h z A | m.,X4X,X,X4XvXvXbXbXkXbXkXhXhXrX4X4X,X^.^.R.^.^.M.j.j.f.f.f.*.*.@.@.@.*.@. . ... . .| U Y L L U | @.@.*.j.m.C.m.j.f.@.| { | |  . . .@.#. .U U W T Y L G G M M L L L T W R ! ! 8.8.7.6.6.R R J J J H F F F G D v D D D d d f f f f f g u y y t : t u u u u u u u u p k k W k.(.Q.Q.Q.Q.Q.Q.Q.Q.Q.A.x.c.c.c.g.g.g.g.g.g.g.k.c.k.c.c.k.k.g.g.g.g.g.h.h.s.a.s.u.6.s.g.x.A.W.W.W.W.~.!.!.}.!.(.(.(.!.!.!.!.!.~.Q.Q.~.~.~.Q.S.S.Z.Z.Z.Z.A.A.A.A.A.A.A.Z.D.Z.Z.Z.Z.Z.S.S.S.S.Q.Q.~.!.].].}.}.}. X X X}.}.}.}. X X X X XXXqXqXqXqXqXqXqXXXXXXXXXXXXXXXXXXXXXXXXX.XXXXXXXXX.X.X X X X X.X X}.[.!.~.c.i.6.g.x.z.|. XXXqXXXXXXX X X X X X{.{.{.{.!.~.Q.I.P.x.c.c.c.b.b.c.x.x.x.Q.Q.Q.!.!.!.].]. X X X X#X.X X.X.X.X.XXX X X}. X(...k p p i p s j k M G G G D D D G T E ! 8.E 8.E W Q E p.p.! E E E E E 8.6.a.d.d.k.d.l.l.l.l.a.p.p.a.f.j.f.f.f.f.f.j.M.Y.^.Y.Y.M.j.*.f.M.M.M.m.f.@...*.j.M.M.E.M.^.,X^.Y.R.R.R.^.^.;X,X^.,X,X2X2X2X4X2X2X4X4X4X2X2X,X,X,X,X2X7XhX7X,X,X3X8X4XR.n.n.-XNXAXBX7XB.:.N.hXBXAXDXBX8X-XT.-XcXAXAXHXHXUX9X2.^ 6 , > > , , , , > > ; ; ; ; ; ",
". .             . X . X . . X X X X X o o o o @ # # # # + + + + $ - - - - > 6 6 7 l z A %.E.3X8X-X,X4XvXbXcXjXjXhXhXhXhXrX4X5X,X^.Y.Y.Y.m.*.*.f.f.f.j.j.j.m.m.M.M.M.M.M.m.j.@. .U Y M M M L | | +.*.f.j.m.m.m.j.*. .|  .U U U  ... .U  .W T Y P L G m k M U T Y T R R ! R R 6.6.6.R R J J Q Q H F G D b b D D v d d f f f f f g u u y t : : t y u u u u u u p j k D ..A.(.Q.Q.W.Q.Q.Q.W.W.W.x.x.c.c.k.g.g.g.g.k.k.c.c.c.c.c.c.c.k.g.g.g.g.k.c.c.k.s.a.u.6.6.6.s.c.Z.A.A.Z.Q.~.~.!.!.!.!.!.!.!.!.~.~.Q.S.Q.Q.Q.S.S.S.Z.Z.Z.Z.D.A.Z.Z.Z.Z.Z.Z.Z.Z.Z.Z.S.Z.S.S.~.~.~.!.].}.}.}.}.}. X X X X}.}.}.}. X X X X XXXqXqXqXqXXXXXXXXXXXXXXXXXXXXXXXXXXX.X.X X.X.X.X.X.X X X X|.|.}.[.S.v.s.i.6.i.x.Z.!. X XXXXXqXXXXX.X X X X X X X X X{.!.~.Q.x.x.c.c.c.c.c.c.c.x.x.Q.Q.Q.Q.!.!.!.].]. X X X X X.X X.X.X.X X XXX X(./.h.k j u i i p s j m M G G D D D D G W E E 8.E p.E T F p.p.p.! E W T W E 6.8.a.d.s.d.d.d.l.l.l.l.a.p.a.f.f.f.@.@.f.f.j.M.Y.^.Y.Y.C.j.f.j.M.m.C.m.*.*...*.M.M.M.E.M.^.,XR.Y.R.R.^.^.R.,X,X,X,X,X2X2X2X2X2X2X2X4X4X2X2X,X,X;X,X4X7XhX,XR.,X7X4X,XR.N.B.6XNXAXNX1Xn.&.B.hXCXAXAXBX7XR.T.,XvXAXIXHXHXUX9XV.] 6 > > > , , > ; ; ; ; ; ; ; ; ",
". .     . . . . . . . . X X X X X X X X o o o o # # # # + $ $ $ $ - = = - 6 7 l l l z ` &.;X7X2X-X2X4XhXvXcXjXjXhXhXhX4X4X5X2X,X,XR.C.j. .=.=.*.j.m.Y.R.^.,X5X<X,X^.^.Y.M.j.*...| | U P L L P Y Y {  .*.m.m.M.m.f.*. .U Y Y Y Y U  . . .U U Y Y L M M m M Y T Y T T R R R R 7.7.R R T J J Q Q H F G D D D D D v d d d s s p f i i y y t t : : t y u u u u p p k j k P a.W.W.Q.W.W.Q.Q.Q.W.W.A.x.c.c.c.g.g.g.g.k.k.k.c.k.c.c.c.c.c.c.c.c.c.c.c.c.c.c.c.g.s.u.K I 6.s.z.A.z.z.z.z.Z.Z.Z.Z.A.Z.Z.Z.S.S.S.S.S.Z.Z.Z.A.A.A.A.D.D.D.D.Z.Z.Z.Z.Z.D.D.D.Z.S.Z.S.S.S.S.~.!.}.}.}.}.}.}.}. X}.}.}.}.}.}.}.}. X X XXXXXXXXXXX X X X X X X X|.|.|.|.|.}.}.}.|.}.].].].}.}.}.}.}.S.~.D.z.i.i.i.g.b.S.[.|.XXXXXXXXXXXXXXXXXX@X@X@X@X X X X X}.!.~.Q.x.x.x.c.c.c.c.c.x.v.I.Q.Q.Q.~.!.!.].].]. X X X X X X X X X X X X X(.(.k.W s s i i i p s k m m G G G G G D G R 8.8.8.8.p.E T E p.a.p.E E T T W E 8.p.s.l.l.d.d.l.d.d.l.a.a.p.a.l.f.#. .#.@.j.j.M.^.^.R.M.m.j.j.m.m.m.*.*.*.....*.M.Y.Y.Y.R.<X^.R.R.R.R.^.^.R.^.,X,X,X,X,X2X2X2X2X2X2X4X4X2X2X,XR.R.2X4X4X4XR.-X3X7X1XT.;.V.-X8XBXAXNX1X,.&.,XNXCXAXAXBX3XT.R.4XNXIXIXHXHXVX9X>X$.z 6 6 , < , , , : : : ; ; ; ; ",
". .     . . . . . . . . X X X X X X X X o o o o # # # # $ $ & & - - = > 6 7 l l h h z } n.,X7X2X,X3X4XhXvXcXjXjXhX7X4X4X4X4X2X2X,XE.*. .@.*.*.*.m.Y.,X4XtXrXrX5X,X^.Y.Y.C.j.*.@... . .| | U L L Z Y | | *.m.m.m.j.*.@.#.Y Y Y Y U  . . .U U T U Y L M m m G Y Y T Q T R R R R R R R J J J Q Q H F F G D D G D d d d d s s f p i y t y t t : : : t u u u u p j k j j M I a.W.W.W.Q.W.Q.W.W.Q.Q.Z.x.c.c.g.g.g.g.g.g.k.k.k.c.c.c.c.c.x.c.x.x.x.x.x.x.x.x.x.c.s.i.6.6.I 6.h.h.g.z.z.z.z.z.z.z.z.z.z.z.z.z.z.D.D.D.z.D.z.z.z.z.z.z.z.D.z.z.z.z.z.D.D.D.Z.Z.Z.S.S.S.S.~.~.}.}.}.}.}.}.}.}.}.].].].].}.}.}.}. X X}.}.}.}.}.}.}.}.}.}.}.}.].].[.~.~.~.~.[.[.~.~.~.~.~.S.S.~.b.s.6.i.i.i.b.S.}. XXXXXqXXXXXXXeXqXXXXXXX@X@X@X@X@X X X X X!.~.Q.x.x.x.c.c.c.c.x.x.Q.Q.Q.Q.Q.~.!.!.].]. X X X X X X X X X X|. X X X/.A...G k s p i p s j k m D G G G G D D Q 8.p.8.p.a.p.E E p.a.p.p.E T Q P T E 8.p.a.s.d.k.k.a.l.d.d.l.a.p.a.f.a.#. .#.@.j.j.M.Y.Y.Y.m.j.j.m.C.m.j.*.*.*.=.=.j.M.Y.R.R.^.^.R.R.R.R.R.R.R.R.^.,X,X,X,X,X,X2X2X2X2X2X1X1X,X,X;XR.R.4X4X4X2X;X1X4X4X-X,.$.N.1XjXAXAXjX;X>.;.1XNXAXAXAXNX1XB.T.4XBXIXHXKXIXNX3X1XN.) l , h < u p p j j u t : : : ",
"            X X X X . . . X X X X X o o o o o o + + # # $ & & & - - > 6 6 l z l 7 7 B X.B.3X8X,X,X3X3X7XvXcXjXjX4X4X4X2X2X4X4X4X^.C.f.f.*.*.f.m.Y.^.4XkXkXtX5X<X^.R.M.M.m.j.*.*.*.@.@.....+.| U P Y | | +.*.*.*.*.*.@.@. .U Y L Y U U U U U U U U L G M m M Y T T Q Q K R R R R K K J J J Q F F F F G D G D D d d d d d g i i t y t y y t : : : : t u u u p j k j k k G P k.W.~.W.W.W.W.W.W.Q.Q.W.c.c.k.g.g.g.g.g.k.k.k.c.z.x.x.x.x.A.A.A.A.A.A.A.A.A.x.z.k.g.i.u.u.6.6.u.i.g.z.g.g.g.g.g.g.g.g.z.z.z.z.z.z.z.g.g.g.g.g.z.z.z.z.z.z.z.z.z.z.z.z.z.z.z.Z.S.S.S.S.S.~.~.}.].].].].}.}.!.!.!.!.!.!.[.[.[.[.[.~.!.~.!.!.!.~.~.~.~.~.~.~.~.S.S.v.v.Z.S.S.Z.Z.Z.Z.z.z.z.g.i.s.i.i.g.z.~.}.XXqXeXqXqXqXqXqXeXeXXXXXXXXX@X@X@X@X X X X}.!.~.Q.Q.x.x.c.c.c.c.x.Q.Q.Q.Q.Q.Q.~.!.!.].]. X X|..X.X.X X X X X X X X(.W.a.L k j p p i s j k k m D G G G D G D R 8.s.8.a.l.p.8.E p.a.p.p.E T F F Q W E 8.8.l.d.k.k.l.l.d.d.l.a.p.a.a.a.#. .#.@.j.j.M.Y.R.Y.m.j.j.C.C.j.f.@...*.*.*.m.E.^.^.^.^.R.Y.R.R.R.R.^.R.R.^.,X,X,X,X,X,X2X2X2X2X2X,X,X,X,X;XR.,X4X4X4X2X1X4X7X,XN.;.$.B.7XNXAXVX7XT.&.>.4XCXAXAXCXjX;XN.T.7XCXDXHXKXUXcX=X>X:X,./ 7 h a k k G I I G f t t : ",
"            X X X X . . . X X X X X X o o o o o + + # $ $ $ & $ - = 6 7 7 B B h 6 7 B o.-X4X7X,X3X4X3X4XcXcXhXhX4X4X2X,X2X2X4X5X,XB.j.m.f.f.m.m.R.,X4XkXhX4X,X^.M.M.C.m.j.*.*.*.*.*.*.@.*.*.@.+.| | | | | | +.|  .@.@.@.#. .U Y Y Y U U U U U U Y L L M M m G Y Y T J J R R R 6.R K J J J Q F F F F G D D D D d d d d s g i t y t t y y t : : : : : t y u p j j j j k M D ..A.W.W.W.W.W.W.W.Q.Q.W.x.c.c.k.g.g.g.g.c.k.k.c.c.z.x.A.A.A.W.A.W.W.W.W.W.W.A.A.z.z.g.h.i.u.6.6.u.u.s.h.h.h.h.h.h.g.h.g.h.h.h.g.h.g.h.h.h.g.h.h.g.g.g.g.g.g.g.g.z.z.z.z.D.z.z.v.D.D.S.S.S.~.~.!.~.~.~.~.S.S.S.S.S.S.S.S.S.S.S.S.Z.S.S.S.S.S.S.S.S.S.S.S.S.S.Z.v.v.v.v.v.v.z.z.z.z.g.s.6.s.i.F.D.D.S.S.~.}.|.XXeXeXeXeXeXeXeXeXXXXXXXXXXX@X@X@X X X X X!.~.Q.Q.x.x.c.c.c.x.x.Q.Q.Q.Q.Q.Q.~.!.!.].{. X|.|.|.|.|. X X X X X X XW.a.T k u s p i p s k k m m D G F G G D G 8.a.a.a.l.l.8.p.p.a.a.p.E W T G G Q T E 8.8.9.l.k.P.d.d.d.d.a.a.p.p.a.a.#. .#.f.j.M.M.Y.Y.Y.j.j.m.M.m.j.f.@. .@.*.*.m.R.^.^.,X^.R.R.R.R.R.R.^.^.R.^.,X,X,X,X,X,X2X2X2X2X2X;X,X,X,XR.;X2X4X2X2X4X7X8X4XR.n.;.;.-X7XNXVXNX3XN.$.n.7XCXAXAXBXjX-XN.B.7XAXAXHXHXAXjXV.V.8X1XO.B h x k G W u.p.R G g t t ",
"            . . . . X X . . X X X X O o o o o o + # + + $ $ - - - > 6 7 l z z 7 6 l / &.-X7X4X,X4X7X2X,XjXjXhXhX4X4X3X3X4X4X4X4X,XR.C.*.*.j.m.M.^.<X4X5X5X<X^.C.m.j.f.*.@.| Y | |  .@.@.*.*.*.f.f.*.+.+.| { P P | +...#.#.#. .| U Y Y Y Y Y Y Y Y L L L G M M G L Q T T R R R R R R J J J Q Q F H H G D G D D d d d d f i i i t t t y y t t : , : : t y u p s j j j k k k m ..A.W.W.W.W.Z.Z.S.Z.W.W.c.c.c.g.k.k.k.k.k.c.c.c.x.W.W.W.Q.Q.Q.Q.W.Q.W.Q.W.W.Z.Z.A.z.g.g.i.i.i.i.i.u.i.i.h.h.h.h.h.h.h.h.h.h.h.h.h.h.g.g.g.h.h.h.h.h.h.g.h.g.h.g.g.g.g.g.z.z.z.z.z.z.D.Z.Z.S.S.S.S.S.S.S.S.S.S.S.S.D.D.S.S.D.v.x.v.v.D.S.S.S.D.D.D.v.x.x.x.v.v.v.z.z.c.z.z.z.z.z.i.i.F.D.D.S.S.[.}.|. X|.XXXXqXeXeXeXeXeXeXeX@X@X@XXXXXXX@X@X X X X{.!.~.Q.I.x.x.c.c.c.x.I.Q.Q.Q.Q.~.Q.~.!.!.{. X|.|.|.|.|. X X X X X!./.W.j.T k p p p p y p k k k k D G G F F F G J 8.9.a.l.d.l.8.a.p.a.p.! W T P G F I T E 8.8.9.l.k.P.d.k.k.d.a.p.p.a.a.#.#.#.@.j.M.M.M.M.M.f.f.j.C.M.m.j.*.@.#.@.*.f.C.R.R.,X,X^.Y.E.E.R.,XR.R.^.^.^.,X,X,X,X,X,X2X2X1X2X,X;X,X2X-XR.,X4X2X;X-X,X7X8X1XN.,.:.B.1XjXBXNXjX;X>.&.-XhXCXAXAXCX7XR.n.R.jXBXAXHXHXAX8X1.,.3XjX;XX.l h x M Q 6.s.s.7.H g g ",
"      .     . . . . X X O O . . X X o o o o o o + # + + + + - - - > 6 7 l l 7 6 6 l ( ;.-X7X3X1X4XhX4X,XhXkXkXhXhX7X4X4X4X4X4X4X,X,XC.f.*.f.M.R.,X5X<X^.Y.M.m.*. . .| { L L L L L Y | | | =.*.j.m.m.*.*.*.| { P Y |  .#.#.@.@.@. .Y L L L L Y Y Y L L L L M M M M G Q T R R R R R R J J J Q Q F H H F G G D D d d d d p i i y t t t y t t : : , , , y u u p s j k k j s s s D u.M.A.W.W.W.W.S.Z.W.W.x.c.c.c.k.k.k.k.k.c.c.c.x.W.W.W.W.Q.Q.Q.Q.Q.Q.Q.Q.Q.Q.Q.S.Z.A.z.g.g.g.h.i.i.h.i.u.u.u.h.h.h.h.h.h.h.h.h.h.h.h.g.g.g.h.h.h.h.h.h.h.h.h.s.s.s.s.i.g.g.g.g.F.F.z.z.b.z.z.z.z.z.D.z.D.D.z.z.D.D.D.D.z.D.z.z.v.v.D.D.D.D.z.z.z.z.c.c.c.x.v.v.c.z.z.z.z.i.s.F.D.S.S.!.S.}.[.}.|.oXXXqXqXqXeXeXeX@XeXeXeXeX@X@X@XXXXXXX@XXX X X X{.!.~.Q.I.I.x.x.x.x.I.Q.Q.~.I.~.~.Q.~.!.]. X X{.{.{.{.|. X|. X X X/.(.j.P k p p p i p y s k k k k D G G F F F H R l.9.l.d.k.l.p.a.a.p.p.E W Q F F P T T E 6.p.a.d.k.k.k.k.k.l.p.p.p.p.a.#.#.#.f.j.M.Y.M.M.m.*.*.m.C.M.M.j.*.@. .@.*.j.M.R.R.,X^.R.E.M.E.R.^.R.R.^.R.R.;X,X,X,X,X,X,X2X2X2X,X,X,X,XR.R.,X4X,XR.R.,X7X4X-Xn.$.>.-X7XjXNXNX8X-X>.;.;XjXCXAXAXNX7XT.n.-XjXBXAXHXHXBX8XN.-.1XBX8XT._ x h x D Q 0.0.0.7.c g ",
"X X X X X X X X X X X X X X X X o o o o o o o o # # + + + + + - - 2 6 7 7 6 6 6 7 z _ :.;X4X1X3X4XjX7X2X4XhXjXcXkXhXhXhXhX7X4X4X4X4X^.E.f.m.R.,X<X,XR.C.*.*.*.=. .| { Y L Y Y Y Y L L Y | @.*.*.f.f.m.f.*.*.| { L Y U  ...#.@.@.@. .Y L M M L L L L L L L M M m m D F J R 8.8.8.R R J J J J Q F H F F G G D D d d d s i i i y y y t t t t t : : , : y u i p j k k k s p s p p D f.M.W.W.W.Q.W.W.W.W.A.x.z.c.k.k.k.k.k.c.c.c.c.P.W.W.W.W.W.W.Q.Q.Q.Q.Q.Q.~.~.~.Q.Z.A.z.z.g.g.g.h.h.h.i.u.I I I u.u.i.i.i.i.h.h.h.h.h.h.h.h.h.h.h.h.h.h.h.s.i.i.i.i.i.i.i.i.F.F.g.s.g.g.g.F.F.F.F.z.F.F.F.F.F.z.z.F.F.z.D.z.z.z.z.D.D.v.z.D.D.D.z.b.z.z.D.D.b.b.F.s.i.i.F.D.D.G.OXS.}.S.}.}.}.oXqXeXqXeXeXeXeX@X@XeXeXeXeX@X@X@XXXXXXXXXXX X|. X{.!.~.Q.Q.Q.I.x.x.x.Q.Q.Q.I.I.~.~.~.!.!.{. X X{.{.{.|.|.{.{.{././.(.j.I j j j p i i i u k k k k k D G G F G D Q 8.l.l.d.k.k.s.l.s.a.p.! E T F G P T T T W E 8.s.d.k.P.k.k.d.s.p.p.p.p.p.#.#.#.f.j.M.Y.M.M.j.*.f.M.m.M.m.j.@. .|  .*.m.M.Y.R.^.R.C.B.C.B.R.R.R.R.R.R.R.R.;X,X,X,X,X,X,X2X2X,X,X2X,XR.-X2X2X,XR.R.,X7X1XT.;.&.,.;X8XjXNXjX6XV.&.>.1XcXCXAXCXcX3XT.N.;XcXAXIXKXHXBX8X1.O.V.cXBX8XN.A h h s D 6.s.s.0.7.c ",
"X X X X X X X X X X o o O o X X o o o o o o o o # # # # + + + - > 6 7 l 7 > = 6 l B } >.,X4X1X4X4XjX8X,X4X7XjXvXcXcXjXkXhXhXhX7X4X5X,XR.M.B.R.^.,XR.m.*.=.*.j.*.*.@...+.| | | | | | | |  .@.+.| +.*.f.m.j.f.@.+.U Y Y U | | ..@.@.#.U L M M M M L L L L M M M M m M G F T R 8.8.8.R J J J J Q F H F F G G D d d d d f i i i y t y y t : t t : : : : y y u p s k k k s p p u y p P k.A.W.W.W.W.W.W.W.A.A.x.z.k.k.k.k.k.c.c.c.x.P.A.W.Q.W.W.W.Q.Q.Q.Q.Q.Q.~.~.~.Q.S.Z.Z.z.z.z.g.g.z.z.g.h.i.u.I c c c I 6.u.i.i.h.F.h.h.h.h.i.h.h.h.h.h.s.i.i.i.i.i.i.i.i.i.i.i.i.i.i.s.s.F.F.F.g.F.F.F.F.F.F.F.F.F.F.F.z.z.z.z.z.z.D.D.z.D.z.z.z.b.b.b.b.F.F.F.i.F.z.D.S.S.}.}.}.}.}.S.[.|.oXqXeXeXeXeXeXeXeX@X@XXXeXeX@X@X@X@XXXXXXXXXXXXX X X{.!.~.Q.Q.Q.Q.I.I.I.Q.Q.Q.I.~.~.~.~.!.]. X X{.{.{.{.{.{. X{./././.k.Y j j j j p u u p p k k k k k D G F F D G J 8.d.d.d.P.k.s.l.l.p.! E T Q P P T P P T W W 8.s.d.P.P.k.d.l.s.p.p.p.p.p.#.#.@.f.m.M.M.M.M.f.*.f.m.C.M.m.j.@.| | | f.m.M.Y.^.^.B.C.C.m.M.E.R.R.R.R.R.R.R.R.;X,X,X,X-X,X,X,X,X,X,X,X-X,X2X2X,X-X;X4X3X;XN.,.o.N.1XjXNXNXjX1Xn.$.,.4XvXAXAXBXjX1XB.N.;XNXAXIXKXHXBX8X>.X.-.3XIXBX1X&.C h p d H s.b.s.9.H ",
"X X X X X X o o o o o o o o o o o o o # # # # # # # # # + $ & & > 6 7 l 7 > > 6 l A o.N.;X1X,X4X4XjXhX,X,XhXcXvXvXvXcXjXcXjXhX4X,XR.R.E.E.B.E.,XE.C.*. .*.C.E.E.m.m.*.*.*.*.*.*.*.=.=.*.=.=. .| | | =.*.j.j.j.*.@.| U Y Y U | ..#.#.| Y L M M M M L L L G M M M M M G G J R 8.8.8.R J J J J F F Q Q H G G D d d d s g i y y y y y y : : : : y y , , y y u p p j k k k p i u y y k W k.W.A.A.W.W.W.W.W.A.A.x.c.k.k.k.c.z.z.z.z.z.A.Q.W.W.Q.Q.Q.Q.Q.Q.Q.Q.Q.Q.~.~.Q.S.S.Z.z.D.z.D.z.D.z.h.u.i.i.u.6.I c c c c I I u.u.i.i.i.i.i.i.i.i.i.h.h.i.i.i.i.i.i.i.i.i.i.i.i.i.i.F.F.F.F.s.F.F.F.F.F.F.F.g.g.g.F.F.F.F.z.D.D.z.F.F.F.F.F.F.F.F.i.i.i.i.F.D.S.S.S.G.[.}.OXqXqXqXoXqXqXqXeXeXeXeXeXeXeXeXeXeX@X@XeX@X@X@X@XXX@XXXXXXXXX|. X X!.~.Q.Q.Q.Q.Q.Q.Q.Q.Q.Q.Q.Q.~.~.~.!.]. X{.{.{.{.{.{.{.{.(.(.W.k.Y i u p j j p p i p p k k k k m G F Q Q G J R 9.d.d.P.P.k.P.d.d.p.E ..Q Q Q T W L L T T T 8.s.d.P.P.k.d.l.a.9.p.p.p.p.#.#.@.f.j.M.m.m.f.*.@.j.j.m.j.f.j.@. .| =.j.C.M.R.R.B.C.C.C.C.B.E.R.R.R.R.R.R.R.R.R.R.,X-XR.;X,X,X,X2X,X;X-X,X2X,X-X-X,X4X1X-X>._ $.V.6XjXNXNXjX;X,.X.R.hXBXAXAXBXcX1XN.B.8XNXDXIXKXHXBX7X,.` _ ;XBXIXcX-X| h x u m K a.s.d.7.",
"X X X X o X o o o o o o # # # # # # # # # # $ $ $ $ $ $ $ $ - - > 6 7 l 7 , > 6 z _ ;.B.;X,X1X4X1XhXhX,XR.3XhXvXvXvXvXcXkXhX2XR.m.m.j.m.C.m.C.C.m.*.*.*.m.R.,XR.R.B.C.m.j.f.f.f.*.*.*.*.*.=.@...+.| | +.*.*.j.j.*...| Y L Y U |  . .| U Y L L L L L L L G G M M G G G G F J R 8.8.R R J J J F F Q Q G G D D d d d s g u y y y y y y : : : : y y y y y u u i p j k k k p i i u y p k W h.M.A.W.W.W.A.A.A.A.A.z.k.k.z.z.z.z.z.z.x.A.Q.W.W.Q.Q.Q.Q.Q.Q.Q.Q.Q.~.~.~.~.Q.S.Z.D.D.D.D.D.S.D.g.h.h.h.h.i.u.6.I I H I H c c c c 6.u.u.u.i.i.i.i.i.i.i.i.i.i.i.i.i.i.i.i.i.i.i.F.F.F.F.g.F.F.F.F.F.F.g.g.g.g.F.F.F.F.b.b.F.F.F.F.i.i.6.6.6.6.6.7.F.D.S.G.S.G.[.}.}.}.OXOXOXqXqXqXqXqXeXeXeXeXeXeXeXeXeXeX@X@X@X@X@X@X@XXX@XXXXXXXXX|. X X].!.~.Q.Q.Q.Q.Q.Q.Q.Q.Q.~.~.~.~.~.].{.{.{.].{.{.{.{.{./././.M. .k y u a j j p p p p p k k k m D G Q Q F H K 8.0.d.d.P.P.c.k.d.k.#.E E T P Q T T P P T T T 8.a.l.k.P.k.d.s.a.9.9.p.p.p.#.#.@.f.j.M.C.j.*.@.*.j.j.j.*.*.f.*.=.@.*.m.B.E.R.R.C.C.B.B.B.M.E.R.R.R.R.R.R.R.R.R.R.,XR.R.,X,X-X-X,X,X-X-X,X2X,XR.-X,X4X1XR.&.} o.N.1XhXNXNX9X;X>.o.-XjXBXCXCXNX8X=Xn.B.8XNXDXIXHXIXVX6XN.X./ ,.8XAXAXhXN.C h x p c K 0.b.b.",
"o o o o o o o o @ # + + # # # # # $ + $ $ $ $ $ $ $ & & $ - - - 2 7 0 l 6 > , 7 A } >.T.-X;X4X4X,XhXhX,XE.-X4XjXcXjXhXhX4X-XC.:.$.&.:.m.B.B.m.*.*.o.*.m.C.,X2X^.R.R.E.C.m.j.m.f.f.f.f.*.*.*.*.*.*.=.| | +...*.*.*.*. .U Y Y Y Y U U | | U Y Y L L L L L L G G L G G D D G Q R R R R R R J J J Q Q Q G D m d d d d s g i y y y y y y t : : : y y u u u u i p s j k k k p p p u u i p k W k.M.A.A.W.W.A.A.A.A.x.c.z.z.z.z.z.z.x.x.A.Q.W.Q.Q.Q.Q.Q.Q.Q.Q.~.~.~.~.~.~.~.Q.S.Z.D.D.S.S.S.S.D.D.z.z.z.g.g.i.i.u.u.6.u.u.6.I c c c H I I u.u.u.u.i.i.i.i.i.i.i.i.i.i.i.i.i.i.i.g.g.g.g.F.F.g.g.z.z.g.g.z.z.F.F.F.F.F.i.i.6.7.7.7.6.i.F.F.D.D.D.D.S.S.S.}.OXoXoXoXOXOXOXoXqXqXqXqXqXeXeXeXeXeXeXeXeXeXeX@X@X@X@X@X@X@XXX@XXXXXXXXX|. X X{.].~.Q.Q.Q.Q.Q.Q.Q.Q.Q.~.~.~.~.!.].{.].].].].].!.!.!.(.(.Y...j y : u a p j p p p p s j k m D G F Q Q J Q R 9.d.d.d.P.P.k.k.k.d...#.W T F F Y T W W T Q T 8.a.s.d.P.k.d.a.9.8.8.p.p.p.p.#.@.f.j.M.C.j.#.#.*.j.j.f.@...*.*.=.*.j.C.Y.R.R.E.C.C.B.E.E.E.E.E.E.E.E.E.E.R.R.R.R.,XE.R.,X,X-XR.,X,X-X-X,X2X,XR.;X1X1X,XN.o.o.$.B.6XjXVXNX7XT.-.$.,XcXCXCXVXjX1XV.n.T.7XNXDXIXIXUXVX3X,.X.B _ ,XBXJXCX3X%.h h u g c 7.b.U.",
"o o o o o o o o @ @ + + $ $ $ $ $ $ $ & & $ & & & & & & - - - > 2 6 0 l 6 > 6 l _ $.,.N.-X-X4X7X;X7XhX1XR.R.,X7XjXhX4X,XB.*.o.| $.:.B.R.R.R.C.*.+.o.*.m.R.2X2X,X^.R.E.M.j.j.m.j.f.f.f.*.*.*.*.f.j.f.=.+.| +.+...*.*.@. .| U P L L Y Y U U U Y Y Y L L L M G G L L L G D G F T R R K R R T J J J J H G b d d d d d s i i t t y y y y t : : : y u u i i i i p s j k k s p p p u u i i p k p.k.k.A.A.W.A.A.A.A.x.z.z.z.z.z.z.z.x.x.x.Q.W.Q.Q.Q.Q.Q.Q.Q.Q.~.~.~.~.~.~.~.~.Q.S.S.S.S.S.[.S.S.D.D.S.S.D.D.D.g.g.F.i.u.u.u.u.u.6.I c c c c c I I u.i.i.i.i.i.i.i.i.i.i.i.i.i.i.g.g.g.g.g.g.z.z.z.z.z.z.z.F.F.F.i.i.7.7.7.6.i.F.F.F.D.D.D.S.G.}.}.}.}.}.}.OXoXoXqXqXqXqXqXqXqXqXqXqXeXeXeXeXeXeXeXeXeXeX@X@X@X@X@X@X@XXXXXXXXXXX X|. X X{.].!.~.Q.Q.Q.Q.Q.Q.Q.~.~.~.~.~.!.].].].].].].!.!.(.(.(.A...k a : : u a p j p p p p s k k D G G F Q Q R K 9.0.d.b.b.k.k.k.k.k.l...p.T W G G F Y W W T F T E a.a.l.k.k.d.a.9.9.8.8.p.p.p.#.@.f.j.Y.m.*.@.#.*.j.f.*. . .*.*.*.j.M.B.E.R.Y.C.B.M.M.B.R.E.B.B.B.B.B.B.B.E.E.R.-XR.B.R.,X,XR.R.,X,XR.-X,X2X,XR.,X1X1X,Xn.o.o.:.-X8XjXNXNX6XN.$.;.3XvXCXCXNXjX1XV.B.;X7XNXAXIXDXAXNX1X;.X.B / -XcXDXDXcX-X( 6 , p d H 0.v.",
"o o o o o o # # # # + + $ $ $ $ & & & & & & & & & & = = = = > > 2 7 0 l 6 2 6 z } n.-XN.-X;X8XhX,X3X7X4X-Xm.C.,X,X;XT.n.o.o.o.&.B.R.-X;X2X2XR.m.=.*.C.,X4XrX4X^.R.R.R.B.M.j.*.*.m.f.*.@.=.*.*.*.m.m.*.+.=.+.| Y U | @.#. .| Y M M L L Y U Y Y L Y Y L L G L L L L L D m G F J T R R R T T J J T J Q D d d d d d s s f p t t t y y y y : : : t y u i p i i p s s j j s p p p p p p p p p D ..k.M.A.A.A.A.A.A.A.z.z.z.z.x.x.x.x.x.Z.Q.Q.Q.~.~.~.Q.Q.Q.Q.Q.Q.Q.~.~.~.~.~.Q.~.~.[.S.[.}.[.S.S.S.D.z.D.!.}.S.D.g.h.h.h.h.h.g.h.F.i.u.6.I 6.H c H 6.u.i.i.i.i.i.i.u.u.i.i.i.i.i.i.i.F.F.g.F.F.D.D.F.F.F.F.i.i.6.i.i.i.F.F.D.S.D.D.G.D.S.G.}.}.OXOXOX}.}.qXqXqXoXoXoXoXoXoXqXoXqXqXeXeXeXeXeXeXeXeX@X@X@X@X@X@X@XXX@XXXXX.XXXXX X|. X X{.].!.~.Q.Q.Q.Q.Q.Q.Q.~.~.~.~.~.!.].].].].].!.!.~./.(.A.W G u : , , u a p p p p i i k k k G F F F Q Q R R 9.0.d.P.b.d.d.k.k.k.l.#.p.T W G m G Y E W T Q E E p.8.s.d.k.d.s.9.9.9.8.8.p.p.#.@.f.j.M.j.@.#.@.f.j.f.@.+. .@.f.m.m.C.E.E.R.C.m.B.m.m.B.R.B.E.E.B.M.B.B.B.Y.Y.R.,XR.E.R.,X-XR.R.,X;XR.R.,X,XR.R.,X3X1X-X&.o.$.T.6XjXcXNXjX;XN.;.T.8XNXBXAXNX8X-XB.T.1XcXBXDXIXDXVX8X-Xo.( B B n.jXDXJXDX8X>.l 6 u a k 6.s.",
"o o o o o o # # # # $ + $ $ $ $ & & & & & & & & = = > > = = > > 2 7 0 l 6 6 h B &.R.;XB.;X;X8XhX,X,X7X4X,XB.&.:.:.*.&.%.$.:.C.R.,X2X4X4X4X4X2XR.C.E.2XhXhXhX4X,X^.R.E.M.C.f.*.*.@.*.*.*.*.*.*.*.f.j.f.*.=.=. .{ Y U |  ...| U L M M L L Y L L L L L L M L G G L L G G m G F J T R T T J T J J T J F b d d v d d s s f p u y y y y y y : : : t y u p p i i p s s j k p p p p p p p p p p p D ..k.k.A.A.A.z.A.A.A.z.z.z.z.x.x.x.x.Z.Q.Q.Q.~.~.~.Q.Q.Q.Q.Q.Q.Q.~.~.~.!.~.!.!.}.}.}.[.[.G.S.[.}.G.S.D.D.S.S.S.D.D.z.z.z.z.z.z.z.F.F.F.i.i.u.6.u.6.6.7.7.6.i.u.i.i.i.i.i.i.i.i.i.i.F.g.g.F.F.F.F.i.i.6.i.F.F.v.S.S.S.S.G.}.}.}.G.}.G.G.[.}.}.OX}.}.oXOXqXqXOXOXoXoXoXoXoXoXoXqXqXeXeXeXeXeXeXeX@X@X@X@X@X@X@X@XXXXXXXXX.X.X.X X|. X X{.].!.~.Q.Q.Q.Q.Q.Q.~.~.~.~.~.~.~.!.!.!.].!.!.!.!.~.Z.I k p y , : u u p p h p p i i k k j G Y F F Q J K R 9.0.d.P.P.b.d.k.k.k.l.p.#.W T G m G Y W W W W E E p.8.a.l.d.d.l.9.9.8.8.8.p.p.#.@.f.f.j.*...| *.j.j.f.@.| | ..f.m.C.B.R.R.R.m.n.E.m.m.B.E.C.E.R.B.B.Y.E.B.R.R.R.,XR.R.;X,X-XR.R.,X;XR.R.;X;XE.R.,X4X3XR.$.o.o.T.6XjXcXNX9X-X,.n.1XjXNXBXBXcX3X;XT.R.7XNXCXDXHXAXjX1XN.X.) B / ,.jXAXKXHXNX;X_ 7 6 a x G 6.",
"o o o o # # + + $ + $ $ $ $ $ $ & & - = % % = = > > > > > > > > 6 7 l l 5 7 z _ ,.,X,XR.,X,X8XhX;X;X4X7X4XR.&.} { } o.&.B.R.2X1X4X7X7X7XrXhX4X2X,X5XhXkXrX4X4X2X^.E.C.j.j.*. . .{ | +.@.....+.@.*.*.f.*.*.*.*.| U Y Y U | | Y L L L L L L L L L L L M M M M G G G G G D G F J T R T K J T J T T J H b d d v d d s s p p i i u y y y y : : t t y u p p i i p s j j j s p p p p p p p p p p s G ..k.k.A.A.z.W.A.x.A.A.x.x.x.x.A.A.A.Q.Q.Q.~.~.~.Q.~.Q.Q.Q.Q.Q.~.~.!.!.!.!.}. X X}.[.[.[.S.S.OX|.D.[.S.S.}.}.}.!.S.D.D.D.D.S.D.D.z.D.D.F.F.F.F.F.i.i.i.6.6.7.7.6.6.6.6.6.6.6.6.6.u.6.6.6.6.u.i.F.F.F.D.D.D.S.G.G.G.}.}.}.OXOXOXG.}.}.}.}.}.}.}.}.}.OXoXoXOXOXOXoXoXoXoXoXoXqXeXeXeXeXeXeXeXeX@X@X@X@X@X@X@X@X@X@XXXXX.X.X.XXX|. X X{.{.!.~.~.~.~.~.Q.Q.~.~.~.~.~.~.~.!.!.!.!.!.!.!.Q.A.I k p u y , : u a p h h h h u u M k j M Y F F Q J K 8.0.0.b.P.P.b.d.k.k.l.l.a.E E Y L L P Y W W ..E E 8.! 8.9.l.d.d.d.9.8.8.8.8.p.p.@.@.f.f.f.@.|  .*.j.j.*. .| | +.*.f.C.E.^.^.R.m.m.E.m.m.E.B.m.R.R.B.Y.E.B.B.R.R.-X,XR.R.;X,X-XR.R.,X;XR.E.;X;XE.R.,X4X3XT.o.} X.N.3XjXcXcX6XN.<.1.6XNXVXAXBXjX;X-XR.;XjXBXAXDXDXBX8XT.$._ / / ( <.hXAXHXJXDX9X>.z 6 , a x L ",
"o o o o # # + + $ + $ $ $ $ $ $ & & & = = = > > > 1 2 1 > > > > 6 7 l l 5 7 B X.B.4X2X-X,X,X8X8X-XR.3X7X4X,X:.} A ( $.B.,X2X4XhX7X7X7XhXhXjXhX4X4XhXhXkX2X,X,X^.E.m.f.*.@.| L Y P P Y { | | | | =.*.*.*.f.f.f.=. .| | U L Y U P Y Y L L L M M L L L M M M M L L M G G G G G Q J T T T J T J J J J G b d d d d f f s f p i i p u i u y : : t t y y i p i i p s j j j s p p p p p p p p p p p s G j.k.M.A.k.A.A.z.A.A.x.x.x.x.A.W.A.Q.Q.Q.~.~.~.Q.~.Q.Q.Q.Q.Q.~.!.!.!.}.}. XqXqX X}.}.[.S.S.S.S.~.S.S.S.}.}.}.OX}.S.S.S.S.S.S.D.D.D.S.D.G.D.D.D.D.F.F.F.F.F.F.i.i.I I H H c c H H 7.6.i.i.F.D.D.D.D.S.G.G.}.}.}.}.}.}.}.}.}.}.G.qX}.}.}.OXOXqX}.D.G.OXoXOXOXOXoXoXoXoXoXoXqXeXeXeXeXeXeXeXeX@X@X@X@X@X@X@XXXXX@XXXXX.X.X|. X|. X X{.].!.~.~.~.~.Q.Q.~.~.~.~.~.~.~.~.!.!.!.(.!.!.!.k.I f k t , : : , u i p h h h h u p M k j G L G F J J K 9.0.d.b.P.P.b.k.k.d.a.l.a.W E Y L P Y Q W ..#.#.E p.R 8.8.a.d.d.d.9.8.8.8.8.p.p.@.@.f.f.*. .|  .f.j.f.@.| U U +.*.f.B.R.^.^.Y.f.m.B.m.m.E.C.m.R.E.B.Y.Y.B.B.E.R.R.R.B.R.;X,X-XR.R.,X;XR.R.,X,XR.-X1X4X3XB.X.} X.n.3XjXNXjX1X<.>.N.6XVXBXBXNX8X;XR.R.1XvXCXAXDXBXcX:X<.} ` / / _ >.9XAXHXHXKXBX-X} 6 , 6 a a ",
"o o + + # # + # $ $ $ $ & & & & & & = = = = > > 2 2 2 > > > 2 4 6 0 l l 7 h B $.-X7X,X,X4X2XhXhX,XE.2X7X4X3XR.o.} } :.;X4X4X7XhXhXhXhXjXjXjXjXkX4X4X4X,XE.E.E.m.=.| { { { { { P { { P P P P Z Z { +.=.*.*.f.f.*.*.+.| | S L { Y Y Y Y L L M M M L L M M M M M M M G L L G G Q J T J J J J J J J F D d v d d f f s p p i i i i i i i u t t t t y u i p i p p s j k j j p p p p p p p g g g p p p L a.k.k.M.A.W.A.A.A.A.A.A.A.W.W.Z.W.Q.~.~.~.~.~.~.Q.Q.Q.Q.Q.Q.~.!.!.!.|. XqXqX.XOX}.[.[.G.G.S.S.G.G.[.}.}.}.OXOX}.}.}.G.}.S.S.D.D.D.S.G.G.S.G.D.S.D.D.D.S.D.D.F.F.F.F.F.F.F.F.F.F.D.D.D.D.S.}.}.qXOX}.}.OXG.oXG.OX}.}.}.}.OXOXoXOXOXOXoXOXOX[.G.[.}.OXOXOXOXoXoXoXqXoXqXeXeXeXeXeXeXeXeX@X@X@X@X@X@X@XXX@XXXXXXXXX.X|.|.|.|.|.{.{.].!.~.~.~.~.~.~.~.~.~.~.~.!.!.!.!.!.!.W.(.(.k.P s p u t : : : : u i p p p p p u p M k k G F G G J K K 9.0.d.P.P.P.P.k.k.d.p.l.p.U U Y L Y Y Q W ..p.#.a.8.R 8.8.9.d.d.d.9.8.8.8.8.8.p.p.f.f.@.#. .#.j.j.j.f.@.| { | ..*.m.B.R.^.;XB.m.m.B.m.m.E.m.m.R.E.B.E.E.E.E.E.R.R.R.B.R.-X,XR.R.R.,X;XR.-X,X,X-X-X1X4X4XB.X._ _ ,.1XjXNX9X;X,.>.=XjXAXBXVXjX1XN.N.T.4XvXAXAXAXAX9XB.X.` B / / X.-XvXAXDXHXJXDX6X;.l 6 2 > > ",
"o o + + # # + + $ $ $ $ & & & & & & = = > = > > 2 2 1 > > > 2 6 6 0 l l 7 l ( ;.,X7X,X3X4X2XhXkX2XR.,X4X7X4X,Xn.o.o.n.,X4X4XhXkXjXjXvXvXvXjXjXhX4X,XR.B.m.m.*.=.| | { { { { { { { { { { P Z A A A { +.=.=.*.*.*.*.=. .| Y L Y Y Y L Y L L M M M M M M M k M M M L L G L G G F J J J J J J J J J F b d d d d f d s p p i u i y : : u p p u y y y u i p p p p s s s j j p p p p p p p i i g p p p s P a.k.M.M.W.A.A.A.A.A.A.A.W.W.Z.W.Q.~.~.~.~.~.~.Q.Q.Q.Q.Q.Q.Q.~.!.!.|. XqXqX.X}.OX[.[.G.G.G.G.G.G.}.}.}.OXqXqXOX}.}.}.}.G.G.D.D.D.G.D.qXOXqXOXG.D.G.G.G.S.D.D.D.D.S.G.S.D.D.S.S.S.S.G.G.G.OXOXgXeXqXoXqXOXOXqXOXuX}.G.OXOXqXqXqXqXqXqXoXOX[.G.}.OXOXOXOXOXoXoXqXeXqXeXeXeXeX@XeX@X@X@X@X@X@X@X@X@X@XXX@XXXXXXXXX.X|.|.|.|.|.{.{.].!.~.!.~.~.~.~.~.~.~.~.~.~.~.~.!.!.!.(.W.f.L s u u y , t t , : y i p p p p p u p M k k G F G F J K 6.9.0.d.b.P.P.P.c.k.l.p.a.@.W W Y G L F Y W ..#.p.a.! E R 8.9.d.d.d.9.8.8.8.8.8.p.p.a.f.@... .*.m.m.j.*.@.| | | =.*.m.R.^.R.^.C.m.m.B.m.m.C.m.m.R.E.B.E.Y.E.E.B.R.R.R.B.R.-X,XR.R.R.,X;XR.-X,X,X-X-X1X4X4XR.o._ ` >.;X9XjX3XT.>.>.;XjXVXVXNX8X:XV.V.-X8XNXAXAXAXNX3X,.} ` ) / ( ;.7XNXAXIXKXJXIXjX<.B 6 2 > > ",
"+ + + + # # $ $ $ $ & & & & & & & & = = > = > 2 2 2 1 > > 2 4 6 7 0 l l 7 z } n.3X4X;X7X4X1XhXjX7X-X,X7XhX7X3XR.m.n.E.3X4X7XhXjXvXvXNXvXvXjXhX4X2X-XC.m.*.*.=.| | | | | | | | | | | | | { P A C C A { +.+.o.*.*.*.=.+.| | L L L L S L L L L M M M M M k k M M L L L G G G G F Q J J J J J J J J D b d d d d d d s p p i i i , : y u i i p u t t y i p p p s j j s k k p p p p p u p i i g p p p s k Q f.M.M.A.A.A.A.A.A.A.W.W.W.W.W.Q.~.~.~.~.~.~.Q.Q.Q.Q.Q.Q.~.!.!.}.|. XqXqXXX|.}.}.[.[.G.G.G.G.G.}.}.}.OXqXqXqXOXOX}.OXG.G.S.S.G.OX[.OXG.OXG.G.D.G.G.G.G.G.D.D.D.G.G.G.S.S.G.G.G.G.G.OXG.OXOXqXqXOX}.OXgXeXeXG.eXOXOXOXOXqXqXoXOXoXOXOXOXOXOXOXOXOXOXOXOXoXoXqXeXeXeX+X@XeX@X@XXXXXXX@X@X@X@X@X@XXXXXXXXXXXXXXXXX|.|.|. X|. X{.].].!.!.!.!.!.~.~.~.~.~.~.Q.~.~.~.W.W.A.f.M u p y y , , , , , y u p p p p p p u j M k k G F D F H K 9.0.d.b.b.d.P.I.P.k.a.p.#.@.#.#.T G G L Y W W E p.a.E E R 8.9.d.d.d.9.8.8.8.8.8.p.p.a.a... ...f.C.M.j.f...| { | =.m.C.R.,XR.R.m.f.m.C.m.m.C.m.m.Y.E.B.R.B.B.E.E.R.R.R.B.R.-X,XR.R.R.;X;XR.-X,X,X-X-X1X7X4X-Xo.` ) o.-X7XjX;X,.%.V.6XcXVXNXNX6X;X=XT.1XjXNXAXAXBXjX;X&._ ` ( %.T.3XNXAXAXDXKXJXKXBXN./ 6 2 > > ",
"+ + + + # # $ $ $ $ & & & & & & & & = = > > > 2 2 1 1 > > 2 6 6 7 0 l l l z o.V.7X4X,XhX3X,XhXvXhX,X2X7XhXhX4X2X2X-X;X4X7XhXkXjXvXvXvXjXhX7X4X2X,XE.:.o.o.*.*.| +.| | | | +.*.*.*.*.=.=.| { L A C C A { | |  .@.=.=.=. . .| L S S C C M M L M M M M k k k M M L L G G G G G F Q J J J J J J J J D b d d v d d d s p p i i y : : y u u u u u i i i i p p s s j j s j j p p p p p u p i i g p p p k k m T k.M.A.W.M.A.A.A.A.W.W.W.W.W.Q.~.~.~.~.~.~.Q.Q.Q.Q.Q.~.~.!.!.!.|. XqXqXXXXXoXOX}.[.G.G.G.G.G.G.}.G.}.qXqXqXoXOXOXOX[.[.G.G.OXG.OXOXG.[.G.OXG.G.G.G.G.G.G.G.G.G.G.G.G.G.G.G.G.G.}.}.G.OXOXOXOXqXqXqXqXqXeXqXqXOXOXOXOXqXOXOXOXOXOXOXOXOXOXOXOXOXOXOXOXoXoXeXeXeXeX@X@X@X@X@XXXXXXX@X@X@X@X@X@XXXXXXXXXXXXXXXXX|.|.|. X|. X{.].].!.!.!.!.!.~.~.~.~.~.Q.~.Q.~.W.W.W...k u y y , , : , , , , y u p p p p p p i s L k m G F G Q H J 9.d.d.b.b.d.P.I.P.k.8.p.! a.@.#.W D D L W W W W a.a.E W R ! 9.d.d.d.9.8.8.8.8.8.p.p.a.@.....@.j.m.C.j.*...+.| | =.m.B.R.,XE.R.m.*.m.C.m.m.C.C.B.Y.E.B.R.B.B.E.E.R.R.^.B.R.-X,XR.E.R.;X;XR.-X,X,XR.-X1X7X4X-X$.( / X.T.3X8X-X,.-.>XjXcXBXNXjX1X=X=XR.3XvXCXAXDXBX9XR.$._ _ T.3XjXNXCXIXIXHXJXJXKXBX=X` 8 2 > > ",
"# # $ $ $ $ $ $ $ $ & & & & & = - - = = > > > > > > > > 2 2 6 6 7 0 l l z / $.R.8X3X,XhX2X,XhXvXjX3X,X4XhXhX8X4X1X1X3X7X7XhXjXjXvXvXjXhX4X1X-XB.:.*.%.} o.| | o.=.*.*.*.*.*.*.*.f.*.*.*.| | { Z A Z Z Z A Z | | | | +.+.=. .Y S M M M M M S L M M M N N M M M L L G M G G G F Q J J J J J J J Q G b d d v d v d s p i i u : : : : y u u y y i i i p s s s s j s s j j p i i p p i i i i p p p p s k D G W k.A.A.A.A.z.z.A.Q.W.W.W.Q.Q.~.~.~.~.~.~.Q.~.~.~.~.~.~.!.!.{. XXXqXXXXXXXoXoXOX}.[.G.G.G.G.G.G.G.G.OXOXOXOXOXOXOXOXG.G.G.OXG.OXOXG.G.OXOXG.G.G.G.G.G.G.G.G.G.G.G.G.G.G.G.G.G.}.[.[.OXOXOXOXOXqXoXoXoXoXoXoXoXOXOXOXoXOXOXG.[.OXOXOXOXOXOXOXOXOXoXoXoXoXXXeXeXeX@X@X@X@X@XXXXXXX@X@XXXXXXX@X@XXXXXXXXXXX.X.X X|. X X X X{.].!.!.!.!.!.~.~.~.~.~.~.Q.Q.W.(.(.M. .k u t p , : : , , , , t y u i p p i i i i p G k D G F F Q J K 0.d.d.b.b.b.P.I.P.l.8.#.E a.a.#.W L G P ..W W W j.p.E W T R 8.l.d.d.l.8.8.8.8.8.! p.a.@. .#.*.j.M.M.j.*. .+.| +.*.m.E.^.R.E.m.*.*.m.C.m.C.B.B.E.E.E.B.E.B.B.B.E.R.R.-XB.E.R.-XR.T.R.;X-XR.R.,X,XR.;X1X7X4X1X<._ / ) <.1X:XT.;.<.:XjXNXBXNX8X;XB.V.V.7XNXCXAXAXNX3XN.<.N.1X8XjXBXAXDXIXIXHXKXJXJXBX=X] 8 2 > > ",
"# # $ $ $ $ $ $ $ $ & & & & & = - - = = > > > 2 > > > > 2 2 6 6 7 0 l l z ` >.;X8X1X3XhX1X,XhXvXjX4X,X1XhXhXhX7X4X1X3X7X7XhXjXjXvXcXhX4X-XT.n.&.$.&.=.o.} | | &.m.m.m.m.m.f.f.m.m.m.j.*.=.| | { P Z Z Z A A Z { { | | =.+.| | L S M M N M L L S M C N N M M M M M M M G G G F Q J J J J J J J Q G D b v v d d d s g i i y : : : : : : y y y y y u p j k j s j s s j j p i i p p i i p i p p p p s D G G P P l.k.M.A.A.x.A.A.W.W.W.Q.~.~.~.~.~.~.~.Q.~.~.~.~.~.~.!.!.{. X XXXXX XXXoXoXoXOX[.[.[.G.G.G.G.G.G.G.[.[.[.[.OXOXG.G.G.G.G.G.G.G.OXOXG.OXG.G.G.G.G.G.G.G.G.G.G.G.G.G.G.G.G.G.G.G.G.[.[.OXOXOX}.OXOXOXOXOXOXOXOXOXOXOXOXOXOXG.OXOXOXOXOXOXOXOXoXoXoXoXoXoXeXeXeX@X@X@X@X@XXXXXXX@X@XXXXXXXXX@XXXXXXXXXXX.X.X X|. X X X X{.].!.!.!.!.!.~.~.~.~.Q.Q.~.(.(.W.j.W k u t p , ; : : , , , , t y u i p p i i i p p D M m G G F F J R 0.d.d.U.U.P.P.I.P.a.p.E #.p.p.E W P L Y ..T W E l.p.E R T R 8.l.d.d.a.8.8.8.8.8.p.p.a.@.#.#.*.j.M.M.j.*.|  .| @.f.C.R.^.R.E.m.*.j.m.m.m.B.E.B.E.E.E.E.E.B.B.B.E.R.R.R.C.C.R.-XR.E.R.;X-XR.R.,X,XR.R.,X3X4X1XN.X.( ) $.-X;X>.>.-X7XjXNXVXcX7X-Xn.,.B.7XvXBXAXAXNX1X=X3XjXjXNXCXDXDXDXIXIXHXKXJXJXNX=X` 8 2 1 1 ",
"# $ $ $ $ $ $ $ & & & & & & = = - = = = > > 2 > > > > > 2 2 6 6 7 0 l l / X.N.3X8X,X3XhX2X;XhXvXjX4X,X,X7XhXhX8X7X4X4X4X7XhXjXjXjXhX1X;Xn.:.*.*.n.m.n.*.| { | &.E.E.B.C.m.m.m.m.m.m.*.*.=.| | { { P P P Z Z A A Z { | |  .| | Y L L M M M S L M M M M M M M M M M M M G G F F Q J J J J J J J Q G D b d d v d d g i i y t : : : : : : : t y y y u p j k j j j s s j j p p p p p p p p p p p p p s D G D D G F h.k.M.x.x.x.A.W.W.W.Q.~.~.~.~.~.~.~.~.~.~.~.~.~.!.!.!.{.|. X X X XXXXXoXoXOX}.[.[.G.G.G.G.G.G.G.G.G.G.G.G.G.G.G.G.G.G.G.G.G.G.G.G.G.G.G.G.G.G.G.G.G.G.G.G.G.G.G.G.G.G.G.G.G.G.G.G.G.G.G.G.G.[.OXOXOXOXOXOXOXOXOXOXOXG.OXOXOXOXOXOXOXoXoXqXqXeXXXeX@XeXeXeX@X@X@X@XXXXXXXXXXXXXXXXXXXXXXXXXXX.X.X.X.X.X X|. X X X X X{.].!.!.!.!.!.~.~.~.~.Q.(.~.W.f.L j i y p , , : , y y y , , , y u p p p i i p p p D k m D G G F J R 0.b.P.P.U.P.I.~.P.8.8.E ! #.a.T W W Q T W T P E l.p.E R T R 8.l.d.d.l.8.8.8.8.8.p.p.a.@.#.@.*.j.M.M.j.*.| | | =.j.B.R.^.R.R.m.f.m.C.C.C.E.E.B.E.R.R.E.B.B.B.B.E.R.R.R.n.m.B.R.-XR.R.-X;XR.T.,X2X;XB.-X1X4X3XR.;._ ` X.V.-X,.N.1X8XNXBXVX8X1XV.>.>.-X8XNXNXAXCXNX8XjXNXCXAXAXAXDXDXDXIXIXHXKXJXHXNXV.^ 5 2 1 1 ",
"$ $ $ $ $ $ $ $ & & & & & & = = - = = > > > 2 > > > > > 2 2 6 6 7 0 l l ` o.T.7X8X;X4XhX,X-X7XvXjX7X,X-X3XhXhXhXhX7X4X4X7XhXjXjX7X1XR.n.:.:.n.N.E.R.E.n.+.{ } &.;XR.R.E.m.m.m.m.*.*.=.| | | { P { { { { { P A A A L Y | | | | | Y L L L M M M M M M M M M M M M M M M G L F F Q J J J J J J J F F D b v d d d f g i u t : : : : : : : : t t u u p p s s s s s s s k k p p p p p p p p p p p p p j D G m k k G F f.k.A.x.x.x.A.W.Q.~.~.~.~.~.~.~.~.~.~.~.~.~.!.!.~.!.}.{.|. X X X XXXXXoX|.}.}.[.[.G.G.G.G.G.G.G.G.G.G.G.G.G.G.G.G.G.H.G.G.G.G.G.G.G.H.G.G.G.G.G.G.G.G.G.G.G.G.G.G.G.G.G.G.G.G.G.G.G.G.G.G.G.G.G.[.OXOXOXG.G.G.OXOXG.OXOXOXOXOXOXOXoXqXqXeXeXeXeXeXeXeXeX@XXX@XXXXXXXXXXXXXXXXXXXXXXXXX.X.X.X.X.X.X.X X|. X X X X X{.].!.!.!.!.!.~.~.~.~.W.~.W.a.L j p i p , , , , , y u y t t , y u p p p i i p p p D M k D G G F J R 0.P.P.U.P.P.~.).W.8.! E W #.a.Y W W T W W T P p.l.p.E T J R 8.l.d.d.l.8.8.8.8.8.p.p.p.#. .@.*.j.M.M.j.*.| { | *.m.E.R.^.E.R.m.m.m.C.C.m.E.R.E.B.R.E.E.B.B.B.B.R.R.R.R.B.C.B.R.-XR.R.-X;XR.B.,X1X,Xn.R.,X1X4X;X,.} ' X.,.N.>.-X6XcXNXNXNX3X;XN.,.N.1XcXBXCXAXCXCXNXBXAXDXDXAXAXAXAXAXDXIXHXJXHXIXjX1.^ 3 2 1 1 ",
"$ + + $ $ $ & & & & & & & & % = = = = > > > > > > > > 2 2 6 6 6 7 0 l z } ,.,XjX8X;X7XjX,XR.7XvXjX7X,XR.-X4XhX7XhX7X4X4X4X7X7X3XR.C.n.N.R.-X,X,X,X-X-XR.n.| | m.R.,X,XE.B.m.*.*.o.| | | | | | P P Z Z Z P P Z A C Z Z { | | | | | P P L S N N M M M M M M M M M M m M G F G G F Q J J J T J J J F D v d d d d f g i i t : : : : : : : : t y u p s s p p p s s s s s s p p p p p p p p p p i i p j D G k k k m G I k.A.W.A.A.A.W.Q.~.~.~.~.~.~.~.~.~.~.~.~.~.~.~.!.!.!.{.}. X X}.}. X X X X}.}.OXOX}.[.G.G.G.G.G.G.G.G.G.G.G.G.G.H.D.D.G.G.G.G.G.G.H.D.G.G.G.G.G.G.G.G.G.G.G.G.G.G.G.G.G.G.G.G.G.G.G.G.G.G.G.G.G.G.G.G.G.G.G.G.[.[.OXOXOXOXOXOXOXoXqXeXeXeXeXeXeXeXeXeX@X@XXX@XXXXXXX.X.XXXXX.X.XXXXXXX.X.X.X|.|.|.|.|.|. X X X X X{.].!.!.!.!.!.!.~.Q.Q.W.A.P j u u i p u : ; : , , , y y y , y y a p p h u u p p s D k k D G G F J R l.P.U.U.P.I.I.(.k.8.! E W W p.W G W Q W W T T ! 8.p.E R R R 8.s.d.d.s.9.8.8.8.8.E #.#.#. .@.*.j.C.j.f.=.| P | *.C.E.E.E.E.R.C.m.m.m.C.m.m.R.E.C.R.E.E.B.B.B.E.R.R.-X-XR.B.N.R.-XR.R.-X-XR.R.-X1X1Xn.B.1X1X4X1XV.O.) ` -.N.n.1XjXcXBXBXjX;XN.;.n.=XjXNXBXBXAXCXBXCXAXDXIXDXAXAXAXAXAXAXIXHXPXPXIX9X2.~ 3 1 > > ",
"$ + $ $ $ $ & & & & & & & & = = = = = > > 2 > > > 2 2 4 6 5 6 6 7 0 l z X.N.1XjX8X,XhXjX,XR.4XcXhX7X,XB.B.,X4X7X7X7X4X4X4X1X;XR.n.C.T.R.,X3X4X4X2X,X,X-XB.:.&.E.;X2X,XB.m.*.o.*.+.| | | +.o.+.{ Z Z A C C Z P Z A C Z P | | | | | Y P P S N N M M M M N M N N M m m M G F G G F Q J J T J J J J Q D b d d d d f g i i t t : : : : : : : : y u p s s p p p p s s s s s p p p p p p p p p p i p s k G D k s k k m k I k.W.A.A.A.W.Q.~.~.~.~.~.~.~.~.~.~.~.~.~.~.~.~.!.!.!.{. X X{.{. X X X X|.|.oXoXOXOX[.G.G.G.G.G.G.G.G.D.D.D.D.D.D.D.G.G.G.G.G.G.H.D.G.G.G.G.G.G.G.G.G.G.G.G.G.G.G.G.G.G.G.G.G.G.G.G.G.G.G.G.G.G.G.G.G.G.G.[.OX}.OXOXoXoXoXOXoXoXeXeXeXeXeXeXeXeXeXeXXXXXXXXXXXXX.X.X.X.X.X.X.X.X.X.X.X.X|.|.|.|.|.|.|. X X X X X{.!.!.!.!.!.~.~.!.!.W.k.I s u p i i u : : , y , : : : , u y y y a p p p u u p p s D k m G G H F J 6.0.d.P.U.P.I.).).d.! ! E W W #.#.F T Q ..W T W E ! p.E W R R ! 8.l.d.s.9.8.8.p.p.E E #.#...@.@.f.j.f.*.=.| Y ..j.E.E.E.E.E.R.B.m.m.m.C.j.m.R.R.C.E.E.B.B.B.B.E.R.R.-X-XR.N.m.E.R.R.R.-X;X;XR.R.,X1XR.B.-X1X6X3X-X<.) ` O.>.=X7XcXNXNXcX6XT.<.$.B.,XjXBXCXCXAXVXBXBXCXAXDXAXCXCXCXCXAXAXIXHXJXJXAX3XO.z 3 1 > > ",
"$ $ $ $ $ $ & & & & & & & & = = = = > > > > > > > 2 4 6 6 5 5 5 7 l l z o.T.4XcX8X1XjXjX,XE.3XhXjX7X,XB.,.B.,X4X7X4X4X4X1X;XB.n.C.R.,X1X4X4X4X4X3X,X-XR.B.n.*.E.,X2X-Xn.*.o.o.| | %.=.=.*.&.$.| { Z C x x A Z P Z A C Z P { { | +.| { P L C M N k N N N k k k k m m M G L D D G Q J T T J J J J Q G b d d d d f g i i t t : : : : : t : t y u p s s p p p p s s s s s s p p p p p p p p p i p j M L m s p s k k s d E k.A.A.A.W.W.~.~.~.~.~.~.~.~.~.~.~.~.~.~.~.~.!.!.!.{. X X{.{. X X XXX X.XoXoXoXOXOX}.[.[.[.[.G.G.G.D.D.D.D.D.D.H.G.G.G.G.G.G.H.D.G.G.G.G.G.G.G.G.G.G.G.G.G.G.G.G.G.G.H.H.G.G.H.H.H.G.G.G.G.G.G.G.G.G.[.}.OXOXOXoXoXoXoXoXoXeXeXeXeXeXeXeXeXeXeXeX@XXXXXXXXXXX.X.X.X.X.X.X.X.X.X.X.X|.|.|.|.|.|.|. X X X X X X{.!.!.!.!.!.!.W.~.W.a.L y y u j p u , : , y , , : : : : , y u u p p j p u u p j j D M m G G F J K 8.d.b.P.U.U.P.).P.s.! E E W T #.#.Q Q T #.T Q W E E E R R ! R R 8.s.d.s.9.8.8.p.p.E E ..#.#.@.@.*.j.@.#.+.| | *.C.R.E.E.E.E.R.E.m.j.m.C.m.m.E.R.B.Y.E.B.B.B.B.E.R.R.R.R.R.n.n.B.R.R.R.-X,X,XR.T.-X3X;XB.T.1X6X7X3XT.o.X.O.<.1X8XcXNXNXjX1X,.&.o.T.8XNXBXCXAXCXNXNXNXBXCXAXCXBXBXBXCXAXDXHXJXHXIXNX=X^ 8 4 1 > > ",
"$ $ $ $ $ $ & & & & - & & & = = = = > > > > > > 2 2 6 6 5 5 5 5 7 0 l l $.-X7XcX8X3XjXjX2XE.2XhXjXhX3XR.n.n.B.;X4X4X4X1X,XR.n.C.-X2X7X7X8X7X4X4X1X,XR.B.:.*.$.m.R.-XE.*.+.+.| | | =.*.*.*.*.*.=.| | A k x k A Z Z Z A C C P { |  .=.+.Z C S M k h k m m k j j k m m M G G m v D F Q J T T J J J Q G b v d d d f g i i t t : : : : : t t t y u i p p p p p s s p s s s s p p p p p p p i i p s M L L m p p p s s s k d E A.A.A.W.W.~.~.~.~.~.~.~.~.~.~.~.~.~.~.~.~.!.!.!.{.|. X{.].{. X X XXXXXXXqXoXoXOXOXOX}.[.[.G.G.G.v.v.v.v.D.D.H.G.G.G.G.G.G.H.D.G.G.D.D.G.G.G.D.D.G.G.G.G.G.G.H.G.H.H.H.H.G.H.H.H.G.G.G.G.G.G.G.G.G.[.OXOXOXoXoXqXqXqXqXqXeXqXeXeXeXeXeXeX@X@X@X@XXXXXXX.X.X.X.X.X.X.X.X.X.X.X.X.X|.|.|.|.|.|. X X X X X X X{.!.!.!.!.(.(.W.W.a.k u u u y k j u , , y t : : : : : : , , y u p j j p u u p j s D D D D G F J K 8.d.d.P.U.U.P.!.P.p.E E ! T W E #.W P W p.T T W E E R W R 8.8.R 8.s.l.s.9.8.8.p.8.E E E #.#.@.#.@.f. .| | |  .j.E.R.B.E.E.E.E.E.m.*.m.C.m.m.B.R.Y.B.B.B.B.B.B.B.E.R.R.R.R.n.n.C.R.R.R.-X,X,XR.T.-X1X1XR.T.,X6X7X4X;XV.;.>.1.8XjXcXcXjX7X;X>.o.;.;XjXNXBXAXCXVXcXcXNXNXBXBXBXNXBXBXCXAXDXHXJXHXAXjX1.z 5 4 1 > > ",
"$ $ $ $ $ $ $ & & & & = = = = = = = > > > > > > > 6 6 8 7 6 6 7 0 7 l / ;.;XjXcX3X3XjXjX3XE.-XhXjXjX7X-Xn.:.:.B.-X-X;X,X-XB.B.B.1X7X7X4XhX7X4X,X-Xn.&.%.o.$.&.:.m.n.:.%.o.o.o.| o.o.=.=.=.=.=.=.+.| { A x k C A Z Z A C C Z Y | | +.@.{ L P L M k h k k k j j k M m M G M m m D F Q J T T J Q J J Q G D d d f f g g i t t t : : : : : : t t u u p i p p p s s p s s k s p p p p p i i i i p j L P L m p i p s s k d s D h.A.W.W.W.^.~.~.!.~.~.~.~.~.~.Q.~.~.~.~.~.!.!.!.{.{.{.{.{.{.}. X XXXXXqXqXoXoX|.oXOXOX}.[.G.G.G.G.G.G.G.D.D.H.G.G.G.G.G.G.D.D.H.H.D.H.D.v.v.v.v.S.G.G.G.D.H.H.H.G.H.H.G.H.G.G.G.G.G.G.G.G.[.[.[.[.}.OXOXoXoXoXqXqXqXqXeXqXeXeXeXeXeXeXeXeXeXeXeX@XXXXX X.X|.|.|..X.X.X.X|.|.|.|..X.X X X X X X X X|. X{.{.].!.!.!.!.~.(.M. .k u u u p j h u u j , , , : : : : : : : : y i j j j j u y p j s D G D D G F J R 8.d.d.P.P.U.I.!.c.8.E W #.Y W W E E Y W #.E T E E E E E E E 8.8.9.a.s.s.9.8.8.8.8.E E E #.p.@.@.@.@.#.| | | =.m.R.R.E.E.E.E.R.R.C.j.m.C.m.m.B.R.E.B.B.B.B.B.B.B.E.E.R.R.R.B.m.n.R.R.R.-X;X;X,XN.T.3X3X1XR.T.3X7X8X6X1X;XV.;X8XjXNXNXjX;XV.>.o.N.6XcXNXBXAXBXNXjXjXNXNXNXNXBXCXCXCXCXAXDXHXHXJXBX1XO.l 4 2 2 > > ",
"$ $ $ $ $ $ & & & & = = = = > > > > > > > > > > > 6 7 7 7 6 7 7 l 7 l ( ,.,XjXcX3X1XhXjX4XE.-XhXjXjX7X,XB.&.o.:.n.n.N.B.:.&.:.n.2X8XhX8X4X4X,XR.n.$.} { | $.*.:.:.:.:.&.*.*.*.$.o.| | | } } } } | { { P k N C C A Z Z Z C A L Y P L { |  .U L L M j s j j j p k M M M M m M G G Q Q J T J Q J W R R Q G d f f g g g i t t : : : : : t t t y y u i i i i i p p p p s s s p p p i i i i i i p j L L L k p p s s s k k s d G k.A.W.W.W.~.~.~.~.~.~.~.~.Q.Q.~.~.~.~.~.!.!.!.].{.{.{.].{.{.{.|. XXXXXXX.X|.|. X|.}.}.[.G.G.G.G.G.G.G.v.G.v.H.H.D.D.D.D.D.D.D.H.H.H.G.v.G.G.G.G.G.G.G.v.v.G.G.G.G.G.G.G.G.G.G.G.G.[.G.[.}.[.}.}.}.|.oXoXoXoXqXqXqXeXeXqXqXeXeXeXeXeXeXqXqXXXqXXXXXXX|..X|..X|.|.|.|.|.|.|.|.|..X.X X X X X X X X|. X X{.!.!.!.~.(.W.k.U i t u u u a h k x a u , , , : : : : : : : : y i p j j j u y u j j m G D m D Q J R 9.d.d.P.P.I.I.).k.p.E T #.T T W W W Y W p.! E E E E E E E E E 8.8.s.s.s.9.8.8.8.8.E E E #.p.f.@.@... .| | | *.C.R.R.E.E.E.E.R.R.B.m.m.C.m.m.E.R.^.R.E.B.C.C.C.C.B.E.R.R.R.E.B.m.T.-X-X-X;X;X1XR.T.;X1X1X-XV.-X1X8X9X6X1X:X6XjXNXBXNX3XV.n.;.<.;X8XcXBXBXBXBXNXcXNXBXBXBXNXNXBXBXBXBXAXAXAXUXIXNX-XX.w 4 2 2 1 1 ",
"$ $ $ $ $ $ & & & & = = = = > > > > > > > > 2 2 2 6 7 0 7 7 7 l l l l ` N.1XcXjX3X1XhXjX3XB.-XhXjXjXhX4X;X:.X.} X.o.o.&.o.o.&.B.2X7X7X4X,X-XB.:.o.( ( } o.:.n.:.:.&.&.&.B.m.:.&.o.{ Z Z Z Z Z Z Z Z Z Z A C N N C Z Z P P S A S C S S Z | @.| L M M k j j p p k M M M M G D G F Q J R R J J T 8.8.R H D d f f g g i i t t t : : , , y y y y y y u i i i i p p i p s s s s s p p i i i i i p j M G G j i p s s s s s s f d P k.A.W.W.^.~.~.~.~.!.~.~.~.~.~.~.~.~.~.!.!.!.!.!.}.}.!.].!.!.}.|. X X X|.|.}.}.}.}.[.[.[.[.G.G.G.G.G.G.G.G.G.G.G.G.G.D.D.D.D.v.G.G.G.G.G.G.G.G.G.G.G.G.G.G.G.G.G.G.G.G.G.G.G.G.OXOX[.OXOX}.}.}.|.oXoXoXoXoXqXqXqXeXeXqXqXeXeXeXeXqXqXqXqXqXqXXXXXXX|..X.X|.|.|.|.|.|..X.X|.|. X X X X X X X X X X X X{.!.!.(.W.W.k.U i : y u u u a h x x a , , , , : : : : : : : : y p j j j j i u u j m G L G m D Q K R 9.d.d.P.U.I.).I.k.a.E T W W W W T W Q W p.! E E R ! E E E E E W 6.a.l.s.9.8.8.8.8.E E E #.p.f.@.@. .| | | =.*.B.E.E.B.B.E.E.R.R.B.m.m.m.m.m.C.R.^.R.E.B.C.C.B.C.B.E.E.E.R.R.B.n.N.-X-XR.-X,X3X-XT.T.1X1X-X,.V.-X3X9X8X7X3XjXNXBXBXjX;X,.;.;.T.7XjXNXBXAXBXBXBXcXcXNXcXjXhX8X8X8X8X8XhXhXhXhXjXhX=XO.w 4 2 4 2 2 ",
"$ $ $ $ $ & & & & & = = = = > > > > > > > > > 2 4 8 w 7 7 6 7 l B l B _ B.1XcXjX3X1XhXjX3XB.R.hXjXjXhX7X1X-X:./ / ( ( _ ( X.:.R.2X4X3X-XB.:.$.} ( Z ( | &.B.R.C.&.$.$.:.R.B.n.*.%.( C x C C C C C Z Z Z A C C k C A Z { { P C N k C S S L | U L L L L M k k k N M M M M G G G Q T T R R T J R 8.E J D d d f f g g g g t t t : : y y y y y y t y u i i y y i i y i s s s s s p p i i i i i p k L G M s i p p p j j j s p g m W k.W.W.W.~.~.~.~.!.~.~.~.~.~.~.~.~.~.!.!.!.!.!.!.!.!.!.!.!.}.}.|.|.|.}.}.}.].}.[.~.[.[.[.[.[.G.G.G.G.G.G.G.G.G.G.G.G.D.D.v.S.G.G.G.G.G.G.G.G.G.G.G.G.G.G.G.G.G.G.G.G.G.G.G.}.OXOX}.}.OXOXOX}.|.oXoXoXoXqXqXqXqXeXeXqXqXeXeXeXeXeXXXXXqXXXXXXXXXXX|. X.X.X.X|.|.|.|..X|.|.|. X X X X X X X X X X X{.!.!.!.(.W.k.P u u p h y y u u u y u u , , , : : : : : : : : : y a p j j j p u u j m G L G m D J K R 9.d.d.P.U.I.!.W.k.a.E T T E ! E E W Q T p.#.E E E ! ! ! E E R T R a.s.s.9.8.8.8.8.E E E #.p.f.@.@...| { | =.m.B.B.B.B.E.E.Y.R.R.E.m.m.C.m.m.m.B.R.R.E.B.C.C.C.C.B.B.B.E.R.R.B.m.B.-X-XT.-X,X3X,XR.N.-X1X-Xn.,.T.;X7XjXhX8XNXNXVXVX3X-X>.o.,.1XjXcXNXBXBXBXNXcX8X6X3X1X;XR.R.-X-X-X-X-XR.B.B.;X7X-XO.w 4 4 4 4 4 ",
"$ $ $ $ & & & & & & = = = = > > > > > > > > > 2 5 0 w 8 6 6 7 l B V B %.T.hXcXkX4X1XjXjX4XE.-XhXjXjXhX7X7X2XB.o.} / C ( } &.B.;X,X-X-Xm.$.o.X.} } %.&.n.R.-X-XR.C.&.%.:.B.R.n.$.Z C x x h h h x x h x A A A C C C A Z { | Y C k h k C M S S S L L L L L M M M M L L M M D D F Q T R 8.R J J J R W J D v d d f f g g i t t t : t y y y y y y t t y u i i i i i y u p s s s s p p p i i i i s M L L m p t u p p s k j j s s k D W k.W.W.^.~.~.~.~.~.~.~.~.~.~.~.~.~.!.!.!.!.!.!.!.!.!.!.!.!.!.}.!.}.}.!.].!.!.!.~.~.[.~.[.[.[.G.G.G.G.G.G.G.G.G.G.S.S.S.S.G.G.G.G.G.G.G.G.G.G.G.G.S.S.G.G.[.[.[.[.[.[.[.[.}.OX}.}.}.}.}.}. XXXoXqXXXoXqXqXeXeXeXeXeXeXeXeXeXXXXXXXXXXXXXXXXXXXXX.X X|.|.|.|.|.|.|.|.|.|.|. X X X X X X X X X X{./.!.~.^.W.j.P p p u y , y , u u , t y u y , , , : : : : : : : : y u p j k k j u u p k M G D v D J R R l.d.d.U.U.I.).W.l.p.E T Y W ! ! E E T T p.#.! W R ! ! 8.! R W T R p.s.s.a.8.8.8.8.E E E p.p.p.@.#. .| { | *.m.m.C.C.B.B.B.B.R.R.E.m.m.m.m.m.m.C.E.B.B.C.C.m.m.C.B.C.B.C.E.R.E.m.N.R.-XR.R.;X1X3X:XN.T.-X;X-XN.N.-X1X8XjXjXVXNXCXcX1XN.X.o.=X8XcXNXBXBXBXcX8X1X;XR.V.,.;.$.$.;.:.n.B.B.;.o.( } ;X3X>.^ 0 3 3 4 4 ",
"$ $ $ $ & & & & & & = = = = > > > > > > > > 2 6 8 w 0 5 6 6 0 z B V / &.-XhXcXhX2X1XhXjX4XE.-X7XjXjXjXhXhX4X,XB.&.o.} o.&.C.-X,X,XB.:.| X.o.&.*.n.B.R.R.,X2X,X-XB.>.&.&.T.R.:.} C x x x x h h x x h h C A A A C A A Z { { { S k x x N C C C M N M M M M M M L L L L L M M D F T W ! 8.R J J J J K J G D v d f f g g i i t t t t y y y y y y t t : y i i i i i y u i s s s s p p p i i i p j M L L k u t y u p p p j j s s s k k a.A.W.W.~.~.~.~.~.~.~.~.~.~.~.~.~.!.!.!.!.!.!.!.!.!.!.!.!.!.!.!.!.!.!.~.~.!.!.!.~.~.~.S.S.S.S.S.S.S.S.S.G.S.S.S.S.S.S.S.S.S.S.S.S.S.S.S.S.S.S.S.S.S.~.S.~.~.~.[.[.[.[.[.[.}.}.}.}.}.}.}. X XXXqXXXXXXXqXeXeXeXeXqXqXqXqXXX.X.X X.X.XXXXXXXXXXX.X.X|.|.|.|.|.|.|.|.|.|.|. X X X X X X X X X{././.W.(.W.a.k u y , : : , y u , u , , t y y , , : : : : : : : : : y u p j x j j p u u s m L G m D Q R R d.d.d.U.U.I.~.P.l.p.E Y T W E E ! E T E a.#.! W R ! ! 8.8.R W T W 8.s.s.s.p.8.8.8.R E E p.p.p.@. . .| | =.*.m.C.C.B.C.C.C.B.R.R.R.C.m.m.m.m.m.C.B.C.C.m.m.m.m.C.C.m.B.C.B.E.R.N.N.R.-X-X-XR.:X1X1XR.T.N.-X1X>XT.T.>X6XjXcXNXNXNX8X;Xn.o.;.-XjXcXVXBXBXNX8X:Xn.<.&.o.o.o.&.>.B.-X1X7X7X1X;XN.;.;X6XV.` w 3 3 4 4 ",
"$ $ $ $ & & & & & & % = = = > > > > > > 2 4 5 7 0 7 6 6 6 7 l V B V ) >.,XcXvX7X,X1XjXjX4XE.R.7XjXcXvXjXhX7X4X,XR.n.n.B.R.-X;X,XR.N.$.} $.:.B.R.,X,X,X,X1X2X,X-XR.n.:.&.B.T.&.A x x x x x h h x x h x C A A A Z Z Z P { { { L C x x N N C N N N k N k k k k M M M M M m k m G Q T ! 8.R J H H J J J G D D d d f f g g i t t t t y y y y u y t : : t t i i i y t y u p s s s p p p p p i s k L Y L s i i t u p p p p p s s s s d P h.W.W.(.(.(.!.~.~.~.~.~.~.~.~.!.!.!.!.!.!.!.!.!.!.!.!.!.~.~.!.!.!.~.~.~.~.~.~.~.~.~.S.S.S.S.S.S.S.S.S.S.S.v.v.v.v.S.S.S.S.S.S.S.S.S.S.S.S.S.S.S.S.S.S.Q.Q.~.~.Q.~.!.~.!.}.].].}.}.}.|. X XXXqXXXXXXXXXXXXXXXXXXXXXXXXX.X.X X X X.X.XXXXX XXX.X.X|.|.|.|.|.|.|.|.|.|.|. X X X X X X X X X{.(.(.W.W.a.k t t y : : , , u u , , , t , , y , , : : : : : : : : : y u p j j j j j p u s G L G D D F ! 8.d.d.d.U.U.I.~.P.p.p.E Y Y W W W E ! T #.l.#.! E W E R ! 8.! R R W 8.9.s.s.s.s.s.p.E W #.p.p.p.@. . .| =.*.*.m.m.m.m.m.m.C.C.R.R.R.E.m.m.m.m.m.m.m.C.m.n.n.m.m.m.m.m.C.B.n.E.E.B.m.R.;X,X-XT.-X1X1X1XT.1.T.1X1X:X-X-X1X9XNXNXBXhX1XB.;.o.,.3XjXcXVXBXBXNX8X-XB.N.,.>.N.B.-X1X3X7XcXCXAXBXNX7XN.B.6X-X] z 5 4 4 4 ",
"$ $ $ $ & & & & & & % = = = > > > > > > 2 5 7 0 7 5 4 5 6 7 l V B B _ ,.3XvXcX4X-X1XjXjX4XE.R.7XjXjXvXjXhXhX7X4X3X,X,X,X,X,X,X,XT.B.&.*.N.E.;X2X4X3X1X,X1X3X,X-XR.T.n.&.>.N.&.B x x x x x h h x h h h C Z Z Z P P Z Z { Y Y L C k x k N N N N k k j p p p j k k N M m j s d v G K ! 8.R J G G Q J J F D D d d f f f g i t t t t y u y u u y t : : t t y i i t t y u p s s s s p p p p p j m L U M p i i t u p p p p s s s s k k k ..k.^.(.(.(.~.~.~.~.~.~.~.~.~.!.!.!.!.!.!.!.!.!.!.!.!.~.~.~.~.~.~.Q.Q.~.~.~.Q.Q.Q.S.Z.Z.D.Z.Z.Z.Z.Z.D.v.v.c.D.c.z.v.x.x.x.x.x.Z.Z.Z.Z.Z.Z.S.S.S.S.Q.Q.Q.S.S.Q.S.Q.Q.Q.~.~.!.].}.}.}.|. X XXXqXXXXXXXXX.XXXXX X.X X X X X X X X X.XXXXXXX X.X.X.X|.|.|.|.|.|.|.|.|.|.|. X X X X X X X X X].(.(.W.a.k t y , , : , , , u u , , , t , , y , , : ; ; : : : : : : y u p j j p s j p u p m L L D D F 8.8.d.d.d.U.U.I.~.k.! p...T Y T W W E E T #.l.! ! E E E R R 8.8.R R W 8.8.s.s.s.s.s.a.E W #.p.p.@.#. . .#.*.*.*.*.*.*.*.*.f.m.m.E.R.R.R.m.m.m.m.n.m.m.m.m.m.n.m.m.m.m.m.m.B.m.C.B.B.N.T.-X,X;XT.T.-X1X6X;XT.T.>X3X3X1X;X-X8XjXNXNX4X-Xn.X.&.=XjXjXNXBXBXBXNX8X1X1X1X:X;X,X1X4X7XjXvXCXDXIXDXAXhXB.,.1X;XO.V 5 4 4 4 ",
"$ $ $ $ & & & & & & = = = = = > > > > 2 6 7 0 7 7 6 4 5 7 7 w z B B X.T.8XvXcX4X-X1XhXjX4XB.R.7XjXjXjXjXjXhXhXhX7X7X4X4X1X1X,X-XR.n.&.:.R.1X1X3X4X1X1X3X1X2X,X,X;XR.B.:.o.:.:.Z x x x h h h h h h h x A Y { { { Z A A Z Y P L S N k k N N M N k j p a a p p j k k N j p p f d D J p.9.! J G G H J J G D b d f f f f g i t t t i u y y u u y t : : : t y i i t t y i p s s s s p p p p s j M L W j i y i y u i p p s s s s s j k k L a.k.~.!.(.~.!.!.!.!.!.!.~.~.~.~.!.!.!.!.!.!.!.!.!.~.~.Q.Q.~.~.Q.Q.Q.Q.Q.Q.Q.Q.S.Z.Z.z.z.z.A.Z.Z.x.x.z.z.z.z.z.z.z.z.z.z.z.z.x.x.x.x.x.x.Z.Z.Z.Z.Z.Z.Z.S.S.S.S.S.Q.Q.Q.Q.~.!.!.}.}.}.|. X X X X XXXXX X X X X X X X X|.|.|. X|.XXXXXX.X.X.X|.|.|.|.|.|.|.|.|.|.|.|.|.|. X X X X X X X}.!.!.W.p.M u : , , , , , , y y y y , , , , , t , : : : : , : : : : : y u i p p p p j j p i k L L D b G R 9.d.P.d.U.U.I.I.d.R p...U T Y T W E #.E #.l.E W E E E W R ! ! E R R 8.p.a.s.a.s.l.a.8.E ! #.#.#.@.#.#.@.*.*.%.+.| | | | +.*.C.E.R.R.R.B.m.m.R.m.m.m.m.m.m.m.m.m.m.m.n.m.B.B.B.B.B.B.B.R.;X1X,XT.T.-X4X6X1X-X-X1X8X8X1X1X7XjXNX6X-Xn.$.o.n.3XjXNXBXBXBXNXvXhX8X7X7X4X4X4X4X7XkXvXNXCXAXKXIXAX7XN.,.1X:X-.^ w 9 3 4 ",
"$ $ $ $ & & & & & & = = = = = > > > 2 6 8 0 0 6 6 6 6 6 6 7 0 z B / $.-X8XvXcX4X;X1XhXhX4XB.R.7XjXjXjXjXjXhXhXhXhXhX7X7X3X1X,XR.n.&.&.&.-X4X3X4X1X1X4X4X3X2X,X;X-XB.:.&.X.&.&.{ z x x h x x x h h x C Z Y { Y Z Z C C Z L P L S C N k k N M M j s p a a p j k k k N j p s f m F R d.a.8.J H G H J H G b b d f f f f g i t t t i u y t y u y t : : t t y i i t y i p s j j s s p p p p j k M Y Y s y t y y u i p p s s s s s k k k M W l.W.!.!.~.~.!.~.!.!.!.~.~.~.~.~.!.!.!.(.!.!.!.!.!.~.~.~.~.~.Q.Q.Q.W.W.W.Q.Q.Z.Z.x.z.z.z.A.z.z.z.z.z.z.z.z.z.z.z.z.z.z.z.z.z.z.z.z.z.z.x.x.x.x.A.A.Z.Z.S.S.Z.Z.Q.Q.S.Q.~.!.!./.!.}.}. X X X X X X X X X X X X X X X|.|.|.|.|..XXXXX.X.X.X|.|.|.|.|.|.|.|.|.|.|.|.|. X X X X X X X|.}.!.W.p.M u : , , , , , , , y y y y , , y , , , , : : : , y : : ; : : y u u p p p p j j p i k L F D D G K 9.d.P.d.U.U.I.I.d.R E E W W Y Y W ! #.p.a.l.E T E E E R W R E E E 8.8.p.a.s.p.9.a.a.p.#.! #.#.#.#.@.@.*.*.*.o.| | { P Z { =.m.E.R.^.R.R.m.m.B.m.m.m.m.m.m.m.n.m.m.m.m.m.B.B.C.C.B.T.E.B.R.,X1X-XT.R.1X1X1X;XT.-X1X8X8X8XjXjXjX1XN.;.;.,.;X8XjXNXBXBXBXNXcXjXjX8X7X7X4X3X1X1X4X4X7XjXNXNXBXNX1X,.;.;X;X>.` l 5 5 6 ",
"$ $ $ $ & & & & & & = = = = = > > > 2 6 0 0 6 6 6 6 5 5 6 7 w V B ) >.1X8XvXcX4X;X1XhXhX4XC.R.4XjXjXjXjXjXhXhXhXhXhX7X7X1X1X;Xn.&.} o.:.-X4X4X7X1X3X3X1X1X,XR.C.n.&.o.| } X.=.| C x x x x x x x h C Z Z { Y Z A C x N C Z P L L A N k k N M M k p a i a p j k k k M k p p s G J p.k.l.9.R J H J H G b b d d f f g g g g i t t i u t : t y t : : : t t y i i i i p s j j j j s p i p s j k L Y L p y t u u u i p s s s s s s k k j j G p.z.~.!.~.~.~.~.!.!.!.~.~.~.~.~.~.~.~.!.!.!.!.!.!.~.~.~.~.~.Q.Q.W.W.Z.Z.W.W.Z.A.x.x.z.z.z.z.z.z.z.z.z.z.z.z.x.x.x.x.x.x.x.z.z.x.x.x.x.x.x.x.x.A.Z.Z.Z.Z.S.Z.Z.Q.Q.S.~.~.!.!.}.!.!.!.}.|. X X X X X X X X X X X X X|.|.|.|.|.|.|.|..X X|.|.|.|.|.|.|.|.|.|.|.|.|.|. X X X X X X|.}./.Q.a.k u : , : : : , , : y y : , : y : y y , , , : : : , y : : ; : : u u u i p j j k k j p M P F G D H K 9.d.P.b.U.U.I.I.P.! W W W W W T T E #.l.l.k.! W E E ! ! T T R E 8.8.p.p.a.s.8.8.8.8.8.p.#.p.p.#.#.@.@.*.*.| { { Z Z Z A Z { *.B.E.^.^.,XC.m.m.B.m.m.m.m.m.m.n.m.m.m.m.n.m.B.m.N.B.R.R.B.N.R.,X,XR.T.R.:X1X1X;X=X-X3XjXcXNXNX6X-X,.o.;.R.7XjXNXNXNXBXNXjX7X4X7X1X,X-XR.T.B.B.T.R.R.,X1X,X1X1XN.-.-.:X1XN.$.B l 7 6 ",
"$ $ $ $ & & & & & & = = = = = > > 2 6 8 7 6 6 6 6 6 5 5 6 7 w z / _ ,.3X8XvXcX4X;X1XhXjX4Xm.B.3XjXjXjXjXjXhXhXhX7X7X4X4X,X-XB.&.} } X.:.;X7X7X7X3X3X1X,X-XE.:.o.} { ( / / } } } C C C C C C C C C Z Z { { Z A C k x x N S L L Z S C N k k N N j p i i a p j k k k M m s s d G R d.P.d.8.R J J J H b b b d d f f g g g g i t t y y t : t y t : t t t y i u i p p p s j j s s p p p p s j m Y Y m i t t u u u i p s s s s s s s s s s m T l.W.(.!.~.~.!.!.!.!.~.~.~.Q.Q.Q.~.~.~.~.~.~.!.~.~.~.~.~.~.Q.W.Z.Z.A.A.A.A.A.A.A.x.x.x.x.x.z.z.z.z.z.z.z.x.x.x.x.x.x.x.x.z.z.x.x.x.x.x.x.x.x.A.Z.Z.Z.Z.Z.Z.Z.Q.S.S.S.~.!.!.}./.!.!.!.{.}.|.|.|.|. X X X X X X X X|.|.|.|. X X X|.|.|.|.|.|.|.|.|.|.|.|.|.|.|.|.|. X X X X X X|.(.(.a.k y t , : : : : , , : y : : : : : : y y , , : : : : : : y , : : y u u u u p j j k M k j M P P G G J K 8.d.b.b.U.U.I.!.P.8.T W W E E W Q W ! a.f.k.a.E E E ! ! R T R E 8.8.a.a.a.s.8.! ! E ! #.p.p.#.#.#.#.#. .| Z Z Z Z Z Z A A Z | m.E.R.^.,XB.m.*.m.m.m.m.m.m.m.n.m.m.m.n.m.m.B.N.B.B.R.-XT.B.B.R.1X-XT.N.>X1X6X6X1X-X;X6XcXNXcX1X1.<.;.V.1XjXcXNXcXNXVX8X1XR.B.N.N.,.&.o.o.o.&.:.n.n.n.N.N.:.,.-.O.$.:X1XR.C.$.A h 6 ",
"$ $ $ $ & & & & & & = = = = > > 2 4 8 7 8 5 4 4 4 6 5 6 7 7 w V ) %.-X4X8XNXcX4X,X4XjXjX2Xm.C.2XhXjXjXjXjXhXhX7X4X4X4X1X,XB.&.} ( } &.B.,X7X7X4X1X,X-XN.n.&.} A B C B ( } } } } Z B C C C A A Z Z Z ( ( P A C x x x k C Z L Z S C C N k k N N k p a a p p j j j k M m s j m Q ! P.P.d.8.R J Q H G b b b b d d f f g g g i t t t y t : t y t : y y y i i p p p i p s j s p p p p p p s j M Y L s i y t y y i i p s s p p s s s s s j j m E z.W.~.!.!.!.!.!.~.~.~.~.~.~.~.Q.Q.~.~.~.~.!.!.~.~.~.~.~.Q.Q.Z.W.Z.Z.Z.A.A.A.x.A.A.A.A.A.A.A.A.A.A.A.A.z.z.A.A.A.A.A.A.x.x.x.x.A.x.A.A.A.A.A.A.Z.Z.Z.Z.Z.Z.Z.Z.S.Q.~.~.!.!.!.!.}.!.}.}.}.}.}.{. X}. X X X X X X X|.|.|.|.|. X X|.|.|.|.|.|.|.|. X X X X X X X X|. X X X X!.(.(.a.k u p t , : , : : , y y : , , , : y y y : , : : : : : , : : y y : y u u u u p p p k L L k m F F G G Q R 9.d.d.b.U.U.I.!.d.8.T Q U W ! ! Q W W p.a.k.l.#.W E ! ! W T T R 8.p.a.a.a.a.8.! R E E p.a.p.#. . . . .U S C C A Z Z Z A C A { *.C.R.,X,XE.m.*.m.m.m.*.m.m.m.m.n.m.n.m.m.C.C.C.B.T.R.,X;XB.N.T.T.,X;XB.-X1X6X8X9X6X1X3X8X8X1X=X>.;.n.1X8XcXNXNXcXNXjX1XB.,.;.o.o.o.$.&.&.:.B.-X,X2X4X7X1X=X>.X.] 1.6XjX,XE.m...P k ",
"$ $ $ $ & & & & & & = % = > 1 4 6 8 7 8 6 5 4 2 4 6 5 7 7 7 z V _ -.-X3X8XvXjX4X,X4XjXhX,Xm.n.,XhXjXjXjXjXhXhX7X4X4X1X;XB.&.} ( _ &.B.;X1X4X7X7X,XT.>.$.} / C z C ( X.o.o.| } } { ( A A A Z Z Z Z Z Z Z A C x x x x N A P Z S C N N N k h k m k p p p p p j j j j M M s k D T p.P.k.l.9.R R J H G b b b b d d f f g g g i i t t t t : t t t t y t y u i i p p u i p s p p i p p p p s j L L G s i u y t y i i p s s p p s s s s s s s j W p.W.W.!.!.!.!.!.~.~.~.~.Q.~.Q.Q.Q.Q.Q.Q.Q.~.~.~.~.~.~.~.Q.Q.W.W.Z.Z.Z.A.A.A.x.A.A.A.A.A.A.A.A.z.z.z.z.z.z.A.A.A.A.A.A.x.x.x.x.A.A.A.A.A.A.A.A.Z.Z.Z.Z.Z.Z.Z.Z.S.S.Q.~.~.~.~.!.!.!.!.}.}.}.{.{.}.}. X X X X X X X|. X X{.{.|.|.|.|.|.|.|.|.|.|. X X X X X X X X|. X X X!.(.^.j.k p y u : : , : : : y y y : : : : , y u y : , : : : : , , , : : : u y u u u u i p i p M L m M G G G G H K 9.d.d.b.U.U.I.!.d.8.W G P T E ! ! T E #.p.k.l.p.E E 8.! R J T W 8.p.a.a.a.a.8.! R E ! p.a.#.E E  . .| Y A A A Z Z Z Z A C A Z +.m.E.R.,XR.m.f.*.m.m.m.m.m.m.m.:.m.C.N.C.C.B.C.B.T.R.,X1X;XT.N.B.-X,X-X-X-X1X6X8X8X7X6X9X6X-X1.,.n.;X8XjXNXNXNXcXjX8X;XT.B.,.>.:.n.n.B.R.-X1X4XkXcXNXCXNX7X=X-.O.T.8XhX5X^.W.j.p.W ",
"$ $ $ $ & & & & & & = = > > 2 6 7 7 7 5 6 5 6 4 4 6 7 8 0 w V ^ ' <.;X3XhXvXjX4X,X4XhX7X-X&.*.-X4XhXvXjXjXhXhX4X4X1X-XB.o.} ( } $.B.;X,X,X1X3X,X,.&.} } A / / ( %.&.:.:.*.&.o.{ { } { ( Z Z Z Z Z Z Z Z C k x x x N C Z L S M M N N j j h k k k j p s j j j j j k M M s d D W l.P.d.l.8.8.8.K H b b b b b b d d f f g g f i t t t t : t y y y t : : : y u p i y y i p p i i i p p p s k L L M j i u y t y i i p s s p p s s s s s s s s L T k.(.~.!.!.!.~.~.~.Q.~.~.~.Q.Q.Q.Q.Q.Q.Q.Q.Q.~.~.~.~.~.Q.Q.W.W.Z.Z.Z.Z.A.A.x.A.A.A.A.A.A.A.z.z.z.z.z.z.z.A.A.A.A.A.A.x.x.A.A.A.A.A.A.A.A.A.A.Z.Z.Z.Z.Z.Z.Z.Z.S.S.S.Q.Q.~.~.!.!.!.!.!.}.}.}.{.}.}. X X X X X X X|.|. X|.|.|.|.|.|.|.|.|.|. X X XXXXX X X X X X X X|.}.}.!.j.L u u t t : , , , , y y y y : , : : , y y y : , : : : : : : : : ; : u u i u u u a i u u k M M L G D D D G R 8.d.b.b.U.U.I.I.d.p.E L G L T ! a.E E E #.l.l.a.E ! p.8.W J T R 8.9.a.a.a.a.8.8.R ! ! #.p.#.W U  . .U Y A A A Z Z Z Z A A C A { *.m.B.,XR.B.m.:.m.B.m.m.*.*.*.:.m.B.B.B.B.B.C.B.T.R.,X3X1X;XT.B.-X;X:X1X-X-X1X6X9XjX8X7X;XN.>.,.T.3XcXNXBXNXNXjXhX7X,X,X;X-XR.-X;X,X,X4X4XhXjXvXNXAXDXDXjX-X;.-.>XjXhXrX(.W.A.k.a.",
"$ $ $ $ & & & & & & = = > 2 5 5 7 6 6 7 6 5 6 6 6 5 8 0 w z B ^ O.1.;X1XhXvXjX1X-X1X8X7XR.$.&.R.2XhXjXvXjXhX7X7X1X,XB.&.( / ( o.B.;X,X;X,X,X-XN.o.X.} ( ( } %.&.N.N.N.C.C.m.*.{ ( { | } { ( Z A A A A A N x x k N C A Z L S C M k j j h j h j k j j j j j j k j k m m k d G E d.d.l.a.9.8.8.K Q G b b b b b d d f f f g f i i i t : : t y u y : ; ; : : y u u : y i i i u u i p p p s k L L M m i u y t y u i p s p p p p p p s s s f s m Y ..W.(.~.~.~.~.~.~.~.~.~.~.Q.Q.Q.Q.Q.Q.Q.Q.Q.Q.Q.Q.Q.Q.Q.Q.W.W.Z.Z.A.A.A.x.x.z.z.z.z.z.z.z.z.k.z.z.z.z.z.z.z.z.z.A.A.x.x.A.x.A.A.A.A.A.A.A.A.Z.Z.Z.Z.Z.Z.Z.Z.Z.S.S.S.S.Q.Q.~.!.!.!.!.!.}.}.{.}.{. X X X|. X X X X|. X|.|.|.|.|.|.|.|.|.|. X X X X X X X X X X X X}.}./.k.L : : , , t , , , y y u y : : : , : , , y y y , , : : : : : : : ; ; ; : p i u u u i i u u j M L L M m D D G R 9.d.P.P.U.U.I.I.d.p.! L L L Y E #.#.E E E a.l.a.E p.a.p.W J T R ! 8.a.a.a.a.8.8.! ! E #.#.E U  . .| L L A A Z Z Z Z Z A A C A Z | *.m.R.R.E.C.m.m.m.C.m.*.*.:.:.n.B.B.B.B.B.B.B.T.R.;X,X3X3X;XR.-X-X-X1X,X-X-X6X8XjX8X1X=X,.,.<.;X8XcXNXVXNXNXjXhX8X7X4X4X3X1X,X,X1X3X4X7XhXhXvXNXCXAXIXcX;X>.,.1XcXhX5X(.W.A.z.k.",
"$ $ $ $ & & & & & & = > 2 5 5 6 6 6 6 8 7 5 6 6 6 6 7 0 z z ^ ] -.=X6X3XhXvXhX2XR.2X7X4X-Xo.&.:.-X7XjXcXhXhX7X4XR.n.%.( ( } &.N.-X,X,X;XR.B.&.&.o.o.o.>.:.N.T.R.R.R.-X-XR.T.N.&.} } o.o.| { ( Z Z Z A C k k N N C A S Z S S C k j h h h h j h j h j j j k j k k j m m m L T a.d.d.0.0.9.8.8.R J H b b b b b d d f f f g g g i t t : : t y i u : ; ; : : : y y y u u u u y y i p p p j M L M m k p u y y u u i i p s s p i i p s p p p f m G T l.(.(.(.(.~.~.~.~.~.Q.~.Q.Q.Q.Q.Q.Q.Q.Q.Q.Q.Q.Q.Q.Q.Q.W.W.W.Z.Z.A.A.A.x.z.z.z.z.z.z.z.k.k.c.c.c.z.c.c.z.z.z.z.A.A.z.z.A.A.A.A.A.A.A.A.A.A.A.A.A.A.A.A.A.Z.Z.Z.Z.Q.Q.Q.Q.~.!.!.!.!.!.}.}.{.{.}. X X X X X X X X X|.|.|.|.|.|.|. X X|.|.|.|. X X X X X X X X X{.{.(.k.U i , , , , , , : : y y u u : , , , , , , , : t , , : : : : : : : : ; ; : a p p a u a u y y i k L L m k D G F T 8.d.P.b.U.U.I.I.l.! ! Y L Y T W E ! E #.E #.a.#.T #.a.p.E W R R ! 8.9.s.s.a.p.8.! ! ! ! #.E  . . .U L S S Z A Z P { | { P Z A Z { o.*.B.E.E.B.m.m.m.C.m.:.&.:.:.n.C.B.B.C.N.B.T.R.R.-X-X,X3X3X,X-X-X-X1X1X:X-X1X1X3X3X-X<.;.n.;X6XjXjXNXBXNXcX8X1X1X3X4X1X,X;XR.R.R.R.;X,X2X2X3X4XhXjXBXhX4XB.,.1XjXNX2X^.M.W.W.W.",
"$ $ $ $ & & & & & - > > 4 5 6 4 6 5 7 7 6 5 6 6 5 7 7 w z z / X.<.>X6X1XjXvXhX2XR.,X7X4XR.o.o.&.n.;X4XhX7X4X1XR.C.&.( Z } &.B.-X,X1X,X;XB.:.o.&.:.:.n.B.T.R.-X-X-X-X-X-X,XR.T.N.%.} o.*.*.+.| | Z A C C C C C C A A Z S S A C k j h h h h j j j h j j j k k k j j j M G Y ! l.d.l.0.d.0.0.0.8.R J G b b b b d d d f f g g g i t t : : t y p u : ; ; : : t y i i i u u y y y i p p s m M M M m s i u u u u y i i p p s p i i p p p p p p s m L #.W.(.(.(.(.~.~.~.~.Q.~.Q.Q.W.W.W.W.W.Q.Q.Q.Q.Q.Q.Q.Q.W.W.W.Z.Z.A.A.A.z.z.z.z.z.z.k.k.k.k.k.k.z.z.z.z.c.c.z.z.z.z.z.z.z.z.A.A.A.A.A.A.A.A.A.A.A.A.A.A.A.A.Z.Z.S.Q.Q.Q.Q.~.!.!.!.!.!.}.}.{.{.{. X X}.}. X X|.|.|. X|.|.|.|.|.|. X X|.|.|.|. X X X X X X X X{.!.(.W.W p : : , : , , : : t u u u y : : : , , : : , : , , , : : : : : : : : : : : , a j j u , y y y u j L L k d m G F T 8.d.P.P.P.U.I.I.l.R T U Y #.W W E E #.p.#.! #.! T #.a.a.8.! ! ! ! 8.9.l.l.l.p.! ! ! #. .U E #. . .Y Y S L P Y { | | | | | { Z Z Z { o.m.C.E.m.m.m.m.m.C.n.:.:.:.n.C.C.C.N.N.N.R.R.-X-X-X;X,X3X3X,X-X-X-X-X1X1X3X3X1X;X,.>.N.;X6XjXcXcXNXNXcX8X,XT.B.R.B.B.n.n.$.&.&.&.:.:.m.n.n.N.R.-X,XhX1XB.N.1XjXcX2XY.k.d.W.W.",
"& & & & & & = = - = > > 2 2 2 5 7 7 5 6 5 5 6 6 7 7 0 w l z ) $.T.:X6X1XhXcXhX,XR.,X7X4XR.} } o.&.N.-X2X,X,XR.n.&.} ( } &.B.,X1X1X,X-XT.:.&.o.:.E.R.-X-X-X;X;X;X;X;X-X;X;X-XR.E.:.X.{ =.*.*.o.| A C C C A A A A A A A A C M N k j j h h j h j j h j j j j k k j s j M L T a.k.d.d.0.d.d.d.0.9.8.H G b b b b b d d d s f g g i i t : : t u p y : ; ; : : y i p p a i i y y y i p s j M M M m s p i i i i u u u i p s s p p p i i p p p p s j G Y l.(.(.(.(.~.~.~.~.~.~.Q.Q.W.Q.W.W.W.W.Q.W.W.Q.Q.Q.Q.Q.Q.W.Z.A.A.A.A.z.z.z.z.c.z.k.k.k.k.k.k.k.k.k.k.c.k.z.z.z.z.z.z.z.z.x.x.x.x.x.x.x.x.x.x.A.A.A.x.A.A.Z.Z.S.Q.Q.Q.Q.~.!.!.!.!.}.}.{.{.].]. X X}.}.|. X|.|.|.|. X X|.|.|.|. X X|.|. X X X X X X X X X X X/.W.a.s u : , , , , , : : y u u y , : : , , , : : , : , : , : : : , : : ; : : : , , y p j a : : : , : p G L k s v D F T 8.d.P.P.P.U.I.I.d.R G U U a.W W W E #.a.a.#.! ! ! ! p.p.8.8.8.9.9.a.s.l.l.a.8.! E ! #. .W  .#. .U Y Y L Y | | =.*.*.*.*.+.| | { Z Z { o.*.m.m.m.m.:.n.B.C.:.*.:.:.m.N.N.N.N.N.B.T.R.;X;X;X;X,X3X3X,X-XT.R.-X,X1X1X;XT.>.N.;X7XjXcXNXNXNXcXhX3XN.&.&.&.&.%.$.o.} } | o.o.o.&.*.o.| } } &.;X-Xn.N.3XNXBXhX^.j.l.z.P.",
"& & & & & & = = = > > > > > 4 5 7 8 6 6 5 5 6 6 7 7 0 0 l B ` ;.-X3X4X,XhXcX8X,XR.,X7X4XR.( ( } X.:.m.E.n.m.:.$.} ( } o.n.;X7X1X,X-XB.;.o.o.o.:.-X,X1X,X,X;X;X;X;X;X-XR.R.R.R.T.n.%.( | $.&.=.| A C C A A Z A A A C C N N N k j h j h h j h j j j j j j j j k k i s G Y E l.k.d.d.0.d.d.d.9.8.R H b b b b b d d d d f f g p g i t : : t u p y ; ; ; : : i p s s a i y y t y i p s k M M m j p p p p i i u u u i p p s s j p i i i p p p p s k L ..W.(.(.(.~.~.~.~.~.~.Q.Q.W.Q.Q.W.W.W.W.W.W.W.Q.Q.Q.Q.Q.W.Z.A.A.A.x.z.c.k.k.z.z.k.k.k.k.k.k.k.k.k.k.k.k.z.z.z.z.z.z.z.z.z.z.z.z.x.x.x.x.x.x.x.A.x.x.A.A.A.Z.S.S.Q.Q.Q.~.!.!.!.!.}.}.].].].]. X X}.}.|.|.|.|.|.|. X X|.|.|.|. X X|.|. X X X X X X X X X/./.(.a.k u y , , , , , , : , y u i , : : : , , , : : , : , , , : : , , : : ; : : , : y : u h j u y y y , y G Y m d d b G R 8.d.P.P.U.U.I.I.d.R m U W #.W T W ! E p.l.f.#.! #.! 8.8.8.8.p.a.l.l.l.l.a.8.! E E ! E U U #. . .U Y Y Y | #.*.*.*.m.m.f.*.=.| | { Z Z Z | &.B.m.m.:.:.m.B.m.:.:.:.n.N.N.n.n.n.:.N.T.-X,X;X-X-X1X3X3X,X-X-XT.T.;X1X;XN.N.-X3X9XjXcXNXNXcXjX7X,X;.} } X.X.o.o.o.X.o.&.:.B.R.R.-XR.n.&.} } o.,.;.:.1XBXAXcX2XM.h.k.P.",
"& & & & & % > > > > > > > > 4 7 0 8 6 4 5 6 6 7 8 7 0 0 l ^ ' 1.:X6X4X1XhXcX7X,XR.,X7X4XE.( Z ( | | | o.%.o.X.( } o.:.R.1X4X4X1X-XR.:.} } } &.n.;X1X1X1X1X1X1X,X,X;X-X-XR.N.:.:.%.o.( Z | =.o.} A A A A A A A C C C N x h h h h j j h h j j j j j j j j j k k N M L Y W a.k.k.d.d.d.d.d.d.9.7.K H b b b b b b d d d f f f s p i t : : y i i y ; ; ; : : y p s j a i y , y y i p s k M M m s i p p i i i u u u p p i s j j s u y u i p p p p j k D k.^.(.~.~.~.~.~.~.~.~.Q.Q.Q.Q.Q.Q.Q.Q.W.W.W.W.Q.Q.Q.Q.W.Z.A.A.x.z.c.z.k.k.g.g.k.z.k.k.k.k.k.k.k.g.k.k.z.k.z.z.z.z.z.z.z.z.z.z.z.x.x.x.z.z.A.A.x.x.Z.Z.Z.Z.Z.Z.Z.Z.Q.~.!.!.!.!.!.!.}.{.].{.}.}.}.}. X X|.|.|.|.|.|.|.|.|.|.|.|.|.|. X X X X XXX X X X(.(.j.L t : , , : , : : : , y u i u : ; : : : , , y y y : t : , : : , , : ; ; : : , u u u u a p p u y y : : M Y G d d v D R 9.d.P.P.P.U.I.I.d.R Y T W T F Q T #.E #.l.f.#.#.p.#.! 8.8.9.9.l.l.l.l.l.a.p.! E E E E U  . . . .U U U | @.*.f.f.m.m.m.m.f.*.=.o.| { Z Z ( | m.C.m.n.&.C.B.B.n.:.:.,.,.n.n.:.:.:.:.N.T.;X;X-XB.-X,X3X3X:X-XR.T.-X:X-XT.1X3X8XjXjXcXNXcXjX8X1X;XB.B.B.B.T.B.C.n.C.B.R.R.1X4X7XhX7X4X,XR.:.o.} o.} R.hXAXAXrX^.h.k.k.",
"& & = = = = > > > > > > > > 5 7 0 6 6 6 5 6 6 7 8 7 0 0 z ) O.V.1X8X6X1XhXjX7X,XR.,X7X4XT.( Z ( } } } } } } } { o.&.E.2X4X4X3X,XB.>.o.} } &.n.T.,X3X4X3X1X1X,XR.R.R.T.N.,.;.&.o.| } { ( { | +.( A A A A A A C N C k x h a a h h p p h h h h j j j j k k k m N M M Q T ! l.k.k.d.d.d.d.d.d.9.K K H b b b b b b d d d f f f s s i t t t y u u t ; ; ; : : t i p s p i y : y y i p p j M M m s i p i i i u u u i p s i s k k s u y u u i i i p j k k W W.~.~.~.~.~.~.~.~.~.Q.Q.Q.Q.Q.Q.Q.Q.Q.Q.Q.Q.Z.Z.W.W.W.A.A.z.z.z.z.z.k.g.g.g.g.g.g.g.g.g.g.g.g.g.g.g.k.k.z.g.k.k.z.c.z.z.c.c.z.z.z.z.z.z.A.A.x.x.Z.Z.Z.Z.Z.Z.Z.Z.~.~.!.!.!.!.!.!.].].].{.}.}.}.}. X X|.|.|.|.|.|.|.|.|.|.|.|.|.|.|. X X X X X X X(.^.k.L u y , , : : : : : : : u i p : : ; : : : , , y y y : t , , : : t , : ; ; : : : y u i a y u j i y : , : m Y L m d v D K 8.d.P.P.P.U.I.I.d.! Y L Y W T T T #.E #.p.#.#.#.#.! ! 8.8.9.9.l.l.l.l.l.a.p.8.E E .. . . . . .| U |  .@.*.f.j.m.m.m.m.m.m.*.*.m.*.| Z Z ( { =.n.m.n.*.*.n.N.n.:.:.:.:.,.n.:.:.:.,.N.B.T.-X-XR.T.-X;X,X3X1X,X;XR.;X:X;X7X9XjXcXcXcXNXjXjX3X,X1X,X,X,X,X,X,X,X;X-X,X,X1X7XhXjXvXNXvXhX7X;XB.&.} } | R.jXCXhX,XM.g.k.",
"& = = = > > > > > > > > 2 4 7 0 7 5 4 4 5 6 7 7 7 7 0 0 B ` -.-X3X8X6X,XhXjX7X,XT.;X4X3XE.( / ( } } } { ( { X.o.:.E.2X4X4X3X,XR.>.X.} X.&.n.B.T.-X,X1X,X;XR.B.:.&.&.&.o.X.} ( ( ( } X.} } | | ( Z Z Z Z A C N N k x h h a a h h h h j j h h j j k k N N M M S L L T E l.k.k.d.d.d.d.d.d.0.9.K K H b b b b b b b d d f f f d s p t t y u u i y : ; ; : : : y p p p i y : y i p p p j M G j p i i i i i u u u p s s i s j j s u y y u p u i p p k f D l.W.~.~.~.~.~.~.~.~.~.Q.W.Q.Q.Q.Q.Q.Q.Z.Z.Z.Z.A.Z.Z.A.A.x.z.z.z.c.z.k.k.k.k.k.g.g.g.g.g.g.g.g.g.g.g.k.g.g.g.g.g.g.g.z.z.z.z.z.z.z.z.z.z.A.A.x.x.Z.Z.Z.Z.Z.Z.Z.Z.~.~.!.!.!.!.].].].{.].{.}.}.}.}.|. X|.|.|.|.|.|.|.|.|.|.|.|.|.|.|.|. X X X X X!.(.M.U p : : , , , , : : : : y u p y ; ; : : : : : : y y y : t , , : : y y : ; ; : : : , u j h u y h p u , : : s G L G m d v F ! d.P.P.P.U.I.I.d.! Y M M W E E T #.#.p.#.#.E E E E ! ! ! 8.9.a.l.l.l.a.p.p.p.p.#.E U U  . .U U |  .@.*.f.m.m.m.m.m.m.m.m.m.*.C.m.*.| ( ( { } &.:.n.:.&.&.:.n.:.*.>.:.:.:.n.n.n.n.n.N.N.T.R.-XT.N.T.R.1X3X4X3X1X1X1X3XhXjXcXvXNXNXcX8X4X,X1X7X7X7X7X7X4X4X1X1X,X1X4X4XhXjXvXNXCXCXNXNXvXjXjXhX4XR.B.-XjXhX2XM.l.k.",
"= = > > > > > > > > > > 2 6 7 7 7 5 6 4 5 6 7 7 7 7 7 0 B ' >.;X7XjX6X,XhXhX7X;XB.-X4X1XB.( ( ( { ( ( ( ( } &.:.R.2X4X4X1X,XR.n.%.( _ &.n.T.T.B.m.B.R.B.n.:.$.} ( A B B B B B B A ( X.o.| =.$.} Z Z Z Z C C N N x x h h h j h h h h h h h j j h N N M M M S Y Y Y W p.k.k.k.d.d.b.d.d.d.0.9.K K H b b b b b b b d d f f f s s p i t u u t y y : ; ; : : : : a p s a y : y i p p p j M M s p i i i i i u u i s s s p p s j s i u y y u u u i p s u k I A.~.!.~.~.~.~.~.~.~.Q.W.W.W.W.Q.Q.Q.Z.Z.Z.A.x.A.A.A.x.z.z.z.z.z.z.k.k.k.k.g.g.g.g.g.g.g.g.g.g.g.g.k.g.g.g.g.g.g.g.g.g.g.g.g.g.k.z.z.z.z.z.x.x.Z.A.Z.Z.Z.Q.W.Q.~.~.!.!.!.!.}.].].{.].].}.}.}.}.|.|.|.|.|.|.|.|.|.|.|.|.|.|.|.|.|.|. X X X X!.(.W.W j h y : , , , , , : : : u u i , : : : : : : : : y y y y y , , : : t , : ; ; : : : , u j j a u a p p u : : p M G L m d v G R d.P.P.P.U.I.I.d.! Y M M Y #.#.W ! #.#.p.#.T W E E ! E ! ! 8.9.l.l.l.a.p.8.p.p.#.W U  . .U Y U  .@.*.f.j.m.m.m.m.m.m.m.m.m.m.m.m.m.*.| { { } | *.n.n.&.$.&.:.:.&.:.:.:.:.n.N.N.n.n.,.,.N.B.R.R.T.:.,.T.1X6X7XjX6X4X7XjXjXcXvXcXjX8X6X;X,X3X7X8X8X8X7X7X4X4X1X1X1X4X4XhXjXvXNXBXCXCXAXAXDXIXAXZXCXjX7X7X4X,XM.f.l.",
"- = > > > > > > > > 2 2 4 5 7 0 8 5 6 4 5 6 6 7 w 0 0 l ` -.=X6X8XjX1X1XhXhX7X;XB.-X3X1XN./ ( ( _ } ( ( X.&.n.-X1X4X4X3X,XR.,.o.( ( o.:.C.B.m.&.&.&.%.| } ` / B z z z z z z B B ( } $.:.*.:.*.| ( Z Z A C N N k k x x x h x x k k x k k k k N N M C M M L L Y U Y W a.k.k.d.d.d.d.d.d.d.0.9.K K H b b b b b b b d d s f p s s p i i i i y y y : : ; : : : : a s p i u : y i p i i k M M s p i u i i u y y p s p i i p s j j p a y y u u u p p j u s G u.W.!.~.~.~.~.~.~.~.~.Q.Q.Q.Q.Q.Q.Q.Q.Z.Z.Z.x.x.x.z.x.x.c.z.z.c.k.k.k.c.c.g.k.k.g.g.g.g.g.g.g.g.g.k.k.g.g.g.g.g.g.g.g.g.g.g.g.c.z.c.c.c.z.x.x.x.x.Z.Z.Q.Q.Q.Q.~.~.~.!.!.!.].].].].}.{.}.}.|.|.|.|.|.|.|.|.|.|.|..X|.|.|.|..X.X|.|. X X X XwX^.f.k y y : , : , : : , : , y u p u : ; ; : : : : : y y y y y : , , , , : , : ; ; : : : : u i p a i u i p p : : u j G L D d d G R d.P.P.P.P.I.I.d.! Y m m G Q ! ! ! p.! p.E Q T E T ! ! ! 8.8.9.l.l.d.s.p.! ! #.#.W T #. .U U | ..*.f.j.m.m.m.m.m.m.m.m.m.m.m.m.m.m.:.&.| { { } o.:.C.:.o.} &.:.&.:.:.:.n.n.N.N.n.,.N.N.n.V.T.-X-XT.<.,.T.:X3XjX9XhXcXcXcXvXcXhXjX7X-X-X1X3X7X7X7X7X7X4X4X1X,X,X1X4X7XjXvXNXCXCXCXAXAXFXHXKXKXKXHXDXAXjXhX2XB.j.l.",
"= > > > > > > > > > 2 2 6 7 7 7 7 6 5 6 5 8 8 7 0 0 0 z ` ,.1XjX9X9X1X1XhXhX7X-XB.-X3X1Xm.( ( ( } } } o.;.n.R.1X4X4X2X,XR.n.o._ ( o.:.N.B.m.&.X.{ { ( ( / / B B B B B B B / / ( X.&.n.C.:.*.$.| { ( Z A C C C N k k k k k k k k k k N N N N M C M M M L Y U Y U Y W a.k.d.d.d.d.d.d.d.d.0.9.K K H b b b b b b b v d s s f s s p i i i i u y y : : ; : : : : a j j p u : y a p i p M M k s p p i i i i y i p s i t y p j k j j i u y y u u a p h i s k P z.Q.!.~.~.~.~.~.~.~.~.Q.Q.Q.W.Q.Q.W.Q.Z.Z.Z.x.z.z.x.x.x.z.c.c.k.k.k.c.c.g.k.z.z.g.g.g.g.g.g.g.g.k.g.g.g.g.g.g.g.g.g.g.g.c.c.z.c.c.c.z.z.x.x.x.x.Z.S.Q.Q.Q.~.~.~.~.!.!.!.].].].].{.{.}.}.|.|.|.|.|.|.|.|.|.|.|.|.|.|.|..X.X.X|.|. X X X/.(.j.k a y y : : : , : : : : y u i u y : ; : : : : : : y u u y y , , , , , : , : ; ; : : : : u i a a i a u : p y : y p m L G D d G R s.b.P.P.U.I.I.d.p.Y v s M F T E ! l.p.a.E F T W T p.8.8.9.9.9.l.d.d.s.p.! ! #.....E  . .U |  .*.*.f.j.m.m.m.m.m.m.m.m.m.*.*.*.n.m.m.:.&.o.{ ( } $.n.n.&.o.o.&.&.&.:.,.,.,.,.T.N.n.n.N.n.n.N.V.T.T.T.N.N.T.1X9X8XjXvXvXvXcXjXjX7X;XT.-X,X1X4X7X7X7X3X1X1X1X,X2X4X7XhXjXvXNXCXCXCXAXDXIXHXJXJXJXJXKXHXAXNX7X-XM.j.",
"> > > > > > 2 2 2 2 4 4 7 7 7 0 7 7 5 6 6 8 8 8 w 7 l ^ $.T.6XjX9X9X1X1XhXhX7X-XB.-X3X1Xm.( ( ( _ } &.m.B.-X1X1X1X,X;XR.n.o._ } o.:.N.C.m.&.X.{ { } } } } } ` ` } } } } X.o.$.$.&.:.N.B.m.&.| { ( Z Z A A A A A C C C C N N N N C C C C M S L L L M M L Y Y Y L Y W a.k.d.d.d.d.d.d.d.d.0.9.K K H H b n b b b b b d d s f f s p i i i i u u u : : ; : : : : p j j p a y y i p i j M k p s p p i i i i i p p p y t t p s j k k p i y y y y u u p p p p k a.W.!.~.~.~.~.~.~.~.~.~.Q.Q.W.~.Q.Q.W.Z.Z.Z.Z.x.z.z.x.x.c.c.c.c.c.c.k.k.z.z.z.z.z.z.z.z.z.z.z.z.z.z.k.k.g.c.c.c.c.c.c.c.c.c.c.c.z.z.x.A.x.x.Z.Z.S.S.Q.Q.~.!.!.!.~.!.!.!.].].].}.{.{.|.|.|.|.|.|.|.|.|.|.|.|.|.|..X.X.X.X.X.X.X|. X X X(.M.L k , y , , : : , : : : , y p p u : : ; ; : : : : : y u u y y t t t y y , , : ; : : : : : u i a a i i u u : p i : i m G G G d b J l.d.P.P.P.I.I.d.a.Q s p m G G W ! j.l.l.! G Q T F ! 8.8.9.9.l.l.d.d.l.p.#.! ..E W  .#. .U  ...*.f.j.m.m.m.m.m.m.m.m.m.*.*.*.*.:.n.m.m.:.&.o.Z / | :.n.:.o.} %.&.&.&.:.:.:.:.B.T.B.N.n.n.n.,.,.N.V.T.T.V.V.-X1X3XhXvXvXcXjX8X7X-XB.T.1X3X4X7X7X4X3X1X1X1X1X1X3X4X7XhXcXNXCXAXAXDXFXHXHXHXJXJXJXJXJXKXHXAXvX2XY.M.",
"> > > > > 2 2 2 2 4 4 6 7 8 7 0 7 8 7 6 8 7 7 7 0 7 l / -.>XjXjXjXjX1X,XhXhX4XR.B.-X3X2Xm.( ( ( _ o.n.R.,X4X4X1X,X-XB.n.o.} } o.:.C.C.n.&.X.( } &.*.:.:.>.;.&.&.&.:.:.>.>.,.,.,.,.:.n.N.m.$.{ ( A C x C A Z Z A A C A A A C A A Z A Z Z L L P L L L M M S M M m Y E l.k.d.d.d.d.d.d.d.0.9.6.K K H H b b b b b b b v d s s p p p i u i i i i i t : ; : : : : p j j p i y y a i p k M j p p p p i i i i i p s p t t t i p j j k j p u y y y u u a p p p p P k.~.!.~.~.~.~.~.~.~.~.~.~.~.~.Q.Q.W.Q.Z.Z.Z.A.x.z.x.x.c.c.c.c.c.c.k.k.z.z.c.c.z.z.z.z.z.z.z.z.z.z.z.z.c.z.z.c.c.c.c.c.c.c.c.z.x.x.A.Z.Z.Z.Z.Z.Q.Q.Q.~.!.!.!.!.!.~.!.!.].].}.}.{.{.|.|.|.|.|.|.|.|.|.|.|.|.|.|..X.X.X.X.X.X|. X X X XA.I k u a y y , : , , : : , y a p u , : ; : : : : : , y u u u y y , t , y y , : ; ; ; : , : : u i a a i a a u : u i u i j D G G b b J 9.d.P.P.P.U.!.P.l.Y p p v D F T E a.j.l.#.F Q T G W R 8.8.9.l.l.d.d.l.a.p.#...W U  . . .| @.*.f.j.m.m.m.m.m.m.m.m.m.:.*.&.*.&.*.:.n.m.m.:.&.Z B { &.:.n.&.} X.&.&.&.:.:.:.:.,.T.-XR.n.,.,.<.N.,.<.>.T.R.T.T.-X,X7XjXcXjX8X7X,XN.n.R.,X1X1X3X3X3X1X,X;X;X;X;X-X;X,X1XhXjXvXNXCXCXAXDXDXFXHXHXKXKXJXJXKXDXNX7X,XM.",
"> > 2 > 2 2 2 4 2 4 4 5 8 9 8 7 7 8 8 8 7 7 7 7 0 7 z ' ,.1XNXjXjXjX1X1XjXkX4XR.B.-X3X1XN.Z ( ( &.N.;X4X4X4X1X,X-XB.n.$.} } o.&.B.n.:.o.} } o.&.n.B.E.R.R.R.R.T.B.B.B.B.V.N.n.n.n.n.N.N.:.&.( x h x x C A A Z A A A Z Z A Z L P Z Z L L L L L L L L M M M M s M U ! l.k.d.d.d.d.d.d.d.0.9.7.K H H n b b b b b b v b d d s p p p i i y i i i i y : ; : : : y p k k j p i u u a p k k p p p p p p i i i p p p i t t y y i p j k k j p u y , u u p p j i p p E ^.(.(.!.!.!.~.!.!.!.~.~.~.~.~.~.Q.Q.Q.Q.Z.Z.Z.z.z.x.x.x.x.c.c.c.c.c.z.z.z.z.z.z.z.c.z.z.z.z.z.z.c.z.c.z.x.x.x.x.x.x.z.z.z.x.x.x.Z.Z.S.S.Q.Q.Q.Q.~.!.!.!.!.!.!.!.!.!.].].{.}.|.}.|.|.|.|.|.|.|.|.|..X.X.X.XXX X X X|..X.X X XwX(.(.u.k j p a , , : : : : : : : y i i u , : ; : : : : : , y u u u y y t y y y y : : ; ; : : , : y u i i u u i i y y y y i i s m G G F b Q 8.d.P.P.U.U.!.k.a.T M p s m T W W #.k.j.p.F T T T W R ! 8.9.l.l.d.d.l.a.p.p...W W W  . .@.*.f.j.m.m.m.C.m.m.m.*.*.=.%.| } | o.&.*.:.n.B.n.n.o.( ( } &.n.:.o.o.&.>.:.>.:.;.&.&.N.-X,X;XN.>.<.N.n.<.$.%.>.T.-X1X3X7X9XhXjX8X1XN.>.;.,.n.N.B.T.R.B.n.n.n.n.n.:.:.:.B.E.-X1X7X7X7X7XhXvXNXCXAXCXCXDXFXAXDXAXNXhX;XC.",
"> > 2 2 4 4 2 4 4 4 6 5 9 8 8 5 8 8 7 7 7 7 7 7 0 9 B X.N.3XjX8XhXhX,X,XkXkX4XR.m.R.3X2XR.} } &.B.-X3X7X7X4X,X-XB.n.$.} X.%.:.C.n.&.o.} X.$.>.n.B.R.R.-X-X;X-X-X-XR.R.T.B.V.N.n.,.:.:.:.*.&.} C x x C A A A A A A A Z Z Z Z P P Z Z S S S S S S M A M M M M j L E a.k.d.d.d.d.d.d.d.0.0.9.K K H H n b b b b b b b b d d s s p p i i i i i i i y : : : : : a j k k j p i a u u p k k p i i p i p i i i p p p y t t y y u p p j k k j p y , u u a p p p p p F k.~.(.!.!.!.~.!.!.~.!.~.~.~.~.Q.Q.Q.Q.Q.Q.Z.Z.A.x.z.x.x.x.c.c.c.c.c.z.z.z.z.z.z.z.z.z.z.z.z.z.z.z.z.c.x.A.A.A.A.Z.Z.Z.Z.Z.Z.Z.Z.S.S.Q.Q.Q.Q.~.~.!.!.!.!.!.!.!.!.!.].].].}.}.}.}.|.|.|.|.|.|.|.|.|..X.X.X.XXX|. X X|.XX X X X(.(.h.M j p a u y , : : : : : : y u a u y : : ; : : : : : , y u u u y y t y y y y y : ; ; : : : : y u u u u i u u : : y y y s s m D G Q G F R d.P.U.U.U.!.d.8.W G s s v F Q W ! k.l.p.T T T T W R 8.8.8.9.l.l.l.l.a.a.p...W W W  .#.@.*.j.m.m.m.m.m.m.*.*.| { { ( Z Z ( } =.&.*.C.C.N.n.:.X./ A } &.:.&.%.&.:.n.n.:.;.&.&.>.B.-X,X;XT.n.<.<.<.;.$.;.1.T.-X1X6X9X8X7X1XT.>.&.X.X.X.X.o.o.&.o.o.} o.o.o.X.o.o.&.:.:.B.R.-XR.R.R.,X1X4X7X4X8XjXvXNXcXCXNXhX,XB.",
"> 2 4 4 4 4 4 4 4 6 5 7 7 9 7 5 8 7 7 7 7 7 7 7 w 0 ^ $.=X8XcX8X8X8X,X,XkXhX4XR.m.R.4X4X,Xm.:.T.,X4X7X7X7X3X,XR.n.$.} } &.:.B.m.&.o.} o.:.n.B.T.R.R.R.R.,X,X,X,X;X-XR.R.R.T.B.N.,.>.&.$.o.o.{ C x x A A Z Z A C C C Z Z P Z Z S C C N N N N N N N N M M M M m Y #.j.k.d.l.l.0.0.0.0.0.0.9.K H H H H H b b b b b b b D d d s s f i t i i i i y y : : : : : a j j j k j p i u u p j j i u u i i i i i p p p i y t y y y u a p p j k k p u y u u a p p p p i d E W.(.(.!.!.!.!.!.!.!.!.!.~.~.~.~.Q.~.Q.Q.Q.Q.Z.A.x.x.A.A.x.x.x.x.x.A.A.A.A.A.A.A.A.A.A.A.x.x.x.x.x.x.x.A.A.x.x.Z.Z.S.S.Q.Q.Q.Q.Q.Q.Q.~.~.~.~.!.!.!.!.!.!.!.!.!.].].].}. X X}.{. X|.|.|..X|.|.|.|.|..X.XXXXX X XXXXXXXXX X XW.k.P p p a u u y y : : : : : : y i a u y : ; ; : : : : : , y u u u y y y y y y y y : : : : : : : : y y u u u u y : : y y : p s k m G Q Q G R d.P.U.U.U.I.d.8.T Y m d m D F W E l.l.p.T T T W W E 8.8.8.8.8.a.a.a.a.f.a.p.E W U  .#.*.j.m.m.m.m.m.*.=.| | { A A A Z Z Z { | $.&.n.C.B.n.n.&.( B B } &.>.&.%.&.,.N.,.;.&.&.:.n.T.-X1X;XT.<.<.,.N.,.N.V.T.-X;X1X3X1X-Xn.>.>.>.;.o.X.X.X.} _ ( ( ( ( } o.o.o.o.&.*.} &.&.&.$.o.o.$.&.;.:.;.N.T.,X4XhXvXNXvX7X2X",
"2 4 4 4 4 4 4 6 6 5 7 9 7 7 5 5 8 8 7 7 7 7 7 7 0 w ) ;.;XjXNX8XhXhX,X,XkXhX4XR.n.R.4X4X3X1X;X,X7XhX7X7X4X1X-XB.$.} } X.n.n.:.&.%.} o.:.B.B.R.R.R.R.R.R.,X,X,X;X;X-X-XR.R.R.B.B.:.&.%.| } { Z C x A Z Z Z Z A C C A A Z L Z A C k k k k h x k k h k N M m M M E a.k.d.d.l.d.0.0.d.0.0.9.9.K H H H H H n b b b b b b b d d s f g u i i i i y y t : : : : , a j j j k j p a u u p s j y t t y y y i i p p i i y i y y y y u i p p j k j i a a a p p p i i s s D k.(.(.(.!.!.!.!.!.!.!.!.~.~.~.~.Q.~.~.Q.Q.Q.Q.W.A.A.A.A.A.A.x.x.x.A.A.A.A.Z.Z.Z.Z.Z.Z.Z.A.x.x.x.x.x.x.A.Z.x.x.x.S.S.S.Q.Q.Q.Q.Q.Q.~.~.~.~.~.~.!.!.!.!.!.!.].].].].].}. X}.}.|.|.|.|.|..X|.|.|.|.|..XXXXXXXXX XXXXXXXqXwX!.W.P k u a u u y , , : : : : : : y i u u : : : ; : : : : : , y u a u y y y y y y y y : : : : : : : : : y u u u u y : : : y y u s k d D F J F K 0.b.U.U.U.I.d.! Q L M v v m G Q W l.l.p.E W T T W ! 8.8.8.8.8.8.8.p.a.a.l.p... .W  .#.f.m.C.C.m.m.*.*.| Z { Z A k C A Z Z ( { | $.:.N.C.N.n.:.o.} B / X.&.n.%.o.&.N.N.,.&.&.:.n.N.T.-X-X;XT.T.T.T.T.R.-X-X;X;X;X-XB.>.$.$.N.R.-XR.N.N.,.>.;.&.&.&.:.,.n.B.-XR.R.-XB.n.>.;.} / / ( ` } o.} o.&.B.1XhXhXNXAXNXjX",
"4 4 4 4 4 4 4 4 5 5 7 7 7 7 5 5 7 7 7 7 7 7 0 0 0 z ] 1.6XNXBX8XhXhX3X2XhXhX4XR.n.-X4X7XhXhX8XhXhXhX7X7X1X1X-Xn.o.( X.n.n.:.&.o.o.&.n.B.B.T.R.T.B.B.B.B.-X,X,X,X,X;X-XR.R.R.B.N.;.%.} A x x l x C A Z Z { Z Z A C C C A A C C N k k j h h h j h j k N m M M Q ! l.d.d.l.d.d.0.0.0.0.9.9.7.K H Q H H H H G b b b d b v d d s s f i i i i u u y t : : : : y a s j k k k j y u i p p s : : : y u i i p p i u u u i i u y y u i i i p j j p i j k k p p i i s s k I W.(. X!.!.!.!.!.!.!.!.!.!.~.~.~.~.~.~.Q.Q.W.Q.Z.Z.Z.A.A.Z.A.A.Z.A.A.Z.Z.Z.Z.Z.Z.Z.Z.Z.x.x.x.x.x.x.x.Z.Z.S.S.x.S.S.S.Q.Q.Q.Q.Q.Q.Q.~.~.~.!.!.!.!.!.!.].].].].].].].|.|.|.|.|.|.|. X X X|.|. X X X X X X XXXXXXXqXXXqX XW.W k p j a u u y y , : , : : : t a a i y , : : : : : : : , , y i i u y y y y y y y : : : : : : : : : : y u u u u y : : t y y y s m v m G Q J J 9.d.U.U.I.P.d.! Q F G m m v D F E a.l.a.8.E T T W 8.8.8.8.8.8.E E ! p.a.#.#.#...W  .#.j.M.C.C.m.m.*.| Z Z { Z Z { { ( Z Z Z Z ( { X.*.N.B.B.n.>.$.` B ( &.n.>.O.O.&.n.N.>.&.>.N.T.N.N.R.1X:X;XR.T.V.1.T.;X;XT.<.$.$.} X.,.;X;X;X,X,X,X-XR.R.R.R.T.R.-X,X2X3X4X7XhX7X7X4X,Xn.n.;.&.$.&.o.X.o.;.;X7X7X7XcXAXKXAX",
"4 4 4 4 4 4 5 5 5 5 7 7 0 7 5 8 7 7 7 7 7 7 7 0 0 V O.T.8XBXBX8XjXhX4X2XhXhX4XR.m.-X4X7XkXkXjXjXjXhXhX7X4X1XR.&.%.$.n.B.n.:.&.o.&.n.E.R.R.R.B.B.B.B.N.n.N.R.,X,X;X-XR.T.B.n.:.&.X.( B l h 6 h h A Z Z ( P Z A C C C C C C C N k k k j h a h j h k k j j G L W p.d.d.l.s.d.d.0.0.0.0.9.7.K K H Q H Q H H b b b b b d d d d f f f i i i i y y y t t : : : y a s j k k k j u u i i p s : : : y i i i p i u y u i p i u y y u i i i p j j p i u i k j p p i p s s k h.(.(. X!.!.!.!.!.!.!.!.!.~.~.~.~.~.~.~.~.Q.Q.Q.Q.Z.A.x.Z.A.A.Z.Z.A.Z.Z.Z.Z.Z.Z.Z.Z.Z.Z.x.x.x.x.x.S.S.S.Q.Q.Q.Q.Q.Q.Q.Q.Q.Q.~.~.~.~.~.~.!.!.!.!.!.!.].].].].].].].|.|.|.|.|. X|..X X X X X X XXX X@X X XXXXXqXqXqXqXW.a.k s u i u u y , , , : : : : : y a p i : : : : : : : : : , : : i i u y y y y y y y : : : : : : : : : : y u i u u y : : : t y i s j v m D F J J 0.d.U.U.I.P.d.8.Q Y G m m m D G T a.l.l.8.E T J R 8.8.8.8.8.8.R W E p.p.E E #.#. . .@.j.M.C.m.m.m.o.{ Z Z { { | +.=.| | } { ( Z Z ( o.:.n.N.n.:.&.} / ) O.,.n.>.;.%.>.N.,.;.<.N.B.B.N.V.T.;X;X1X:XR.T.T.-Xn.;.o.} } _ o.n.1X1X1X1X1X1X,X;X;X;X;X;X,X2X4X7XhXhXcXvXcXvXjXhX4X4X1X1X1X1X-X,.o.&.;X7XjXhX8X8XCXDX",
"4 4 4 4 4 4 5 5 5 5 7 7 0 5 5 7 7 7 0 0 0 0 0 0 w ^ -.>XjXAXNXhXjXjX4X2XhXhX4X;Xm.-X4X7XhXjXvXvXjXjXhXhX4X,XB.&.*.B.E.B.:.&.&.:.N.R.-X;XR.R.B.n.n.:.&.&.$.n.R.-XT.N.n.:.&.%.X.} B z l h 6 h h h A Z Z ( Z A N N N N N C C N N k k k j h a h j h k k j m L W p.a.d.l.s.s.d.d.d.0.0.0.9.7.K K H H Q Q Q H b b b d d d d v d s s f i i i y y y y y y y y y y i s j k M M j p i u u p s : : : t y i p i u y y u i i i u u u u i i i i p j s j p j M k j j p p p p s P W.~.!.!.!.!.!.!.!.!.!.!.!.~.~.~.~.~.~.~.~.Q.W.Z.Z.Z.A.Z.Z.Z.Z.Z.Z.Z.Z.Z.Z.Z.Z.Z.Z.Z.Z.S.S.S.S.S.Q.Q.Q.Q.Q.Q.Q.~.Q.~.~.~.~.~.~.~.~.~.~.~.!.].].!.].].].].].}.}.{.{.|.|. X X X X.X.XXXXXXXXX@X@XXXXXXXXXXXXXqXqXqX(.h.G s p p i u u y , , , , : : : t u p p u : : : : : : : : : , : : a i u y y u u y y y : : : : t t : : : t y y i i i y : : : t t y s j v m D G J K d.d.U.U.I.I.d.8.Q P G m m m D G T p.k.l.E E T T R 8.p.p.p.8.R W T W ! #.W W #.@. . .*.m.B.C.m.m.*.{ Z A Z { | =.*.*.*.&.*.o.} { ( A ( X.&.;.,.<.;.%.( / _ ;.n.V.1.;.;.>.<.<.,.N.B.T.-XR.T.T.-X-X;X;X:X-XT.&._ / ` ( X.,.R.4X4X4X3X3X1X1X1X,X,X,X,X2X4XhXhXjXvXvXNXBXCXCXNXvXvXvXvXcXjX3XB.$.$.-X8XjX9X4X1X7XjX",
"4 4 4 3 4 4 5 5 5 5 7 7 0 7 5 7 7 7 0 0 0 0 0 0 z ^ >.:XjXBXNXhXjXjX7X4XhXhX4X;Xm.-X4X7X7XhXjXvXjXjXjXhX1XR.C.n.B.R.R.m.&.&.:.T.R.-X;X,X;XR.B.n.&.o.} ( ( %.>.:.&.&.o.X.} ( B B z l h 7 h l x C Z Z ( Z A C k N N N N N C C N k x h h p p h j h k k j m Y ! p.a.s.s.s.s.d.d.d.0.0.9.7.7.K K H H H Q H b b b v d d d d b v d s f i i i t t y i i u y y y y i s j k M k j p a y y i p : : t y i i i u y y y u i i i u u u u i i u u i s p i p j j j j j j s s s p d f.(.(.(.!.!.!.!.!.!.!.!.!.~.~.~.~.~.~.~.~.~.Q.Q.Q.Q.A.Z.A.A.Z.Z.Z.Z.Z.Z.Z.Z.Z.Z.Z.Q.Z.S.S.S.S.Q.Q.Q.Q.~.~.~.~.~.~.~.~.~.~.~.~.~.~.~.~.!.!.].].!.].].].].].].}.{.|.|. X X X|.|..X.XXXXXXXXX@X@X@XXXXXXXwXqXqXqX/.k.F k p p a y u u y y , , : : : : y u a a y : : : : : ; : : : : , : a i y y u u u y y y : : : : t t : : : : y y i i u y : : : : t y p s v m m b F K d.d.P.U.I.I.k.! Q L G m m m D G T p.k.l.E E T T R 8.8.8.8.E W T J T E E W W #.@.@...*.m.B.C.m.m.+.P A C A | *.*.m.m.m.m.*.*.*.o.} / A A ( } &.:.;.$.X.( / ' >.V.T.,.<.;.;.<.n.n.N.N.T.T.T.N.N.N.V.-X1X1X-X$.) B ( _ ;.R.1X4X4X4X3X1X1X1X1X1X1X,X2X4X7XhXjXcXvXNXCXAXAXAXAXCXCXCXCXCXAXcX,X&.o.-X9XcXNXvXjX7X,X",
"3 3 3 3 3 3 5 5 5 5 7 7 0 8 5 7 0 0 0 0 w 0 0 l z ] V.6XNXAXNXhXvXjX7X2XhXhX4X,Xm.-X4X7X4X4XjXjXjXvXjX1X,XB.m.R.-X,XE.&.&.n.T.R.1X,X;X-XB.n.:.o.} ( / ( _ } X.X./ A A B B B B B B B B B A ( } } ( ( Z Z A x k N N C C C C N N k h j h a a h j j k j j M Q p.p.s.s.s.d.d.d.d.0.0.9.9.7.K K H H H H Q H b b b b d d d d b b d s f i i i t y i p p u y y y y i p s k m k s p y : : u i t : y i i y u y y y y y u i i u u u i i i i i i p p i u i p s p p p s j s s s F k.(.(.(.!.!.(.!.!.!.!.~.~.~.~.~.~.~.~.~.~.Q.Q.Q.Q.Q.Z.Z.Z.Z.Z.Z.Z.Z.Z.Z.Z.Z.Z.Z.Z.Z.S.S.S.S.S.S.Q.Q.~.~.!.!.!.!.!.~.~.~.~.~.~.~.~.~.~.~.!.!.!.!.].].].].}.}.{.|.|.|. X X|..X X XXX XXXXX@X@XXXXXXXXXqXqXqX XW.W j p p p a y y u y y y , : : : : t u a a y : : : : ; ; : : : : : : a i y y u i u y y y t : : : t : : : : t y u i i i u : : : : : y p s d v v b G K 0.d.P.U.I.P.c.8.Q L G M m D D G Q 8.k.l.E R T T R 8.8.8.8.E W T J T T W W W #.@.@.@.m.C.B.C.m.*.| { C k P *.*.m.m.m.m.m.m.m.:.*.$.| } A B ( _ X.&.&.&.O.) B %.,.T.V.,.;.;.<.N.N.<.,.n.V.T.-XT.N.<.N.T.1XV.X.B z ( n.R.,X4X7X7X4X3X4X1X1X,X2X1X2X4X4XhXjXjXNXNXNXCXCXCXCXAXAXAXCXCXAXAXBX7XT.X.V.7XcXBXAXAXCXjX",
"3 5 3 5 3 3 5 5 5 5 7 7 0 8 5 9 0 0 0 w w 0 w V ^ -.:X9XNXCXjX8XNXjX4X2XhXhX4X,Xm.-X4X7X4X4XjXjXjXjX7X,XE.n.B.,X2XR.:.| *.E.,X,X,X,X;X-XB.:.o.( ( A / } $.%.o.} ( / A A / ( ( ( ( ( ( ( ( } } } ( ( Z A A x C C N N C C N N k k j h a a a h j j k s j M T 8.a.d.s.s.d.d.d.d.0.0.9.6.7.K H n H b H Q H b b b b d d d d b D d s f i t i t u i p p i u u y y i p j k M k s a : : : y i y t y i y t y y y y y u i i i u u u i i i i i i u p p i u i i i i i p s s j d d E W.(.(.(.!.(.!.!.!.!.~.~.~.~.~.~.~.~.~.~.~.~.~.~.Q.Q.W.Q.Q.S.S.S.S.S.S.S.S.Z.Z.Z.Z.S.S.S.S.S.Q.Q.Q.Q.~.~.~.~.~.~.~.~.~.~.~.~.~.~.~.~.~.!.!.!.!.].].].].}.|.{.|.|.|. X.X XXX X XXX XXXXX@X@XXXXXXXqXqXqXwX(.u.m p p j p a y u u y y y , : : : : : y a a : : : : ; ; ; ; : : : , : a a y y u i u y y y t : : : t : : : : t y u i i i u y : ; : : t i f s s d v D J 9.d.b.U.I.P.P.8.Q G L L G m m D F 6.k.l.8.E W K R 8.8.8.8.E T T T Q Q W W T E @.j.f.m.B.C.C.m.=.{ A A Z | *.m.m.m.m.m.m.m.m.n.m.:.&.%.X.} / A _ $.;.;.$._ / ` %.,.T.T.<.$.;.,.B.B.V.n.,.N.V.T.T.V.N.N.N.>.` / ( X.:.N.-X,X1X1X,X;X;X;X;X;X;X,X,X2X4X7XjXjXNXNXCXCXCXCXCXAXCXCXNXvXNXDXDXNX1X&.;.1X3XjXBXDXDXCX",
"5 5 5 5 5 5 5 5 5 5 8 0 w 7 5 9 0 0 w w l w z ^ O.=X7XVXNXCXjX6XvXjX4X2XhXhX4X,XB.-X4X4X4X1X8XjXjX7X1XB.n.B.-X,X-Xn.&.*.R.,X2X,X;X-XR.B.;.o.( B ( } o.;.,.,.>.;.&.o.o.o.o.o.o.o.X.X.} } } } ( ( ( Z A C A A A C N N N N N k k j h h a a h h j j N s j G E ! l.d.d.s.d.d.d.d.0.0.6.7.K K H n b b H K Q b b b b d d d d D D d d f i i t i p p p i i u i u u i p j M M k p u : ; : t p p i y y t : y y y u i i i i i u u u i i i i i i u i i p i i i i i p p p p p i s P a.(.(.(.(.(.!.!.!.!.!.!.!.~.~.!.!.!.!.!.!.!.!.~.~.~.Q.Q.Q.Q.Q.Q.Q.S.S.Q.S.S.Z.S.S.S.S.S.S.S.S.Q.Q.Q.Q.Q.Q.Q.Q.Q.Q.Q.Q.~.Q.~.~.~.~.~.~.!.!.!.!.].].].}.|.|.|.|.|. X|.|..XXXXXXXXX XXXXX@X@XXXXXXXqXqXqX Xk.G s p p j p i u u u y y , : : , : : t y a a : : : : ; ; ; ; : : : , y a a y y i i u y y y t : : : : : : : : : y y i i i i y : ; ; : t i f s s d v b J 8.d.b.U.U.P.P.8.P G G G G G D G F E k.d.p.E W R E 8.8.8.! W J F T F F T T T E @.j.m.M.Y.C.m.*.| Z A Z { o.*.m.m.*.*.*.*.*.:.m.n.m.:.*.&.%.} B B } ;.,.<.$.} / ` $.N.B.n.;.;.>.V.-XR.T.N.n.,.N.V.T.T.T.<.;.o.;.>.;.&.;.n.B.B.N.n.,.n.n.n.n.n.C.B.B.R.,X4X7XjXvXNXCXCXCXCXCXCXvXhX7X7XBXAXAXhXT.O.V.-X1XjXBXDXJX",
"5 5 5 5 5 5 5 5 5 5 8 0 w 9 7 7 0 0 w l l w V ) 2.1XjXNXNXBXjX4XvXjX4X2XhXhX4X,XB.;X1X3X3X,X7XjXhX4X-X:.B.R.-X;XB.*.:.E.,X2X2X;X;XR.n.:.( / / / o.:.n.N.n.N.B.B.N.n.n.:.:.&.&.&.$.o.X.} ( ( ( Z Z A C C A A Z Z N N x N k k k h h a a a p h h N N j j M E 8.d.d.d.d.d.d.d.0.0.6.6.7.K K H H b n H K Q b b b b d d d d D D d d f i i t i p p i u y u i u y i p j M M k p y : ; : t p p i t t : : y y u i i i i i i u u u i i i i i i u u u i p i i i i p p p p p p p s T W.(.(.(.(.(.!.!.!.!.!.!.~.~.!.!.!.!.!.!.!.!.!.~.~.~.Q.Q.~.~.~.Q.Q.Q.Q.Q.S.S.S.S.S.S.S.S.S.S.Q.Q.Q.Q.Q.Q.Q.Q.Q.Q.Q.Q.~.~.~.~.~.~.~.~.!.!.!.!.].].].}.}.|.|.|.|. X|..XXXXXXXXXXX XXXXX@X@XwXXXqXqXqXqX(.W j p i p p a u y u u y y , : : , : : t y i i : : : : ; ; ; ; : : : : y a a y y i i u y y y t : : : : : : : : : y y i i i i u t : : t t p f s s s d v F 6.d.b.U.U.P.P.8.F G L L F m m D F W l.k.a.E W R E 8.p.8.! J F F F F F Q W E #.@.f.C.Y.E.C.m.*.{ Z Z { | *.*.*.*.*.*.$.=.=.&.*.m.:.:.:.:.&.o.( B ` $.n.N.>.$._ ) X.$.<.N.V.<.>.n.R.-XR.T.B.,.1.N.T.=X=X<.<.N.-X-X,.o.o.;.;.&.o.X.} } } o.o.o.o.o.o.o.:.B.-X1X4X7XhXhXhXhXhX8X3X-XN.R.7XNXDXNX3X<.&.N.N.R.1X8XCX",
"4 4 5 5 5 5 5 5 5 8 8 0 w 0 8 0 0 w l l l l ^ O.T.8XAXNXNXBXhX7XvXhX2X1XhXhX4X,XB.;X3X4X1X,X3XhX7X,Xn.&.B.-X;XB.n.&.n.,X,X,X,X-XB.n.&.X.B / _ $.>.,.n.B.B.B.B.B.R.B.B.N.n.,.:.&.&.o.o.} ( ( Z B C B C x C A Z Z N h h x k k k h h a p h p p k N m j m P E p.d.l.l.l.d.d.d.d.9.7.8.R K H H H G H H J H G b b b d d d v D D d d f i i i f s p i t t i i y u i s m M M j i : : : : y p p i t : : : y u i i i i i i i i i i i i i i u u u u u u p p p p p i p p s p p p s d p.W.(.~.(.(.(.(.!.!.!.!.!.!.!.!.!.!.!.!.!.!.~.~.~.~.Q.~.~.~.Q.Q.Q.Q.Q.Q.Q.S.S.x.x.x.v.v.S.S.Q.Q.S.S.Q.Q.Q.Q.Q.Q.Q.Q.~.~.~.~.~.~.!.~.!.!.!.].].].].}.|.|.|. X X X X|. XXXXXXXXXXXXXXXXX@XeXeXXX X X Xh.D j s p p p i u y u u y y : : : : : : y y u u : : : ; ; ; ; ; ; : : y i i u y y u u y y y y t t : t t t : : : t y u u i i i u y : : y y p f s s v d v b K 0.b.U.U.P.P.s.F L G L G D v D F W l.d.l.E W W ! p.p.p.E F G F G L F W E #.#.f.f.m.B.B.m.*.| { P o.=.*.*.*.*.&.} | { { | &.*.:.n.m.n.:.:.&.X./ ` O.<.N.n.n.&._ ) _ $.,.T.n.,.,.V.=X=X;X1XT.V.N.N.N.V.T.=X3X3X-X>.&.&.&.&.} } / C B ( } o.X.} } } } } o.&.:.n.B.R.-XB.B.R.,X1X-X;.} ,.hXAXHXNX,X>.n.R.n.n.T.4X",
"4 4 5 5 5 5 5 5 8 8 8 0 w w 0 0 0 w w z z z ) -.>XjXDXcXBXBX8X7XvXhX2X2XhXhX4X,XB.-X3X4X1X;X,X4X,XT.:.:.-X,X-XB.:.n.R.,X,X,X-XR.n.&.X.} _ } ;.n.n.n.N.B.N.N.B.B.R.R.R.B.n.n.:.:.:.&.&.o.X.} ( B B x x x x C A C N h h x k k k h h p h j j j k N m m G T #.l.d.s.s.s.s.s.s.0.9.7.7.K K Q H H H H J J H G b b b d d d v D D d d f f f f p f p i t t i y t y p j M M m j i : : : : y p p y t : : : y u i i i i i i i i i i i i i i u u u y y u p p p p i i p p p s p p s s G a.W.(.(.(.(.(.!.!.!.!.!.!.!.!.!.!.!.!.!.!.~.~.~.~.Q.~.~.~.Q.S.S.Q.Q.Q.Q.Q.S.x.v.x.v.v.x.Z.S.S.S.S.Q.Q.Q.Q.Q.Q.Q.Q.~.~.~.~.~.~.!.~.!.!.!.].].].].}.|.|.|. X X X X X.XXXXXXXXXXXXXXX@X@XeX@XXX X/.k.Q G j s p p i a u y u u u y : : : : : : y y u u : : ; ; ; ; ; ; ; : : y i i u y y u u i y y y t t t t t : : : : : y u u i i i i u t t y y i f s s v d d b Q 9.d.P.I.P.P.l.Q L G G G D b D F W l.d.l.E R R ! p.p.p.E F F F G F Q W W E #.f.f.m.C.m.m.o.| { | &.*.*.*.*.*.| } { Z Z { ( o.&.:.m.m.n.n.n.&.` B ( $.N.T.B.,.&.X.` X.;.,.n.N.N.N.V.B.T.;X;X;X;X-X=X-X1X1X8X7X,XN.C.C.N.n.:.&.&.o.o.o.&.;.;.;.:.>.:.&.o.%.} } } X.o.o.;.n.,X7X1XB.o.o.-XvXDXAXjXR.N.1X1X-X,.,.",
"4 4 5 5 5 5 5 5 8 8 7 0 w w w 0 9 w l z z z ' ,.1XVXBXcXCXNX8XhXvXhX2X2XhXhX4X;XB.-X3X4X1XR.B.R.T.:.*.B.2X;XE.C.:.B.-X,X,X-XR.m.:.o.} } o.:.N.B.N.n.n.,.:.>.:.:.B.-X-XB.N.n.n.:.:.&.$.o.} ( A B l l h h x C N k j h h k k k k h h p j h j k k N N M Y #.a.l.l.l.l.l.s.s.0.0.0.7.7.K K Q H G H J J K H G b b b d d d v D D v d s s s s s p i y y t i y t u p M M m m j i : : : : y p p y : : : t u u i p p p p i i i i u i i i i u u u y y u p p p i i i p p p s p p p s g T k.(.(.(.(.(.!.!.!.!.!.!.!.~.~.~.~.~.~.~.!.~.~.~.Q.Q.Q.Q.S.S.S.S.S.S.S.S.S.S.S.x.x.x.Z.Z.S.S.S.S.Q.Q.Q.Q.Q.Q.Q.Q.Q.Q.Q.Q.~.~.!.!.!.!.].].}.}.].}.|.|.|. X X X X X.XXXXXXXXXXX@X@X@X@XXX X X XW.E k k j s p p i i y y u u y y : : : : : : y y u u : : ; ; ; ; ; : : : : u i p i y y u y y u i y y t t : t t : : : t y y u i p p i i y y y i p f f s v v d v b 6.d.P.I.P.I.d.T L L G G G D G J W a.d.l.! R R ! p.a.p.E T T F F Q T T W E #.f.j.m.m.m.*.| { | o.m.m.*.&.=.| | { Z A A A Z ( o.=.:.n.n.n.N.:.} B B X.,.T.T.B.n.>.O._ X.$.;.V.T.T.T.n.,.N.-X;X3X3X1X3X6X7X8X7X1X-X-X-X-X-XR.B.B.B.B.B.B.R.R.-X;X,X3X,X-X-XR.n.$.} / } ,.-XhXjXhX1XR.o.:.4XBXDXCX4XT.4XjX8X3X-X",
"4 4 5 5 5 5 5 5 8 8 0 0 w w w 0 0 w l z z ^ O.V.6XVX9XjXAXNX7XhXvXhX2X2XhXhX4X-XB.-X3X4X1XR.:.:.&.$.:.-X2XR.N.:.n.R.,X-X-XR.m.:.o.} } X.:.n.N.B.,.>.;.&.X.} } } ;.R.-XB.B.N.n.n.&.o.o.} Z B x l h h h x x k x x h h x N N k k h j j j k N k k k M L U f.l.l.s.s.l.0.s.0.0.0.9.7.R K K Q H H H J K K H G b b b d d d v D D m d d s s s s p i t i i i t : y s M M m m j i : : : : y p p y : : : t u u i p p p p i i i u u u i i u u u u y y y i p p i i p p i p p p p p p g D p.W.(.(.(.(.!.!.!.!.!.!.!.~.~.~.~.~.~.~.!.~.~.~.Q.Q.S.S.Z.Z.S.S.S.S.Z.Z.x.x.v.x.x.x.Z.Z.S.S.S.S.Q.v.Q.Q.Q.Q.Q.Q.Q.Q.~.~.~.~.!.!.!.].!.].}.}.].}.|. X|. X X X X.X.X.XXXXXXXXXXXXXXX XXX X X Xa.m k s j s p i a u y y u y y : , : : : : : y y y y : : ; ; ; ; ; : : : t i p p i y y y y y u i y y t t : : t : : : : t y u i p p i u y y y i p f f s d v v v b K 0.b.U.I.~.k.W F L D G D D F T E a.d.l.8.R R ! 8.a.a.E T T F T T T T W  .@.f.j.m.m.m.=.+.| | *.m.m.*.*.| { ( { A C C A A Z ( ( o.&.:.:.N.:.%._ / X.&.,.T.R.T.B.,.O.` _ O.,.-X;X-XN.<.<.,.T.1X8X8X8X6X6X6X6X4X4X,X,X,X,X;X;X;X,X,X,X,X,X1X4X7XhXhX7X7X7X4X1X,X;XR.-X1XhXjXvXcXjX4XB.&.-XcXAXAXcX;X4XBXCXNXcX",
"w w 0 7 8 8 5 8 0 7 0 0 w w w w w w z z z / -.-X9X9X1XjXAXNX7XjXNXjX1X2XhXhX4XR.:.R.3X4X1XB.X.} o.&.B.,X,XR.n.>.T.;X,X-XR.R.C.&.o.o.&.n.B.B.B.n.,.-.X._ B B / / } ,.B.B.B.n.:.&.} ( Z C x z l l x x x x k k x h j x N C M k k h j h k N M k k N L U #.a.l.l.s.s.0.0.0.0.0.9.9.7.K K K H Q Q J K K K H G D b b d d d b D G D m v d s s p i t y i p y t t y j G M m k s i t : : : : i p y y : : t u u i p p p p i i u y y y i i i u y i y y y i i p i i s s p p p p p p p i f G a.A.!.!.(.!.!.!.!.!.!.!.~.~.~.~.~.~.!.!.!.~.Q.Q.S.S.Z.Z.Z.Z.Z.S.S.Z.Z.Z.x.Z.Z.Z.Z.Z.Z.S.S.Z.Z.S.S.S.Q.Q.Q.Q.Q.Q.Q.Q.Q.~.~.!.!.!.].!.!.}.}.{.}.|. X X X X X.X.X.XXXXXXX@XXXXX X X X X X/.g.Q m k s j s p i u y y y y y y : , : : : : : y y y y : : ; ; ; ; : : : : : u p p i y y y u u u u y y t t : t t t : : : t y u i p p i y t t y i i p f s d v v b b H 9.d.P.~.).k.E F L G G D D Q R E p.k.d.a.! E ! ! p.p.E T Q Q Q Q Q T U #.f.f.j.m.m.*.| +.*.*.m.m.m.*.&.| { Z Z C C C A A x C A } o.%.&.:.:.;.%.X.) _ ;.T.-X-XT.T.n.&.X._ O.T.;X;X-XT.n.1.,.,.=X1X6X6X1X-X;X,X,X1X1X1X1X1X,X,X2X,X4X4X4X4XhXjXNXNXNXcXjXvXvXhX7X,X,X4XjXvXNXCXCXvX1Xn.n.1XNXDXCX7X3XcXKXHXDX",
"0 0 0 w z w 8 5 8 0 0 7 0 w w w w l z z ^ ' ,.1XjX6X3XvXAXvX7XcXNXjX4X1XhXhX4XR.:.R.3X4X,XB.} } o.:.R.1X-XB.n.n.-X,X,X;XR.B.:.=.o.&.n.B.B.B.N.,.&.o._ / 7 l z z } &.;.:.:.&.o.} C z z l h h x l x x x x C C k x N N C C M M k k x k k k N j k M Y U #.a.a.s.l.l.0.0.0.0.9.9.7.K K K K H Q H J K K K H G D b b d d d D D G D m m d s p i i i i p p t t t p m L G m k s i t : : : : u p i y : : t u u i p p p p i i u y y y u u u u y i y y y y i i i p p s s i p s p p p i g d F g.Q.(.Q.!.!.!.!.!.!.!.!.!.~.~.~.~.~.~.~.~.Q.S.S.Z.Z.Z.Z.Z.Z.x.x.Z.Z.Z.x.Z.Z.Z.Z.Z.x.Z.Z.x.Z.x.x.x.Q.Q.Q.Q.Q.Q.Q.Q.Q.~.~.!.!.!.!.!.!.}.}.{.}. X X X X X X.X.X.XXXXXXX@XXX X X X X X!.W.I D k k j j s p i u y y y y y y : , : : ; : : : y y y : : ; ; ; ; : : : : : u p p i u u y y y u u y y t t t t t t : : : t t u i p p i y t t y i i p p s d v m b b H 9.d.P.~.).P.p.T L D D v D F E ! 8.k.d.a.8.E E ! 8.p.E T T Q F G F T E @.f.f.m.m.*.o.+.o.*.m.m.m.n.*.&.| { ( Z A A A A A C C A Z ( X.o.$.:.<.&.$._ / X.<.V.R.-XR.T.n.;.O.} >.T.:X:X;X-X=XT.V.V.;X;X-Xn.,.,.n.n.R.R.R.R.T.B.B.R.-X;X,X;X3XhXjXNXNXNXNXNXNXNXjX7XB.B.;X7XjXNXCXBXNXhX-Xn.-XjXAXAX7X;XhXAXKXHX",
"8 8 8 0 q z z 0 0 7 7 7 0 0 w w w l z z ) O.=X8XcX3X8XNXCXvX8XvXNXjX4X1XhXkX4XR.:.R.4X7X,XB.} } o.:.;X1XB.n.n.-X,X,X,XR.E.m.&.$.&.n.B.R.B.B.,.&.} ( B l 7 l B ( } } } } ( ( A z l h l l h l x C A A A A A C N N N N A S L M C N k k k j k j m M Y U ! a.a.a.9.9.9.9.9.9.9.R K K K H H H H H J K R J G G D b b b d b D G D D D D d s p i i f s p i t t y s M L G m k j i y : : : ; y s p y : : y u i i p p p p p i u t t y y y y u y y y y y y u i i i i p k p p p p p p g g f d u.A.(.!.~.!.!.!.!.!.!.!.!.~.~.~.~.~.~.~.Q.Q.S.Z.Z.Z.Z.Z.A.A.x.x.x.x.x.x.x.x.x.x.x.x.x.x.x.x.x.x.x.x.I.Q.Q.Q.Q.Q.Q.Q.~.~.!.!.!.!.].].].].{.}.|.|.|.|. X X|..X.XXXXXXX@XXX X X X X{.~.E G d k j j j j p i u y y y y y y y , : : : : : : y y y : : ; ; ; ; : : : : y i p p i i y y y i u y y y t t t t y t t t t t t u i s p i i t t i i i p p s d v D D b G 6.d.P.~.(.Q.s.E F G D d v G T ! 8.k.k.a.8.E ! ! W E E W T Q F G G Y #.@.f.j.m.*.| | =.*.*.m.m.m.:.*.*.o.| { { Z Z Z Z ( C x C C B A ( } o.&.;.;.X.` _ %.>.V.-XR.R.R.V.>.o.;.,.T.=X-X;X1X1X1X;X1X;X=Xn.;.;.&.&.:.:.>.:.&.$.$.;.:.n.n.B.-X1X4XhXcXvXcXvXNXvX7X;X:.o.;.B.1XjXAXAXAXNX7XN.n.3XBXDXjX-X,XjXAXHX",
"8 8 8 8 0 w z V V w 0 7 0 0 0 w w w z z ' ;.;XjXjX3XcXvXBXcX8XvXNXjX4X4XhXkX4XR.n.R.4X7X1XR.o.} &.n.;X,Xn.n.B.,X2X2X,XR.R.n.&.&.n.B.R.R.B.n.>.o.( B l 7 z / } o.} ( / B z z z h h h l x l B A ( ( ( ( Z Z A C N N A A Z Z S C M N k k j j h N L Y U #.p.p.9.9.9.9.8.8.8.6.K K H H H H Q H H J K K J G b b b b b b b G F G D D m d d p i i s j p y t t i k G L G m m j i : : : : ; : p s y : : t u i i p p p p p i u t t y y y i u y y y y y y y i i i p p s k i p p p p g g f d H a.A.~.~.~.!.!.!.!.!.!.~.~.~.~.Q.Q.Q.Q.Q.Q.Z.Z.Z.Z.Z.Z.A.A.x.x.x.x.x.x.x.x.x.x.x.x.x.x.x.x.x.x.x.x.x.S.Q.Q.Q.Q.Q.Q.~.~.~.~.!.!.!.].].].{.}.|.|.|.|.|. X|..X.XXX.X.XXX X X X X X(.l.G d k k j j j j p i u y y y y y y y , : : : : : : y y y : : ; ; ; ; : : : : y i p p i i y y y y y y y y t t t t y t t t t : t u i s p i y t t i i i i p s d v D D b G K 0.b.~./.~.d.8.J G D d v G T ! 8.d.k.l.8.E ! E T T W T T Q F D L T #.@.f.j.*.*.| | *.*.*.m.m.m.*.*.*.=.| | { Z Z Z Z { A x x x z z B B _ X.&.;.$.X.} } %.<.T.T.-X-X-XT.<.,.>.%.>.N.-X1X3X7X7X1X,X-X=Xn.,.>.;.&.%.%.o.} _ _ X.o.} o.&.&.B.R.,X1X1X4X7X4X7X1X,X,.o.} o.N.1XjXBXAXAXjX;X,.;XjXAXNX4XT.1XjXAX",
"8 8 8 7 7 8 0 w z ^ z 0 6 l w l z z z / O.T.3XcX8XNXNXvXBXjXhXvXNXjX4X4XhXkX4XR.n.-X4X7X4XR.;.o.&.n.;XR.n.B.;X,X1X1X,XR.N.o.$.n.R.-X-XR.n.:.X./ z l z B ( } X.$.o.o._ z B h h l z C A Z ( ( { | } } ( Z A C N N N A S L L S C N k j j j h k N M L U #.p.! 8.9.9.8.8.8.9.R K H H H H H H H H J K K J H G b b b b b D F F G D D D d d p i i d s i y t i p j G L G m m s p : : : : : : p p y : : : u u i p p p p p i i y t y i i i u u u y y t t y i i i i i p M p p p p p p f d k c W k.~.~.~.!.!.!.!.!.~.Q.Q.Q.Q.Q.W.Q.Z.W.Z.Z.A.A.A.A.A.A.A.A.x.x.x.c.c.c.c.x.x.x.x.x.x.x.x.x.x.x.x.x.x.S.S.Q.Q.Q.Q.Q.~.~.~.!.!.!.!.].].}.}. X X X|.|. X|.|..X.X.X|. X X X X/. Xk.W D s m k j k k j i u y y y , : : y y : : : ; : : : : : : : : ; ; ; ; : : : : t i p i i i y y i i i y y t t t t t t t t t t : t y i p p i i t t i p i g p s d v G G b G K 9.b.I./.).P.a.J G b v v G T ! 8.l.k.l.p.! ! W T T T T T Q G D P W #.@.f.f.*.{ { | *.*.m.m.m.*.*.*.*.=.| | { Z Z Z Z Z A x x h h l l B B ` %.;.,.>.%._ } $.n.V.-X,X;X-X-XT.N.;.;.&.>.N.;X3X6X7X1X:X:X-XR.N.,.,.,.,.,.,.,.,.>.&.&.$.&.&.o.$.;.,.n.B.B.-X1X4X4X-Xn.o.( _ n.1XcXAXHXCX1Xn.:.8XDXAX8XB.;.1XjX",
"8 8 8 8 8 8 8 8 0 q B ^ V 8 z B z z z / ;.=X6XcXjXBXBXNXNXhXhXvXvXjX4X4XhXkX4XR.n.-X4X7X4X-X:.o.&.n.-XB.n.R.1X1X3X1X;XT.:.=.n.R.;X-XR.B.:.%.( B B B / _ $.&.;.;.&.$.} } } ` ( ( ( } } } | } | | } { ( Z A x x x N S L S S M C N j j j j k N N N L U ! ! R ! 8.8.8.9.9.6.K K H H H H H H H J K K K J H G G b b b b G F F F G D v d s f p p s p i y y i p j G L G M m s i : : : ; : : i p u : : t u u i p p p p p i i y t y i i i u u u y y t t y i i i i u u k G i p p s f f f d c G W k.W.~.~.~.~.Q.Q.Q.Q.Q.Q.W.W.Z.Q.A.A.A.A.A.x.x.x.x.x.x.x.x.x.x.c.c.c.c.x.x.x.x.x.x.x.x.x.x.x.x.x.x.S.S.S.Q.S.Q.Q.Q.~.~.~.!.!.!.].].}.}.}. X X|. X|.|.|..X.X X|.|. XXX X/.^.W G m k k k k k k j a y y y y , , , y y : : : ; : : : : : : , : ; ; ; ; : : : : y i i i i y t y i i y t y t t t t t t t t t t : t y i p p i i t t f p i g p s d m G H G G H 9.b.I.~.!.I.l.K G G b b F T ! 8.l.k.d.a.8.E W T T T T T Q G G P W ..@.f.*. .Y { | *.*.*.*.*.*.*.*.*.*.o.+.| { { | { ( A x x h h l l z z B X.;.n.N.;.O.X.X.$.N.-X:X1X;X;X;X;XT.,.;.%.O.<.V.-X3X3X1X;X,X;X-XR.T.T.T.T.T.R.-X-X-X-X-X-XB.,.&.o.&.o.o.&.R.1XhX8X7X1XB.o.` _ n.7XNXFXAX8X-X:.;XBXIXNX1X,.&.-X",
"8 8 8 8 8 8 8 8 8 0 B ) X.) 0 l z ^ ) -.T.1XjXjXcXAXCXNXvXhXkXNXvXjX4X4XkXkX4XR.C.,X4XhX3X-Xn.;.&.n.R.n.n.;X4X4X4X1X-XB.&.*.E.,X;X-XR.C.&.} B l B ( X.X.;.;.&.$.o.X.X.o.:.:.:.&.&.&.%.o.o.+.| } { Z A C k x x k A S S S M M N N j j j j k N N M M U W E W R ! 8.6.7.R R K H Q H H H H H H J K K K J H G G b b b b F J J F G D v d f s s f i i i y i i p j G L G G M s y : : ; ; ; : u i i : : t u u i p p p p p i i t t i i i i i y y y y t t y i i i i i i p L p i p p s f f d k m G E k.W.~.~.W.W.W.W.W.W.W.W.Z.Z.Q.Z.A.A.x.x.x.x.x.z.c.c.z.z.x.x.c.c.c.c.c.c.x.x.x.x.x.x.x.x.x.x.x.x.S.S.S.Q.Q.Q.Q.~.~.~.~.!.!.!.].].}.}. X X X X X|. X X X X X|. X X X/.^.f.D k M k k k k j j p u y y u y , : , : y : , : ; : : : : : : : ; ; ; ; ; : : : t y i i i i y t y i i t t y y t t t t y t t t t : t y i p p i i i i p f i g s d d m G Q G b H 9.d.P.I.!.).d.R F F H G H J ! 8.l.k.k.a.8.R W T T T T T Q L L Y W  .@.@...Y L | +.=.*.*.*.*.*.*.*.*.*.*.o.+.| | | | | { Z A C C B B z B A X.;.n.V.N.>.%.X.} ;.N.R.;X;X;X1X,X;X-XT.,.<.>.>.V.-X,X1X;X;X;X;X;X;X;X;X;X;X1X1X3X4X7X7X4X,X,X,X-XB.n.n.B.1X7XjXjXjXhX1Xn.o.A } R.7XCXDXBX7Xn.,.hXDXDXcX1X&.o.",
"8 7 7 7 8 8 7 5 8 q z z ) ) ' B / X.1.;X6XjXcXjXBXAXCXvXvXhXjXCXvXkX4X4XkXkX4XR.C.,X7XhX4X-Xn.:.&.:.R.n.B.1X7X4X4X1X-Xm.&.B.-X;X;XR.B.n.o.( z l A X.&.&.;.&.X.} _ ( _ o.n.B.N.:.:.:.&.%.o.+.| { Z C x x x k k N S Y S A M N N k j j j k k N N N M Y U W W W R R K K R K K Q Q H H H H H H J K K J H H H G b b b G H J J F G D v d d d s p i y i i i i p j G L G G M p : : ; ; ; ; ; y i p u t y u u i p p p p p i i t t i i i i y y y y t t t y u i i i p s p k m i p i s s s d d m G F E k.W.~.W.W.W.W.W.W.W.W.Z.Q.Q.Z.A.x.x.x.x.z.c.c.k.c.c.c.c.c.c.c.c.c.c.x.c.x.x.x.x.x.x.x.v.v.x.x.Z.S.S.Q.S.Q.Q.~.~.~.!.~.!.!.].].}.}. X X{. X X|.|.|.|. X X X X X(./.j.P k k k k k j j j p i u y y u y : , , : y : , : ; : : : : : : : ; ; ; ; ; : : : t y i i i i y t i i i t t y y t t t t y t t t t : t y i p p i i i i p f i g s d d m G Q G b H 6.d.P.I.~.).d.8.Q Q J H Q J ! 8.s.k.k.l.8.R W T T T Q T Q L L Y U  .@. .| Y Z | =.| *.*.*.=.*.=.=.=.=.*.*.o.o.o.=.=.$.=.| { ( ( ( ( / / _ $.<.N.V.V.V.>.O._ } O.<.R.-X-X1X1X1X1X1X,X,XN.$.$.N.T.-X;X;X;X;X;X,X,X1X1X1X3X7X9XhXhXhX8X7X8X7X4X7X,X;X1XhXhXjXvXjXjX7X-Xn.o.` o.,XjXCXIXjX;X,.;XNXDXDXvX7XN.",
"5 5 5 7 5 5 8 8 8 0 w q z ^ ) X.;.V.;X3XhXjXjXvXDXAXCXvXNXhXjXCXvXjX7X4XhXhX4X-XB.,X7XhX4X;Xn.B.:.:.R.n.R.7X7X4X4X2XR.:.&.R.-XR.,XR.B.&.( C B / o.&.&.&.$.X.( B z B } &.B.;XR.n.:.>.&.&.o.+.} ( C x x C A A A A S Y S N N N k j j j j j k k N N M L Y Y T W W R K K K K K J Q H H H H H J J J J H Q H H G b b b G Q J J F G D D m D m s i i y y i y i s M Y Y G G s y : : ; ; ; ; ; : i p i i i u i i p i i i p p i t i u i i y y y y t t : t y i i i f p s p p G p p i s s s s d k D G F u.k.~.Q.W.Q.W.W.W.W.W.W.W.Z.Z.A.A.A.A.A.x.z.c.k.k.c.z.k.k.k.k.c.c.c.c.c.c.x.x.x.x.Z.Z.Z.Z.Z.Z.Z.Z.Z.Z.S.S.Q.~.~.~.~.!.!.!.].{.}.}.}.}. X X|.|. X X X X X X!./.(.j.I G M M k k k k j p p u y y u y y : : : y y , : : ; ; : : : : : : ; ; ; ; ; ; : : t y i i i i t t i i i t t i y t t t t y t t t t t t y i p p f i i p s f i f s d d m G Q G b b R 0.P.I.I.~.I.9.K J J J J J 8.8.l.k.k.l.J T T T Q Q Q Q Q F P Q U U  . .Y L S Z Z { { | | | | | +.| +.| o.o.o.=.=.*.*.&.&.*.%.o.} } o.%.&.&.,.N.T.R.R.V.>.O./ ) O.<.T.-X,X1X3X4X6X4X1Xn.O.%.X.o.&.>.,.n.N.B.-X-X-X:X6X7XjXcXcXjXjXjXhXhXjXcX8X;X-X1X7XjXjXcXvXjXhX4X1X,.} ` :.1XvXAXCX7XB.>.7XAXHXAXNXjX",
"5 5 5 5 7 7 8 8 8 9 w q l l ` >.-X1X7XjXjXhXjXCXDXAXCXvXvXhXvXCXNXjXrX4XkXkX4X,XB.,X7XhX7X,XB.B.n.:.B.n.R.7X7X7X1X,XC.*.N.R.;XR.R.B.:.} C z / o.&.&.&.o._ / B z B ( o.>.n.R.R.B.n.:.&.&.+.{ Z A x x A Z Z { Z Z S S A N k k k N x x j j k k N N M M L L Y T T T K K J J J Q H F H H H Q J K K J H H H H G b b b H J J J F G D D m m d f i i y t t t i m Y U W L m i t : : ; ; ; ; ; : u p p i i y u i p i i i p i y t i i i i t t y y t t : : y i i i i p p p p k m i p s s s s d k D G D F u.k.A.W.W.W.W.W.W.W.W.W.Z.A.A.A.A.A.A.x.z.c.k.k.k.k.k.k.k.k.c.c.c.c.c.c.c.c.x.x.x.x.Z.Z.x.x.Z.Z.Z.Z.S.S.Q.~.~.~.~.~.!.!.].{.}.}. X}. X X|.|. X X X X X{.!.W.j.T k m M m k k k k j p p u u y u u y : , : : : , : : ; ; ; ; : : : : ; ; ; ; ; ; : : t i i i i t t i i i i t t i y t t t t y t t t t t t t i p p f i i p s f g g s d d d G F G b H K 0.b.I.!.I.P.s.K K J J J J 8.8.s.k.k.l.J T T Q Q F P Q Q P P Y U W  .U L S S Z Z Z Z Z P P { { { { { { { | | | | o.=.$.*.*.&.&.&.&.;.>.:.n.N.B.T.R.-XT.N.>.X.( / ( $.B.;X1X3X7X7X3X;X<._ ) B / ( _ } X.O.%.,.n.B.-X3X7XjXvXvXcXjXhX7XjXcXhX4XB.,.-X4X8XjXNXcXvXjXhX8X;X:.} o.-XhXBXAXcX,Xn.;XjXDXKXHXDX",
"5 5 5 7 8 8 8 8 8 9 w w B / >.;X7XjXcXNXhXjXNXAXDXAXCXvXvXhXvXCXNXcXrX4XjXkX7X,XB.2XhXhX7X,XB.-XB.n.B.B.R.7X7X7X1X-X:.n.R.-X;XR.R.n.&.C z / o.&.$.%.X.( A B B B } o.&.;.:.,.n.n.&.&.o.| ( / A A A A ( { | | { Y S A N N j j N N N j x x k k N N M C M L Y Y Q T J J J J J F F H H H F J J K J Q H Q H H H G G H H K R J F G D D m d f f i i y t t t p G U #.W G m i t : ; ; ; ; ; ; ; t s p i i y i i p p p i i i t t i p i i t t y y t t : : y i p i f p p p p p D p p s s d d d m D G D D G W l.z.A.A.W.W.W.W.W.W.A.A.A.A.A.A.A.x.z.z.c.c.c.k.k.g.g.g.z.z.c.z.c.z.c.c.c.c.x.x.x.x.x.x.Z.Z.Z.Z.Z.Q.Q.~.~.~.!.~.!.!.].{.|.}.}.}.}.}.|.|. X X X X{.!.W.l.G k k M M m k k k j j j p i u u u u y : , : : , , ; ; ; ; ; ; ; : : : : ; ; ; ; : : : y i i i i t t i i i i i y i y t t t y y t t t t t t t i p s p f f s s p p s s d d D G Q G b H R 0.d.I.!.!.I.d.7.K J J J J 8.8.a.d.k.a.J T Q Q Q F P Q Q Q Q T U U U Y L M S Z Z Z Z Z Z Z Z Z Z Z Z Z P { { | | | | | | o.&.&.&.*.:.:.n.N.V.B.T.R.-X-XB.n.;._ B z B &.T.:X3X7X7X3X-Xn.X.` B / / / / / ( _ X.X.%.<.-X1X7XjXcXjXjX8X7XhXhX7X-X&.} &.R.1X8XcXvXcXvXjXjX7X-X&.} n.1XcXAXAX7XB.:.1XNXDXHXJX",
"5 5 5 5 8 7 8 8 8 9 w w ) >.:X8XcXBXBXNXjXhXNXDXDXAXCXvXjXkXNXCXNXjX7X4XvXvXhX2XB.2X8XhX7X,XR.;X-XN.B.N.-X7X7X7X,XT.:.B.,X;X-XR.R.n.o.z / o.&.&.o.} ( B A ( } } o.$.&.&.&.o.o.o.} } ( Z / / Z / Z ( | | | | { Z A N N j j j N N N N x x k k N N C C M M L Y Y F F H F F F F F F H F J K K J Q F H Q H H G G H H J K R J F G G m d s f i i i y t y i k Y E W Y M f t : ; ; ; ; ; ; ; ; t f f i i y i i p p p p i y t i i p i i t t y y t t : : y i p i f p p p p i p m j k s d d d m D G G m d m Q a.z.A.W.W.W.W.W.A.A.A.A.A.A.A.A.A.z.z.c.c.c.k.k.g.g.g.z.z.z.z.c.c.c.c.c.c.c.c.x.x.x.x.x.Z.Z.Z.Z.Q.Q.~.~.~.~.!.!.!.{.}.|.}.}.}. X{.|.|. X X X X!.~.g.Q d k M M M M k k k j j j p i u u u u y : : : : , : : ; ; ; ; ; ; ; ; : ; ; ; ; ; : : : y i i i y t t i i i i i y y t t t t y i t t t t t t t i p s f p p s s p p s s d d d G J H b H K 0.d.U.!.!.I.b.9.K K R R R 8.8.s.d.k.a.T W Q Q F F P Y Q P Q W U U Y L M C A Z Z Z P P { { { { { { P Z Z Z { { { { { { ( { } X.%.&.:.:.,.n.N.B.T.R.-X-XT.V.;.O./ B l ) ;.T.1X3X3X1X-XT.,.;.X.X.X.X.B / ( ` ( / / X.&.,.T.;X3X7X8X7X4X3X1X1XB.;.} } o.B.1X7XjXvXcXvXcXjX4XB.} &.R.7XBXDXNX1X:.n.1XcXAXFX",
"5 5 8 8 8 8 8 9 9 0 w ^ $.=X6XNXIXAXCXBXhXjXFXKXAXCXNXjXkXhXCXCXNXjX7X7XvXvXhX,XB.2XhXhX7X1X;X1X,XT.B.n.-X7X7X,X,Xn.:.R.,X;X-XR.B.:.} ( ( o.:.:.} ( A / _ X.o.%.$.&.$.%.%.} ( } ( ( ( ( ( { { | | o.+.| } { P A N N j j h j N N N N k k N N N N N N k k M L L G G G G G G G G G F Q T W R J Q Q Q Q Q H G H H Q K R R J J F D v d f i i t t t t i k L Y U U L M p t : ; ; ; ; ; ; ; ; : p s f i y i i i p p i i t t i s p i y t y y y y t : : y i p i i i i i i i p m k d d d d d v D G G D d d d G u.A.A.A.A.A.A.A.W.A.A.A.A.A.A.x.x.z.k.k.c.k.k.k.k.k.k.k.k.k.c.c.c.c.c.z.c.c.z.x.x.c.x.x.A.A.Z.Z.Q.Q.~.~.!.!.!.}.}.|.|.|.}.}.}.}. X X X X/.(.(.a.D k D M M M m m k k j j s s p i u u u u y : : : , , : ; ; ; ; ; ; ; ; ; ; ; ; ; ; ; : : t y i i i y y i u i p i i i t t t t y i i y t t t t t t i p s s p f s s f f f f d d v G J F G G K 9.d.P.I.!.I.P.0.K K R R R p.p.l.d.k.a.W W Q Q F F P T W P Y U U L M M C C A Z { | | | | | | | | | | | | | { { { { { { ( ( ( ( { } $.&.;.>.<.n.B.T.T.T.T.T.>.O.) B z / } $.N.V.T.T.T.T.B.N.n.,.,.>.;.$.$.&.&.O._ / X._ X.>.B.N.R.;XR.-X,X4X;XN.o.( B } :.-X7XvXNXNXjXcXhX;X&.} ,.1XjXCXAXvXR.;.n.,X7XNX",
"5 5 8 8 8 8 9 9 5 q ^ O.T.6XNXDXDXDXAXNX8XcXDXFXAXNXjXhXhXhXCXCXvXhX4XhXNXvXhX,XB.2XhXhX8X1X,X3X1X-XR.N.-X7X7X,XR.n.B.;X,X;X-X-XB.&.} } %.:.:.:.( / ( } X.o.$.&.&.&.$.o.X._ _ X.X.} } } +.+.| o.o.o.| | { Z Z C N k j j j j N N N N k k k N N N k h j j j k M m m m m m k m D G G F T W T J Q Q Q H H b H H Q J K R R K J F m d s s i t t t t i s m P W U Y L M p y : ; ; ; ; ; ; ; : : i s s i i i i p p i i i t t i s p i i t y y y y t : : y i p i i i i i i p p s k d d d d d v D G G D v d d c F W g.k.A.A.A.A.W.A.A.A.A.A.A.z.x.z.k.k.k.k.k.k.g.k.g.g.k.k.c.c.c.c.c.c.c.z.c.c.c.c.x.x.x.x.A.Z.W.Q.Q.~.!.!.!.!.}.|.|.|.|.|.|.|.|. X/./.(.W...G s s M M M M M m k k j j s s p i u u u y : : : : : , : ; ; ; ; ; ; ; ; ; ; ; ; ; ; ; : : t t i i y y i i u i i i i i y y y y i i i y t t t t t t i p s s p f s s f g f f d d d G J Q F G H 7.d.P.I.!.I.P.d.8.R R R R a.a.l.d.k.a.W W Q F F F F T W Y Y U U Y Y L L Y { | | | | | | o.%.%.=.%.+.=.=.=.=.%.o.o.| } { ( ( ( ( ( } } } X.%.$.;.>.;.;.;.;.o.( B l l B _ %.O.o.%.$.;.>.,.<.<.,.V.T.T.B.B.B.T.T.V.N.$.$.} _ X.o.;.n.n.-X,X4X3X;XN.o./ B ( o.-X7XjXvXNXNXcX1XB.} } B.hXNXDXAXhX-X&.&.B.,X",
"8 8 8 8 8 8 9 9 8 B ] V.3XNXAXIXDXCXjX3X8XCXDXDXAXvXhX7XkXhXCXCXvX8X4XjXNXvXhX,XE.2XhXhXhX4X,X4X4X,X-XB.R.4X4X,XN.n.R.,X,X;X-X-Xn.o./ %.>.n.>.o.( } o.&.:.:.>.;.$.%.X._ ( ( } &.>.;.&.%.$.$.=.o.o.| } ( Z A C N k k k j j j N N N N k k N N N N k j p p p p j k k j k k d d d m G F T T J J Q Q Q Q H b H Q H K K R R J Q G d f s f i t t t i p d G Y W U Y L M s i t : ; ; ; ; ; ; : : i s s f t i i p i i i t t t i s s i i t y y y y t : t i p f p i i i p p p p p s d d d d d m G G G D D d d m D F G u.k.W.A.A.A.A.A.A.A.A.A.z.z.z.k.z.z.k.g.g.g.g.g.g.g.g.g.g.z.c.k.z.c.c.z.c.c.c.c.x.x.x.A.Z.W.W.Q.~.!.!.!.!.!.}.}.}.}.}.}.}./.(.(./.M.P s s k k k M M M M k k k j s s s p i i u u y y y : y , , : : ; ; ; ; ; ; ; ; ; ; ; ; ; : : t t i i i y y y i i i i i i i i i i i u i u y t t t t t t i p d d s s s s s f f d d d d F J F H b b K 0.b.I.!.!.I.b.9.8.6.6.6.p.a.l.d.k.a.W W Q F F F G T W W U U  . ... . . .+.| | | | | | | | o.o.| | | =.=.=.=.=.=.%.o.o.} X.X.} } } } _ _ _ } X.X.%.%.%.$._ B l 7 l B _ X._ ` ( ) ) ( _ _ X.$.<.N.T.-X;X;X,X1X3X3X1X;XB.>.o.o.o.;.&.N.;X1X7X3X;XN.o./ z / &.R.4XjXNXCXCXjX1X;.` $.,XjXDXHXCXjX;X:.o.&.",
"8 8 8 8 8 9 9 0 q ` $.:XcXAXDXAXNXjX3X1XvXDXDXDXCXjX7XhXjXkXCXCXvX7X4XjXNXvXhX,XE.2XhXhXhX4X1X7XhX1X,XR.R.4X4X;Xn.n.-X,X,X;X;X-XB.&.&.C.-XR.B.&.} o.;.,.;.&.&.o.} ` A B A ( X.:.B.n.:.:.&.*.=.o.| } ( Z A A C k k N N j j j N N M N k k N N k k j p i i p j j k k k k j s s s k D F Q J J J J J Q Q H b H Q H K K R K J F D d d f i t t t i s d m G T W W Y L M s i y : ; ; ; ; ; ; : : i f s f i t i i i i i t i i f s s i i t y y y t t : t i f s f p i i p p p p i p s s d d d D G G G D D k d m m m G Q ..j.W.W.W.W.A.A.A.A.A.A.M.k.k.k.c.k.z.g.g.g.g.g.g.g.g.g.g.g.g.g.g.g.z.z.z.c.c.c.z.x.A.A.Z.W.W.Q.!.(.!.(.!.}.!.!.}.}.!.!.(.(.W.f.L j p j k k M M M M M m k j s s s s p i i u y y y y y y : , : ; ; ; ; ; ; ; ; ; ; ; ; ; ; ; : t t i i y t y i i i i i i i i u i i i u i u y t t t t t t i p k k d s s s s f f d d d d G J J Q H n H 9.d.I.{.!.I.P.d.9.8.8.8.a.a.s.d.k.a.E W Q Q F F G T W W W U  .f.*.*.*.*.=.| | { { { { { { { { Z Z Z { | | | | | o.o.o.o.&.&.=.%.o.o.} _ _ _ ` ` ` ` ` _ ( B B l 7 B ( X.X.} _ ( ) / B B / _ O.$.&.n.-X;X1X3X7X8X8X3X1X-XR.T.n.;.o.$.B.1X4X6X3X;Xn.o.` ` ( o.R.4XcXCXDXAXjX;X;.( n.4XvXDXFXAXNX4X-Xn.",
"8 8 8 8 0 0 w z ^ ] V.9XBXBXBXcX3X1X;X4XNXHXAXCXvXhX4XjXjXkXCXCXvXhX4XjXvXvXhX,XE.2XkXjXhX4X2X4XhX4X,XR.B.,X4XT.:.R.1X4X2X1X,X;XT.:.:.R.-XB.:.&.} &.n.N.:.;.o.X./ B B B A ( o.&.B.T.N.:.&.o.| { Z A C x x A A N N N N N j k N N M N N N N N k j h a a p j x x k j j k s p p j j M F Q J J J J J K J H H H H K K R R K J G v d s f i t t t i d s D F W W U L M j p i y t ; ; ; ; ; ; : : i p s s i t i i i i t t i i p s p u y t y y i t : ; t p s s f f i i p p p p i p s s s d v b G G G D D k k m D D D m D I p.j.W.A.W.W.W.W.W.A.M.A.A.z.z.k.z.z.k.k.k.k.g.g.g.g.g.g.g.g.g.k.k.k.c.c.c.c.z.z.x.Z.Z.W.W.Q.!.(.(.(.!.(.(.!.(.!.(.~.W.k. .M p y u p k M M M M M M k k j j s s p p p a i u y y y y y : , : ; ; ; ; ; ; ; ; ; ; ; ; ; ; ; : : t i i y t y i i i i p i i i g p p i i i i y t t t t t t i p k k d s s s f f d d d d b F J J J H H H 9.d.I.!.!.I.P.d.9.8.8.8.a.s.s.d.k.l.! E Q F F G L Y W W W  . .@.*.*.*.*.| { { Z Z { { { { ( Z Z A A Z { { { | | } } X.X.$.&.&.&.&.&.>.<.;.$.%.O.O.X.} _ / / ) B l / X.&.<.>.>.>.o.X.} _ ( ` ( ( O.;.<.,.B.-X3X7X8XhXhX7X1X,XB.;.( X.>.T.1X7X8X7X,XR.;.` B z } R.4XcXAXHXAXhXR.} } R.7XNXDXFXDXNXjXhX",
"7 8 8 7 0 w z V ^ 2.3XNXVXVXNXjXhX8X3X7XCXHXAXNXcX4X4XcXvXjXCXCXvXhX4XjXvXjX4X-XT.1XkXjXhX4X1X4XhX4X1X-XB.-X,XT.n.;X4X4X4X1X,X-Xn.;.>.R.R.n.&.} o.:.n.n.:.$.} ( B B B / ( } o.&.:.>.:.&.&.o.( Z C x x x A Z A C k N N N j k N N N k N N N N k j a a h j j k k x j j j p p j j k D F Q Q J J J J K Q H H K K K R R K J H D d d s p i t i i f f i G Q W U Y G m p i i u y : : ; ; ; : : : p p s s f i i i i i t t i f s s p i y t i i y t : ; t p j j f p i i p p p p p f p f s d v D G G G D D d k m D D D m k k G Y ..k.W.W.W.W.W.W.W.A.A.A.A.z.z.z.z.k.k.k.g.g.g.g.g.g.g.g.g.g.k.k.c.c.z.z.z.x.x.Z.Z.W.W.Q.!.(.!.!.!.!.~.~.~.~.Q.k...Y k h u u i j k k M M M M M k k j j s s p p p i i u y y y y y : , : ; ; ; ; ; ; ; ; ; ; ; ; ; ; ; : : t i i y t y i i i p p i i i g p i i i i i i t t t t t t i p k k d s p s f f d d d d b G J J J J H H 9.d.P.!.!.!.I.b.9.8.8.8.a.s.s.l.k.l.p.E Q F F G F Y W U W  . .@.*.*.@. .| | | { { { | | | { { Z Z Z Z { { ( { { ( Z ( ( ( ( ( } X.%.&.;.>.>.;.>.<.<.>.;.&.$.&.o.X.$.,.V.V.B.T.B.N.,.,.,.$.$.$.$.%.%.X.X.X.;.V.R.1X4X7X7X1X1X;XN.o._ _ &.T.1X7X8X7X1XR.;.o./ / } R.7XNXAXIXCX7XR.} } ,XvXAXFXKXFXAXNX",
"8 8 7 7 0 w z V ] T.6XNXVXBXNXjXjXhX7XjXFXHXCXvX4X2X7XvXcXjXCXCXvXhX4XjXjXkX4XR.E.1XjXcXkX7X1X2XhX7X1X,XT.B.-XT.B.1X4X4X4X1X;XR.:.&.:.B.R.n.} ( &.n.n.,.&.o.( B z z B _ } } } } X.} } X.} / A A C C C A ( { Z N N N N N k N N N N N k N N N k j h h h h j j k j j h h h j k k k G F Y Q J J J J K J H K R 8.8.8.R K J G b v s f p i f s f i i f D T E U L M j i y u y i t : : ; : : : t p f s j s i i i i i i i i s d f i t t i i i t t : : y j m j f p i i i i i i p p s s d d v D G G G D D m m m D D m m M m L M M P ..f.M.W.W.W.W.W.W.A.A.A.A.A.z.z.z.k.k.k.k.k.k.k.k.k.k.k.k.z.c.z.z.z.z.z.A.Z.Z.W.W.Q.!.(.!.(.(.(.(.W.W.k.p.T k k j j h a p j k k M M M M M k k j j s p i i i i i i y y y y y : , : ; ; ; ; ; ; ; ; ; ; ; ; ; ; ; : y y p i y t y i i i p p p i i i g p i i i i y i y i i y t i s d k k s s s s d d d d d b F J J K J J H 9.0.P.~.!.!.I.P.d.9.9.9.l.s.s.s.k.l.p.E Q F G L F Y W U U U  ...#.#.@.+.| | | +.| | | | +.| } | | { | | | | { { ( ( ( Z A A B A / } %.%.&.&.&.;.<.,.n.n.N.V.B.N.N.n.<.;.>.,.N.B.T.T.T.T.T.T.T.T.V.,.&.X.` _ X.&.n.B.-X;X;X1X1X;Xn.o._ _ $.B.1X7XhX7X1X;XN.o./ z o.R.7XNXFXFXCX7Xn.} :.,XcXCXFXHXKXFX",
"8 7 7 7 w w z V -.T.6XVXBXCXBXcXhX3X3XCXHXFXNXjX,X3XjXvXjXkXCXCXvXhX4XkXcXjX4X-XR.4XcXvXkXhX3X,XhX7X3X1XB.:.B.B.R.1X7X4X4X1X-XB.&.&.:.B.B.&.} } ;.n.,.:.&.} B z z B ( } } _ / B B B B B C z z B B Z ( { { { Z k N N N N N N N N N k k N N N k j h h h h j j j j h h h j j k M M G P Y T J J J J K Q J R 8.8.8.8.R K Q G b d f s s d m m i i f D G T E W L M s i y y i p p y : ; ; : : t p f s s v f i i i t i i p s f i t t t i i i t t : t i j m k f i i i i i i i f s s s d v v D G G G D m m m m D D m m m k j k M k k L W ..j.M.W.W.W.W.W.A.A.A.A.A.A.z.z.k.z.z.z.k.k.k.z.z.z.k.z.z.z.A.A.A.A.A.Z.W.W.Q.!.(.(.(.(.(.Y.h...P k k k k j j j p s j k M M M M M M k k j s s p i i i i i i y y y y y : : : ; ; ; ; ; ; ; ; ; ; ; ; ; ; : : y i p i t : y i i i p p i i i i p p i i i i y y y i i i t i s d m k s s s f d d d d d b H J J K J J H K 0.P.I.~.!.~.P.d.0.0.9.s.s.s.s.k.l.p.E Q Q F G F Q Y Y Y Y | | U | @.*.=.=.*.*.=.| | | o.o.| | | | | =.$.%.| | | } } { ( Z B B A ( ( } X.X.%.%.$.&.;.>.<.,.n.<.>.&.%.X.X.O.&.>.B.T.R.-X;X;X;X;X3X1X-X,.&.O.` _ X.o.o.:.n.-X1X1X;XB.&.( ( &.T.1X8XhXhXhX,XN.o.B / &.-X7XCXFXDXNX4XB.} &.;XhXNXAXHXFX",
"0 0 0 0 w w z ` -.>XNXAXAXAXNX8X;X;X7XCXDXAXNXhX,X7XcXjXhXhXvXvXvXhX4XkXvXjX4X2X;X4XvXvXjXkX4X,XhX7X4X2XR.&.&.B.B.7X7X4X7X1X-Xn.o.$.n.R.B.&.X.o.>.,.:.&.o./ l z B / } } } / z 7 7 l B C / / ( _ } } } } { Z A k N N N N N N M M M N N N k k h h p p a a h h a a a h h j k m M G L L Y Q J J J J J J K 8.9.8.8.8.R K H G b d d d k m D k p p d v G W ! W D k p i t t i p s i t ; ; : y i p s s k m s i i i i i f s s f t t t t i i y t : : t i j m m f i t t t t i g p s d d d v b D G G G D D m m D D m M m m m M M j j s j k M M L ..f.M.M.W.M.A.A.A.A.A.A.A.Z.Z.A.A.k.k.k.M.A.A.A.A.A.A.A.Z.Z.Z.Z.W.W.W.W.W.(.W.W.M. .Y M p p j j k k j j j p j k m M M m m M M m k j j p p i u i i u y y y y y y : : ; ; ; ; ; ; ; ; ; ; ; ; ; ; : : : y i p i t t y i i i i i i i i i i f i i i i i t t t t t t i p k k d s s s f d d d d v b Q J R R K J H K 9.d.I.!.!.).P.b.d.0.9.s.s.a.a.d.d.p.R Q Q Q G G F Y P L Y | | |  .*.*.*.*.*.=.=.o.| | =.=.=.=.=.+.o.&.&.&.&.&.%.o.o.o.o.X.X.X.X.} } } X.X.%.$.$.$.;.>.,.,.,.>.$.O._ ) ) ` _ X.o.%.>.B.T.-X1X4X7X3X1X;X-XR.N.n.n.,.;.&.;.:.R.1X1X,X-Xn.} _ $.B.1X8XhXhX7X,Xn.o.B B %.;XhXCXFXFXBX4XB.o.&.B.4XjXCXKX",
"0 0 0 0 w w V ] T.9XBXIXAXBX8X;XT.;XhXDXIXAXNX7X;XhXvXjXhXhXvXvXcXhX4XkXvXkX7X2X;X4XvXvXjXjX4X2X7X7X4X4X-X:.:.B.B.4X7X7X4X1XR.>.o.&.N.R.B.&.X.o.:.n.:.&.} B z B / ( } } ( B l h l z B / } } o.o.X.} } { Z C C k N N N N M C M M M M N N k k h h a u u a h h a < a h h j N N M G L L F F J J J J Q K 8.9.0.8.R R R K H G b d d d m D m s s s d m Q R ! W D s i y t y i p p p u t : y i p s s s d k d f i t i i f s s f t t t t i i y t : : t p k M k f i t t t t i g s d d d d v b b D G G D D m m D D m m m m m M M j s p s j j k k M L L  .f.j.M.M.M.W.W.W.A.A.W.W.W.Z.A.A.A.A.A.A.A.A.A.A.W.W.A.A.A.W.W.W.M.j. .U M p p i i p s j j j j p p j k M M M m k k m M m k j p p i a u u u u y y y y y y : : ; ; ; ; ; ; ; ; ; ; ; ; ; ; : : : u i i i t t i i i i i i i i i i i f i i i i i t t t t t t i p k k d s f f d d d d d v b Q J R R K J J K 8.d.P.!.!.I.I.P.d.s.9.s.s.0.9.d.d.p.R T T T F G P Y Y Y Y  . .@.*.f.f.*.*.=.=.=.=.=.=.=.=.=.$.=.| =.*.*.*.*.*.&.&.&.&.&.&.&.&.&.&.$.&.&.;.<.,.,.n.N.B.R.T.T.n.;.$.O.X._ ` ) / ( _ _ X.>.B.-X1X3X3X7X7X4X1X1X,X;X-XB.n.o.} &.B.,X1X1X-X,.X.} &.B.,X7XhXhX7X,Xn.o.A ( n.1XjXCXFXDXNX8X-Xo.o.:.,XjXCX",
"0 0 0 w 9 z ^ -.1XBXIXKXIXjX1X3X1X4XvXHXIXAXcX4X,XcXcX7XhXhXvXvXcX8X4XhXvXvXhX1X;X4XvXvXjXjX4X2X4X7X7X4X,Xn.:.B.R.,X7X7X3X,XT.&.o.:.T.R.B.&.X.%.n.n.:.o.( z B ( ( } X.( C z l l z B ( _ X.o.o.o.X.} ( A C x C N N N N C A A S M M M N N k h h a u u < u h h a a a h h k m N M M G G G F Q J J J J 8.9.9.9.8.K R K K Q G b d d d D D m s s k M D T R E T m p i t t y i p i i i y t y i p s s s s d m s i t i f s s s f i t t i i i t t : t y s m M j i i t t t t i g s d d d v b b D D G G G D D D D m m m m m m M M k j p p p j k k p j k M M P L U ..@.j.j.M.M.M.M.W.W.W.W.W.W.W.W.W.W.^.^.W.Y.W.M.M.M.p. .P M i u y y y u i i p p p s p p p j m M M m k k m M M m k j j p i a y y u y y , , y y y : : ; ; ; ; ; ; ; ; ; ; ; ; : : : : t i p i y : t i i i i i i i i i i i p i i i i i i i t t t i i p d m d s s s d d d d d v D Q T R R K J J K 7.0.P.I.).I.I.P.P.d.0.s.s.a.9.d.d.a.R W W W T Q T W U Y | ....@.*.*.*.*.=.=.| | | =.=.=.=.=.*.=.=.*.*.:.:.:.:.:.:.:.:.:.:.:.:.>.>.:.<.n.N.T.T.R.R.-X;X1X1X;XT.N.n.,.<.>.&.O.} _ _ / ) } $.,.B.T.-X,X1X4X3X4X1X,X;X-XR.,.} ` o.T.1X4X1X;Xn.o.X.o.n.,X7XhXhX7X,XC.| ( o.T.4XcXCXAXFXCXjX1XB.;.&.-X4X",
"7 0 0 w 8 V ` T.jXDXLXHXAXjX8XjX8XhXNXJXHXAXjX1X4XvXjX3XhXhXvXvXvXhX4XhXvXvXhX1X;X4XcXvXjXjX4X2X4XhXhX4X,Xn.:.B.-X;X7X7X1X;XN.o.o.:.R.R.B.&.X.$.N.n.&.X.A B / _ } o.} A l h h l B ( _ } } } } } ( A z x x x k C C C C A A A S M M N M N k j h a u u < a h h a a h h k k m M M M M G G G J J J J R 8.9.9.8.R K K K J Q G b v d d m m d d m d D G R R E F d i t t t y i i i i i i i i i p s s s p s m k i i f f f s s f i t t i i i t t t t i j m M s i t t t t t i g s d d d v b b b G G G G D m D D m k k k j m M M k j p p p j j j j j j j x k N k j j M M M M L U  .....@.@.f.f.f.f.f.f.@... .P L M k j p y , : : : y u y y i i p p p p p p j m m M k k k m M M m j s j p a a y y y y y , , y y y : : ; ; ; ; ; ; ; ; ; ; ; ; ; : : : y i i i y : t i i i i i i i t i i i p i i i i i i i t t t i i p d m d s s d d d d d d v D Q T R R K J J K R 0.d.I.).I.I.I.P.d.s.s.s.a.0.d.d.a.! W R W T Q T W U W  .....@.#...@.=.=.| | { { | | =.=.=.=.*.*.*.:.:.m.n.:.:.:.n.n.n.n.n.n.n.n.n.n.T.T.-X-X;X;X1X1X6X3X1XR.R.R.R.R.R.T.B.V.>.;.O._ _ _ _ O.%.&.>.n.N.N.B.B.R.R.-X;XR.;.} } ;.R.3X7X4X,XN.$./ o.B.1X7XhXhX7X-X:.} ( %.-X7XjXvXAXFXBXjX7X;X&.&.B.",
"V z w w V ^ O.>XVXKXHXDXNX8XVXVX7X7XDXHXAXBX6X1XjXNXhX1XhXhXvXNXvX8X7XhXvXvXhX1X;X4XjXvXjXjX7X,X3XhXhX4X1XB.:.B.;XR.1X7X3X,Xn.X.o.n.R.R.T.&.X.&.N.n.;.X.B B ( X.%.o._ B h l l z _ _ _ _ ( ( A B z l h h x x N A Z A A C N C S S M C C N h j h a a a < a h h h h x x k N m M M M M M G F J J J R 8.9.9.9.8.R K K K H Q G D b v d m m D F M d v T ! E Q G d i y y i i i i t y i i i p p p p p p s s m k f g f f f s s f t t i i i t t : t i s M M m s i t t t t t i f s d d d b b b G F F F G G D D M m k k s j k M m k j j j j h h j j p p h h k k x h h h a u , u u a a a h h j j h h h h a a u , a h a , , , , , : : : : y u a i p p p p s s j k m m k j j M M M k j s p p i a i i u u y , , y y y : : : ; ; ; ; ; ; ; ; ; ; ; ; : : : y i i i t t y i i i i i i i i i i i f i i i i i i i i i i i i f d d d s s d d d d d d D G Q T R R K K J K R 8.d.P.I.I.I.P.P.c.d.d.s.l.l.l.d.a.8.W W W T Q T W W  . . . .+.| | | | { { { Z A Z P } | | | o.$.*.:.:.m.m.m.m.n.m.N.N.N.N.m.n.n.E.-XR.-X-X-X,X3X4X3X3X1X;X-XR.-X-X;X;X;X;X;X;XT.V.V.>.;.$.O.X.X.o.%.$.o.$.:.B.R.;X,X-XB.&.} ` &.R.1X7X4X,XB.} B o.R.1X7XhXhX,XB.$./ / :.,X7XhXvXCXDXAXNXhX2XB.:.",
"V V z z z ^ -.1XAXKXDXBXjXNXAXNX7X8XDXIXAXNX4X4XcXNXhX4X8XjXvXNXvXhX7XhXvXcX7X1X-X4XcXvXvXjX8X1X4XjXhX7X1XR.:.B.;XR.,X7X3X,Xn.} o.n.R.-XR.:.%.&.N.N.;.X./ / } o.$.o.( z h l l B _ _ _ ) B z z z l l z C A Z Z Z Z A C N N C S L L C C k h j h a a a < a h h h h x x x k k m M M M M G G F J T R 8.9.9.8.6.R K K K H Q G D D D b v D G G M d G W ! W G m d i i i i y y t t y i p p s s s s p p s s d k s s p f f s s f t i i i i t t : t i m M M j p y t t t t t i p d d d v b b b G H F F G D D D M m k s s j j k m k j j j h j j j j h h h h k k x h h a < , , , , , , , , , , , , : : : : ; ; : , , < , , , , , : : : y a a a p p p s s s j j j k k j j j M M M k j p p p i a a i u u y , y y y y : , : ; ; ; ; ; ; ; ; ; ; ; : : : y u i i i y t i i p i f f i i i i i i f i i i i i i i i i i i i f s d d s s d d d d d b G G J T R R K K J J K 8.d.P.I.I.I.P.P.c.d.d.s.d.l.l.d.a.p.W W T T Q T W U U U U U Y Y Y Y P P P Z Z N k A Z Z Z Z { | *.*.:.:.m.m.m.m.C.B.B.B.B.B.B.B.E.R.-X-X-X;X1X3X3X;XT.V.n.n.T.-X;X;X,X1X1X1X3X:X-X;X-XT.N.>._ ` X.&.:.&.&.&.N.R.-X-X;X-XB.&.} } ;.R.1X4X1X;X:.} ( &.R.1X7XhX7X,Xn.{ z { m.2XhXcXvXCXCXCXNXvX4XB.",
"V V ^ ^ ^ ` 2.6XAXKXAXcXjXCXAXjX3XjXDXIXAXcX3X8XNXNXhX8X8XjXvXNXvXhX7XhXvXcX8X1XR.4XvXNXvXjXhX3X4XjXhX7X4X;Xn.n.R.-X-X4X1X;Xn.} %.n.R.-XR.n.&.&.B.B.<.%.( ( X.$.&.o./ z l h z ( } ` / B l l B / A / ( { { { P Z A C N N k M L Y P M N k h j h a a a < a h h h h h h h j j j m M M M m m D Q T ! 8.8.8.R R K K K H H Q H H G D D D G G G m G T #.! Q m d d i i i y t t t t t i p s s j s s p p p p f k m d s s s d d f t i i i t t : t y p M G m s i t t t t t i g s d v v b b b b H Q J F G G D D m k k s s j j k k k j j j x k k j j j h h h x k x x h a , , : : , , : , , , , , , , : , , ; ; , , , 6 a a a a a u u u a p p a p p p s j j k k k k k j s j M M M k j p p p i a i a u u y y y y y y : , : ; ; ; ; ; ; ; ; ; ; : : : y u i i i i i i i p f f f p i i i i i f p f f i i i i i i i i i i f s d d d d d d d d d G G H J R R 6.R K K J K 8.d.b.P.I.I.P.P.P.d.d.s.d.d.l.d.l.a.W W T Q Q T W U Y P Y Y Y Y Y Y { { { { Z C k C A C C C A { | $.*.*.:.m.m.C.B.T.T.T.T.E.R.E.E.R.-X-X,X,X3X3X,XB.&.$.%.%.,.V.T.R.-X-X-X-XT.N.N.B.B.R.R.<.X.( } &.:.>.&.o.;.n.B.-X2X2X;XB.;.} } &.B.,X1X1XR.;.} ( &.R.1X4XkX7X-X&./ A o.B.4XhXcXNXBXCXCXBXjX2X",
"V ^ ^ ^ ] O.2.3XAXDXNXjXBXDXBX8X1XcXDXDXAXjX3XhXCXNXhXjX8XhXcXNXvXhX7XhXvXcX8X1XR.4XvXNXNXvXjX4X4XjXhX7X4X,XN.n.R.;X-X1X1X-X:.( o.n.R.R.R.B.:.&.B.T.,.$.} ( X.&.&.o./ z l l B _ } ` B B l z ( X.$.o.| | | { P Z C N N x k M L Y Y S k h j h h a a a < a h h h h h h h h j j m M M m d d D F R ! 8.R R R K J H H H J Q H H H G G G G G G m Q ! p.W G v f f i i i t t t : : t i p s j j j s p p p i p k m d s s s d d f i i i i t t t t p j M G k p i t t t t t i g s d v v b b b b H Q J F G G D m m k d s s j j m k k j j j k k k k j j p h h x x x h h a , , , , , , , ; ; , , , > , , , , , , , 6 a h h h a a a a a a p p p p p p s j j j k k k k j j s j M M M k j p p p i a i i u u y y y y y y : , : ; ; ; ; ; ; ; ; ; ; : : t y u i i i i i i p p p f p p i i i i i f p f f i i i i i i i i i i f s d d d d d d d d D G G H J R R 6.R K K J K 8.s.b.P.I.I.P.P.c.d.d.s.d.d.l.d.l.p.W W T Q Q Y W U Y U | | | | | | | | | | { Z C A C C x x x A ( } o.$.&.:.n.C.T.R.R.R.R.R.R.R.R.R.-X;X,X1X3X1XT.;.%.X._ ( _ o.$.>.,.,.,.,.>.&.;.<.V.T.T.n.;.} _ $.:.,.:.o.} &.B.;X1X2X,X-XB.;._ ` o.N.;X1X;XB.&.} } &.R.1X8XhX4XR.:.( ( $.E.1XhXNXCXCXCXCXNXhX",
"^ ^ ^ ) O.O.;.:XNXBX8XcXIXIXCX7X3XCXDXAXBXjX3XcXAXNX8XcX8XhXjXNXvXhX7XhXNXcX8X1XT.3XvXNXNXvXjX7X7XvXjXhX7X,XB.n.R.,X-X;X3X;X,._ o.,.T.R.-XT.,.&.N.T.N.;.O._ X.$.;.o.( z l l B ( _ ( B z l C } o.&.&.%.o.| | P Z C C k x N C Z Y Y M N h h h a a a < < < a a h a < < a h j j m M M s s d D Q R ! ! R K R K H H H Q Q F H H H H F Q F G D T E p.p.Q D d d i i u i y t t : : y i p j j j s s s f i g f d D m d s s s s f p p i i t : t i f M G M j p y t t t t y i p s d v v b b b G G F Q F G D M m k s s s s s m M M k j j j k N k k h h a h j j x x h a , , : , ; : , , > > , , , , , , , , , < < a a a a a a a a a a h h h p p p p j k k j j j j j j s s j m M M j s p p p a i i i y y y y , , y y : : : ; ; ; ; ; ; ; ; ; : : : y y i i i i i p p i p f f p p i i i i g f s s p f g g i i i i i i g g f d d d d d d d b D G G F J R R 6.R R K J K 8.0.d.P.I.!.P.P.b.d.d.s.l.s.l.d.l.p.E E T Q Q Y W U U |  . .@.@.=.=.=.=.o.| | | ( Z Z Z C x x C Z { | } o.$.&.:.m.C.B.E.R.-X-X-X-X-X;X,X,X1X1X-XB.n.:.&.o.X./ / _ o.%.&.;.:.:.X.} o.,.B.-X-XB.>.:.N.R.R.B.:.} o.n.;X2X3X4X1X,X-X>._ _ &.T.1X1X,XR.&.( ( :.1X7XjXkX4XR.&.} ( &.R.4XvXNXCXCXCXCXNX",
"^ ^ ^ ^ ' X.-.T.8XNX6XVXKXDXBX3X7XAXIXAXNX8X6XNXBXjX8XjX8X8X8XNXcXhX7XhXNXvX8X1XT.1XcXNXNXvXjX7X7XcXjXhX7X,XN.,.R.1X-XR.1X,XB.o.o.,.T.-X-XR.N.;.>.N.B.,.%._ _ o.;.$._ B l h B ) _ ( B z l z ( } o.o.| | | { Z A C C k k N C Z { Y M N h h h h a a < < , < a < , , , < a j k m M m s s v G J R R R J J K Q b b b H H J Q Q J J J T T T J W 8.#.W F m d s i i i i y y t : t y i p s j s s d d s f f f m D D d s s s s f p i i t : : y p s L G M s i y t t t t y i p s d v v b b b G G F J F G D M k s s s s s s j M M k k j j k N k k h h a h j k k k x h < , : , , , , , , , , < , < < < , < < a a a a a a a a a a a a h h h p p p p j j k j j j j j j s s j m m m j s p p p a i i i y i y y , , y y : : : ; ; ; ; ; ; ; : : : : y y u i i i i p p p i p i i s f i i i i g f s s p f g g i i i i i i g g d d d v d d d d b D D G Q J R R 6.R R K J K 6.0.d.P.I.!.I.P.b.d.d.s.l.l.s.l.l.a.#.E T Q Q P W W U  .@.@.@.@.=.*.*.$.$.=.| | | | { { Z A C C C A Z { } | o.$.&.*.n.N.B.R.R.-X-X-X;X,X,X,XR.N.,.:.,.:.$.X.B B ( o.&.>.,.n.;.X._ } n.T.R.T.N.n.N.B.R.-XR.n.o.` o.B.;X1X4X7X4X,XT.&.} _ &.T.1X4X,XB.&.B _ R.4XhXcXkX2XR.:.} } &.B.3XjXBXAXAXCXNX",
"^ ^ ^ ^ ) X.$.2.-X9X7XAXKXAXNX3XjXDXIXCXjX6X8XNXNX8X8XjX8X7X8XNXcXhX7XhXvXcX8X1XT.1XjXNXNXvXjX7X4XjXjXhX4X;XN.,.R.,X-XN.-X,XR.;.X.,.R.-X-X-XB.>.$.:.B.n.%.` ( } $.$.X.B l h B ) _ ( B z z z / ( ( ( ( { { Z Z A C N k k N C Z Y Y M N h x x h h a < , , < < , , : , , u p j k m m s s v G J R J J F F F H b b b b G F J J J J T W W W W p.p.E Q G d d f i i i i u y t t t u p p s s s f d d d f f s m G G m s s d s s f i t : t t p j M L G m i i t t t t t i i s d v m b b b b G H J J F G G m k s s s s s j m M M k k j k N N N k k h h h h h k k x h < , : , , : , : , , , < 6 6 7 h < a a a a h h a a a a h a a h p p p j p p j j j j j j j j j j s s j m m m j s p p p p i i i i i y y , , y y y : : ; ; ; ; ; ; : : : : t y u i p p i p p p p i i i p s f g i i i p s d s s f f g g i i i i g g f d m D v d d d d b b D G J J R 6.6.R R K J K 6.0.d.P.I.!.).P.c.b.d.s.0.0.a.l.l.l.p.E T Q Q P W U  . . .| | |  .+.+.=.*.*.=.| o.| | o.| | Z A A C A Z { } } o.o.%.$.&.*.n.C.B.N.N.T.R.R.B.;.&.$.$.&.;.&.o.B z ( %.&.n.B.T.,.o._ } >.,.:.$.;.N.T.R.-X,X;XR.,.} } &.B.,X1X7X7X4X,XN.$.( ` ;.;X4X4X;Xn.( / &.;X7XcXvXhX4X-Xn.o.} &.B.7XvXCXAXCXNX",
"^ ^ ^ ^ ) ] %.$.1.:X3XAXIXBXNX7XjXDXIXAXjX3XjXBXcX6X8XcX8X8X8XNXjX8X7XhXNXcX8X1XT.;XjXNXNXNXjX7X1XjXhX8X3X;Xn.>.R.1X-X,.T.;X-X,.} >.R.;X-X-XB.,.$.&.n.n.$.( / ` X.%.X.) l h B / _ _ / B z z C B C B / ( P Z A A C N k k N C Z Y P M N k k k h h a < < < a < , , : , , < a j j m m s s m G Q J J F G b G b b d b b b G J J J T T W E ! 8.a.p.W F D d s i i i i i u y t t t u i p f f p f s d m s d d D G G D m d s s s f t : : t i s m L L G s i y t t t y i u p s d m D b b b H H Q J T Q G D m s f f s s s j m m m k k j k N N N k k h a a h h x h h a , : : , , : , , , < < 7 h h h h h a a a a a a a a a a a a a a p p p p p p j s j j j j j j j j s s j m m m j s p p p p i i i i y y y y y y y , : : : ; ; ; ; ; ; : : : y i i p p p i p p p p i i i f s f i i i i f s d s s p f g g g i i i g f f d D G D d d d d v b D F J J R 6.6.R R K H K 6.9.d.b.I.!.).I.P.c.d.s.0.9.9.s.d.l.p.E Q F F P W U  .| Y P L L P { | | +.| o.=.=.=.$.$.*.*.} { ( Z Z Z Z ( { } } } } } X.o.$.&.=.=.&.N.:.%._ ` ( ( } $.&.o.A z / %.:.N.R.-XB.;.X.o.,.,.&.X.o.:.T.R.-X,X,X-XR.:.o.( ;.B.,X4X7X8X6X;XN.} / o.B.,X4X1XR.:.o.} :.,XhXcXvXjX4X;XB.&.+.&.-X7XNXCXCXNX",
"^ ^ ^ ^ ) ' O.%.$.=X6XDXIXBXcX6XNXIXDXCX8X7XcXBXjX3XNXNX9XjX7XNXjX8X7X8XcXjX7X1X=X;XjXBXBXNXjX8X1X7XjX8X4X-Xn.;.T.,X;XN.;.-X-X,.X.o.N.-X-X-XV.,.o.o.:.n.$.` B B } o.O._ B l z B _ _ ( B z z z C B / ( ( P Z Z A C C C C A A Z Z S A C C C C k x a a a a h a < , , , , u a p j j k s d G G G F H G b b b b b d d d D G F J T W R E 8.p.a.a.p.T F D d f i i i i i u y t t t u i p p p i i s k m M m m D D G F D d s s i t : : : t p k M L L m p y t t t t t i i p d d m D D G H H Q J J T J G M j f p p s s j m m m k k j x k C C C N k h h a h h h h h h a , , : , , , < 7 h h h h h h h h h h a a a a a a a h h a a p p p p p p p p s j j j s s j s s s s j m M M k s p p p p a i y y y i i y y y y : : : : ; ; ; ; ; : : : y y y y i p p i i p f p f i f d d p f i i f p s s s s p p g i i i i g f f f d G G D d d d d d d b H J T R 6.6.R R K H J R 9.d.U.I.!.!.I.P.P.d.d.0.9.8.s.k.l.p.E Q G F P W U  . .Y Z Z Z Z Z ( { | | | | &.*.*.*.&.*.*.=.| | { { ( { } } | { } | ( Z { | } } | o.| } ( B B ( o.%.%.o./ B A o.N.B.-X-XR.B.N.,.B.B.n.&.o.o.*.n.R.,X1X,X;XB.:.+.} &.B.1X4X7X8X6X;Xn.} / &.-X4X4X4XR.&.` o.R.7XjXNXNXNXjX2X-Xn.o.&.B.7XNXNXhX",
"^ ^ ^ ^ ) ) ' O.>.=X:XBXAXBXjX6XNXDXAXBX8X9XNXBXjX6XNXjX9XjX6XjXcXjX8X6XjXjXjX6X-X;XjXBXBXNXcX8X1X4XhX8X7X;Xn.>.T.1X,XB.;.B.-XV.$.o.>.R.-X-XT.n.;.o.$.>.;.X./ B ` X.O.X./ l l B ( _ _ / B z l z B / ( ( P Z Z Z A C C C A C C C C C C C C C N x h h h h h h h a a a a a u a p j j j m D D D G G b b v b b b v d d D G F J T R R ! 8.p.a.p.E Q G m d g i i i i i u y t t t u i i i i i i f d m M m m D D G P L m s i t : : : : i p k M G M j i y t t t i i i p s d d b D G H H Q J K R J Q G m s p p p s s j m m m k j j k k C C C N k k h a a h h h h h h a , , , < a h h h h h h h h h h h h h a h a a a a h a p p p p p p p p p p s s s j s s s s s s s j m M M j s s s s p a i y y y i i y y y y : : : : ; ; ; ; : : : t y y t y i p i i i p f p f i f d s p g i g f p s s s s p f g i i i i g f s s d G G m d d d d d d b H J R 6.6.6.R R K H J R 9.d.b.I.!.!.I.P.P.d.d.0.9.8.a.k.a.p.W Q L L P W  .#...| | { { { { { ( ( Z ( { | =.&.*.*.*.&.&.*.=.| | | | | %.| } } } } { ( Z Z Z A { } } ( B B ( o.%.&.$.} ( ( o.N.T.R.B.n.n.B.T.,X;XT.,.&.o.o.:.B.-X,X1X1X;XB.;.} ( &.R.1X4X7X8X1X-X:.( / :.;X4XhX4XR.&.( &.-X7XjXNXCXNXjX4X-X:.o.;.R.4X2X1X",
"^ ^ ^ ^ ^ ) ` O.T.6XjX9XBXNX8X6XNXDXCXNX8XjXCXBX8X8XBXjX8XjX1X8XNXcX8X3X8XcXcX8X;X-X8XNXBXNXcXjX3X3X9XhX7X,XN.<.V.:X:XT.>.1.=X-X>.%.%.V.-X-XT.V.,.$.X.;.;.$.( B B } O.O._ B l l B ( ( / B B z z C A ( { { { Z Z A A A A C C x x k N N C C C N x h h h h x h h h h h h a u u i p j m M m v b D b b v d v b b b d d D G F J T R E 8.8.a.a.! T F D m s i i i i i i i y t t t y i i i i i i i d m m D D D D D Q F m i t : : : : t i j m m M m p y t t t t t i g s d d d b D G H Q K K R R J F D j f p i p s s j m M m k k j k N C A C C N k x h a h h a h h h h a , < h h h x x x x x x h h h h h h h a a a h p p p p p p p p p p p p p s s s j s s s s s s j j m m m j j j j s p a i y y y i i y y y y y : : : ; ; ; ; : : : t y t t y i p f f p f s f f i f d d f g g f s s s d s s s f g i i g g g f s s d G G d d d d d v d b F J R 6.8.8.R R K J J R 9.d.P.I.!.!.I.P.P.d.d.l.9.8.8.d.a.p.E Y L L Y U U  . .| | | | { { | { { { { ( Z ( | =.*.*.*.*.*.*.*.&.*.&.&.&.*.=.%.%.o.o.| { ( Z Z } X.{ / B B ( o.&.&.&.&.o.} X.>.B.n.$.o.$.,.B.,X,X-XB.n.&.o.| &.B.,X1X1X2X-XB.&.( ` ;.R.1X6X7X7X1XB.o.C } B.3XhX8X1XT.o.o.:.R.7XvXCXCXCXjX2XB.&.+.&.B.n.B.",
"V V ^ ^ ^ ^ ) ' N.3XBX8XvXNX7X3XNXDXBXcX7XcXAXNX7XjXBXjX7XjX3X7XjXcX8X3X7XcXcX8X:X=X7XNXVXNXcXjX6X3X8XjX8X1XV.<.N.;X1XT.,.<.V.-Xn.&.$.<.T.-XT.B.B.$.X.&.&.;.X./ B ` X.O.X./ l l z / ) ) A B B B B A ( ( ( { Z Z S A A C C N x h k k k k C C N k x x x x x x x h h h h a u y u p j N M m d d b b b d d v b b b d b b G H J K R 8.p.p.a.E W F G m d f i i i i i i i y t t t y i i i y t t i d v D D D D D D F F D t : : : : t y i m M m m s i y t t t t t i s d d d d b b G H H K R R R J G m s p i i p s s j m M m k j j k N C A C C C k x h a a a a a a h h h a h h x x x x x x x x x x x x h h a a a h p p p p p p p p i i p p p p s s s j j s s s s s j j j j j j j j j s p a i y y y i i y y y y y y : ; ; ; ; ; : : t y t y y y p p i f f s s p f f s d d f g g f s s s s s s s f g i i g g g f s d d D D d d d d m m d b H J K 6.8.8.R R K J K R 9.d.d.I.!.!.I.P.P.d.d.l.9.8.8.l.a.#.E Y L L Y U  .| | | | { { { { | | | | } { A A Z { | =.*.:.m.:.m.m.m.m.n.m.:.*.*.*.:.:.:.*.%.| } | X.{ ( B C ( X.&.:.:.:.&.%.o.N.R.N.;.X.X.%.n.T.-X-XR.R.n.o.( } n.-X1X3X1X,X-X:.+.` } :.R.1X4X7X4X;Xn.X.} &.;XhXhX7X1XB.&.o.&.;XhXvXCXCXNXhX-X&.o.+.;.:.:.",
"V V ^ ^ ^ ^ ` ;.V.3XcXjX6X8X3X3XAXAXBXcX6XNXAXNX6XjXBXjX7XjX6X6XjXNXjX6X8XNXNXjX1X-X1XNXNXNXcXjX7X1X8XjXjX6X-X,.n.-X1X:XN.O.,.-XN.;.o.$.T.R.T.T.n.,.&.%.&.>.$.B z / } X.X.( B l l l B / A B B C B A Z ( ( Z Z Z Z A C N k x x x k N k k N N N k k x x x k x h h h a a a y u u a j m m s s d v b v v v v v b b b b b D G J T E 8.p.a.a.! T G b d d f g g i i i i i i t t t y i i i t y t i d m D D D D D D G G D t ; : : : t i s m M m k p i t t t t t i f d d d d v b b G H K K 8.8.R Q D s p i i i p s s j m m m k j j h N C A A A C N h h a a a a a < a a a h h x x N C C N N C x N x x h h p a a a p p p p p p p p p i i p p p p s s s s j j j j j j j j j j j j j j s p p a i i i y y y i i y y y y y : ; ; ; : : t y y y y y i p p i f s s f f i f s d d f f g f f s s s f f f f i i g g g f f s d d D D d d d d D D d D J K K 8.6.6.6.7.K K K 7.9.d.d.P.!.!.I.P.P.d.d.l.9.8.8.l.a.p.E Y L L Y U | | | { { { Y { P | | o.o.| | ( Z Z Z ( } *.*.:.m.m.m.B.E.E.E.B.B.N.n.C.R.R.R.n.%.o.X.} } } C B ( &.,.N.B.T.T.N.n.R.-XR.N.;.X.} X.>.B.R.R.-XR.:.X.( o.n.-X1X1X1X,X;Xn.} / ( n.,X7X7X7X4X;X:.} } n.,XhXjXhX4XR.:.o.n.2XjXvXCXNXjX4XR.;.R.,Xn.;.",
"V V V ^ ^ ^ ' ,.>X3XjX9X:X1X1X3XBXAXBXjX6XcXBXjX6XcXBXjX8XjX8X6XcXNXjX8X8XNXNXjX6X;X1XNXNXNXjX9X6X1X7XjX9X6X;XN.n.-X3X1XV.$.;.T.T.,.;.$.N.T.R.T.N.N.;.%.$.;.&.} B B ) _ } } B l 7 l V / / / A B A B Z ( Z Z Z Z Z A C N k k k N C C k k k k k h h h h h a a < , , , u u u u a h j j j s s d v v v v v v v b D G G D D G J T E 8.p.a.p.E J G b d d f g g i f f i i i t t t y y t t t t i f v v D D D D D D D D D i : : : : t p s m M m s p i t t t t i g s d d f d v b G H Q K 6.8.R T F m s p i i i p p s j m m m j j j h k C C A A C N h h a a a a a a a a a a h x x x N C N N x x x h h h a a a h p p p p p p p p p p p p p s p p s s s s j j j j j j j j j j j j s s s p p a i i i y y y y y y y y y y : ; : : : t t t t t t t t i p p s s f i i f d d d s f f f s s s f f f f f f i i i g g f f s d d D D d d d d D D d b J K R 6.6.7.7.6.K K K 7.9.d.d.P.I.!.I.P.P.d.d.s.0.9.8.l.a.p.E Y Y Y U |  .| | | | { { P Z Z | | | | | } { ( Z Z Z | | =.&.:.n.C.B.E.R.R.R.R.T.R.-X-XR.n.&.o.| X.} } / B / o.:.B.R.T.T.T.T.R.-X-XT.N.;.X.} o.:.B.R.-XR.N.&.( ( o.B.;X1X4X3X1X-X:.} B X.B.,X7X7X7X4X-X:.} o.-X4XjXjXhX2XR.:.o.n.1XjXBXNXvXhX-XR.7XhXR.n.",
"V V ^ ^ ^ ) $.V.6X8XcX9X;X;X-X1XNXAXBXjX7XNXVXjX6XVXCXcX8XNX9X6XjXNXjXjX6XcXNXjX7X;X-X8XNXcXjX9X6X1X1X8X8X6X,XN.<.-X3X1X-X;.O.N.-XT.<.-.<.T.-X-XT.V.,.$.$.$.&.&._ A B ( } X.( B l l l B A / A A A B C Z Z Z Z A C C C C C C A A C C k x x x h h h a a < < , : : , , u u a a h h p p s p s d v v v v v v b D F F H H H H J T E 8.p.p.8.W J G b v d f f f f f f f i i t t t y y t t t i i d v D D D D D D D D D D s t : : : y p j m m m i i t t t t t i f d d f f d b G H Q K K 8.8.R J D d p y y i i p p s j m m m j j j h x k C A A A C x h a a a a a < a a a h h x x N k k N x x x h h p a a a p p p p p p p p p p p p p p j j j j j j s s j j j j j j m j j j j s s s s s p a i i i i y y y y y y y u y : : : t y i y i y y y t i p f s m d f i f d d d d d f f f s s s f f f f g f f f f f f f f s s d D D d d d d D D b D J R 6.8.8.6.9.6.K K K 7.9.0.d.U.I.!.I.P.P.k.d.l.a.9.8.l.l.p. .U Y Y  . . . . .| | | { { P Z Z { } o.| | } | { ( Z ( { | | $.*.m.m.B.E.R.R.R.R.R.R.R.m.&.o.%.%.$.%.o.} / B ( %.:.N.:.:.N.B.R.-X;X-XR.B.&.X.o.&.n.R.-X-XR.:.} A ( &.B.,X3X7X7X,XR.&./ / &.-X3X7X8X8X3XR.&.} n.-X7XvXvXhX1XB.&.&.B.7XvXvXjX3X-X,XjXcX1Xn.",
"V V ^ ^ ) ] -.=X8XjXBX8X1X-XT.:XjXAXBXjX7XNXVX8X6XAXBXjX7XNXjX6X8XjXjX8X1X9XNXjX8X>XT.1XjXjXjX9X7X1X1X3X6X6X,XT.>.=X6X3X-X,.O.,.T.-XV.>.>.T.-XR.T.N.1.<.$.%.$.>.$.( / _ ( } _ B l l l l B / ( ( ( A A A Z Z Z A N N C A Z Z Z A C N x x x h h h h h a a < , : : , , u u a h h h a a p p s v v v v v b b D F Q Q J J H H J T E E 8.8.8.T Q G D v d f f f f f f f i i t t t t t t t t i f v m D v v m D D G D D M m t : : : i s j m k s y i t t t t i g d d d f d d b G H Q K 6.8.R R Q v f i y y i i p p s j m m m j j j h x x C A A C C x h a a a a a < h h h h h h x x x x x x h h h a a a a a p p p p p p p p p p p p p s j j j j j j s s j j j j j j j j j s j s s s s p p a i i i i y y y y y y y u y : : y y i i i p i p p i i s k m m d f f s d s d d f f f s s f f f f f g i g f f f f f f f s s d D D d d d d D b v G J R 6.8.8.6.9.6.K K K 7.9.0.d.P.I.!.I.P.P.k.d.l.s.a.8.l.l.p.E T Y U  . .#.@.+. .| | | | { ( Z Z ( { | | | | | } { { { | | | =.&.*.:.n.C.E.R.B.m.N.n.o.( / o.&.*.*.%.X.( B / } o.%.} o.:.n.R.-X,X-X,XR.B.&.$.o.&.n.-X-XR.C.:._ A ( :.R.,X4X7X4X,XB.o.( o.B.,X4X7XhX7X,XB.&.o.:.,XhXvXvXhX2XB.;.:.R.hXhX4XB.n.1XjXNX7XB.",
"^ V ^ ^ ) ] ;.-XjXjXAX7X7X4Xn.,X3XBXNXjX7XNXVX1X6XNXBXjX6XBXcX6X1XjX9X8X1X1XjXjX8X;XT.;X9XjXjXjX7X1X:X1X9X6X1X-X-.N.1X3X;XV.-.-.-X;XT.,.$.<.T.-XT.V.N.N.;.$.$.>.;.O./ B / ( _ ) B z l l B B ( ( ( ( Z Z Z Z Z C x N A Z Z Z Z Z C k x x x x h h h h a a a u < , , , u u a h j p u a p s m v v b b b D D F Q J J T J Q Q J T R E 6.8.R J F G D b d d f f f f f f i i t t t t t t t y i f v D D v d v D D G G M m D f t : : i j m j s i t t t t t t i f d d d d d b b b H Q K 8.8.R J F v i i i i i p p s s j m j j j j j h h x N C C C k x h h a h h h h h h h x h h h x x x h h h a a a a a a a a a h h p p p p p p p p s j j j j j j j j j j j j j j j j j j s j s s s s s p p a a i i i u i i y y y y y : : y u i i i i i p i i p d k m k d f f d s f d d d f f f s s s f f f f f f f f f f f f f s s d D D m d d d m b b G J R 8.8.8.9.9.9.6.K K 6.9.d.d.U.I.!.).P.c.k.d.d.s.a.p.! l.#.E U Y U  . .#. . .| | | | | | | { Z Z { | | | | | | o.o.| | =.$.| | o.o.%.=.&.*.:.:.:.$.X.A z } &.n.:.,.:.%.X.} } _ _ / _ X.&.n.T.-X;X,X-XE.n.:.o.o.:.R.;X-X-XR.:._ z } n.-X1X7X7X1X-X:.} } :.-X4XhXhXhX7X,XB.o.} :.2XhXvXvXhX;Xn.&.:.2X7X;X:.;.-XhXNXjX;X",
"V V ^ ^ ) ] >.;X3X8XCX6XhX8XR.-X6X8XcXjX6XNXBX6X6XNXBXjX6XNXNX6X1X9XjX9X1X1XjXjX8X1X-X-X6XjXjXjX8X3X:X;X7X6X1X-X,.1.>X1X1X=X,.-.T.-X-XN.$.;.N.T.T.T.V.N.,.>.$.%.;.;.X./ B / ( ` ( B l 7 l B A ( ( ( ( Z Z Z A x x C Z Z { Z Z Z C x h x x x x h h h h h h a < < , , u < a h j a u a p j m D D D D F F F Q J T T T J J J J T W E E 6.R J F G G b d d f f f f f f i i t t t t t t y i f s v m m v d d v D G D M m D m i t t p m k j p y t t t t t i g s d d d d d b b b b K R 8.8.R J D d f i p p i p p s j k m j s s j j h h x x k C k x h h < < < a h h h h h h h h h h x x h h a a u a a a a a a a h h p p p p p p s s j j j j j j j j j j j k j j j s s s s s j s s s s s p p p a i i i u u i y y y y y : : y u u y y i i i i i i s k k d f f p s s f d f f f f f s s s f f f f f f f f f f f f f f s d D D v d d d m b b H K R 6.8.8.9.9.9.6.K K 6.9.d.d.U.U.!.).P.c.k.d.d.l.a.8.! l.a.#.U U  . ... .| | | { | | | | | | | { { | | | | { | | =.$.*.*.:.:.:.*.*.:.m.n.n.n.:.&.&.o.( C B o.*.:.B.N.n.,.n.:.o.( B A / / &.N.R.;X;X;XR.N.:.o.} o.n.R.,X,X;XB.&.( ( &.B.,X1X7X7X1XB.;.} } ;.R.3X7XhXhX7X,XB.&.&.B.7XjXvXhX4XB.&.&.,X7X;X;.} B.8XNXNX3X",
"^ ^ ^ ^ ` O.N.1X6X7XNX3XhXcX1XT.3X3X9X8X3XjXNX6X1XNXBXjX6XjXNX6X1X7XjXjX3X1X8XjXjX6X:XT.1X9XcXjX8X6X:X-X3X7X6X:XV.>.V.1X1X;XV.-.N.=X-XT.;.$.;.N.T.T.T.V.n.,.;.O.$.$.$.X.B B / ( ( ) B l l l B / ( ( ( ( Z Z C x N A Z { { P Z A N h h h x k k h h h h h h h a a u u u < a h h a a j j m D G G G F F F Q J T T T J J J J J T W R E 6.R J F F G b v d f f f f f f i t t t t t t t i p f v v m D v f d d m D D m m D G f t p s m k s i t t t t t i i s d d d f d b b G H H K 8.9.8.K F v f f p p p i p p s j m m s s s j j j h x x k k k x h a , , < a h x N N N x x x x h h h a u u u a a a a a a p p p p p p p p j j j j j j j j k j j j j j j j j j s s s s s s s s s s p p s p p p a i u u i i y y i y y : : y u u y y i i i i i i s d d s f f s s s f f f f f f f s s s f f f f f f f f f f f s s s s d D D m k k d m b b H R R 8.9.8.9.9.9.6.K K 9.9.0.d.b.U.!.~.P.b.d.d.d.d.s.p.8.k.a.#.E U  .#.@... .| | | { | | | | | | | } | | =.| { Z { | =.*.m.m.C.B.E.E.E.B.B.C.n.:.&.:.&.} Z z ( o.&.n.N.B.T.R.T.n.o.( B z z } &.B.R.;X,X-XE.N.&.} ( &.C.-X1X1X-Xn.o./ } :.-X1X4X7X7X,XB.o.( _ n.;X7X7XhXhX7X2XB.:.:.,XhXvXhX7XR.:.:.1XhX,X:.` >.3XvXBX7X",
"^ ^ ^ ^ O.>.-X8XcX7XcX3X7XvX8X-X;X6X6X6X1X8XcX7X;XcXBXjX6X8XNX7X1X6XNXjX6X;X6XcXjX8X1X-X;X8XcXjX9X6X1XT.:X6X6X:X-X;.1.;X1X1X=X,.,.V.T.T.<.$.%.;.V.T.T.T.N.n.>.%.O.O.$.%._ B B / ( ( / z l l l B ( ( ( ( Z A C C C A Z Z P P Z A N h a h x k k x x h h h h h h a u < u u a h h p h j j M G G F F F F Q Q J T T W F Q J T T T W R E E W J F F G D v d d f f f f f i t t t t t t t i f s v v v m v f f d v D D m m D G m i s m m k p i t t t t t i f s s s f d d b G G G J 8.9.9.R J D d i f p p p i p p s j k j s p s s s j j h h x k x x h a , , , a h x N N N N x x h h h h a < u u a a i i a a p p p p p p p p j j j j j j j j k j j j j j j j j j j s s s s s s p s p p p p p p a a i u u i i i y i u y : : y u u y y i i i i i i s d d p f f f s d f f f f f f f s s s f f f f f f f f f f f s s s s d D D m k d d m D b Q R R 8.9.8.9.9.9.6.K K 8.9.0.d.b.U.!.~.P.c.d.d.d.d.a.p.8.k.l.a.#.#.@.@.@.#.@.@.+.+.| | | | | { | | | | =.=.=.| Z { | | *.:.m.B.E.R.R.E.B.B.&.&.&.&.n.&.| ( ( A ( X.&.:.n.B.R.R.T.>.o._ / B / } :.T.-X;X;XR.R.n.$.( +.:.R.,X3X2XR.n.} / o.B.,X1X1X7X1X-X,.} ( ;.-X4X7X7XhXhX7X;Xn.&.B.7XhXhX7XR.B.-X7XjX4XB.o.o.,XhXNXhX",
"^ B ^ ] >.;X6XcXAX8XcX8X3XhXcX4X-X1XhX6X1X1X8X8X1X6XNXNX6X6XjX9X6X6XjXcX9X3X1XjXNXjX8X1X>X6XcXcXjX8X1X>X=X1X6X3XT.;.,.V.1X1X>X=X;.>.N.=XN.>.$.X.,.V.T.V.V.V.,.>.O.X.X.O.o._ B l / ) ) B B z l z Z Z Z Z A A A C A A Z P Z Z Z A N h h h x k x x h h h h h h h a u y < u p j h h j k m M G L G G F Q Q J W W T T Q Q T T T R W R R R R J H F G G b d d d d d s f f i i t t t t i s d d v v m m d f f s d m D m m D G M f j m m s f i t t t t i g s s d f d d b D G G H K 9.9.8.R J D d g f f i p i i p s s j s f f p s s h h h h x x h h a < , , < a h k N N N x x x h h a a u y u u a a a a p p p p p p j j p p p j j j j j j k j j s s s j j j j j j j j s s p s p p p p p s s p p i i y y y y u u u u y y t y y y y y i u i i i p s k s p f f s d s s f f f f d d d f f f f f f f f f f f f f d s d d d G G k d d d v b G J R R R 8.8.9.9.8.K J K 9.9.0.d.P.P.I.~.P.P.d.d.d.l.a.8.8.a.l.a.#.#.#.@.@.@.@.=.=.@.=.| | | | | { | | | =.=.=.| +.| | | | o.=.:.m.B.n.:.*.%.{ ( o.&.:.:.&.o.o.{ A B ( } %.n.B.R.R.B.*.} ( ( / } &.n.-X;X,X;X,XR.;.( C } n.;X1X4X1XB.:.( ( :.R.,X1X3X1X,XB.o.` } B.4XhXjXjXjXhX7X-X;.&.R.7XhX1Xn.;.;X7XvX8X-X&.} -XhXNXvX",
"^ ^ ) X.,.1XjXjXAXjXcXcX7X7XjX8X1X;X3X7X4X1X;X6X:X1X8XcX8X3X6XjX7X6X8XjXjX7X3X7XNXcX9X3X>X6X9XcXjXjX6X1X=X:X6X7X:X,.;.V.3X1X;XT.>.;.,.T.T.N.>.O.$.>.N.T.T.V.V.,.-.O.X.X.$.$.' / B / ( / / B C C A Z Z Z A A C C C A A Z Z Z Z Z A k x x x x x x h h h h h h h a u < u a p p h j j k m M G L G G Q Q T T W W T T T T T T R T W R R R J Q H F F F D d d d d d s f p i i t t t t i s d d d v v m d d f s d m m m m m G L m k k s f i i t t t t g f s s s f d d b G G G Q R 9.9.8.R F b s f f f i i i i p s s f f f p f s s j h h h h h h u < , , , u h x N N N N x x h h a u u u y u u a p p p p p p p p p j j p p p p j j s j j k j j s s s j j j j j j j j s s p s p p p p p s s p p i i y y y y i i u u u u y y y y y y i u i i i p s k s p f f d d s s f f f f d d f f f f f f f f f f f f f f d s d d d G G k d d d d b H K R R R 8.8.9.9.6.H H K 9.9.0.d.b.P.I.).P.P.d.d.d.s.p.E ! a.l.f.p.@.@.@.@.@.f.*.@.@.=.| | | | | } | | | | =.$.*.*.$.=.=.=.=.&.:.n.m.n.:.&.%.( ( ( %.&.:.,.:.&.X.( A B A X.*.N.T.R.E.B.&.} { / ( o.:.R.;X,X,X,X-Xn.o./ ( &.T.-X1X1X-Xn.o._ %.B.;X,X1X1X1X-X:.o.} >.;X7XhXjXjXhX7X;Xn.o.B.4X7X;X;.%.R.4XjXhX,X:.o.B.7XNXNX",
"^ ^ ] -.V.8XBXjXAXNXjXBXhX1X7XjX8X;X1X7X7X3XT.-X>X=X:X9XjX1X1XjXjX6X6XjXNX9X3X1XjXcX9X6X>X1X8XcXNXcX9X6X>X;X6X9X6X-X>.1.;X3X1X=X1.-.<.T.-X=X,.%.O.O.>.T.T.T.V.V.>.-.O.X.X.o.$.X./ B / ( ( / Z A A A A A A A C C A A A Z A A Z Z A C x h x N x h h h a a h h h a u < u h p h j j j k m M G L G F Q T R R W W T T T T T T T R W W T J J F F F G F G b d d d d s s s p i y y t i s d d d d d v v v d f d d m m m m D G Y L M k s i i t i i t i g s d s s s d b D H G H K 8.s.a.8.J D d f s f f p i p p p s f f f f p p p p p a h h h h u < , , , < h h k N N N k x x h a a u u y y y u a p p p p p p p p s j j p p p p p p p j j k k j s s s s j j j j j j j s s p s s s p p s p p p p i u y y y y i i i i i i i i i i y y i u i i i p s s s p f s d d d s d d d d d d f f f f f f f f d d f f d d d d d d k G G D d d d v D J K R K R 8.8.9.9.6.H H K 9.9.0.d.P.P.I.).P.P.d.k.d.a.8.R E p.j.l.p.#.@.a.*.*.f.f.*.=.=.+.| | | | | | | } | | =.=.&.*.*.*.*.*.m.C.B.B.n.,.&.o.Z B A ( &.:.:.n.m.&.| { B z ( %.:.B.R.R.R.m.=.} ( / } &.B.-X,X,X,X;XR.n.X./ } :.R.,X1X,XR.:.} ( :.R.,X1X1X1X,XR.,.o.o.n.2XhXhXhXhX7X,X,.+.n.1X7X;X:.X.:.2XjXjX7XB.&.n.4XvXAX",
"^ ^ ] ;.>XjXAX8XNXNX7XBXNX1X1XhXhX6X;X1X7X1X:X,.V.T.=X1X9X3X:X8XjX7X6X8XcXjX7X3X6XjX9X7X>X:X6XcXNXNXjX8X1X;X3X8X8X3XV.,.N.1X3X:XV.;.>.T.;X>XV.-.X.X.$.,.V.T.T.V.1.>.$.O.X._ O.%.' / B B / / ( Z A C A A A A C C A C C A A C A A A A N x k k x h h h a a u h h a u u a h h h k k j k m M G L F Q J T R R W W T T T T T T T T R R J J F F F F F F F b v d d d s s s p i i y i i s d d d d d d v d d f d d m m m m D G Y Y G j p i t t t i i i f s s s f f d b G G H J R 8.s.9.8.H v d f s s f p i p p p s s p p p i p p p i a a h h a < , , , , a h x k k N k x x h h < < , < , , y u a p p p p p p p j j j h p a a a a p p j j k j j s s s s j j j j j j j s s s p p p p p p p p p p i u y y y y i i i i i i i i i i t y i i i i i p s s s s s d d d s s d d d d d f f f f f f f f f d d f f s d d d d d D G G D d d v b G J J K K R 8.8.9.9.K H H K 8.9.0.d.b.U.I.I.P.P.k.k.d.s.8.W W 8.j.j.a.p.p.p.a.@.@.*.f.*.=.| | | } | | | o.| | | | | $.*.:.m.m.m.E.E.E.E.m.:.&.%.( A C A o.&.:.n.B.m.*.%.Z z B } &.C.R.R.,XB.:.$.} / ( o.:.R.;X,X1X,X;XR.&./ A o.B.;X1X1X;Xn.%./ o.B.;X,X1X1X1X,X-X:.o.o.B.1XhXhXjX8X,X:.o.B.4X7X1Xn.} o.,XjXNXhX-X;.&.1XvXAX",
"^ ) ] ;.;XcXAXjXNXNX8XjXCXhX1X7XjXhX4X;X1X1X1XT.;.n.T.-X1X1X1X3XNX8X1X3XjXjX8X1X6XjXNX8X1XT.>XjXNXNXNXjX1X>X:X8X8X6X>X1.V.>X3X3XT.,.;.-.T.=XT.T.;.O.O.$.,.V.T.V.N.,.>.$.O.X.X.O.O.X._ / B A A / Z A A A A A C C A A A A A C A A A A C k k k x x h h h a u a a a a a a h j k M k k k k M L F Q Q T W W W W W R R R T R T T J J J H H J J Q Q Q Q H D v d s s d d s s i i t i p s d d d d d d d v d d d v d v m m D G Y T L j p i t t t t i i p s s f f d b G H G H J R 8.a.8.R G d d d d d s s f i i f f f p p p p i i i a a a a a < , , , , , a h h h h h h h h a u < , , , , , , y y a a p p p p h h h h a u u u a a a p j k k j j s p s j j j j j j s s s s s s s p s s s p p p p i u y y y y y y y i i i i i i y y y i i i i i p s s s s d d s s d d d d d d d f f f f f f f f f d d f f d d d d d d m G G k d d d D G J J R R R 6.8.0.8.K H H R 9.9.0.d.P.P.I.).P.d.k.k.d.l.8.E E E l.h.f.a.p.p.a.@.*.*.f.*.=.+.| | | | | o.| +.| | | | =.*.:.:.m.m.C.E.m.&.:.&.=.%.} A B B A %.:.B.B.B.n.&.( C A X.| :.B.R.R.R.n.&.| ( A Z &.B.-X;X,X,X;XR.:.} A ( n.-X,X1X1XR.:.} } n.;X1X1X1X4X4X,Xn.+.} ;.;X7XhXjXhX-Xo.o.B.7XhX7XR.&.o.,XjXNXjX1Xn.o.R.hXCX",
"^ ` %.N.1XjXAXBXNXAXjX7XNXNXjX4X4XjXjX1X;X,X1X1XV.<.,.T.-X:X:X-X6X9X8X3X8XjX9X6X3X8XjX9X6X>X-X6XjXNXNXjX6X:X>X3X8X6X1XV.1.T.:X1X-XT.<.-.N.V.T.T.1.-.X.X.-.,.V.T.V.N.,.>.-.%.X.X.X.X.O.X.( / B A / ( Z A A A A C A A C C C C C C C A A C N k k k h h h a a a a a h h h h j N M k k k M M L F Q T T W W T W W R ! ! R R K J J J F H H J J J Q Q Q H D v d s s d d d d f i t i p f s s d f s s d v d d d v d d m m D G Y Y L j p i t t t t i i p s f f f d b G H H H J R 8.p.R Q b d d d d d d s i i i f f f p p p i i i i a u u < < , , , , , , < a h h a a a , , , , , , , , : : : , y y a a a a a a a a a u y , y y i a p j k k k j s p s j j j j j j s s p p p s p p s s s p p p p i u y y y y y y i i i i i i i y y y i i i i i p s s s s d s s s d d d d d d f f f f f f f f f d d d d f d d d d d d m G G m d d v D H J K R R 8.8.8.8.6.J H H R 9.9.0.d.P.P.I.I.P.d.k.k.d.s.p.E E 6.a.h.j.f.a.a.f.f.f.*.*.*.*.=.| | { } | | o.o.| | =.=.*.*.:.:.m.m.n.n.*.=.%.%.o.| } A B B C } &.N.B.B.C.:.} Z A { X.*.B.R.-XR.B.:.o.{ A Z o.n.-X;X,X,X;X-XB.%./ ( :.R.,X1X1X;Xn.o.} &.R.,X4X4X4X4X1XB.o.} o.-X4X7XjX7X;X;.} n.1XjXhX,X:.o.B.4XcXNXhXB.&.m.4XNX",
"^ ] -.3X8X8XNXAXvXCXvX7X7XcXNXjX3X8XjX7X,X-X:X1X:XN.>.1.T.-X-X-X-X6X9X7X1X9XjX9X3X3X8XjX9X:X=X;X8XjXcXjX9X1X=X>X6X6X3X=X1.1.=X1X1X-XV.>.;.<.V.=XN.<.%._ X.-.,.V.N.V.N.,.>.-.%.X.X.X.X.X.} _ ( Z Z ( ( Z A A A C A A C C N C C C N N C N C C N k h h a a a u a h h j j j k N N k k k M G L F T T T T T T W W R ! ! ! T J Q H H H H H J J J J J Q H b v d d d d d d d f i i i f f f f f f f s v v v v v v v v m m G P Y L M s i i t t t t i i p s f f d v G H H H J K 8.8.8.R G d d d d d d s s p p p f f f p p p i i i i a u < < < , , , , , , < a a a < < , : : , , , < y , : : , : , y u u y y u u y y y y y y y y y y a p s j j s s s s j j j j j j s s p p p s s s j j s p p p p i i y y i i i i p p p p i i y y y y i i i i i p s s s d d d s f d d d d d d f f f f f f f d d d d d d d d d d d d d m G G m d d v D F J K R 8.8.8.8.8.K H G H 6.9.0.0.d.d.P.I.I.P.d.c.k.d.s.p.E E E p.l.k.j.f.f.f.f.f.*.*.*.*.*.=.| { { } | | =.o.%.=.*.*.*.m.m.m.C.:.=.o.o.X.} } } } A V V l ( &.n.B.B.B.n.%.{ Z Z } &.N.E.-X-XR.:.%.} Z Z } n.R.;X-X,X,X;XR.:.( / &.B.,X3X1X,XR.&.} X.n.;X4X4X4X4X7X-X&.( _ B.1X7XjXhX,X,.} &.;XjXjX7XR.&.*.,XcXCXNX3Xn.&.-XbX",
"` %.N.7XNX8XvXAXjXcXNXjX,XhXNXNX8X7X8XjX1X,X;X1X1X:XV.;.1.T.=X-X=X-X1X8X1X6XjXjX6X1X3X9XjX6X>X=X1XjXjXjXjX1X-X=X:X6X3X;XN.,.N.>X1X1X-X1.O.;.N.T.N.N.>.O.X.X.-.,.1.N.V.N.,.>.;.%.X.X.} } } } } { ( / Z Z A A A C A A C C N k k N k k N N C C C N h h a a a a a h j k k k N N k h k M M G G F Q T J T T T W W R ! ! ! J Q F F F F H H J J J J J Q H b v d d d d d v d f i i i i f f i i i g f v v v v v v v v v m G Y Y G M s i y t t t t i i f s g f d D G H H H J 8.8.R ! J b d f d d d d s f p f f f f f p p p i i i i a u u < < , , , , , , < < < < < < , , , : , , < y , : : : , : y y y , : y y y y y y i y y , : y a p s j s s s s s j j j j j j s p p p p p s s j j s p i i i i i y i i i i p p p p p i i y y y y i i i i i p s s s d d d f f f d d d d f f f f f f f d d d d d d d d d d d d d d D G G d d d b D J K R R 8.8.8.8.8.K H b K 6.9.0.0.d.d.P.).I.P.d.c.k.l.a.p.E E E p.f.h.j.f.f.f.f.f.f.*.*.*.*.*.+.} ( { | | o.o.=.$.*.*.*.n.m.C.B.&.X.( { ( ( ( ( ( A z V l A o.:.B.B.B.C.&.| { ( ( &.n.T.-X-XR.n.%.X.( ( } :.B.-X-X,X,X,X;X:.} _ &.B.;X1X3X,X-Xn.o.} &.R.3X4X7X7X7X-X:.` ( B.3X8XjXjX1XB.o.o.B.hXjXhX1Xn.&.R.hXBXCXjX,X&.m.4X",
"` $.T.7XBXjX8XAXvXhXvXCX1X1XhXNXjX3X1X7XhX3X;X;X1X1X-Xn.;.,.=X>XV.V.V.-X1X1X1X8X8X:X>X1XjX8X3X1X:X6XjX9X8X6X;XV.-X1X6X1X;XV.,.1.1X1X;XV.>.$.-.,.T.T.N.>.;.O.O.%.-.<.,.,.,.,.>.&.%.X.X.X.} } } } ( ( / Z Z A A A C C C C C N C N k k N C C C M k h h h a a a h j N N N k k N k k k k M G G F Q F J T R W R R R R R R J Q F F G F F F J J J J J Q H D b d d d v D D v s g i g f f g g g g i f v D m v v v v v v m G Y L M m s i i t t t t t i f f g f d D G H Q Q K 8.8.8.R H v d f d d d k d s s f f f f f p p p i i i a a u u u < < , , : , , < u u < < < , : : : , < u u < : : , : , y y y y y y y y y i p p a y y y y a p s s s s s s s s j j s s s p p p p p p p s j j s p i i i i u y i i i i p f f f p i i i t t y i i i i i f s d s f f f f f d d d d d f d f f f f f d d d d d d d d d d d d d d G G G d d d b G J K R 8.8.8.8.8.6.J H H 6.9.0.s.0.d.b.U.!.I.P.b.k.k.d.a.8.6.E E u.a.l.j.l.f.l.f.f.*.*.*.*.*.*.=.| { { } | | | o.$.*.*.:.n.B.B.*.X.} } ( ( ( ( ( ( / A B A / X.o.n.N.B.E.n.:.%.} ( } *.E.R.R.R.B.&.} ( ( } &.B.-X,X,X,X,X;Xn.o.} ( n.-X1X1X1X;XB.;.} X.n.,X7X8X8X8X1XN.} ( ;.2XhXjXjXhX,X;.} o.4XjXvXhX-X:.n.7XCXAXCXhXR.*.,X",
"o.N.1X7XjXBXhXNXCX8X7XvXNX8X1X8XjXhX4X3XhXjX1X=X=X;X1X;Xn.<.n.T.-XV.,.,.N.=X-X1X6X6X1X>X6X8X8X1X:X1X8X8X8X8X1X=XV.>X3X6X1X-X1.>.T.-X;X-X1.;.O.$.>.,.N.N.<.$.X.X.%.;.<.<.<.<.>.;.&.%.X.} } } } } } ( ( ( Z A A A C C C C C N N N k N C A C C M k h h h h h h h j j k k k k k k h k M M G F F F F J W R R E R R T T T Q Q F F F F H H J J J J J F H F D v d v D D D v s g i g g f g g g t g f v D m v v v v v v m G P L m m f i t t t t t t i g g f d b D H H Q K R 8.8.8.J G d d f f d d k s s s f f f s s p p p i i a a a i u u < < , , : , , < u u < < < , : : : , < u u , : : , : , y a p p p i y y p j m k p u , : y a p s s s s s s s s j j s s p p p p p p p p s j j s p i u i i u y i i i i p f s s p i i i t t y i i i i p f d d f d f f f d d d d d d f f f f f f f d d d d d d d d d d d d d b G G G d d d b H J R 6.8.8.8.8.8.K H H J 6.9.s.d.0.d.b.P.!.I.P.b.k.k.s.p.8.6.E E 6.a.l.l.l.l.l.f.f.f.*.*.*.j.*.*.%.} | | | | o.=.&.*.:.:.:.m.:.o.{ ( A / ( ( ( Z / ( } ( / ( } o.$.&.&.:.:.&.%.| ( ( o.n.B.R.R.R.n.%.( ( ( o.n.-X,X,X,X,X;XB.&.} ( &.B.,X4X4X1X-Xn.o.o.,.;X4X8XhXhX7X-X:.} &.-XhXjXjXjX4XB.&.o.-XhXcXjX1XR.:.1XNXAXAXNX4XE.m.",
"&.-XhXjXhXNXjXjXAXjX7XhXBXNX8X4X7XjXhX1X4XjX8X1XV.=X;X:X;XN.<.,.V.V.n.,.O.>.V.=X-X1X1X:X:X3X6X3X1X;X1X6X8X8X3X>XV.V.;X6X1X;XT.>.>.,.T.-XV.,.-.X.O.$.>.1.,.>.%.O.O.%.-.;.>.<.<.;.;.&.%.X.} X.} } } } } ( Z A A A C C C C C N N N N C A A S C M N h h j j k j j j j j j j k k k k k M L L P P F Q J R 8.R E E R T J J Q F F F F F H Q J T T J J Q H F D b v b D G G m s g g g g g g g g t g f v D m m m m m m m m G Y Q M v f i t t t t t t i g g f d D G H J K K R 8.8.K H b d d f d d d k s s s s s s s s p p p i i a a a a y y < < , : , , , < a u < < < , , : : , < u u , : : : : y y a p j j p y a m M L M p y y , y a p s s f p f s j j j j s p p p p p p p p p s j j s i i u u i i i i i i p p s j s f i i i i i y i i i i i s d d f d f f f d d d d d d f f f f f d d d d d d d d d d d d d d d D G G G v d v G J J R 6.8.8.9.9.R J H H K 8.0.d.d.d.d.P.P.).P.P.P.k.k.d.a.8.8.E E E p.l.l.l.l.f.a.f.f.f.f.f.j.m.f.=.| | | | | =.*.*.:.n.n.:.&.o.( C C B B Z ( ( Z ( ( X.} { { { } } } } | o.%.%.o.X.} X.$.:.m.C.B.N.&.X.( / ( o.n.R.-X;X;X;XT.:.} / } n.;X1X4X3X,XB.&.} $.B.,X7X8XhX7X1Xn.} } B.7XjXjXjXhX,Xn.} n.4XvXNXjX1X:.B.hXAXDXAXvX,Xn.",
"&.1XvXAXhXjXNXhXCXAXjX4XjXNXNXhX4X8XhX4X;X7XjX8X;XT.T.=X1X;Xn.;.$.,.V.T.<.O.;.n.=X=X=X=XV.>X1X3X1X;X=X1X8X8X6X1X;XN.V.;X1X1X>XV.-.-.<.T.N.N.<.$.X.O.$.>.>.,.<.;.$.O.X.O.;.<.>.;.;.;.&.%.o.o.X.} } } { { ( Z A A A C C C C C N N C C S Z S C N N k j j k N k k j h h j j j k k j k M L P F F Q J T ! 8.! E R W T J Q F G G F F F H Q J J T T J F F F G D D D G G G m s g g g g g g i g t g g d m m m m v m m m D L Q Y M v f i t t t t t t i g f s d D G J J K R 8.8.R H G b d d f d d d k d s s s s s f f p p p i i p a a a y y u < , : , , , < a < < < < , , : : , < u u , : : : : y y i i p s p i j L Y Y M p y : , y a s s s p p f s j j j s f p p p p p p p p p s j s p i i u u u i i i i i p p s j s f i i i i i y i i i i p s d d f d d f f f d d d d d f f f f f d d d d d d d d d d d d d d b D G G D v d b H J K R 6.8.9.9.8.K H H H R 9.s.d.0.d.d.P.P.).I.P.P.k.k.d.a.8.6.E W E p.l.l.l.l.f.a.f.*.f.f.f.j.m.j.*.=.| | o.=.=.*.*.n.n.m.*.o.( C h h l z C ( ( ( ( ( } | } { { ( ( ( ( ( } o.%.$.o.| o.| X.o.&.&.n.:.o.} / A A } &.n.R.R.-XR.n.o.( ( &.R.,X1X1X,XR.&.} } :.R.,X4X7X4X,XB.o._ ;.,XjXjXjXjX7X-X&.;.;XjXBXNX4XR.>.,XvXAXAXBX4XR.",
"&.R.jXDXNXhXNX7XhXNXCXjX1XvXCXvXhX1X1X4X1X;X,X7X7X,XB.N.-X;X;XV.$.O.<.V.V.n.;.O.>.N.T.T.<.,.V.-X-X-X-X-X1X6X6X3X;XV.>.N.;X:X>XV.>.$.%.;.<.,.1.<.$.O._ _ $.;.>.>.;.$.%.X.X.O.$.;.;.;.&.&.$.%.o.o.} { { { ( Z A A A A C C C C N N N C S S M C N N N k k N N N k j h h h h j k m k M G Y P F F Q J R 8.8.! E R R J Q Q F F F F F Q Q Q J J T T J Q F F G D D G G F G m d g g g g g g g t t t f d m D m v v v m v G F T T D d f i t t t t t t i g p s D D G H J R R 8.R R K G b v d d f d d d d d d s s s s f p p p p p p a a a a a a u u , , : , < a a a < < , , : : , < a u u : : : : y y y a a a i p m L Y L M s y : : y p s s s p f s j j j s s p p p p p p p p p s j j s p i y y y y i p p p p p f s j s f i i i i i i i i i i f s s s s d d d d d d d d d d f f f f f d d d d d d d d d d d d d d b D G G G b v b H J K R 8.8.8.8.6.K J H J 6.9.s.d.0.0.d.P.P.).I.P.d.d.k.d.a.8.6.E W W u.a.l.l.a.@.#.@.*.f.f.f.f.j.f.*.=.=.+.=.=.=.$.*.m.m.n.X.A l 7 6 7 h l l B ( ( ( ( { X.} { ( / A C x l ( | %.&.&.%.o.X./ C ( %.n.n.*.o.( C z B A o.n.R.-XR.n.$._ C ( :.B.;X;X-XB.&.( A } N.;X,X1X4X1XB.&.} } -X4XhXhXhX7X2XB.&.B.7XvXNXjX,Xn.B.4XNXCXCX8XR.",
"n.;X4XNXCXhXvXvX7XjXCXNX8X7XjXAXNX8X,X,X1X1X,X;X1X1X,X-XN.B.-XB.V.<.-.>.<.n.,.$.o.<.V.V.>.>.>.1.T.T.T.T.=X;X1X1X;X=X1.>.,.T.-X=X1.<.$.%.O.-.<.,.>.-.$.O._ X.$.;.;.;.;.$.o.X.X.X.o.$.&.&.&.$.&.o.X.} { { ( ( Z A A A C A C C C N C C S Z L M M N N N N N N k k h j j j j j k M M G G Y F L G Q J R 8.8.R R R R J Q Q Q Q Q Q Q Q Q Q Q J T R T Q H F D D G F F F G m d f g g g g g g t t t g d m D m v v v m v G Q T T D d f i t t : : t t i g p d D G G H J R R R R K J G D v v d f f d d d d d s s s s f p p p p p p i a a a a a a u u , , , a a a a a a < , , : , u a u u , : : , y y y y y y i p j M M m s a y : , y p s s s p p s j j j s s p p p p p p p p p s j j p p i y y t y i p p p p p s j j s f i y i i i i i i i i f s s d d d d d d d d d d d d d f f f f d d d d d d d d d d d d d d b D G G G b v b H J R R 8.8.8.6.R K J H K 6.0.s.0.9.d.d.P.U.I.P.P.d.d.d.d.a.8.6.E W W u.l.l.f.p.#. .#.@.f.f.f.f.f.f.*.*.=.=.=.=.=.$.*.:.:.&.( z 7 < , , 7 7 7 l B ( ( ( { } { ( ( A A B C B { | %.&.&.$.| } A x B } :.n.:.$.( C l l z } &.n.R.R.n.&.} B A &.B.R.-XR.B.o./ B ( ,.R.;X,X,X-X:.} ( +.R.,X4X7X7X7X,XN.&.n.4XjXjXjX1Xn.&.1XjXNXNXhX-X",
"1X4X1XhXAXvXjXNXhX7XjXCXNXhX8XNXCXcX7X;X-X1X1X-X;X1X4X1XR.N.N.B.=XV.>.;.$.>.,.<.;.O.;.,.,.,.>.;.,.1.V.T.N.1.N.T.=XT.N.>.-.>.1.N.T.T.N.>.%.%.%.-.-.;.;.$.O.O.X.$.&.&.;.;.$.%.O.X.X.X.o.$.%.%.%.o.| } } { ( ( ( Z Z Z A A C C C N N C S Z L L M M N N N N k k k h j j h j j M M L L L P L G G J T R 8.8.R R R R J Q F Q Q J J J J J J Q J T R R Q H G b D G F F F G D d f f f f f g g t t t g d m D m v v v v D F W E #.G m f p t : : : t t i f p d G F F H J R R R K J Q G D D v d d f d d d d d s s s s s f p p p p i i i i i a p p a u < , , a h h h h a u < , , < a h a u y : , y , y y y y y y i p s s p i y , , y a p s s s p p s j m j s p p p p i p p s s p j j j p i y y y t y p p p p p p s j k d p i y i i i i i i i i f d d d d d d d d d d d d d d d f f d d d d d d d d d d d d d d d d b D G F F b v b H J R R 8.8.6.R K J H H 6.9.0.0.9.0.d.d.P.U.I.P.d.d.d.d.d.s.8.6.E W W 6.a.l.a.p...E  .#.*.f.f.f.f.f.*.=.=.=.=.=.=.*.&.&.%.} A h 6 , , , 6 6 6 h B A } } { } { ( ( A B A A A } o.o.%.$.$.| } A z x ( o.:.:.&.} A l h h _ &.n.B.B.N.:.} A B o.n.B.R.B.B.o./ z / :.R.-X;X;XB.o.( ( &.B.;X1X4X3X7X;Xn.o.;.2XhXhX8X,X:.%.;X8XjXjX8X-X",
"jXvX4X4XNXAXvXhXjX7X7XNXAXNXhX7XjXNXjX1XR.-X1X7X,X,X1X1X1X=Xn.n.V.=XT.N.>.o.;.,.,.$.X.O.n.V.n.<.;.>.N.T.,.;.$.-.>.1.,.,.;.%.] O.;.,.,.;.-.$.%.%.O.%.$.;.>.;.%.X.X.%.$.&.&.$.$.o.X.X.X.X.o.o.o.o.o.o.| } { ( { P Z Z A A C C C N C C S L P P L M N N N k k k h j k k k j j M Y Y Y Y L G G G J J R 8.8.R R W T J Q F Q J J J J J J J J J T R R J G D b F F Q F F G D d f f f f f g g g t t g d m D m v d v D G G E ! #.F m p p i : : : t t i f s D G Q Q F J R R R K J F G D b b m d s f s d d d s s s s s f p p p p i i i i i a p h h a < , , a h h h h h a < , < < a h h a u , , y y , y : : : , y i a i i i i y y y a s s s s p p s j j s s s p p p p p p s s s j j j p i y y y t y p p p p p p s j m d p i y i i i i i i i i f d d d d d d d d d d d d d d d d d d d d d d d d d d d d d d d d v b D G F F D b D H J K R 8.8.R K J H H J 6.s.d.9.9.d.d.P.U.U.P.P.d.d.d.d.d.a.8.6.E W W 6.a.f.a.#. .U  . .@.*.*.f.f.*.*.*.=.=.=.=.=.*.=.| ( Z B h 7 , , , , 6 , 7 l B ( } } } } ( ( A B A / ( X.o.o.| o.o.o.} A z z Z { &.*.&.} A l l z } &.n.,.B.N.:.} A / o.n.B.R.B.B.o./ z ` n.-X,X,X;XB.o._ ( n.-X;X3X4X3X4X-X:.+.&.;X7X7X7XR.&.:.R.7X8X8X7XV.",
"vXDXNX4XhXAXCX7X8XjXhX7XvXAXNX7X7XjXjXjX,XB.R.,X7X4X1X1X4X4X;X,.,.N.T.-XB.&.} o.N.n.;.o.X.;.n.n.>.;.;.1.n.<.$.O.X.O.$.>.;.$.X.X.o.$.$.$.$.o.X._ _ _ _ _ $.%.X.} _ _ _ _ } X.$.&.&.$.%.%.X.o.X.} } X.X.} { { { { Z A C A N N N C M S L L L L S M N N N k k j j N N N j j j L Y U Y L L G G F J R R 8.8.E R R J J H H Q J J J J J J J J J R R R J G b b H J J Q F G D d f f f f f f g i t t g f d m D m d v D G F R p.#.Q m f p y t : : : t i g d D G Q Q J J T T K J J F G D b b v d d f s d s s s s s s s s p p p p i i i i a p p h p p a , , h h h h x h h a , , u h h h h u , u u y y , : , y , y i i i i i y y y a p s j s s s s s j j j j p p p p p p p p p s j j s p i i y y y i p f f p f f s k m k p i i i i i i i i i i f s d v v d d d d d d v v v d d f d d d d d d d d d d d d d d d d b D G H H G G G G J J R 8.8.6.K K H H H K 9.s.s.9.0.d.d.b.P.I.P.P.d.d.d.d.l.a.8.6.W W E p.a.a.a.#.E W W W #.#.*.*.*.*.=.=.*.=.=.=.=.*.+.Z A B C x 7 < , , 6 , , 6 h B A ( } } _ ( / A B / ( } | o.o.o.| | X.( A z x Z ( %.&.&.} C l h C } &.,.n.N.,.&.( B / %.n.R.R.R.N.o./ z } N.,X1X4X1XR.&._ ) ;.-X1X4X7X4X1X-X;.} -.;X3X1X,Xn.o.&.,X7X8X7X1Xn.",
"hXCXAXjX4XjXBXvX7XhXjXjXhXvXCXNXhX7XhXjXjX3X-XR.1XhX8X1X,X1X1X;Xn.;.,.T.=XB.,.o.$.:.,.>.o.o.o.,.,.>.>.>.<.n.<.$.O.X.X.X.$.;.$.O.O.o.o.o.o.X._ ) / / / / / / / B A B A B / ( _ } X.X.X.X.X.} } ( ( ( { } { { { ( Z A C N N N M A S L L Y Y L S C N N N N k k k M N N k j m L Y U Y L G L Q T T W R 8.8.R R J J J H J J J J J J J J J J J T R R J G b G F J J Q F G D d f f f f f f f i t t t g d v D m v v D D F R 8.! T m f p u t : : : t i g d D G F Q J T J J J J Q F G D b b D D d d s d s s s s s s s s p p p p i p i i p p a a p h a , , h h h h h x h h , , < h h h h a u , u y y : : , , , y i i i i i y y y a p s j s s p s s s j j j p p p p p p p p s s j j s p i i y y i i p i i p f s s m m k p i i i i i i i i i i f s d v v d d d d d d v v v d d f d d d d d d d d d d d d d d d b D G F H H G H H F J K R 8.8.R K H H H J 6.9.s.0.0.d.d.d.b.P.I.P.c.d.s.d.d.l.a.8.6.W W E p.a.a.a.#.E W W U  . .#.#. . .| | | | | | | | { C x x C x 7 6 , < 6 6 , 6 6 7 B B / ( ( ( / A / ( } o.o.o.o.o.| X.{ A C z C ( } o.&.o.( C h h C } ;.,.n.N.,.&./ B / &.n.R.R.R.n.} / z } B.,X1X4X1XR.&._ ( ;.-X1X7X7X7X1XR.&.} ;.,X6X6X,X,.o.n.,X7X8X6X;X<.",
"1XvXDXCX4X4XvXCXjX7XhXvXhXhXvXAXNXhX4X7XvXjX7X-X;X7XhX4X;X;X1X4X-X,.:.n.V.-XB.>.o.o.>.,.,.-.$.;.,.n.,.>.>.,.n.<.;.o.X._ X.$.;.$.$.$.$.$.o.X._ ) B z z z z z B B B B B B C B A / / / / ( ( ( ( A A A Z Z Z Z Z A Z A C N M C A S L P U U Y L L M N N N k k k M M M N j j M L Y Y L L M L Q T W E 8.8.8.R R J J J J J K K T T J J J J J J J R T H G b H J J J Q F G D d f f f f f f f g i t t g f d m D v b D G F E 8.! T m s p u t t ; : t t f d D G F Q J J J H F F F F G D b b D D d d s d s s s s s s s s s p p p p p p i p p a p p h a < < h h h h x x x h a , < a h x h a < , u y y : : : y y y i i i i i i y a p p s s s s s s s s j j s p p p p s p p p s j k j p p i y t y i p p i p p f s d m m d i i i i i i i i i i i f s v v v d d d d d d d v v d d d d d d d d d d d d d d d d d v b D H Q H H H H F J T R 8.8.8.K K H H J K 9.s.9.9.s.d.d.d.b.P.I.P.d.d.0.d.d.s.a.8.6.W W E p.a.a.p.#.! W W U U Y U U U | | | | { { { { { A x h h C h 7 7 , 6 6 6 , , > , l B B ( ( / A / ( } o.o.o.o.o.o.| } ( z x l C } X.%.$.| / z h h C } &.,.n.N.,.&.B z ( :.n.R.-XR.,.} / A +.B.1X4X6X1XR.&._ ( ;.-X1X7X7X7X1XR.&.} >.1X7X7X-X;.$.B.1X7X7X3X=XO.",
"-X4XNXCXvX,X4XNXCXjX8XjXNXhXhXvXCXjX4X2XhXjXvXhX,X;X1X7X1X;X,X4X1X1XT.;.<.n.V.V.,.O.O.$.,.n.>.X.;.n.N.,.>.>.<.n.,.;.O._ ` X.$.;.>.>.>.;.$.O._ ` z l l l l z B B B B B B B B B B B C B B / / A B x B C C B C A C A C N N C A S L L Y U U Y L L M M N N N k M M M M k j j G Y T Y L G G Q T W R E 8.8.8.R R R R R J J K T T T J J J J J J J T J H G G H J T J Q F G D d f f f f f f f f i t t i g d m D m D D G F E 8.! T m s p u t t : : t t f d D G F Q J J F G b G F J G D b v D D d d d d s s s s s s s s s p p p p p p i p i a p p h a < , a h h h x x x h h , , a h h h a u < < y y y : : , y y i i y i i i y a p h p s s s s s s s j j s p p p p s p s s j s j s p i i y y i p p p p p f s d m m M k f i i i i i i i i i i f s v m v d d d d d d d v v d d d d d d d d d d d d d d d d v b b G F H G G H H J J R 6.8.6.K K H H H 6.6.9.s.9.0.s.d.b.d.P.P.I.P.d.s.9.d.d.s.a.8.R W W E ! a.a.p.E E W U W Y Y Y Y Y Y { { Y Y Z Z Z Z x h 7 h x h 7 7 6 6 6 , > , > - 7 l B A / / B / } o.&.&.$.o.o.o.X.{ A l l x B } | $.%.} / l h 7 C } &.,.n.N.:.$.B z ( :.n.R.-XR.:.} / A o.R.1X7X7X1XR.&._ ( ;.-X7X7X8X7X1XR.&.} n.1X7X7X-X&.&.R.1X7X7X1XB.X.",
"1X,X7XCXNX8X,X7XjXjXhXhXjXjXhXhXjXNXjX4X,XhXvXvXhX1X;X,X7X4X,X,X1X3X1XB.;.o.>.V.B.,.o.X.;.,.N.<.&.;.n.N.N.<.>.>.>.<.>.o.X.} O.-.,.<.<.>.;.$.X.} B l l l z B B _ } _ ( / / / / B B B B B A A B z z x C C C C C C C N N N C S L Y Y { | U P L M M M M N N N M M M M k k m L T T Y L L P T W E 8.8.8.8.E R W W W R R R R R R R T J J J J J J J J H G G H J T T Q F D b d d s s s s f f f i i t t f d D D D D D G F R p.p.T G d s i t t t : t i f d D G G F F F G D b b H J F D v v b b b d d f f f s s f s d d f p i i p p p p i i p p p h h u , a h h h x x h h a , , , < a a u u < , , : : : : y y y y y y i i i i p p p p p j j j j j j j j s p p p s s f f s s j j s p i i t t i i f f f f s s k k m m m s i i i i i i i i i f f d v v v v d d d d d d v v d d d d d d d d d d d d d d d d b D D H F G G G H J J K R 6.6.K J J H Q K 8.0.0.0.0.0.d.d.b.b.U.U.U.P.d.0.0.s.d.s.a.8.R W T W E p.a.p.W W W W W Y Y L L L L Y Y L S C N N k x h < < 7 h 7 7 6 , , , > > > > , h z C B B B B } o.&.:.&.:.=.| } ( A B z C / { o.$.o.{ / x 7 x A X.&.:.n.n.>.o.B B o.n.N.T.R.R.;.` A B &.=X1X7X7X1XB.o.` / o.-X7X8XhX8X3XR.&.} N.1X7X7X-X;.&.-X4XhX8X;X,.o.",
"jX;X,XvXAXNXhX,X4XhXjXhX7XhXjXhXhXhXjXhX4X1X7XvXNXjX1X2X,X1X1X1X-X,X1X,XT.>.$.>.R.R.n.;.$.;.,.n.;.$.;.n.N.,.>.;.>.,.,.>.-.X.} O.>.<.<.<.>.;.$.O.( B z l V B ) X.o.o.X.} } } _ _ ( / A A B B z l z x C C x x C C N N N N C S L Y Y | U Y L L M M M k k k k M M M k k M L Y U T Y L Q T W E 8.8.8.8.8.E R W W R R R R R R R R T J J J J J J J J H G H H J T T F G D b d d s s s s f f f i t t t g d D G G D D G F R 8.8.T G m d p i t t t t i f d D G G G F G D b v b F Q F G b v v b D b d f f f s f f s d d f p i f p p p p i i p p p h a u , < a a h h h a < , , , , , , , , , < , , : : : y y y y y y y y i i p p p p p p j j j j j j j j s p p p s s f f s s j j s p i y y i i p f f f s s s s d d k m d f i i i i i i i i f f d v v v v v d d d d d v v v v d d d f f d d d d d d d d b b D G H F G G G J J K R R 6.R K K J J K R 8.0.0.0.0.0.d.d.b.P.P.P.U.d.d.s.l.s.d.s.a.6.R T T T W #.a.p.T Q W W W U Y Y L L L L L Z S C C C C x h 7 < 7 h 7 7 6 , , > > > > > > 6 l B C B z z _ o.&.;.:.n.*.o.{ ( ( ( { | %.%.%.%.| } A h 7 l } &.>.,.N.n.&.} B B o.n.N.B.R.B.&.( B B ;.-X1X6X7X1XB.X.( ( :.;X7X8XhX8X1XR.&.} N.1X8X7X;X;.&.;X4XjX8X-X;.O.",
"CX7X,X3XvXCXBX8X1X1X7XhXhX4X7XjXhX7X8XjXjX4X1XhXvXvXjX4X;X,X1X1X;X-X-X;X;XT.>.&.n.B.=XN.:.$.;.,.,.;.$.;.<.n.,.>.;.>.n.n.,.&.X.} o.;.<.<.<.>.;.$.X.) B z B B _ $.$.o.o.X.X.X.} } } ( B C z l l l x B C C B x C C N N N N C S L Y U | U L M C M N k k j k k M M j k M Y Y U W Y L L Q W E 8.p.p.a.p.8.R R K J J J J R R R R R T J J J J J J J J H H H J J T T F G D D d d s s s s f f f i g t g g f d G G G G G H R 8.8.T F D k s i i t t t i f d D G G G G D b v d v G Q F G D v v d b D m d d f s f s s s d s f f f p p p i i i i p j j h a , < a a a a < < , , , , : : : : , , , , , : : y y i y y y y y y i p p s s p p p j j j j j j j j j p p p p p s s s j j j s p i y y i i p p p s s s s s d d d d m s i i i i f f f f f s d v v v v v v v v v v v v v v v d d f f d d d d d d d b G G G H F H H H J J J R R 6.K J K K J J K 8.9.a.0.0.0.0.d.b.b.U.U.I.P.0.s.l.l.s.d.s.a.E W T T T T E p.#.T Q T W W U U Y L L L M M Z S A C C C N x h 7 h h 7 7 , , , > > > > > - , h z z z z z ( } $.&.:.:.&.| ( ( } %.:.n.n.:.&.o.} { / z l A %.:.n.N.N.:.$./ B / %.:.N.B.B.,.o./ B / >.-X1X3X4X1XN.X.( } N.1X7X8XhX7X1XR.&.} n.1X8XhX;X:.&.;X7XjX8X-X-.-.",
"DXNX4X,X4XvXAXNX7X;X;X7XjX4X,X4XjXjXhX7XjXjX4X,X7XjXcXhX4X,X,X,X1X-XT.R.R.,X-X,.$.>.V.B.B.:.$.;.<.,.>.$.;.<.N.N.>.;.,.N.N.,.&.} X.o.>.,.,.<.>.;.$._ / B B / } &.o.X.} _ } } } ( ( A B l l h l B C C C C x x C C N N C N A L P Y U { Y S C M N k j j k k k k j j k L Y U T Y L G G T R ! p.a.a.s.a.8.6.R J F J J R R R R R R T J J J J J J J J H H H J J T T F G D D d d f f f f f f f i g t g g g d G F G G G H R 8.8.T Q G m d g i t t t t f d D D G G D D v d d d b F F F G b v d d b m d d f s f f f s d s f f f p p i i i y i p p j h u , < < < a < < , , , , , : : , : , , , , , : : y i a y y y , y y i p s s s s p p s j j j j j j j j s p p p p s s j j j j s p i y i i p i p f s s s s d s s s s m k p i i i f f f f f s d v v v v v v v v v v v v v v v d d f f d d d d d f d b G G F Q H H H J J J R R R K J J J J H K R 8.0.s.0.s.0.0.d.d.U.U.I.P.d.0.0.0.l.s.d.s.p.E W T T Q Q E a.! T Y Y T W U U Y L L M M N A A A C C C C N h h h h 7 7 , , > - - > > > - > 6 l l z B z ( } o.&.=.&.o.( Z ( o.n.B.E.B.n.:.| ( { } A A } ;.n.N.n.N.:.o.B B ( &.:.N.N.N.:.X./ B / <.-X1X1X1X;Xn.X.( o.B.1X7X7X7X7X4XR.o.} ,.1XhXhX;X:.&.;XhXjX8X=X;.-.",
"AXAXNX4X;X7XNXCXjX4X;X,X3XhX7X1X1X7X7X1X4X7X7X3X,X,X7XhX7X4X;XN.;X;X-XT.B.T.-XR.n.&.o.,.B.V.,.;.$.>.,.,.&.;.N.T.n.>.;.,.n.n.>.&.o.o.&.,.,.<.<.>.>.$.} / B / _ X.X.} ( / A A A B B z l h 7 h z B A B B z x x x x C C C A Z L Y Y Y Y L C N k k j p j j j k k k k M L U Y Y L G G Q W ! 8.a.l.l.a.p.R J G D G F J R R R R R R T T J K K K J J J J H H J J T J F F G D v d f f f f f g g g i i i i g d D F F H H Q R 8.8.R T F D d p i i t t t g d D D D G b v d f f f v G F F G b v v v v v d d d d f f f s d d s s f p i i i i i i p p p h a u u a a < < < < , , , , , ; ; , , , , , , , : , a p i i y , y i a p s s s p a a p j j j j j k j s s p s s f s s j k j j s p i i g p p p p s s s d k k d s p f m m s i i p p f f f f f d d d v v b v v v v v v v b v d d d f f d d d d d f d b G H H J F J J J J K K K R K K J J K K 9.9.0.s.s.0.0.0.d.d.d.U.P.U.P.d.0.0.0.0.s.d.s.8.E R T T Q Q E a.#.W Q Y Y U U W T Y L M M N C A A C C C C C h h h h 6 , , > - - - - > > > > , 7 l z B ( ( { X.o.o.| ( A C { =.n.E.R.E.B.&.X.Z A ( X.&.>.n.B.B.B.N.:.X.A z _ &.:.N.N.n.&.} B z / <.-X1X1X1X-X,.} ` o.-X1X7X7X7X7X4XB.o.} ,.1XhXjX;X:.;.,XhXvX8X-X;.;.",
"jXDXCXcX1X;X4XCXNXvXhX1X;X,X4X4X;X;X1X4X1X1X3X7X1X,X,X4X7X7X4X,XT.T.T.-XR.T.T.R.R.N.,.;.n.V.V.,.;.;.,.,.n.$.$.N.B.N.,.:.n.N.n.>.&.o.o.;.>.,.,.,.,.;.%._ B / _ X.X.X.( A B B z z l l h 7 h l C A A C x z l l x x C A A Z Y Y Y Y Y Y L C k k k j p j j k k k k m M Y Y Y Y G M G T E p.a.l.l.l.p.E T F D D G Q J R E ! R R K T T J K K K J J J J Q J J T T J F F G D v d f f f f f g g g i i i i g d D G H H Q J R 8.8.8.R Q G D s g i t t t i d m D D D b v d f f f d D F F G b v v v v v d d d d d f f s d d s d d p i i p p p p p p p p a u < , , , , < , , , , , , ; ; ; , , , , , : : , a p p a i y y i p p s s s p a p s j j j j k k j s s f s s f s s j k j j s p i i p p p p f s s k d k k d s p f m G d f i p p f f f f f d v d v v b v v v v v v v b v d d d f f d d d d d d b G G H H H J J J K K K K K K K K K K K K 9.0.s.s.0.0.0.0.d.d.U.U.P.P.d.s.s.0.9.9.s.d.s.8.E R T T Y Q E a.p.W Q Y L L Y W U U L L M M k N C A A C C C C N x h , , > > - - - - - - > > , h l z B / ( A A { { { ( A A { $.:.B.E.E.C.&.X.{ } o.:.B.R.;X;X-XR.B.&._ B / o.:.n.N.n.,.o.( z z ` ,.-X1X1X,XT.>.X.` o.-X1X7X7X7X7X1XB.o.} n.1XhXhX;X:.;.,XhXvX8X-X;.;.",
"1XCXDXCXjX,X;XhXvXBXNXhX1X-X,X3X4X;X-X;X4X,X;X,X1X,X;X;X,X4X7X4X,X-XB.B.R.T.B.T.B.T.B.,.>.,.T.=XN.>.;.>.B.>.&.,.B.T.B.,.,.B.B.n.&.%.o.o.&.>.,.,.>.&.X._ / ( X.X.X.o._ / B z z z l l l l l B B B C x z l z x x x C Z Z Z Y Y Y { Y Y S M N k j j p p j k N k N M L Y Y Y F G G Q R ! p.a.l.k.l.p.W F G D G Q J T R E ! R K K K K K K K K R T T J J J J R T J Q F G D v d f f f f f f g g g g g i f d D G H F J R 8.8.a.8.R J H D d p i t t t t f D D D D b v d f f f f b Q Q H b b b v v d d d d d d d f s d m m v d d f f s f f f s s p p h a < , , , , , , , , , , , : ; ; , , , , : : , y p s s p a i y i p s s s s p s s j N m m m m m k j s s s f f s s j k d s f i i p p p p p p s k k m m m k s s f m L m s i p s s d s f s d v v v b b b b b b b b b b b d d d f f d d d d d v b H H H H J J J K K K K K K K K K K K 7.9.0.0.0.0.0.0.0.0.d.U.U.U.P.d.s.0.0.9.8.8.l.d.l.8.E R T T Y Q E p.@.U Y Y L L L T W U L L M M k k C C A C C C C C C h < , , > - - - - - - - > , 7 z z B B C B z C A { ( Z Z } %.*.n.m.m.:.&.o.o.&.n.R.;X,X1X1X,X-XB.&.( ( o.:.,.B.V.n.;._ / z z o.n.-X1X1X;XB.$.` _ o.R.1X7X7X7X4X,Xn.X.} B.4XhXhX;X:.:.,XhXvX8X-X;.>.",
",X7XBXAXCXhX,X;X4XvXNXvXjX4X-XR.,X1X;X-X-X;X,X-XR.1X,X-XR.-X,X4X4X1X-XB.N.B.T.R.,.B.R.B.>.<.N.-X-XN.;.$.B.T.N.,.N.T.R.B.N.B.T.B.>.&.$.o.%.&.;.>.o.X._ / / _ X.X.} X.} ( A B B B B B z B B B C B x x l l l x x x A Z Z Y { Y Y { Y Y S M k x x h h a j N N N M L L Y Y Y L F Q T ! p.a.l.k.l.l.! J G G G F T T R E E R R K K K K K K K K R T T J J J J R T T Q F G D b d f f f f f f g g g g g i f s v G F J K R 8.9.a.8.E J Q G D d g i t t t g m D D D b d d f g f f v H Q H D b b v v d d d d d d d d s d d m m m s f s s s s s s s s p p a u u u , , , , , , , , , ; ; ; , , , : : , , a s j N j p a i a p s s s s s s s j m m m M M k k j s s s f f s s j k d s f i i p p p p p s s d d k v m k s f s m L G k i i s s s s s s d v v b b D D D D D D b b D b v d d f f d d d v v b G H H H H J J R R K K K K K K K K K K 9.9.0.0.0.0.0.0.0.0.U.U.P.P.P.d.9.9.9.8.8.8.s.d.l.8.E R T T Y Q E #.#.U Y Y L G G P W U L L M C k k N N C C C C C C C x 7 , > > - - - - - - - > , 7 z l l x x x x h B ( { { { } o.=.=.&.&.%.o.o.&.:.R.-X;X,X4X1X,X,Xn.o._ o.;.n.N.T.B.,.$.` B B / ;.n.;X;X;X-Xn.o.( _ o.R.1X7X7X7X4X;X,.X.} B.4X8X8X;X:.&.;XhXjX8X-X-.;.",
"4X,X7XCXAXBXhX1X,X3XjXCXNXhX1XR.R.;X,X,XR.B.-X,X;XR.-X,X,XB.B.R.1X1X1X,X-XB.B.-X,XN.N.-X-XN.N.R.-X;XR.:.N.;X=X,.N.R.,X-XB.N.T.-XN.,.&.} X.o.$.&.X./ B l B ( } X.X.X.X._ ( ( ( / / ( A B A A B B z x l h h h x C Z Z Z Y { { { { | | S C N k k h h a h N M M M L L Y Y Y Q Q T E 8.a.l.d.l.a.! W F G G F T T E E ! R R T K R R R R R R R R R T J J J R R T J F F G D b d f f f f f f f g g g g g f d d G F J R R 8.0.a.p.8.W J H D d f g i t t i d D D v v d d f f d d d G Q Q F D b b v v d d d d d d d d d d v m m d s s s d d s s s p p p p u u y , , , , , , , , , ; > ; > , , , , : , u j N N N s p a p p j h h s s s s j j j j m m k j j s s s f f s j k k k s f p p p p p p p s s k k k m m m d f s m G G m f i d d s s f f d v m b D D b D b b b b b b b v d d d d d d d d b b H H F F Q J K K K K K K K K K K 7.9.0.0.0.0.0.0.0.d.d.b.P.P.P.P.P.d.9.6.8.8.8.8.8.l.d.l.p.! W W T Q T E #.#.W Y Y L G G G W W L M M N k x x N N C A C C C C C h 6 > > > - - > > > > , 6 h x l x h h x C A ( { o.%.%.o.o.} ( Z Z { | %.:.B.R.-X;X,X1X1X1X-Xn.} } &.n.R.-X-XR.n.o.( z B X.,.T.;X;X-X=X;.` ( ( ;.-X3X7X7X7X4X-X:.X.$.;X7XhX7X-X;.&.;X7XjX7XT.o.;.",
"vX1X;X4XNXAXNXhX3X-X,X7XvXvXhX1XB.N.-X4X1XR.B.;X,X;X-XR.-X;XR.B.T.,X4X7X1X-XR.T.-X-XR.R.1X;XB.n.,X4X1XR.N.R.-XB.B.R.1X1X-XB.B.B.B.n.>.%._ X.o.o.o._ A z z B ( } X.X.X.} } } ( ( _ _ ( / A B B z x x l h h x x A Z Z Y Y { { { { | | S C N N k h h h x N M M L L L L Y Y T T ! p.a.l.d.d.a.p.W Q F F F F T W E E E R T T K R R R R R R R R R R J T J K K J J F F G D b d f f f f f f f g g g g g f f d D F J R R 8.9.a.p.8.6.T Q G b d g i t t i d m b v d d d f f d d d D Q J J H D b b b v d d d d d d d d v m m m m m v d d d s s s s p p p u u y , , , , , , , , , ; > > > > , , : : : < h N m j j p p p s s j j s s s s s j j j j k k j s s s s f f j k k k j s p p p p p p p p s d k k k k m k d f s m G F D s f d d s s d f d v m b D D D D D b b b b b b b v d d d d d b b b b H H F F Q J K K K K K K K K 7.6.9.0.0.0.d.d.d.d.d.d.b.b.U.P.P.P.b.s.8.6.6.8.8.8.8.a.d.l.p.E W T Q Q T E E E T Y Y L G M G U W Y M M k x x h x x N C N x N x x l 7 , > > - - > > > , , 7 l z z x x x C Z ( { } o.%.%.%.o.| A C C A ( o.:.B.R.R.-X,X,X,X-XB.:.%.&.n.T.;X,X,X-X,.X./ z ( &.B.-X;X,X-XB.O.( ( X.N.,X4X7X7X7X4XR.&.X.;.,X7XhX7X-X;.;.,X7XjX7XB.o.>.",
"AXhX,X,X4XvXCXNXhX;XB.;X7XvXvXhX7X-XB.-X1X4X,XB.-X,X-XR.R.,X;XT.B.R.1X7X7X4X3X-XR.1X1X-X;X1X1XT.1X8X8X1XT.B.-X;XR.R.,X1X,X-XB.n.N.n.>.$.( _ } o.o.o.( B z z B ( _ } X.X.} _ _ ( _ _ ( A A C V z z l l h h l C Z { { { { { { { { { | Z C C N k k h k N C M M M L L L Y T T ! p.a.l.d.d.a.p.E T Q F J J T T W E E R R T T R R R R R R R R R R R T R T T R T J Q F G D b d s f s s d d d f g g f f f f d D F J K 6.8.9.a.p.p.8.R J F D d f g i t i g d b v d d d f d d d d v F J J J H D b b b v d d d d d d d v v m D G D M m v s s s s s p p i u y , , , , , , , , , , , , , , , , , : : : , a j j s p p p s j j j j s s s s s s j j j k k j j s s s f s k k m m j f p p p p p p p s s m k k k m m m d s s m G F G d s d m d d s d d m D D D D D D D b b D D D b b b d d d d b b b b G H H G H J J K K K R R R K 6.9.9.0.0.0.d.d.d.d.d.d.b.P.P.P.P.P.P.s.6.K K 6.8.8.8.9.0.d.s.p.! W W Q Q W E E W Y L L L G G G L W U L C k x x h h h x N N x h x z l l 6 > > - > > > > , 6 h x B B B B A Z { { | } X.o.| } { ( C x C A } %.n.B.R.R.R.-X;XR.n.:.&.:.B.R.,X3X3X1X-X>.} / z } ,.-X;X1X,X-XN.o.( ( &.-X1X7X7X7X7X1XR.o.o.n.1XhXhX7X-X;.:.1XjXcX7XB.&.<.",
"DXAXjX1X,X4XvXCXvX4X;X-X-X7XvXNXjXhX1XR.;X1X1X,XB.B.;X1X-XR.;X,X;XB.R.1X7XhXhX3X;X,X3X1XT.1X8X3X;X8XjX7X,XN.-X1X,XR.-X;X,X,XR.n.&.>.&.o.` ( _ X.o.o.X.( B z z B ( _ X.X.} } } } } } ( / B B z l l l l h x z A Z { | { { Y { { | | | Z C C N N k x C C C M M M M L Y T T ! #.a.l.d.d.l.p.! E T Q T T T T T W W E R T T T R R R R R R R R R R R R R T T T T J Q F G D b d s f s s d d d s g g f f f f d D Q J K 6.9.0.a.p.p.p.6.R Q G b d f g i i g d d v d d d d d d d d v D F J J J F G b b v d d d d d d d v v m D G G G G D m j j j s p p i i y y , : , , , , < , , , , , , , , > > : : , a h p p p s p j j j j j s p s s s s j j j k k j s s s s f s k m m k s p p f p p p p p s d m m m m m m m d s s m G P F m d v m m d d s d m D D D D D D D b b D D D b b D v d d d b b b D G H H G H Q J K K K R 7.K 6.9.0.0.0.0.d.d.d.0.d.d.b.P.P.P.P.I.P.d.6.K J J R 8.8.8.9.0.l.s.8.E W W T T W E W T Y L L L G G G L Y Y L C C x x h h h h x h h h h x l h 7 , > > > - > > , 7 h x A A A A Z ( { { { ( ( ( ( ( ( Z A B Z { } o.:.C.T.R.R.R.-Xn.&.&.:.B.;X,X3X7X4X3X-X&.( / / $.N.,X,X1X1X-X,.X./ ( n.,X3X7X7X7X7X3XB.} o.T.4XhXhX7X-X;.,.1XvXNX8XV.;.,.",
"CXAXAXhXR.-X4XvXvXjX7X1XR.-X4XjXjXjX7X2X-XR.2X7X1XB.B.;X3X,X-X-X,X,X-X-X7XvXjXhX7X1X1X7X;X-X7X7X,X1X7X7X3XB.n.-X1XR.B.R.-XR.N.;.} o.o.o.X.` ` } } o.o.X.( B z z B / ( } } } } } } _ ( / z z z z l l x l l C Z { { | { { { { | | | | S C N C N N C C N N N N N M L U E #.#.a.a.l.k.k.a.p.E W T T W W T T T W W W R T T R R K R R R R R R R R R R K K K R T T Q Q G D b d d d d d d d d d f g g g f f d D G J J R 8.a.s.s.a.a.p.8.J F G D d d g g g f d d d d d d d d d d v D G H J J J F G b b d d d d d d d d d D G G F F F G D m m s s s s p a u y , , , < < < < < , , , , , , , , > ; : : < a a a p h j j j j j s p s s j j j j j j j j j s s p s s s d m m d f f p f p p p p p s k m m m m m m m d d s m G F F G m d v v v d d v v b D D D b b b b b D D b b b b b d d d b b b G H H H G H H J K K K 7.7.7.9.0.0.0.0.0.d.d.d.0.d.b.U.U.P.P.c.d.k.s.R J Q J K 6.8.8.9.a.l.s.9.8.W W T Q W E T L Y M G L L G M L L L L M C x x h h h h x x x h h h h h 7 , > > > > > > , 7 l z B A A A A A Z Z ( Z A A A Z Z ( { } } } | | o.:.:.C.B.N.&.o.X.o.:.R.,X,X3X4X4X1XB.%.( A ( >.-X,X1X3X1X-X;.` B +.R.1X7X7X8XhX7X1XB.o.$.-X7XjXjX7X-X;.R.7XvXCXcX1X;.;.",
"jXAXAXCX7X,X,X1XhXNXvX7X;XR.R.,XhXjXjX7X1XR.R.;X7X1XR.B.;X4X3X-X-X3X1XR.,XjXNXvXjX4X3X7X3X-X;X7X1X;X1X7X4X-Xn.n.R.B.B.n.,.,.;.o.o.o.o.o.o.X._ ` } X.o.o.X.( z l l B / ( } } } } ( ( / B z z z z z l x x x A ( { | { { Y { { | | | | Z C N N C N A C N k k N M S Y W #.#.p.a.a.l.l.l.a.8.W T T W R R W T T W W W T T R R R K R R R R R R R R R R K K K R T T Q Q G D b d d d d d d d d d d f g g f f d D D F J R 8.9.s.s.s.a.a.p.K J F G G d d g g f d d d d d d d d d d v D D F Q J J J Q G b b d d d d d d d d d D G G F F F F G G M m m s s p a u u , , , < < < < , , , , , , , > > ; : : , , u a p p j j s s p p p p p j j j j j j j j j s s p s s s k m M d f f f f p p f p p s k m m m m m m m d d d m D F F G D m v m m d d v v b D D D D D D D D D D b b D b b d d d b b b H H H b b H H J K K K 7.7.9.9.0.0.0.0.d.d.d.U.b.U.U.U.b.b.b.d.s.s.8.R J Q J K 6.8.8.9.a.l.s.8.! W W T T W E T L L M M G L L G L M M M C k x x h h h h x x h h h h h 7 6 > > > > > > > , 7 h C C C C C C C C C A A A A Z ( { } | | | | +.+.=.&.*.:.*.%.( Z ( | n.R.,X,X3X4X1X,XB.$.} } >.-X1X3X7X7X3X-X&.` ( &.;X4XhXhXhXjXhX4XB.%.:.1XhXvXNXjX;X,.R.hXCXAXBX7XN.;.",
"4XNXAXDXCXhX,X;X2XjXNXvX7X;XB.B.2XhXjXjXhX1X-XB.1X7X3X-XB.3X7X1X-X1X7X1XR.4XNXCXNXhX3X1X7X1XR.,X4X-X-X1X1X,XN.;.,.N.n.:.o.o.o.o.o.o.o.o.o.$.X.` ( } o.o.o.} / z l l B / } } } } ( / B z l z z z z z x x C Z { | | { { Y Y { | | | | L C C C C C C k x h j N S Y U #.@.a.p.a.a.l.l.l.p.E T T W W R R T T T W W W R T R R R R R R 8.8.R R R R R R R R K R R T J Q G D v d d d d d d d m m m f g g f f d v D G J K 8.9.s.l.d.l.s.a.8.J J F G D d f g g d d d d d d d d d d v D D F Q J J J J Q G b v d d d f d d d v D D G G G F F L L G G M j s s p a u < , , , , , , : , > , , , , , , , : : , , u a a h p p p p a a a a p j j j j j k j j j s s p s s s m D m k s f f f p p f p p s k m D D m D D m d d m D D F F F G m m D D m v d b D D G G G G G G G G G b G G b b d d b b b G H Q H b b H H J K K K 6.7.9.0.0.0.0.0.d.d.U.U.U.U.P.U.d.d.d.s.a.p.R J J Q J K 6.8.8.9.a.s.s.9.! W W T T W W T L G L M M G L L L M k k k x x h h a h h h x h h h h h 7 6 , > > > > > , , 7 h x C C C C C C C C A A Z Z ( { } | | o.o.o.o.$.o.| | o.X.( A A } &.n.R.,X,X1X1X,XR.:.o.X.:.-X1X7X7X8XhX7X-X&.} } n.,X7XhXjXjXjXhX7XR.$.&.,XjXNXCXcX1XN.N.4XNXDXAXjX-X&.",
"1X4XvXAXAXNXhX1X;X1XjXBXNX7X;XB.B.2XhXjXvXjX4X-XB.3XhX7X-X;X7XjX4X1X3X7X1X,XjXCXCXjX3X-X7X7X-XR.1X1X-XR.-X,X-Xn.;.:.:.:.o.o.} o.o.o.o.} X.o.o.} / ` X.o.o.o._ B l h l B ( } } } A B z l l z z z x l x x A ( { } | { Y Y Y { | | | | L C C C C C N x x h k M Y | #.#.a.a.a.a.a.l.l.a.p.R T W W W R R W T T T T T T R R R R ! R ! 8.8.R R R R R R R R K R R T J F G D d d f d d d d d D D D d f g f f d d b G J J 6.8.a.s.l.l.s.a.9.R J J G D d f f g f d d d d d d d d d v D D F F F J J T T Q G D d d d d d d d d D m D D D G G L L L L G M j s s p a < < , , , , , , ; > , , , , , , > , : , , < a a a a a a a a a a a p j j j j j j j j j s s p s s s m G M k s f f f p p p f i s k m D D D D D m d d D D D G F F G D m m D m v v b D D G G G H F F G G G b G F G b b d b b G H Q Q H b b H H K K K 7.8.9.9.d.0.0.0.0.d.U.U.U.U.U.U.P.s.0.9.9.8.6.W J J Q J K 6.8.8.9.9.s.l.8.! R W T T E W T Y G L M M M G G L M k k x x x h h h h h x x h h h h h 7 , > > > - > > > , 7 h x C C C A A A A A Z ( | } { } | | o.=.=.$.+.$.+.{ C ( ( / ( { $.m.n.R.,X,X,X,X-XN.&.X.o.R.,X4X8X8XjXjX7X-X;.o.&.B.7XjXNXNXBXCXNXjX,X>.:.;XjXCXAXBXjX;XN.1XhXAXDXBX7XB.",
"hX,X1XvXAXAXNXhX2X,X4XjXNXvX7X,XN.B.,XhXNXvXhX1X,X,X7XjXhX,X,XhXhX1X-X7XhX1X4XNXNXvX7X;X-X4X;Xn.-X;X;XB.n.N.n.;.&.o.&.,.:.&.o.o.o.&.o.o.} o.o.} ( ( } o.o.o.o.} B l h l B B B C B z l l z B z z z l h l A ( } } | { Y Y Y { | | | | P Z C C C k k k x x N A U #.#.@.@.p.a.a.l.l.l.a.p.E W W W E E E W T J T T W R R R ! ! 8.8.8.8.8.8.R R R R R R R R R R K J F G b d d f d d d d d D D D d d s s s d d b D H J R 8.9.a.s.s.s.s.9.R J Q G D b d f f f d d d d d d d d d d v b D F F Q J T R J J G b v d d d d d d v b D m m D G G L F Y L L M M s p a a a u < , , , , ; ; , , , , , , , , , , < < a a a a u < u u u a a p j j j k k k j s s s s s s s m m G M k s s f f p f f f f s m D D D D G D m d m D G D D F F G D m D D D v v v D D G G F H H H F G G b b G H D b b D G G H J H H b b H H K K K 7.9.9.0.d.d.d.d.d.U.U.U.P.P.P.b.d.8.8.8.6.R T T T T J J K R 8.8.8.a.s.a.8.E R W T W E W T T L L M M M M L L M k x h x x x x h h h x x h h h h h 7 , > > > - > , , , 6 h h x C A A Z Z Z Z ( ( { } | } | +.o.o.o.| } } +.} A A ( ( o.&.:.n.R.R.R.R.R.B.:.&.X.o.:.-X1X4X8XhX7XhX4X-X:.&.T.4XjXNXCXAXAXAXCXNX7XR.n.;XvXCXAXAXBX8X-XB.7XBXHXDXNX4X",
"NX4X,X1XvXAXAXNXjX3X;X,XhXNXvX7X;XB.R.1XhXNXNXjXhX1X3XhXvX7X,X1XhXhX1X4XhX4X3XjXvXvX8X1X-X;X;XR.n.n.B.N.;.o.o.&.&.o.&.;.:.:.&.o.o.o.&.o.o.} o.o.} } ` } o.o.o.o./ z h l l l l l l h l z C B C B z h h z Z { } | { { Y Y Y { | o.| | P Z C C C k x k x x N S | #.#.#.#.#.p.a.a.l.a.p.E W W E W E E E W T J J T W R R ! ! 8.8.8.8.8.8.8.R R R R R R R R R R K J F D v d f f d d d d d D D D D k d d d d d b D G J R R 8.a.a.s.s.s.p.8.R J F F D b d d v d d d d d d d d d d d b b D F H J J R R T J G b v d d d d d d v D m m m D G G L F Y Y L L m s p a a a a < , , , , > , , , , , , , , , , < < < a a a u < < u u a a p p j j k k j j s s s s s s j m G G D k s s s f p p f f p s D G G D D G D k d D G G D D G F G D m D D D D v v D D G F H Q Q H G G G b b G H G D b D G H J J J H n b H H K K 7.6.9.0.d.b.d.d.b.U.P.P.P.P.d.d.l.9.R R W W T J T T K K K K K R 8.8.a.s.p.! R R W W E E W T Y Y L L L M m M M M M k h x x x x h h h x h h h h h h 7 6 , , , > > , , 6 a h h x x C A Z Z Z Z ( { { { { { { | } } { ( ( ( { } } X.o.%.&.:.n.n.R.R.E.T.n.&.X.} } o.n.-X1X4X7X7XhX7X1XB.:.:.-X7XvXNXCXAXAXAXCXNXjX,XB.,XvXCXAXDXAXNX4XB.2XjXAXAXAXhX",
"AXjX1X;X4XvXAXAXBXhX,XR.1XhXNXvXhX2XR.R.1XvXAXAXvX7X1X1XjXvX7X,X4XcXhX3XhX8X1X4XkXjXhX4X,XB.B.R.:.o.o.;.&.o.} o.o.o.o.o.;.,.:.&.&.o.o.o.o.} o.o.o.o.} ( } o.%.%.X.C h 7 l l l 7 7 l z B A A B B z h z A ( } } | { { Y { { | | o.| | P Z C C C k x k k x C L | #.#.#.#.#.a.l.s.a.p.8.W W W W W E E E W T J J T R R R ! 8.8.8.8.8.8.8.8.8.R R R R R R R R R K J F b d d f f d d d D D D D D D D d d d d d d D G H J R 8.8.a.s.s.s.s.a.8.K J F F b b b b b b b b b b d d d d d d v b D F H J J R R T J G b v v d d d d d m m m m D D G G G L Q L L G m j a a a h a < < , , , , , , , , , , , , < < < < < < < < < < < a a a p p j j k k j j s s s s s j m M G G M m j j s s f p i p s k D G G G G D m d d G G G D D G F G D m D D G D v v D G G F F Q Q H F H G G b b H H b b G F Q J K K Q H b H H K K 7.9.0.0.b.d.d.b.P.P.P.b.d.d.d.9.8.R T W W W T Q T T K K R R K R 8.8.d.s.p.E R T T E E W W Q L L Y Y L M M M M N k x h h x x h h 7 h h h h 7 h h h h 7 6 , , , , , 6 h h h x x x C A A A A A A A A A Z Z Z Z ( Z A A Z ( } } &.&.:.:.n.m.n.N.C.m.:.:.o.} } } &.:.B.R.,X1X4X4X4X,XR.:.&.n.,X7XjXvXNXNXCXCXNXvXhX;XB.,XjXCXAXAXAXNX7X=X-XhXBXAXAXjX",
"AXNXhX1X1X4XvXAXNXvX7X,X-X1XhXNXNXhX,XR.R.hXAXAXCXjX7X,XhXvXjX2X1XjXhX4X7XhX4X1X4X7X7X3X1XB.C.n.;.&.} o.:.:.&.} o.&.;.o.o.;.,.:.;.&.o.o.o.} } o.o.o.} } ( } %.%.%.A l h 7 7 7 6 7 h z B A A C z l l B ( { | | { { { { | =.=.| | | { P Z A C k x x k N x S U #.@. .W W ! a.l.s.p.8.E W W W W E E ! E W T J J K R R ! ! 8.8.8.8.8.8.8.8.8.R R R R R R R R R J J F b d f f g s d d D D D D D D G m d d d d v D b G J K 6.8.9.a.s.l.l.s.a.6.K H G G D D b b D D D D D b v d d d d d v b b G F J J J J J J F D b b v d d d d v m D D D D G G G L L L L M m j h h h h a < , , , , , , , , , , , , < < < < < < < < < < < a a a p p p j k k j j s s s s s j m M G G M m s j s s f p p s k m G F G D G D v d d G G G D D G F G D m D D D G D D D D G F Q Q Q H H H G G b b G H G G G H J K K K Q H b H K K 7.7.0.0.d.d.d.b.U.P.P.b.d.d.d.a.8.R J J W E E Q F T T R R R R K K 6.8.d.a.8.R T W W E E W T Y L L Y T Y G M M N k h h h h h h h 6 < 7 h h 7 6 6 7 7 7 7 < , , , , 6 h h h x x x x C A x x x x h h h x x x C C C C A A / } o.&.:.:.n.C.B.B.B.B.:.&.o.} } X.o.&.&.:.;.&.:.N.R.R.R.n.:.%.o.:.;X4XhXjXvXvXNXNXvXhX1XR.B.1XjXNXCXAXBXvX7XB.,XhXNXAXBX7X",
"AXAXCXhX;X,X7XNXFXCXjXhX-XR.2XvXNXNXhX,XR.,XCXAXZXCXjX4X4XvXNX7X,X7XvX7X1X7X7X1XR.1X4X3X,X;XR.B.N.,.&.} o.&.;.o.o.&.&.$.o.&.:.:.,.;.o.o.o.o.o.o.o.o.o.} Z } o.o.o.( B l h 7 6 6 7 l B A A B B z l z B ( } } } { { Y | =.*.=.| | { { Z Z A C C x x k N A L | #.U Y U W ! a.a.a.p.p.! W W E W E #.! W T W T T R R ! ! ! 8.8.8.8.8.8.8.8.8.8.R R R R R R R K J Q F b d s g g f d v v v D m D D D G D d d d b b b G H J R 8.8.9.a.s.s.s.s.9.K Q H G G G G G G G G G G D b b b b b b b b b b G Q J Q J J J F F G b b b v d d d v m m M M G G G G L L Q L M m k x h h h < , , , , , < < < , , , , < < < < < < < < < < < u a p p p p j k k j s p s s s s m m M M M M m j j s s f f f d m M G F L G D m d s d D G G D G G G G D D D D G G G D D D G Q J J J J Q H H G b G F H H F H H J K K K H H b H H K 7.9.0.d.d.d.b.P.P.P.b.d.d.d.l.9.R R R T T W T Q F Q J R R R R R R 8.a.l.a.8.T T T E E E W W T Y L Y U Y L M m k h h h h h h h h h < < 7 6 7 6 < < 7 7 7 < < < < 6 7 h x x x x x x C C x x x h 6 6 h h x z B B A Z ( { o.&.&.&.&.:.n.B.B.C.:.;.} } o.%.&.&.&.&.o.} ( o.&.:.B.R.R.N.:.&.&.n.R.R.,X1X7X7X8X7X4X1XR.:.B.1XjXvXNXNXjX7X-XB.,XhXNXNX8X;X",
"cXAXCXNX7X,X,XhXCXAXCXvX4X-X-X2XvXCXNXhX-X;XhXNXDXZXNXhX,X7XvXcX7X3XhXhX1X1X,X1XR.B.R.R.R.R.R.R.R.B.n.:.o.o.;.:.:.o.o.o.o.o.&.:.,.:.&.o.o.o.o.o.o.o.o.} ( } o.o.o.} A l h 7 6 6 h z C A B B z l l z / ( +.} } { Y { | =.=.| | { Z Z Z Z Z A C x k N N S Y |  .Y Y Y W #.a.s.s.a.p.! E W E E ! #.! T T T W R ! R ! ! 8.8.8.8.8.8.8.8.8.8.8.R R R R R R K K J F F D d f g g s d v v v D m D D D G D k d v D D b b H J K 6.8.8.9.a.s.s.s.9.R J H G G G G G G G G G G G D b b b b b b b b b G J J H H Q Q F Q F F G b b b v v d v m m G G G G G M L Q L L M N N x x h < < , , , < < < < < , < < < < < < < a < < < < < a a a p p s k k j j s p s s s m M M M M M m m m j s s f f f d m D G F L G D m d d v G G G D G G G G D D D G G F F G D D G Q J J J J J H H G b G H J J H H H J K K K H n b H H 7.6.9.0.d.b.b.b.P.P.b.d.d.d.l.a.8.R K T T T T T J Q Q J K R R R R R 8.s.l.p.R J T T E E U W U T T Y L Y Y L M N j h h h h h h h h h 6 < 6 < < < , < < 7 7 6 < < 6 7 h h x x x x x x C C x x x x h h x x C B A ( ( { } | ;.:.:.n.:.:.:.:.:.:.;.&.&.&.&.:.;.&.o.} ( / ( o.:.n.B.T.B.B.n.n.:.:.:.&.n.R.,X1X1X,XR.B.&.&.N.,X1X4X4X1X,XR.B.R.,X7X7X1X-Xn.",
"4XvXCXCXNX4X-X,XjXCXAXNXjX4XR.R.hXCXAXNX1X-X2XjXAXZXCXcX,X,XhXvXhX,X1XhX4X,X-X,X,XR.B.R.n.n.n.B.B.B.B.N.:.&.&.:.n.;.o.} o.&.o.&.;.:.;.o.o.&.o.o.o.o.o.| { ( } %.o.o._ z h 7 7 h l B A B B B l l l B ( } | | | { { | =.=.| | { Z Z Z Z Z Z A C k N C C S U #.U S Y Y #.p.a.l.s.a.p.! E W W E #.#.E T Q T W E ! 8.8.8.8.8.8.8.8.8.8.8.8.8.8.R R R R R R K T J F F D d f g i p d m v D D D D G G G G D d v D b b b G H J R 6.8.8.9.s.d.d.s.8.K Q H G G G G G G H H Q H G D G G G G G G G G H J J F F Q F F Q Q F F H G D b v d d m m G G G G G M G G L L S M N N k x h < , , < < 7 h < < < < < < < h h a a a < < u a a h h p p j k N j j p p s s s m M M G M M m m m m s s s f s d m D G G F G D m m d m G G G D G G F F G D D D G F F G D D G Q J J J J J Q H G b b H J Q H H H J K K K H H n H K 7.9.0.d.b.b.b.P.P.P.b.d.d.0.9.8.8.W J J T T T T J J Q H J R R R R ! a.s.s.8.R J T T E W W T Y Y Y Y L L Y Y M N j h h h h h h h h h h < < < < , , < < 7 7 < 7 < 7 h h x x x x x x x C C C C C x C C B A ( ( } X.o.o.$.&.n.n.:.:.:.&.$.%.$.&.:.:.:.:.:.:.&.o.` A / ( } &.n.B.B.E.B.B.n.n.:.&.&.&.:.B.R.-XR.B.:.%.} &.N.R.R.B.n.,.;.;.N.R.-X,X;X=XB.:.",
"1X1XjXCXCXjX2XR.1XjXCXCXBXhX2XB.1XvXAXNXjX,XR.7XBXCXCXvX7X-X2XhX7X1XR.;X4X1X,X;XR.R.B.B.:.&.&.%.n.B.B.B.B.n.&.&.,.;.&.o.o.o.o.o.o.;.:.&.o.o.o.o.o.o.o.o.} Z { $.o.o.} A 7 h l l z B A C B z l l z / ( } +.| | | | =.=.| { { P Z Z Z Z Z Z A C k N C C S U | L S Y U #.p.a.l.s.a.p.! E W W ! #.! W T Q T R ! 8.8.8.8.8.8.8.8.8.8.8.8.8.8.8.R R K K K K R J J F F D d f g i p d m D D D D D G G G G D b b D D b b b H J R R 6.8.8.9.s.d.l.9.R J H G G G G G G H F Q Q F H H G G H G G G G H F J F H F F Q Q Q F F F F H F D m d d m m G G G G M M G G L L M M N N x h < , < < 7 h h h 7 < h 7 h 7 h h h a a < u u a a h h h j j N N k j p p p p s m M M M M M m m M m s s f f s d m D G F F G D D D m D G G G D G G F F G D D D G F F G D D F Q J J J J J Q F G b b H J H H H H J K K K H H n H K 7.9.0.d.b.b.U.U.U.U.b.d.0.8.8.! E T J J T J J T J J Q Q J K R R ! 8.s.a.p.8.T J Q T W W W Y Y L L L L L Y U S N j h h h a a a a h h h a < < , , , < < 7 7 7 7 7 h h h x x x x x x x C A C C C C B Z ( ( } X.o.%.&.&.*.:.n.:.;.&.o.X.X.X.o.&.:.n.n.:.:.&.o.} ( A A } &.n.B.B.B.B.R.n.:.&.o.o.&.C.B.B.B.B.R.n.&.} o.:.B.C.n.$.} } o.>.B.T.-X;X;X-X-Xn.",
"7X,X1XvXCXCXhX-XR.4XNXCXAXNXhX,XB.7XCXDXvX7XR.B.hXNXCXNXjX2XR.2X3X,X;XR.-X;X,X;X-XN.n.B.B.n.:.&.$.:.B.R.R.B.n.:.;.;.&.&.o.o.o.o.o.;.:.:.&.o.$.o.o.X.o.%.o.( ( &.&.%.o.( B B B B B / A B z l h l C / } } } } | | =.=.| { Z Z Z Z Z Z Z Z Z Z C k k C C A Y S M S L W #.a.a.l.s.a.p.! E E E #.#.W T T T W E ! 8.8.8.9.9.9.8.8.8.8.8.8.8.8.R R K J K K K K J J J H D d s g i p s v m m m D D G G G G G D D D D b b b G J J R R R 8.9.a.l.a.9.8.K H G G G G G G H H Q J J J J J J J H H H H H H Q F H H H H H H F F Q Q Q F F G d d v m G G G G G G M G L L L M C C x h < , < h h h h h 7 7 h h h h h h h h a a a a a h h h j j j k N k j p p s s m m M M M M M M M M m j s p f s d m D G G G G D D D D D F G G D D G F F G G D D D G F G G G G H J J J J J H H b b G H J J H H H H K K K K H H H K 9.0.d.b.b.P.U.U.U.U.d.d.9.8.! W W T J J J J J T J J J J J R R R 8.a.a.a.p.! T Q Q Q T W T Y L L L M M M L Y S N h h h h h a < < a h h a < < , , , 7 7 h h 7 7 h x x x x x x x x x x N C C C C C A Z { } | o.%.&.&.&.&.&.o.} } } X.o.o.&.&.;.:.n.B.n.&.o.} C C } } &.n.B.B.B.B.B.n.$.} +.o.&.n.B.B.B.E.B.B.:.%.&.n.B.B.n.&.} ` o.:.B.-X;X,X1X1X1X,Xn.",
"jX2X;X4XjXCXNX7XR.-XhXAXAXCXNXhX-X3XNXDXNXhX,XB.,XjXBXvXhX4X-XE.R.,X,XR.B.B.R.-X;XR.n.n.n.B.B.n.&.&.n.B.B.B.B.n.;.&.&.;.&.o.o.o.o.&.:.:.;.&.$.o.o.} X.%.o.} } &.;.$.o._ ( / / / ( / B B z h h l C ( } } } } | =.=.=.| { Z Z Z Z Z Z Z { { Z A N k C C A S C A L L W #.a.a.l.s.a.p.! E ! #.#.E W T W W W E ! 8.8.9.9.9.9.8.8.8.8.8.8.8.8.R R K J J K K K J J J F G d s g i g s d v v m D D G G F F F F G G D b b b D H J J R R 6.8.9.a.0.0.9.8.K H G G G G G H H Q J J T K J J J J J H H Q Q Q F Q H G G H H F F Q Q Q J J F D d d m G G G G G G M G M L L L M M k h < < h h h h h h 7 7 h h h h h h h h h h a a h h h j j k j N k k j s p s m M M M M M M M M M m j s p p p s d m D G G G G D D D D G F G G G D G F F F G D D D D G G G G G H J J J J J H H G b G H J J K J H H K K K K H H H 7.9.0.d.b.U.U.U.U.b.P.d.l.9.8.E W W W T T J F F T J J J J K R R 8.8.s.a.a.p.E T Q F F Q Q Y L L G M M N N C S A N h h h h h h < , < h h h a a 6 < h h h l h h h x x x x x x x x x x x N C C N N N x C A Z { } X.X.} _ ( A B / ` } o.o.&.:.:.:.n.n.n.:.o.} / A _ &.&.n.B.B.B.B.B.:.o.} } o.:.n.B.R.R.R.R.B.:.&.>.B.-X;XR.B.&.o.o.n.-X,X1X4X4X7X7X7X1XN.",
"NX7X,X,X4XvXNXvX1XR.,XNXAXAXCXvX,X;XhXCXCXvX4XB.B.,X7XhX4X4X2XR.&.m.B.R.B.B.B.B.-X-XR.B.n.n.n.N.n.:.&.:.n.B.B.n.,.&.&.:.;.o.&.&.&.o.&.:.:.&.$.&.$.} X.%.o.} } o.>.&.o.X.} } } } ( / B z l h h l C ( } } } | =.$.=.| { Z Z Z Z Z Z Z ( { { { Z C N C C A M M M Y Y  .#.p.a.l.s.a.p.! E E ! ! E W T T W W E ! 8.8.a.l.l.a.8.8.8.! 8.8.8.8.R R K J J K J J J J J F G d s g i g f d v v D D D G G F F Q J Q F D b b b b G H J J R R 6.8.0.0.0.0.9.8.J G G G G H H H F J J R R R R R R J J Q J J J J Q F H H H H H H H H Q J J Q G m d m G G G G M M M M M L L L M M N h h a h h x x l h h h h h h h h h h h h h h h h x x x N N N N k k j s s j M M M M M M M M M M j s p p p s s d m G G F G G D D D D G F Q G G D G F F F G d d m D F F G G F H J J J K J J H G b G J K K K K J H K 6.K K H H H 7.0.d.b.P.U.U.U.b.b.b.d.9.8.E W W W W R T J F F T T J J J K R R 8.a.s.a.p.! E T Q F F Q Y L L G M M N N k k C A N h h h h h h a < < h h h h h h h h x x x x h h x x x x x x x x x x x x C N N C N x C C C A Z ( ( / B C B / } o.o.o.&.&.:.:.:.:.:.&.o.X.} } } &.n.n.B.R.R.B.B.:.%.{ +.&.n.-X-X,X-X;X-XT.:.&.:.R.,X1X1X,XB.&.&.n.;X4X7XhXhXkXjXjXhX;X,.",
"NXvX7X;X-X4XjXvXhX-XR.7XCXAXCXBX7XR.,XhXCXNXhX,X:.*.B.2X4X4X2X2XE.n.*.m.R.B.B.n.B.-X;X-XR.B.n.n.B.n.:.&.;.n.N.N.n.:.;.:.,.;.&.;.;.o.o.:.:.;.$.&.&.o.X.%.o.} } $.&.&.%.o.o.X.X.} ( A B l l h h z B _ } } | o.| o.| Z Z Z Z Z Z Z Z Z { | | { Z A N C C C M M M Y Y W #.p.a.l.s.p.p.! E E ! ! E W T T W W E ! 8.p.a.l.l.l.8.8.! ! 8.8.8.8.R R K J J J J J J J J F G d s g i i g f d v m D D G G F J J J J Q F D b b b D H J J J K R 8.9.0.0.9.9.9.K H H G H G H H F J J R R R R R R R K K K K K K J Q F H H H H H H H H Q J T F D m m G G L G G G M M M M L Y L M N k h h h x z C C h h h h h h h h h h h h h h h h k N N N N N N k j j s j M M M M M M M M M M m s p p p p s s d m G G G F G D D D D F Q Q F G D G F F F G d d d D D F G G F H J J J K J J H H G H J K K K K K K K 6.K K H H K 7.d.d.b.P.U.b.b.d.d.b.d.0.8.! R W W W R T J F F T T J J J R R 8.8.s.a.a.E E W T Q Q G G F L G M M N N j h h N C x h h h h h h < , < < h h h h h x x x h x h h x x N x x x x x x x x x x N N C C C A A A A C C B A A / ( } o.o.o.&.&.&.&.*.&.&.%.o.o.X.o.o.$.:.n.N.B.R.R.R.B.:.$.} ( &.B.;X,X1X1X2X,XR.n.;.:.R.,X1X7X4X1XB.&.*.R.4XhXkXkXkXjXvXjX7XR.&.",
"hXCXvX4X,X,XjXvXNX1XB.,XvXCXCXNXvXR.B.;XkXvXjX7XR.;.$.n.-X,X1X,X,X-Xn.%.&.B.R.B.n.n.B.-X;XR.n.>.n.B.n.&.&.&.:.n.C.:.&.:.n.:.;.:.:.&.%.:.:.&.&.&.&.o.o.o.$.o.X.&.&.&.&.%.%.o.X.} / B l l h h h z B _ X.X.| o.o.o.} Z Z Z Z Z Z Z Z Z { | | | P A C C C C N N M L Y W #.p.a.l.s.a.p.8.! ! #.! E T T T W W E ! 8.a.a.l.d.l.8.8.8.8.! ! ! ! R R R J J T R R J J J F G D d f i i g f d v m m D D G F T T T T T F F D D D D H J J K K K 6.9.9.9.9.9.9.R K J H H G G G G H Q J K R R 6.6.6.6.R 6.K 7.K K K Q H Q Q H H H H Q J J T Q G M m D G G G G M M M M M L Y Y P M k h h h x C C V x l C x l h h h h h x x h h h k N M N N N m k k k j j m M M M M M M M L M m j p p p p p s s k m D G G G G D D D D F Q Q F G D G F F F G m d d b D F F G G H J J K K K J J H H H J K R R K K K 7.6.7.K K H K 7.d.b.P.P.U.b.b.b.d.d.d.s.9.8.R R T W W R J F F J J J J R R 8.8.9.a.p.8.E E W Q F F G G L L L M M k j h h h h N h h h x x h h < , , < < 7 7 h x C C x h h h x x x C N x x x x x x x x N N N C C A C A A A A A ( ( _ } o.$.&.&.&.&.&.&.&.&.o.} ( A / } o.:.B.B.B.B.-X-XR.C.;.o.} &.n.R.;X,X2X4X4X2X-Xn.;.:.-X2X2X4X2X1X-X:.&.n.,X7XjXjXjXjXhXhXhX4XB.&.",
"1XvXNXhX2X-X4XjXNX7X-X-X8XNXCXNXvX2XR.R.1XhXjX7X,XR.&.$.&.B.;X3X1X,X;XR.:.:.n.B.B.n.n.B.-XR.B.n.:.n.B.n.&.%.:.n.B.n.:.:.:.n.:.>.:.&.&.&.:.:.&.&.&.&.o.o.o.o.X.&.&.&.&.&.$.o.X.( B l l l h 7 h z B } X.X.| | | } { Z Z Z Z Z Z Z Z ( { | | | { C C C C C N N M L Y W #.p.a.l.l.a.p.p.! ! p.! E T T T W W E ! 8.p.a.l.d.l.a.8.8.8.! ! ! ! R R R J J T R T J J J F G D d s g g g f d v m D D D G F T T T T T T Q G D D D H Q J K K K R 8.9.9.9.9.9.6.R T J J H G G b G F H J J K K R 6.8.8.8.6.6.K K K K K K H Q Q Q Q Q J J K T Q G M M G G G G M M M M M L Y Y P S k x h h z C C C V C C V C x l h h x h h x h h N C C M N M m m k k k N N M M M M M M L L M m s p i i p s s s k m M G G G D D D D D Q Q Q F G D G F F F G m d d v D F F G G H J J K K K J J J H H J K R R R K K 7.6.7.K K H K 9.d.P.U.U.b.b.d.d.d.d.d.s.9.8.E R R R R R J F F J J T W E 8.8.a.a.p.8.E E E T F G G G G L L L M M k j h a h h x < < h x k x h 7 , , , , < 7 h x C N h h 7 h x x x N x x h x x x x x x N N N C C C A A Z Z ( { } X.o.o.$.&.&.&.&.&.o.o.o.o.} ( / / } $.,.B.R.R.R.E.R.B.n.%.} o.;.B.R.,X1X1X4X4X2X-Xn.:.n.-X2X4X4X2X,XR.n.&.&.R.4XhXjXjXjXjXjXhX7X,X:.&.",
"-XhXCXvXhX-X-XhXNXvX1XB.,XhXNXNXvXhX,XB.B.,X4X7X3X,XE.&.o.&.n.-X1X1X,X;XB.&.&.n.R.B.n.n.B.R.R.B.n.:.n.B.n.&.&.:.n.B.:.:.&.:.n.:.>.&.&.&.&.:.&.&.&.&.o.o.&.o.o.&.&.&.&.&.$.o.} A l l l l l 7 h z B } o.X.} } | { ( Z Z Z Z Z Z Z Z ( { } | | P A C C C C N C S L Y U #.#.a.l.l.a.a.a.p.#.p.! W T Y T T W E p.p.p.a.l.d.d.l.l.9.8.8.8.! ! R R R T T R T T T J J Q F G D d d f f f d v m m D D G G F T T T T T J F G G G G H J K K K R 6.9.9.9.9.9.8.6.R J J J J G b b G F H H H J K R 6.8.8.8.8.6.8.8.R R K K J J J K J J J J T T F M m G G G G G G G M M L Y U Y L k x h h x B B C C C C C C C C N N N h x h h x N C C M M N N N m m m m M M M M M M L L G M s p p i i p p s d k d m m G D D D D D D Q Q J F G D G F F F G D d d D D F F G G F J J T K K K J J H H J K R R R K K 6.6.7.K K K 7.0.b.P.U.U.b.d.b.b.d.d.d.s.9.8.E R R R W R J Q J J J R E 8.8.a.s.p.8.E E T T T F G G G G L L L M N h h a u a < h < < h x k C x h < , , , , 7 h x C x h 7 < h x C x x x h h x x x x x x x N k C C C A A Z Z { } X.o.o.o.o.o.o.o.} } } } } } } } } } &.n.B.R.R.R.B.n.n.:.&.o.o.n.R.-X,X1X2X1X4X2X-XB.:.n.-X2X2X4X1X-XB.:.&.:.n.,X7XjXjXjXjXjXhX7X2XC.&.&.",
"-X1XvXNXjX2X-X1XvXNX7XR.R.4XjXvXjXjX7XB.>.:.R.7X3X3X,XE.:.&.&.:.R.-X,X;XR.N.&.%.n.R.T.n.:.B.R.R.B.n.n.C.C.n.:.&.:.B.n.>.&.:.n.n.:.&.&.&.&.:.&.&.&.&.&.%.&.o.o.&.:.&.&.&.&.o.( z l l l l l 7 h z / } o.X.} } { { Z Z Z A A A Z Z Z { { } | | P C C C C C N C S L Y U #.p.a.l.l.a.a.a.p.#.#.E W T Y Y T W E 8.p.p.a.l.d.d.d.l.a.8.8.8.R R R R R T T R T J J J Q F F F G d d d f f d v m m m m D G F T T T T T T J F F F H Q J J K K R R 8.9.9.9.9.8.8.R R J J J J G G b G G G H H J K R 8.8.8.8.9.8.8.8.8.8.6.R K K K J K T J T T Q G m G G G G G G G M M L L Y Y L N h h h z C B C C C C C C C V C C C N N x x N C A S M M N N N N N M M M M M M M M L M M m s p i i p p s s d k d d m m D D D D D D Q Q Q F D D G F F F G d d d m D F F G G F Q J R R K K K J Q H H J K R R K K 6.6.6.7.K K 9.d.b.P.U.U.b.d.d.d.d.d.d.d.9.8.E R R R R T J J J J R E 8.8.a.s.8.8.E W T W T F F G G G G L L L M N h a < , < < h , , < h k C x h 7 < , , , < h x x h h < , h N C x h h h h x x x x x x x x k C C C C A A Z ( { } } } } _ ( ( / / / / ( } } o.o.&.:.n.N.B.R.T.B.:.&.%.o.&.&.n.R.;X;X2X4X4X3X2X-XB.n.B.-X1X1X4X2X-Xn.:.&.&.n.,X4X7X7XhXhXhXhX7X,XB.&.o.&.",
"2XR.7XvXCX7X-X-XjXvXhX1XB.R.4XvXvXjXjX3XB.:.:.;X7X7X4X,XB.:.&.&.:.N.-X;X-XR.N.&.n.B.T.B.B.;.B.R.R.B.n.n.N.B.n.&.&.n.N.:.&.&.n.n.:.&.&.$.&.:.:.&.&.:.&.&.&.o.o.&.:.&.&.&.&.} / l h h l l l 7 l B ( } X.} ( { ( ( Z A A B B A Z Z Z { | | | | Z C C C C C C S Z Y Y U #.a.a.l.a.a.a.a.p.#.E E W W Y P Y W ! 8.p.p.a.l.d.l.l.d.l.8.8.8.R R R R R R R K J J J J Q Q F F G m d d s f d v m D D D D D G P T T T T T T T J Q F H J J K K K R 6.9.9.9.9.9.8.6.K K K K K J H G G b b G G F J K 6.6.8.8.9.9.9.9.9.9.9.9.8.8.R R R T T T T Q G G G G G G G G G M M G Y Y Y L N h h h x C C V V z z C C C C N N C N N x x N C A S M M N N N N M M M M M M M M L L S M k p i i i p p s s d d d d m v b D D D D G Q Q Q F D D G F F G D v d d D G G G G G G H J R R K K K J Q H J J K R 6.K K 6.6.6.7.7.K 0.d.b.P.U.b.d.d.d.d.d.d.d.d.l.8.! R R R R T J J J J R 8.8.8.a.s.8.W T T W W T Q F G G G G G L M N k a < , , , , < , , , 6 x A C x h h < , , < h x h h < , , h C C x x h h h h x x x x x x x k N C A C C C A A A / / / / B B B B B / ( } } o.&.&.:.n.n.n.n.n.>.&.o.o.o.&.>.n.-X;X,X2X2X4X2X,X-XB.B.R.,X2X4X7X1X-Xn.&.&.&.B.2X7X7X7XhXhXhXhX4X,Xn.o.o.&.B.",
"7X2X3XjXCXjX2XR.7XvXcX7XR.,.R.8XjXjXjX7X,XB.:.B.1X4X4X1X;XB.:.&.o.o.:.B.;X-XB.B.n.:.n.T.B.:.n.R.R.T.n.:.n.B.n.&.&.n.N.n.:.&.:.n.:.&.&.&.&.:.:.:.&.:.&.&.&.o.o.;.:.&.&.&.o.} B l h h l l h l z B ( } X.} ( { ( Z A A A C C B Z Z Z { | } | { Z A C C C C C S L Y Y U #.#.a.a.a.l.a.a.p.! E E W W T Y T E ! p.p.a.a.d.d.l.s.l.a.9.8.8.8.R R 8.8.R R R J J J J F F F G G D d d d s d v m m D D D D G G P T T T T T T T J J H H J J K K K R 6.9.a.9.9.8.R K K K K K K K J H G b b b b G H K 6.6.8.8.9.9.9.0.0.0.9.9.9.8.! R R R T T Q G G G G G G G G G M M G Y Y Y S k h 6 7 h z V V l h h h h h h h h x h x h h x C A S M M N N N N M M M M M M M M L L M M k p i i i p s j j d d d v m v v b D D D F Q Q F G D D G F F G D d d d D G G F F G G H J R R K K K J Q H H J K K R K K 6.6.6.7.7.7.0.d.b.b.P.b.d.d.d.d.d.d.d.d.s.p.8.R R W R J J J T K R 8.8.9.a.a.8.W T T W W T P F G G G M M M M N h a < , , , < < < , , , < x x x x h h 6 < 7 h x h < , , < x C C x x h h h h x x x x x x x k N C A A A C C x C C B B B B B B / _ } o.o.&.&.&.&.:.:.:.:.&.&.o.o.o.o.&.n.B.R.,X,X2X2X4X2X,XR.C.B.-X2X2X4X7X4X,XC.&.o.&.C.,X7XhXhXhXhXhXhX4X;Xn.o.+.&.C.,X",
"vXhX3XhXCXNX4XB.1XjXBXjX1X,.n.,XhXjXjXhX4X,XB.N.R.,X1X1X,X;XB.:.o.} o.:.R.-X;X-XB.:.:.C.B.B.n.B.R.R.N.:.:.B.N.&.$.:.B.B.n.:.:.n.:.&.:.*.:.:.:.:.&.&.%.$.&.o.o.&.:.:.&.&.o./ l 7 h l l 7 7 l z A ( X.X.} { ( Z A A A B C C A Z Z ( { | | { { Z A C C C C A Z Y Y Y U  .#.a.a.a.a.l.a.p.! E E W W W T W E p.p.a.a.l.d.d.l.s.a.8.9.9.8.8.R ! 8.8.! W R J J J J F Q F F D D d d d s d m D D D D m D D D G P T T T T T T T J J H H J J K R R 6.9.9.a.a.8.6.R K K K K K K R K J H G b b b b H J R 6.8.8.9.9.9.0.0.l.a.0.9.8.8.R W T T Q G D G G G G G G G G M L Y T Y M x < , 6 h l l l l h h h h h h h h h h h h h N N A S M N N N N N M M M M M M M M Y Y M M k p p i p p s s j d d d v v v v D D D D F T Q F G b b G H F G D d d d m G G F Q F F Q K R R K K K K H J J K K K R 6.K 6.8.9.9.7.7.0.d.U.U.P.P.d.d.d.0.0.d.d.d.d.l.8.R R R R T R R R R 8.9.9.9.a.p.E T Y T W W T P L G G M M M M N j h a < , , , , < < , , , , < h x C x h h 7 h h h 7 , , , h x C C x x h h h h x x x x x k k N C C S Z S A C x x B B / / / / ( } X.o.&.&.&.&.$.o.o.o.o.o.o.X.o.$.&.:.B.R.-X-X,X,X,X,X1X;XR.B.B.,X2X7X4X7X4X,XB.&.o.&.B.,X4X7XhXhXhXhX7X4X;XB.&.o.&.B.,X4X",
"NXjX2XhXNXCXhXR.;XhXNXvXhX-XB.B.4XjXjXhX7X4X,X-XB.B.-X,X,X,X;XB.n.o.} &.n.-X,X;XR.B.n.n.R.R.n.n.B.R.B.:.:.B.B.:.&.&.n.B.B.:.:.:.:.&.:.:.&.:.:.;.&.&.o.%.&.o.o.&.:.;.&.&.} B l 7 h h l l 6 h B / } X.X.} ( ( Z A A A B C C B Z ( ( { | | { { L A C N N C A Z Y L L Y W #.a.a.a.a.a.a.p.! E E W W W W W ! p.8.p.a.l.d.d.d.s.9.8.9.9.9.8.8.8.8.8.8.R R J J J Q F Q F F D b d d d d v D D D D D m m D D D G F P T T T W W T J J H H Q J K K R 6.9.a.a.8.6.R K K K K K R R K J J Q G b b b b H J K R 6.8.9.9.0.0.l.l.a.0.9.9.8.R R T J G D G G G M L G G M M L L Y Y M h < , < h h l l l h h h h h h h h h h h h h x N A S A N N N N N M M M M M M M L Y Y M M k p p i p s j j s s d d v v v v v D D G Q T J F G b b G H F G D d d d v D G F J J Q J K R R K K K K J J J K K K K 6.7.7.9.9.9.7.6.0.d.U.U.P.P.b.d.0.0.0.d.d.d.d.s.9.8.W R R R R R R ! 8.9.9.9.8.8.W T Y T W W W P F G M M M M N N h h a < , , , , < < < , , , , < x C C C h h h h h , , , < h x C x x x h h h h x h h x x k k N C C S L L Z A C C A ( } } } } } X.o.o.o.o.o.o.} ( / / / ( } o.&.>.n.B.R.R.-X;X;X,X,X,X-XR.B.R.-X2X7X7X7X4X,XB.&.} o.B.2X4X7X7XhXjXhXhX4X;XB.&.&.&.B.,X4X7X",
"CXjX2X2XNXCXvX2X-XhXNXcXjX1XB.,.-X4XhXhXhX7X1X;XB.n.n.R.1X1X,XR.N.&.o.o.n.-X1X,X;X-XB.n.R.-XC.n.B.R.T.n.:.N.B.n.:.&.,.B.B.n.,.,.,.;.:.:.;.:.:.&.&.&.%.$.$.o.o.&.:.;.&.o.( z l 7 l l 7 7 7 l B ( } X.X.} { ( / A A A A A A A Z ( { { | | { ( Z A N N N C S Z Y S L Y U #.a.a.a.a.a.a.p.#.! E E W W W E ! ! ! p.l.l.l.d.l.s.9.8.9.a.a.a.9.8.8.8.8.R R J J Q F F F F F G D m m m m m D D G D D D m m m D D D G Q T W W W W T J J F J J K K K R 9.a.a.9.6.K K K K J J J J J J J J H D b d f b F H J K 6.9.9.a.s.s.s.l.0.0.9.8.R K K J Q G G G G L L G M M M L Y Y Y M h a , < h h l l h h h h h h h h h h h h h h x N A A A N N N N N M M L M M M L S L L S M j p i i p p j j d d d d d v v v D D G G J T J F G D D G F F G D d d d v G G F J T J J K R R R K K K K K K K K K K 6.7.7.9.9.9.9.9.0.b.b.b.c.P.P.0.0.0.d.d.d.d.d.d.9.8.R R R R 6.8.8.8.9.9.0.9.8.! J Q Y T W W W Y L G M M m m k h h h < < , , , , , , , , < < , < h C A C C x x h 6 , , , h x x x x x h h h h h h h h h x N N N C A A S Z Z Z A A Z ( } } } } } } } X.} } ( ( / / A A _ o.&.:.B.B.R.R.R.-X-X-X-XR.R.B.B.R.-X,X2X4X4X7X1X;XB.&.o.&.R.1X4X7XhXhXhXhXhX7X1XB.&.&.:.B.1X7XhXjX",
"CXjX4X1XjXBXNX4X,X7XcXcXjX7X-Xn.B.;X4XhXhX7X4X,XR.&.$.n.,X1X1X,X;XB.;.} n.-X1X1X1X;XR.C.B.;XR.:.n.R.R.n.,.n.B.B.n.&.;.n.B.n.,.,.:.;.:.:.:.:.:.&.&.&.$.$.$.o.o.&.>.&.%.} B l 7 l l l 7 7 7 z / ( } X.X.} { { ( / / / Z Z Z Z ( { { { } } | Z A C C N N N A Y Y Z L Y U #.a.a.l.a.a.a.p.#.! E E E W E E ! ! ! p.l.l.l.l.l.s.a.9.8.8.9.9.9.8.8.8.8.R R T J F F F F F F F G D D D D D D D G D D m d d d m m v D G F W W W E R T J J Q J K K K R 8.a.a.9.6.K K J J J J J J J Q J J J Q b d d v b G F J K R 6.9.a.0.s.a.0.0.9.8.7.K K J J F G G G L L G M M M L Y Y Y M j a < < 7 h l l h h h h h h h h h h h h h h x N C A N N N N N N M M M M M M L L L L M m j p i i i p j s d d d d d v d v D G G F J T J F G D D G F F G D d d d d D G F Q T J J K R R R K K K K K K K K K R 6.K 7.6.9.9.9.9.0.b.b.b.c.c.b.0.0.0.d.d.d.d.d.0.9.6.R R R R 8.8.9.9.9.0.9.9.8.R Q Q Y T W W W Y L L M N N j j j h h < , , , , , , , , , < < < < 7 x C A A C x h < , , < h C x x x h h h h h h h h h x x N N N C C A S L Z Z Z Z Z / ( ( ( ( ( / / / / / ( / / } } o.&.:.n.n.B.B.R.R.R.R.R.-Xn.n.C.B.R.-X,X1X2X4X4X3X,XB.:.o.&.R.1X7X7XhXjXjXjXjXhX4XR.:.&.n.R.1XhXjX7X7X",
"CXNXhX1XhXNXNX7X;X,XhXvXjXhX,XN.;.B.1XhXhXhX7X1X,X>.o.;.R.1X4X4X1X-XN.o.;.B.,X4X4X,X-XB.n.;XR.:.:.T.-XB.n.,.B.R.B.&.&.,.N.n.,.,.:.;.;.:.;.:.:.&.&.&.$.$.%.o.o.&.>.&.X.( z l l l l l 7 7 h B / _ } o.X.} } { ( ( ( ( Z Z Z Z ( { | } } | { Z C N N N N C S Y Y S L Y U #.a.a.a.a.l.a.a.#.! E E E E ! ! #.! ! ! p.a.a.a.a.a.a.9.8.8.8.8.8.8.8.8.8.8.R R J Q F F F Q F F G G G G G G G G D D D k d d d d d d v D G T E E E E W W J J J T T K K 8.9.0.9.8.K K J J J H H H H F F J J Q F b d d d b D F J J K 6.8.9.0.a.a.0.9.8.R K K K J Q G G G L L G G M M L Y U Y M x h < < 7 h l l h h 7 h h h 7 h h h h h h h h N C N N N k k N N C M M M M L L L L M M m j p i i p s j k d v v v d v v v D G G Q T T J F G D D F F F G D d d d v D G F F J J J R R R R K K K K K K K K K R 6.7.7.7.9.9.9.9.0.b.b.b.b.c.d.0.9.9.0.d.d.d.d.0.9.6.R R R 8.9.9.a.l.0.0.9.8.R R T T T T W W W Y L G M k h h h h a < < , , , , , , , < < < 7 7 < < h C C A C x h < , , 6 x C A k x h h h h h h h h h h x N N N C A A S L L Z P Z Z A A A A A A A ( ( / / ( ` } o.&.&.:.n.N.B.B.B.B.T.R.T.B.B.:.:.B.R.;X,X1X3X4X4X1X1X-Xn.&.n.R.2X7X7XhXhXjXjXjXhX4X;Xn.;.n.-X3XhXhXjX7X,X",
"BXBXhX1X4XjXjX4XB.R.4XjXjXjX4XR.&.>.-X7XhXhX7X4X1XR.>.&.N.1X7X7X1X,X-X,.} ,.R.,X4X1X;XB.N.R.B.n.:.B.R.B.n.,.n.B.B.;.&.:.n.n.:.:.:.;.;.:.;.:.&.&.&.&.%.%.%.%.%.:.:.&.} B l l l l l 7 7 7 l B ( } } o.X.} } } ( ( ( ( ( ( ( ( { } } } } } { Z C x h x C Z Z Z Y Z L Y U #.a.l.a.a.l.a.a.#.E E E E ! ! ! #.! ! ! #.9.p.p.a.l.a.9.8.8.8.8.8.8.8.8.8.E R R R T J J Q Q Q Q F F F F G G G D D D m k d d d d s s d m G Q T W E E E W T J J J T K K 6.9.0.0.8.K K K J J H G G G G F H H Q H D v d d d b D G F J K R 6.9.0.a.0.9.8.R K K K K Q F G L L L G G M M L Y Y Y A x h < < 7 h l l h h 7 h h h 7 h h h h h h h h x N C N j j j k M A M M M L L Y L M M m j j p i i i s j k d v v v d v v v D G G Q T T J F G D G F F F G m d d d v D G G F J J J R R R R K K K K K K K K K R 6.7.7.7.9.9.9.9.0.b.b.b.b.b.d.0.9.9.0.d.d.d.d.s.9.6.6.R 6.8.9.a.l.l.l.0.9.! R W W T T T W W W Y L L m j h h h h a < , , , , , , , , < < < < 7 < < 7 x C A A C h < , < h x C C x x h h h h h h h h h h x N N N C C A S S L Y P P P Z A Z ( ( ( } X.X.} X.o.o.&.&.&.:.n.n.B.B.B.B.B.B.n.n.:.:.n.B.R.-X,X1X2X1X1X,X-XR.B.:.n.-X1X4X7X7XhXjXjXhXhX7X,XB.:.n.R.4XhXhXhXhX1XT.",
"BXNXjX2X2XjXNXhX,Xn.-XjXjXhX7X4XR.:.B.4XhXhX7X7X7X,Xn.o.;.R.4XhX7X7X,XN.O.&.,.,X,X1X;XT.n.:.B.n.,.N.-XB.N.n.n.B.B.:.&.;.:.,.:.;.:.;.;.:.:.;.&.&.&.%.o.%.$.&.&.:.:.o._ B l l l l l l 7 7 z B ( } X.X.X.} } } { ( ( ( ( ( ( ( { } | | | } { Z C x x N S Z Z Z Y Y Y Y U  .p.l.l.l.l.l.a.p.! ! ! ! ! ! ! ! ! ! ! 8.8.p.a.a.s.a.9.8.8.8.8.8.8.8.8.! R R R R W W T T Q Q Q Q Q Q P F G D D m m k k d k k k d d s d k D F Q T W E E W T J J J K K 6.8.0.0.8.R K K K J H H b b G F H H F F G b d d d d D D G F J K R 8.8.a.0.9.9.8.R R R T J F G L L L L L L L L Y U L A j h < < h h l l h h 7 h h h h h h h h h h h h h k N N k j h N M S S S M L L L L M N k j j p p i p s j k d v v v v v d v D G F J T T J F G D G H Q Q G D d d d m D D G F J J J R R 6.K R K K K K K K K K K 6.7.7.9.9.9.9.9.0.b.b.b.b.b.d.0.6.9.9.0.d.d.d.s.9.8.6.6.6.8.9.9.l.l.a.a.8.R W W T T T T W W W Y L L N h a h h h h < , , , , , < < < < < < < < , , < h x A A C x h < 6 x x x x x x h h h h h h h h h x x k N N N M A Z L L Y Y { Z Z A A ( { X.o.$.&.;.:.:.:.:.n.n.B.B.B.N.n.n.>.&.&.:.:.n.B.B.R.;X,X,X,X;X-Xn.:.&.:.B.R.,X4XhXhXhXhXhXhXhXhX4X;XB.n.B.;X4XhXhXhXhX4X;X&.",
"NXNXhX;XR.4XjXhX1XB.R.7XjXhXhX7X;X:.:.;X7X7X7X8X7X1XR.&.$.N.,X7X7X7X,XB.o.O.;.N.-X;XR.B.&.;.n.n.,.n.R.B.B.n.n.B.B.,.&.:.:.,.>.:.:.:.:.>.:.;.&.&.&.o.X.o.&.:.:.:.&.X./ z l l l l l 7 7 7 z / _ } X.X.X.X.} } } { ( ( ( ( ( ( { } | | | } | Z C x N C A A S S Z Y Y Y U U #.a.l.l.l.l.a.p.#.! #.! ! ! ! E E E ! 8.8.p.a.a.s.a.9.8.8.8.8.8.8.8.8.E R R R R W W T T Q Q Q Q Q P F F G D D m m k k k k k k k d s f s d D G Q T W R W W T J J J R 6.8.9.0.9.6.R R R K K H b b b F H H F F F D d d d b D D D G F J J J R 8.9.0.0.9.8.6.R T J Q F Q Q L L Q L L Y Y U L N j h h h h h x l h h 7 h h h h h h h h h h h h h x N C k j j N M S S S M L L L L M m j j p p p i p s j k k v v v m m v v D G F J T T J F G G F Q Q F G m d d d m D G G Q J J K R R R K R K K K K K K K K K 6.6.7.9.9.9.9.9.0.b.b.b.b.b.d.9.6.9.9.0.s.d.d.s.9.8.6.8.8.9.9.9.a.l.a.8.! R R W T T Y Y T T U Y L M k p a h h h h < , , , , < < < < < < < < < , , < h x C A C x h < a x x x x x h h h h h h h h h h x x N N N C A S S L Z L P P P Z A A A ( } o.$.;.>.:.n.:.:.:.n.n.:.:.&.&.&.&.;.n.B.B.B.R.R.R.R.R.B.C.:.&.} X.&.B.R.,X3X4X7X7X7X7XhXhXhX4X,Xn.:.B.,X7XhXjXjXvX8X-Xn.&.",
"CXvXhXR.B.1XjXjX4XB.B.4XjXjXjXhX3Xn.&.B.4X7XhXhX7X7X,X;.o.:.-X7X7X4X,XB.&.} } ;.B.-XR.n.&.&.n.n.n.n.R.R.B.n.n.B.B.,.:.:.,.n.,.:.,.,.:.,.:.;.&.&.o.} X.$.;.:.:.&.o._ B l l z l l l l 7 7 z / X.o.X.X.X.X.X.} } { { ( ( ( ( ( { } | | | | | Z C x N C C C C A Z S Y U U U E p.l.l.l.l.a.p.#.#.#.p.#.! E R R E ! 8.8.p.a.a.s.s.a.8.8.8.8.8.8.8.8.R R R R R W T J Q Q F F F F F F F G G D m k k k k k k k k d s f f f d m G F Q T W W W T J J R 6.8.9.9.0.8.6.6.R R K J H b G G H H F F F F v d d d b b D D D F F J T R 8.9.0.9.9.8.8.R J Q Q Q L L L L Y Y Y Y Y S N N h h h h x z l h h 7 h h h h h h h h h h h h h k C C k j j N S L L S M L L Y L M N j p i p p i p s j k m m m m m D D D G G F T T W J F G F F J J F G m d d m D G G G Q J J R R R R R K K R K K K K K J K 6.6.9.9.9.9.0.0.d.b.c.P.P.c.b.0.9.9.9.0.s.s.d.d.9.9.8.8.9.9.9.9.l.l.a.8.R W W E W T Y Y Y Y Y L M M h a u a h h h < , , , , < < < < , < < < < , , < h x x N x x h 7 a x x x h h h a h a h h h h h h x x N N C C A S L L L L P P { Z Z A B A A ( _ X.o.o.%.o.o.o.&.&.&.&.&.:.:.n.B.B.B.B.B.B.n.n.:.&.&.%.o.} o.&.n.R.;X1X4X7X4X4X4X4X4X4X2XR.B.;.n.;X7XjXjXvXvXhX,XC.n.B.",
"CXvX7XB.C.2XjXvX7X-XR.3XjXjXjXhX7XB.&.n.,X7XhXhX8XhX1X:.o.&.B.1X1X1X,XB.:.) ` o.:.R.R.n.;.;.B.n.,.,.B.R.B.n.n.B.B.,.:.:.n.N.n.,.n.n.,.,.:.&.&.o.} } X.&.:.>.&.$.X./ z l z z z l l l 7 7 z ( X.o.X.X.X.X.X.} } } { { ( ( ( ( { } | | o.| { Z C x h N N N N C C Z Y U U U W #.a.l.l.l.a.p.#.#.#.p.p.! E R W E ! 8.p.p.a.a.s.s.a.8.8.8.8.8.8.8.8.R R R R R T J J F F F F G F F F F L G m m m m m m k k k k d s s f f f d m G G F T T W W T K R 6.8.9.0.0.8.6.6.6.6.R K H H G G G H F F F F D d v d b b b D D D G F J R 8.8.9.0.9.9.8.R K J Q Q Y Y Y Y Y Y U U Y S C N h h h x z C l h h 7 h h h h h h h h h h h h h k C C k j j N S L L S M L L Y L M N j p p p i i p s j m m m m D D G D D G F F T T T J F F H Q J J F G m d d m G F F G H J J R R R R K K K R K R K K K K K 6.9.9.9.9.9.0.0.d.b.b.P.P.P.b.0.9.9.9.0.d.s.d.d.9.9.8.9.9.0.0.9.l.s.9.! W W E W W T Y Y Y Y L L M M j u < a h h h < , , , , < 6 < , , < < < , , , < h h h h h x x h h x x x h h a a a a h h h h h h x x k N C A S L L L L L P P { { { ( ( Z A A _ } } } } } o.o.&.&.&.:.:.n.n.n.n.:.>.;.&.o.X.} } } } } o.o.B.C.T.;X,X1X4X7X1X1X1X1X,XR.n.o.&.:.R.1XjXvXvXvXhX,XB.n.R.4X",
"NXvX4XB.B.4XjXvXhX,X-X1XjXvXjXhX4XR.&.:.;X4XhXhX7X4X1XB.o.&.B.,X1X1X;XR.,.} ` } :.R.T.N.:.:.B.B.n.n.B.R.B.n.n.B.B.n.:.:.B.B.n.n.n.,.:.:.;.&.$.X.} } o.;.,.>.&.O.( B z z z z z z z z l 7 V ( X.o.O.O.O.o.X.X.} } _ ( ( ( ( ( { } | o.o.| { ( A x h h h h x C N S Y Y U U  .#.a.l.l.l.a.p.p.p.p.p.p.#.W W W E ! 8.p.p.a.a.s.s.a.9.8.8.8.8.8.8.8.R R R R W K J J J J F F G F F F F G G D m m m m m k m m k s f f f f f s d m G G F T T W W W R 8.8.9.0.0.9.8.6.6.6.K K J H G G G H Q F Q H D b v v v v D D D D D G Q J R 8.9.9.9.9.9.8.R J Q Q Y Y Y Y Y Y U U Y Z C N h h h l V C x h h h h h h h h h h h h h h h h x C C N j k M L Y Y L M M L L L M j p p p i i i p j k m m m M G G G G G G F T T T T Q J F F Q Q Q F G D d d G F G G G G Q K R 6.6.R K K K K K K K K K K K 6.6.6.6.9.0.0.0.d.b.P.P.U.U.b.0.9.9.9.0.0.d.d.d.0.9.9.9.9.0.0.a.a.a.p.R W W W E W U T Y Y Y L L L M k a u a h h h , , , , < < < < , , , < < , , , h h h h h h h x x h x z h h h h h h h h h h h h h h x x N N C S L P P L P P U Y { { { ( ( ( ( _ } X.X.o.o.o.o.$.&.;.,.,.n.:.&.$.o.} ( / ( ` } } o.&.,.B.B.R.-X;X,X,X1X1X1X1X,X-XB.:.&.o.&.:.R.2XhXhXjXvXjX4XB.:.m.1XvX",
"NXjX2XC.-X7XjXvXhX,X;X4XvXvXjXhX7X-X&.&.-X4X7X7X7X7X1XB.o.$.C.;X1X,X;XR.:.X.` } :.R.B.n.:.:.B.B.n.N.B.R.B.n.N.R.R.N.:.:.B.B.N.n.,.:.;.;.;.&.$.X.} } $.>.<.>.%._ B z z z z z z z B z l l B _ X.X.O.O.O.O.X.X.} } _ ( ( ( ( { } } | o.o.| { ( A x a h h h x C N S Y Y U U  .@.l.l.l.l.l.a.p.p.p.p.p.E W T W E ! p.p.p.a.a.l.s.9.9.8.8.8.8.8.8.8.! R R R R W T J J T J Q F F F F F F F G D m m m m k k k k s s p f f f f s d D G G P T T W R R 8.9.9.0.0.9.9.8.6.6.R K J H G G H H Q Q Q H G v v v v v D D D D D G H J R 8.8.8.9.9.9.8.R R T Q Y Y Y Y Y Y U U Y S C N h h h l V B C x h h h h h h h h h h h h h h h x C C N h k M L Y L L M M L L L M j p i i i i p s k m m m m D D D G G G F T T T T Q Q J F F F Q Q F D m d D G F G G G G Q R R 8.6.R K K K K K K K K K K K 6.6.6.6.9.0.0.0.d.b.P.P.U.U.d.0.9.9.9.0.0.0.d.d.s.9.9.9.9.9.0.0.a.a.8.R W T W W U U T Y Y Y L L L M N h a h h h h < , , , < 6 6 < , , , < < < , , h x h h h h h x x x x z h h h h h h h h h h h h h h x x N N C M L P P P P P P Y { | { Z ( ` _ } X.o.o.o.o.o.$.$.$.o.$.&.;.X.} ( ( / ( } } o.;.,.n.B.R.-X-X,X,X,X,X,X,X,X,X-Xn.&.X.o.o.&.C.,X2X7XhXjXvXvX7X;XB.m.R.7XvX",
"jX4X-XB.1XjXvXvX7X,X,XhXvXvXjXhXhX;X&.:.-X4X7X7X7X7X1XB.o.%.n.R.1X,X;XR.,.X._ +.:.R.B.n.:.:.B.B.B.B.R.-XB.N.B.-X-XB.n.,.B.B.N.n.:.;.&.&.&.&.$.o.o.o.&.,.>.$.X.) z z z z z z z z B B z l / } X.X.X.X.o.o.o.X.X.} _ _ ( ( | } | | | o.o.| { { A x a h h h x A N A Y Y U U  .#.l.l.l.l.a.a.a.a.a.a.a.E W T W E ! p.p.p.a.a.s.s.a.9.8.8.8.8.8.8.8.8.8.! ! R R W T T T T T T P F F F F F L G m m m m m m k k s s f f f f p f d d D G G P T T R R 8.9.0.0.0.0.9.8.6.6.6.K K J H H H F Q Q F F G b v v b D D G G G D D H J K R 8.8.8.9.0.9.8.R T Q Y Y Y Q Y Y U U Y S A N h h h h V C B x l h h l h h h h h h h h h h x N C C N j k M Y Y L M M M L Y L M j p u u y u p j m M m m M D G D G G G T T W T Q F F F G G G F F G D d d G F F G G G F J R 8.8.6.R K K K R R 7.K K K K K 6.6.6.6.9.0.0.0.d.b.x.P.U.U.b.d.0.9.9.0.0.0.d.d.d.0.9.9.9.9.9.9.9.p.8.R W W W E W T T T Y L L L L M N j h h h h h < , < , < < < < , , , < 6 < < < h x h h h h h h x C C x h 6 6 h h h h h h h h h h h x x N N N C S L L P P P P U | | { Z A A ( ` _ } } } } } } X.} ( ( } } ( ( ( ( } o.&.;.n.B.R.R.-X;X;X,X,X,X;X-XR.R.B.C.;.$.} } o.:.R.,X1X7XhXjXhXjX7X;XB.n.R.4XcXCX",
"7X;XR.-X7XvXNXvX4X,X1XjXvXvXcXhX7X;X:.n.;X7XhXhX7X4X1XB.o.o.:.E.,X,X;XR.,.} _ o.:.R.R.n.:.:.B.B.N.B.R.-XR.B.B.-X-XB.n.N.B.B.N.,.;.&.&.&.&.&.o.o.o.o.;.,.;.X.` / z z z z z z z B B B B z ` } X.X.X.O.O.o.o.X.X.} _ _ ( } } } o.o.| o.o.} ( Z A h a h h h x A C Z Z Y U | ..#.l.l.l.l.a.a.a.l.l.l.a.! W T W E ! p.p.p.a.a.s.s.a.9.8.8.8.8.8.8.8.8.8.! E R R R W T T T T T T P F F F L G D M m m m m m m d s s p f f f f p f d k D D G F T W R 6.9.0.0.0.0.9.9.8.6.6.K K H F H H H H H F F G b v v b D G G G G D D G Q J R R R 8.9.9.9.8.R T T Q Y Y Q Y Y U U Y S Z N h h h h x C B C x h h l h h h h h h h h h h h N A C N j N S Y Y L M M M L Y L M j p u y y u p j m k k m M D D D D G F T T T T Q F F G G D G G G G m m D F P F G D D F J R 8.8.6.R K K K K R 6.6.K K K K 6.6.6.6.9.9.0.0.d.b.x.U.U.U.b.d.0.9.9.9.0.0.d.d.d.s.0.9.9.9.9.9.8.8.8.R W W W W W T T T Y L L L M M N j h h x x h a < < , , < < , , , , , 6 7 < h h x h h 7 6 6 h x x C x h 6 6 6 h 6 h h h h h h h h h x k N N C A L L P P Y Y U { | Y A x x V B B B / / A B B B B B B B / ( _ } X.&.:.n.B.B.R.-X;X,X,X,X,X,X;XR.B.:.:.$.X.} o.&.;.B.,X4X4X7X7XhXhX7X3XR.:.;.C.,XhXNXCX",
"R.B.-X7XvXNXvX7X-X-X7XvXvXvXjXjX1X-X:.B.1X8XjXhX7X4X,XB.o.o.>.-X1X,X;XB.>.} ( o.n.R.R.N.,.B.B.B.N.R.,X-XR.B.R.,X-XB.N.N.n.,.;.&.&.&.&.&.&.&.$.o.$.;.>.>.O.} ) / / B z z z z B / / / B B _ X.O.O.X.X.o.o.o.o.X.} } } { } } } | | | o.| } ( Z A x h h h h h N C A Z L Y U ..#.a.l.l.l.l.l.l.l.l.a.a.! E W W E 8.p.p.p.a.a.s.s.a.a.a.8.8.8.8.8.8.8.8.8.R R E W W W T T T T T P F L G G D M m m m m m v v d d s f p p p f s s s d k D G F T K K 6.9.9.l.l.0.9.9.8.6.R R K K Q H H F F H Q Q G D b b b D G G G G G D G F J J K R 6.8.9.0.8.8.W T Q Y Y Y Y U | U Z Z S C x h h h x C C B z l x x x x l l l h h h h h x C C C N k N M Y Y M M M L L Y L M j p i y y i s m m j k k m M G G D D F T W T F F G G G G G D G G D D D G F T Q G D D Q K 8.8.8.7.R K K K R 7.6.6.K K K K 7.6.9.9.9.0.0.d.b.b.b.P.U.c.b.d.0.9.9.9.0.d.d.s.d.0.0.9.0.9.9.9.8.8.! E W W W W W T U Y L L L M M M N h a h x h h h < < , , , < , , , , , < 7 7 h h h h h 6 6 6 h x x C x h 6 6 6 6 7 7 h h h h h h h h N N N N C A S L L P U U { | | { A x 7 7 l l l l l l l z B B B / _ } $.&.;.>.n.B.R.-X-X-X;X,X,X,X,X,X-XB.,.$.o.} } X.o.:.B.R.1X3X4X7XhX7X7X4X-XT.:.&.n.;X7XjXCXNX",
"B.-X4XjXNXNXjX2XR.,XhXjXcXvXjXhX1XB.:.R.4XhXhXhX8X4X,XB.&.&.n.;X1X1X;XT.;.} } ;.B.-XR.B.N.T.R.B.N.-X,X-XR.B.R.-XB.n.:.,.,.:.&.&.&.&.&.&.&.o.$.o.$.;.;.&.} _ / / / B z z l z ^ / / / / ) _ X.O.X.X.X.o.o.o.o.X.} X.} } } } X.X.X.| | | } { Z Z x x h h h h x C A Z Z Y U  .#.#.p.a.l.l.l.k.l.l.a.a.#.E W W E p.p.p.p.p.a.a.s.l.a.a.8.8.8.8.8.8.8.8.8.8.R R W W T T T T T T P F F G G D m m m m m m v m d k s s p p p f s s s k m m G F T J J 6.9.9.l.a.9.9.9.8.6.8.R K J Q H H G G F Q Q F D b b b D G G G G G D G F J J K K K 8.8.9.9.8.R W T Q Y T Y U | Y Z Z Z A N h h h x C A C C z x N x x z z l l x h h h x C A A N N N S L L M M M S L L S M j s i y y i s m m j k k m m G G D D F W W P F G G G G G G G G G D G G F T F F G D G Q K 8.8.8.7.R K K K K 7.6.6.K K K K 6.6.9.9.9.0.0.d.b.b.c.P.U.c.b.d.0.9.9.9.0.0.s.s.0.0.0.0.0.9.9.9.8.! E E E W W W T T T Y Y L L M M M k j a h h h h h 6 < , , , , , , , , < 6 6 7 h h h h h 6 6 6 h h h x x x 6 6 6 < < 7 h h h h h h x h N N N N C A S L L P Y U | | | | P C h l l z z z z z B B / ( _ X.$.;.>.n.n.N.B.R.-X;X;X;X,X,X,X,X-XR.:.o.} } ( o.:.n.B.-X,X,X4X4X7X7XhX4X;XR.n.:.:.n.,X7XjXNXvXjX",
"R.4XjXNXNXvX7X-XR.4XjXvXvXjXhX7X;Xn.B.1XhXjXjXhX7X4X;X:.&.:.R.1X1X1X,XR.;.o.o.B.-X-XR.B.R.-X-XR.B.;X,X-XB.B.R.B.n.;.&.:.;.&.&.&.;.;.;.&.&.&.$.o.$.&.&.O.) ) / / / B z z l z ^ / ` ` ( ` _ O.O.O.X.X.O.o.o.o.o.X.X.X.X.X.} } | } +.+.| +.| ( Z A x h h < h h C A Z Z Y U  ...#.#.p.a.l.k.k.l.l.a.a.p.E E E #.p.p.p.p.p.p.p.l.l.l.s.a.p.a.p.8.8.8.8.8.8.8.8.W W R R T J T T F F L G D D m m m m m m k k d k d s s s s s s d k k m m G Q T K J R 9.a.l.l.a.9.8.6.6.8.8.K K J H H H F H J J F G b b b D G F H H G D G F J J K J K R 8.9.9.8.! R T Q Y T U U U Z S Z Z S C h h h l B Z A C C C C V V C C z l h x x h x C A A C N M L L L M M M L L L M M j s p y y i s m m j k k m m D D D D F W T P G D D D D D G G G G D F J T F F G D D G J K 8.8.8.8.R R K R R 6.8.6.6.K K K 6.6.9.9.9.0.0.d.b.b.c.U.P.P.b.d.d.9.9.9.0.0.s.0.0.0.0.s.0.0.0.9.8.! ! E ! E W W T T T Y Y Y L M M N k p a h h h a < 7 < < , , , , , , < < 7 7 7 h h h h 7 6 < a h h h x A x h h 6 < < < h h x x h h h x N C N N C C A S L L Y U | {  . .| Z B B B B / / / ) ( } X.o.&.;.>.,.n.B.B.T.R.-X-X;X;X;X;X-X-XB.,.&.} } X.o.:.N.-X,X,X1X1X3X4X4X1X1X;XR.:.&.$.&.N.;X7XjXjXjX7X,X",
"2XjXvXvXjXhX,XR.1XhXNXNXvXjXhX4XB.B.1X7XjXjXjX4X4X,XE.%.&.n.,X1X4X4X,X-X&.o.,.B.,X-XB.B.;X,X;XR.R.;X,X-XB.B.B.n.:.&.&.;.;.&.&.;.;.:.:.;.&.&.$.$.$.&.%._ / / / / / B z z l z B ) _ ` ` _ X.O.O.O.X.X.O.o.o.o.o.X.X.X.X.X.o.o.} } } | | +.} { ( A C x 7 , < h C A Z Z Y U U E  .#.#.p.a.k.j.l.a.a.a.p.E E E #.p.p.p.p.p.p.p.l.l.l.s.a.p.a.p.p.8.8.8.8.8.8.8.R W W R J J T T F F L G D D m m m m m m k k d k k s s s s s d k k k m m G Q W T J 6.9.a.l.l.0.9.8.6.6.6.8.K K J H H H F H J J F G b b b D G F Q Q F G F F J J J J J K R 8.9.p.8.E W T Y T U U Y Z A Z Z Z A x h h h C Z Z A C C C V V C z x l h x x h h C A A C C M L L L M M M L L L M N j s p u u i j m j j s s k m D D D D Q W T F D m m m D G G G G G G T T T F G D b D Q J K 8.8.8.8.6.R K K R 7.8.8.6.K K K 6.6.9.9.9.0.d.d.b.b.c.U.P.P.b.d.d.0.9.9.0.0.s.0.0.0.0.0.0.0.a.9.8.! ! ! ! E W W T Y T T W T L M M m k p a a h a < < 7 7 < , , , , , , < < 7 7 7 h h h h 7 6 < 6 h h h h x x x h a < < < < h h h h h h N C C C N N C C S L L U U U |  .+.| { ( ( _ _ _ } X.X.o.$.;.>.,.,.,.n.N.B.T.T.R.-X-X;X-XR.R.B.:.&.o.} } o.&.:.-X,X1X4X4X4X4X3X1X,X-XR.:.&.o.X.o.n.,X4XjXjXhXhX,Xn.",
"hXNXNXhXhX,XB.-XhXvXNXvXNXjX4XR.n.;X4XjXjXhX7X7X1XR.:.:.:.R.,X1X1X1X;XN.o.&.n.-X,X-XT.-X,X,X-X-X-X;X-XR.B.B.n.:.&.&.:.:.;.;.;.;.;.>.,.n.;.&.$.$.$.$.X.( B B B / / B B z l z ^ ` _ _ _ X.X.X.O.O.O.O.o.o.o.o.o.o.o.X.X.X.| X.X.} } +.| o.| } { Z A z h , , h x A Z Y U U W W E E ! #.l.k.k.f.a.a.a.#.E E E #.p.p.p.p.p.p.p.l.l.l.l.s.a.a.9.a.9.9.8.8.8.8.8.6.6.R R K R T T Q F F L G D m m m m m m k m k k k k j s s k k k k m m M G Q T T R 8.9.a.s.s.9.9.6.6.6.6.6.6.K J J H H F H J J F D b b D D G F J Q H F F F J J J J J K R ! p.p.8.E W T T T U | U S C C A S A C x h h V A A A A C V V V x x z l x x x x x C A A C A M L L L M M M L L L M N j p p i p s k m j s s s j m m D M G T T Q L D m v D D G D D D G J T T J G D b D H K R 6.6.8.8.8.8.7.R K K 6.8.8.6.K K K 6.8.9.9.9.s.d.d.b.b.P.U.U.P.P.d.d.0.9.0.0.s.s.s.0.0.0.0.0.0.0.9.8.8.E E E E E W T T Y T W W U L G M N j h a a a < < < < < < , , , , , 6 7 7 7 7 h l h h h 7 6 6 7 7 7 h x h h 7 6 6 < < < h h x x x x x C N C N N C M S L P Y U U  . .+.=.| { ( _ } X.X.O.%.$.&.;.<.n.N.V.V.B.T.T.R.-X-XR.B.N.:.&.o.} } o.&.:.B.R.;X,X1X3X4X4X2X1X;XR.n.&.o.o.} } &.T.1X8XhXhX7X4XR.n.;.",
"NXNXvX7X,XB.R.4XvXCXCXNXvX4X;Xn.-X4XhXvXjXhX7X4X,XB.;.:.B.,X1X4X1X,XB.;.o.;.B.-X-XR.R.;X,X-XR.-X-X-XR.B.B.n.:.;.&.;.:.:.>.>.>.:.>.,.,.,.;.&.$.$.%.X.( / / B B B / / B z l z / ` _ _ X.O.%.X.O.O.O.O.o.o.o.o.o.o.o.X.X.| | X.} } } +.| o.o.| } { Z C x < , < h x Z Y |  . .W W E ! p.j.k.j.f.a.a.a.#.E E E #.#.p.p.p.p.p.p.a.l.l.l.s.s.a.9.l.9.9.8.8.8.8.8.8.8.6.6.R R K T Q P F L G G m m m m m m m m m m m m k j j k k k k v m M G F J T K 8.9.0.0.0.9.8.6.6.R 6.6.6.K K J Q H F H J J F D b b b D G F J J Q F H Q J J J J J K R E 8.p.p.E W T T U U | Y S C C C C S A C h 7 l V C B A C V x z x x l l x x h x x C C C C C M L Y L M M M L Y L M m j p p p p j m m j s f s s m m D G Y T T P G D m m D G G G G G J T T J H D D D F J R 8.8.8.8.8.8.8.6.K K 7.9.8.8.7.K K K 6.8.9.9.9.d.d.d.b.b.U.U.U.P.P.d.d.d.0.0.0.s.s.s.0.0.0.0.0.0.a.9.a.p.! ! E E E W T Q Y P Y T U W Y L M N h h h h 7 < < < < < , , , , , < 7 6 6 6 h h h h h 7 6 6 6 6 < 7 h h h 7 6 , < < < < h h h x x x x N N N M C M S L P Y U U  ...@.=.| ( A / _ X.O.%.$.&.&.;.<.,.,.,.,.n.N.N.N.N.,.;.o.o.} } } } &.n.B.R.;X,X2X1X1X1X1X,XR.B.n.%.o.} } o.:.B.;X3X7XhX7X4X;XB.&.&.:.",
"NXjX4X;XB.R.4XjXNXCXCXvXhX,XB.R.4XhXcXvXhX8X4X,XR.:.&.B.;X3X4X4X,XR.;.} o.:.R.R.R.B.R.-X;XB.B.R.-XR.B.B.n.:.;.;.;.:.,.n.,.,.,.,.,.,.,.>.;.&.$.o.X.( ) ) / B B / / / B z l z B ` _ X.%.%.%.%.O.O.O.O.%.%.$.o.%.o.o.X.X.X.| | X.} } +.| o.o.o.X.} ( A C h , , h x A Z |  .#.E E E #.a.j.j.f.f.f.a.a.! W W W E ! #.p.p.p.p.p.p.a.l.l.l.l.s.l.l.0.9.9.9.8.9.9.9.8.8.6.R R W T T Y F F L G G D m m m m m M m m m m k k k k k k k m m M G F Q T R 8.9.0.0.0.9.6.6.R K R 6.6.R K J J J H Q J J J G b b b G F J J J J F Q J J J J J J J T R ! p.p.E W T T T U | Y A C C x x C A C h h h x V C C C l l h x l x l h h h h x C N h x N A S Y L M M S L Y Y M k j j p s j m m m j s s s s j M M G W T Y L G m v m G G G G F J T J J H G G G F J R 8.9.9.9.8.8.8.9.6.7.7.6.9.8.8.6.K K 6.6.9.9.9.0.d.d.d.b.b.U.U.U.P.b.b.d.d.d.s.0.0.0.0.0.0.0.0.s.s.s.s.a.p.8.! E E E W W T Y Y Y T U U U L M M N x x x h < , , , , , , , 6 7 6 , , , , h h h h h 7 7 6 6 < < 6 h h h h 6 , , < < < 6 h x x x x x N N C C C M L L Y U U  . ...@.=.| Z z B ( X.X.X.%.&.&.$.;.>.>.>.;.;.&.&.$.o.} } ( ( } o.&.n.B.-X;X,X1X3X4X4X3X,X,XB.n.%.o.} o.&.:.B.-X1X4X7X7X4X,XB.:.&.:.B.-X",
"hX1XB.B.-X4XjXCXNXNXvXhX,XR.R.1XhXjXjXjXhX7X,XR.n.:.:.;X1X4X7X1X;Xn.} } o.n.B.B.B.B.R.R.B.n.B.B.R.B.B.n.:.;.;.:.:.,.n.n.n.,.,.n.n.n.,.;.;.&.$.O._ ( ( ( ) B B / ) ) B V l z / _ X.O.%.%.%.%.O.O.O.O.%.%.$.$.%.o.o.X.X.X.| | | } } +.| o.o.o.o.X.} ( C x < , < h Z L | #.#.#.#.#.#.a.l.l.f.f.f.f.a.! W T W E E #.#.p.p.p.p.p.p.a.l.l.l.s.s.l.l.l.a.a.9.9.9.9.9.8.8.6.6.R W T Q P P L L G D m m m D D D D G G G m k k k k k k m m M G F Q T R 8.9.0.0.0.9.6.6.R K R R R R K J J J Q J J J F G b b b G F J J J J F Q J J J J J J T T T ! p.8.! W T T T U | U A C C x x C C C h h h h l V C C C l h h h l l x x x x x C x x h N N S Y Y M M S L L L M m j j s j m M M m j s s s s m M G Q T Q L G D D m G G G G G J T T Q H G G G G H R 8.9.9.9.9.9.8.8.9.6.7.7.6.9.8.8.6.K 7.6.8.9.9.9.9.d.d.d.b.b.P.U.U.P.b.d.d.d.d.d.s.0.0.0.0.0.0.0.s.s.s.s.a.a.8.! ! E W W W T T T W U U U U U Y M C N N x h < , , , , , , , 7 7 < , , , , 7 h h h h 7 7 6 < , , < h h h 6 6 , , , < < 6 h h x x x x k N C C C S L L Y U |  .|  .+.=.| A z z B ` ` _ _ X.o.X.X.X.X.X._ } _ ` ( ( ` } } } &.N.R.-X;X,X1X3X1X1X3X;XR.C.:.&.&.o.} &.:.T.-X,X3X4X3X;X-XB.:.&.&.:.R.,X4X",
",XC.n.-X4XjXNXCXNXvXhX2X-X-X2XhXjXjXjXhX7X,XB.>.:.n.R.,X4X7X1X;XN.o.} o.:.N.B.n.N.R.R.B.N.n.n.R.B.B.B.n.,.>.,.n.N.B.B.V.B.V.N.N.N.,.<.;.$.$.X.X.` ` ` ` ) / / ) ) ( / B l V ) X.%.%.%.%.O.O.O.O.O.O.%.$.$.$.%.o.o.X.o.o.o.| | | X.o.o.o.o.o.o.o.X.X.{ Z B C x x Z Z U | U #.#.#.#.a.l.a.a.a.a.a.a...W T W W W #.#.p.p.p.8.p.p.p.s.l.l.l.s.s.s.s.l.a.a.a.a.0.0.9.9.8.6.8.R W Q F F F G G G D m m D D D D G G G M m k m k k m M M G G F Q T R 8.9.0.9.9.8.R R R K R R 6.6.K K J J J J J J F D D D D G H J J J J Q J J J T T T T T T T ! 8.p.! W T T Y U | { Z A C l l x C C x h h 7 h l V V V h h h h l x C C C C N N h x h j N S Y Y S M S L Y Y M m s s j m M M M m j s p s s j m G Y Y Y L G G D G G G G F Q T T J H H F G G H K 6.9.9.9.9.9.9.8.8.8.8.7.7.8.8.8.6.6.7.7.6.8.9.9.9.9.d.d.b.b.U.P.U.U.P.b.d.d.d.d.d.d.0.0.s.s.s.s.s.s.s.s.l.l.a.p.! E E W W W W U U W W  . . . .U L A C C x h < , , , , , , 6 6 < , , , , , 6 h h h 7 7 7 6 , , , , h h a a 6 < < , < 6 7 7 h h x x h x N C C M S L L Y { |  .| @.@.+.} A z z B / ) ` ` _ ` _ ( / / B B B / ` } X.o.&.;.V.T.-X;X,X1X3X4X4X1X1X-XB.:.&.&.o.&.>.B.-X,X4X7X7X8X4X-Xn.&.&.:.n.T.,X3X7X4X",
"B.R.,X4XjXNXNXNXhX4X,X-X-X2X7XjXjXhXhX4X,XR.n.:.n.R.,X3X4X1X-XB.o.} o.;.N.N.N.N.B.R.R.N.n.n.B.B.B.B.B.B.N.B.R.R.R.R.R.T.B.B.B.N.n.:.&.$.o.X._ ` ` _ ` _ ( / / ( ( ( / B l B ` O.%.%.%.%.O.O.O.O.O.O.$.$.$.$.%.o.o.X.o.o.o.| o.X.o.o.o.o.o.o.o.o.o.o.o.} Z A C C A A L Y  .#.#.#.! a.a.p.#.p.p.a.p...U T U U U E #.p.p.p.p.8.p.p.a.l.l.l.l.d.l.s.s.a.a.a.a.a.l.l.0.9.8.8.8.W T Q L F F G G G D D m D D D G G M M m m m k m m M G L L Q J T R 8.9.9.9.8.6.R R R K K K 6.6.K K J J J J J J F G G G D F F J T T J J J J J T T T T T T T ! 8.p.! E W T T Y | { Z A C l l C C C C h 7 7 7 h C V V C h h h l x C C C C N N h h h h N A L Y L S S L L L M N s s j M M M M m j s p s j j m G Q Y Y F G G G G G G F Q T R T J J H H H J K 6.9.a.a.0.9.9.8.8.8.9.6.8.8.8.9.8.6.6.6.6.6.9.9.9.9.0.d.d.b.b.b.P.U.I.P.P.b.d.d.d.d.d.d.d.d.d.d.d.d.d.s.l.d.k.l.p.! E W T W W U U U U U U U U  .| U L C C x h < , , < < 7 6 , , , , , , , , 6 h h h h 7 7 6 , , , , 7 h a 6 a 6 < , < 6 6 6 7 h x x x x N C C M S L P Y { |  . .*.=.+.{ A B B / ) ) ` _ } } } _ _ _ ` _ } o.$.;.>.,.N.T.R.-X-X,X1X1X3X4X1X-XC.:.%.%.&.&.n.R.,X1X4X7XhXjXjX3XT.&.;.n.R.,X1X4X7X1X,X-X",
"-X1XhXjXvXvXjXhX1X-XR.,X4XhXjXjXhX7X4X;XB.n.>.n.R.,X3X4X1X-Xn.&.} o.;.,.N.n.B.B.B.B.B.N.B.R.-X-X-X-X;X-X-X;X;X-X-X-XR.B.B.N.n.,.>.-.o.o.X._ ` ` ` ` ` _ ) / / ) _ ` / B l B _ %.%.%.%.%.%.%.%.%.%.%.$.$.&.&.%.o.o.X.o.o.X.X.o.o.o.o.o.o.o.o.o.o.o.o.o.} { ( Z Z A A L Y #.@.#.#.E p.a.p.#.p.p.a.p. .U T U U W E ! #.#.p.8.p.p.p.9.l.d.l.l.l.l.d.d.s.a.l.a.a.0.0.a.a.8.8.8.E T Q F P F G L G G D D G G G M M G M m m m m M G G G L L Q Q R R 8.9.9.9.8.R K K K K K K 6.6.K K J J K K J J F G G G G F Q J T R J J J J K R R T T T T T ! 8.p.p.! W W U Y | Y Z A C l l z C C C l 7 7 7 h l V V V h h h l l x x x C C N h h h h N N L Y Y S L L L L M N j j k M M M M M m s s s j j m G Y Y Q F G G G G G F Q T R R T J J G G Q K 6.8.p.p.a.l.0.9.8.6.6.9.9.9.9.9.9.8.8.8.6.6.8.9.9.9.9.0.d.d.b.c.P.U.I.I.U.P.b.d.d.d.d.d.d.d.d.d.d.d.d.d.d.l.d.k.l.p.8.E T T W W W U U W W W W U U U U L A C x h < , < 7 h 7 6 < , , , , , , , 6 h h 7 h h 7 6 , , , , 7 7 6 6 6 6 < < < 6 6 7 7 h h x x N N C C M L L Y { |  .|  .*.=.| A C B / / ) ) ` _ } } } } _ _ _ _ o.$.;.,.n.B.R.-X-X-X-X;X,X,X;X;XR.n.&.&.&.:.B.R.1X4X7X7X8XhX8X7X1XR.;.$.n.-X1X4X7X4X1X;X:.:.",
"hXjXvXBXjXhX4X;X-XR.,X7XhXjXjXhX7X1X;XB.>.;.n.-X,X3X4X1XR.n.&.} o.;.,.:.n.N.B.R.R.B.n.B.-X,X1X,X1X1X1X1X,X,X;X;X-XR.B.B.,.:.;.;.;.$.o.o.X.` ` ` ` _ _ _ ) / / ( _ ` / B z B X.%.%.%.%.%.%.%.%.%.%.%.$.$.$.$.%.o.o.X.o.X.X.X.X.o.o.o.o.o.o.o.o.o.o.o.o.| } { ( Z Z Y U  .@.@.#.W E #.p.#.#.p.p.a.p. .T Y Y U W W ! #.#.#.p.p.p.p.p.a.l.l.d.d.d.d.s.s.l.l.a.a.0.0.a.a.9.9.8.E W Q F F F G L L G G G G G G M M M M m m m m G G L L L L Q Q T R 8.8.9.9.6.K K K K K K K 6.6.K K J K K K J J F G F F G F Q J T R J J J K R R W T T T T T R 8.p.p.#.E W U Y Y { Z A C l l l C C B z 7 7 7 7 h x V V x h h l x l l h C C N h x h h x N S L L L L L L L M N j j k M M M M M m j s s j j M G Y Q Q P G G G G G F T E E T J J J H H J R 8.p.p.p.a.s.0.8.6.6.6.9.9.9.9.9.9.8.6.6.6.8.9.9.9.9.9.0.s.b.b.P.P.U.U.I.I.P.b.d.d.d.d.d.d.d.d.d.d.d.d.d.d.d.d.d.a.p.8.E T T W W W U U U T U U U Y P Y Y Z C x h < < < h 7 6 < 6 < , , , , , , 6 h h 7 h 7 7 < , , , , 7 7 6 6 6 7 < , < 6 6 7 7 h h x x N N C C M L L Y { |  .|  ...| { A l z z B B / ) ) ( ) ( ( ) ) ) ( _ X.o.$.,.N.B.R.-XR.R.R.T.B.n.:.:.&.&.&.B.-X1X4X7X7X8X8XhX4X,X-Xn.>.>.N.,X4X7X4X4X;XB.B.n.n.",
"CXNXjXhX4X,XB.B.,X2X7XhXhXhXhX7X1XR.n.:.n.B.-X,X,X1X,XR.n.&.o.o.;.,.n.B.n.N.R.R.B.B.-X,X7X4X4X4X4X4X1X1X1X,X-XT.B.V.N.,.>.-.$.;.;.$.o.O.X.` ` ` ` X.X._ / B / _ _ ` / B B ` X.%.%.$.$.$.$.$.$.%.$.$.$.$.$.$.%.o.X.X.| | | | o.o.o.o.o.o.o.o.o.o.o.o.o.} } } | { { | #.@.f.@.#.W W #.#.#.a.a.a.a.@. .T Y U U U W E #.#.#.8.p.a.p.p.p.l.l.d.d.l.l.l.s.l.l.l.l.l.s.s.s.l.a.8.! W T Q Q F F L G G G G M M M M M M M M M M D G L L P F F Q Q T R 8.8.8.8.R K K K K K K R R R R K K K T R T J H G G G H Q J J R R T J J K R R W T T T T W W ! #.p.p.E W U Y Y Y Z Z C z l x V C C V h 7 7 7 l z C C z x l x x x x x x C C x x h h x N S L L L L L L L L N j j k M M M M M m j s j k k G L Y Q Q F G G G G F T E 6.E R J J J J J K 6.9.a.0.0.a.0.9.8.6.6.6.8.9.9.6.6.6.6.6.6.6.8.9.9.9.9.9.0.d.b.b.P.U.U.U.I.I.I.P.d.d.l.d.d.d.d.d.d.d.d.d.d.d.d.d.l.a.8.8.W T T T W T U T Y Y Y Y Y L L L L L Z x h 7 7 h 7 7 , , 6 , , > , > , , 7 h h h h 7 6 6 , , , , 6 7 6 6 6 7 6 < 6 6 6 6 h h h l x N C C C A Z P Y { | | | | | P Z C h l l l z z B B B B B B B B B / / ` _ X.%.$.$.&.;.;.;.;.&.o.X.o.&.>.N.R.1X4X7XhX7X4X3X1X;XB.>.;.n.N.R.1X1X4X1X-XR.,.:.B.,X1X",
"jXhX4X1XB.-X,X1XhXhXjXjXhX7X2X,XB.:.:.n.R.;X,X1X,X;XR.n.:.$.&.>.n.n.n.N.-X;X,X;XR.;X1X7X7X7X4X4X4X4X1X,X,X;XR.B.N.N.n.,.>.-.-.;.;.$.o.o.X._ ` ` _ X.X.` / B / _ ' ` / ^ / ' O.%.$.%.$.$.$.$.$.%.$.$.$.$.$.$.%.o.X.X.| | | | o.o.o.o.o.o.o.o.o.o.o.o.o.X.} } { | | | @.*.@.@.#.#.! #.#.a.a.a.a.f.a.#.W T U U T T W #.#.#.p.p.p.p.p.p.a.l.d.d.d.l.l.l.s.l.l.s.l.l.s.s.l.a.p.8.E W T Q Q F F L G G G G G G G G M M M M M D L L F P F F Q Q T R 8.8.8.R K K K K K K K R 6.R R K K K R R T J F F F F Q J J T R R T J T T R R E W T T T T W E #.p.p.#.W U Y L Y { Z A B x z z C B C l 7 7 7 h z B B B C x x x x x x x C C x h h x x N S L L L L L L L L M j j m M M G M M m j j k m m L P Q Q T F F G G F Q T E 6.R R T J J J K 6.9.a.a.a.l.9.8.6.6.6.6.6.9.9.9.9.6.6.6.6.6.8.9.9.9.9.9.9.0.d.b.P.P.U.U.U.I.I.I.P.d.d.0.d.d.d.d.d.d.d.d.d.d.d.d.d.s.8.8.8.W T Q Q Y Y Y Y Y Y Y L L L L S S Z Z A x h h l h 7 , , , , , > > > , , 7 h h h h 7 6 7 6 , , , , < 6 6 7 7 7 < < 6 6 6 h h h x x C N C C A Z P Y Y { | | | { Z C x l 7 7 7 7 l l z z z z z l z B / ) ` _ X.X.X.X.X.X.} } _ _ X.%.&.n.T.;X,X7X7X7X4X1X-XB.N.&.;.,.N.-X1X1X1X;XR.N.:.;.:.B.,X8XhX",
"2X,X;X;X,X4XhXhXjXjXhXhX4X2X-XB.n.:.n.R.,X,X,X;XR.B.n.:.:.:.n.B.B.R.-X;X7X7X1X,X,X4X8XhX7X4X4X4X1X1X,X-X-XR.B.B.N.n.n.,.;.-.-.;.$.o.O.X.X._ ` _ X.X.' / B z / X.X._ ` / ` O.$.$.%.%.%.$.$.%.$.$.$.$.$.$.$.$.%.o.%.o.o.o.o.o.o.o.o.o.o.o.o.o.o.o.o.o.o.o.o.| | | | +.@.@.#.#.#.#.#.#.a.f.f.f.f.f.f.#.E W U U U U W  .#.#.p.p.a.a.a.p.p.l.l.d.d.d.d.l.l.l.l.l.d.d.d.s.s.s.p.p.8.E E T Q Q F P L G L L L G G G G G G G G G L P P P P Q Q Q T R R ! R K K K K K K K K K 6.R R W K W R R T J F F F F J K R R R R R T T T R ! E W T T T T T W E p.p.p. .U Y L Y | ( A C C l x C C B V l 7 h l C B B B B V z x x x x C C C x N N N N C S Y Y L L L L L L M j j m M M M G M m k k m m G L Y Q P T T F F F F Q E 6.E W T T T J J R 8.9.s.s.s.0.8.6.6.6.6.6.8.9.9.9.9.9.9.8.8.9.9.9.9.9.9.0.0.0.d.b.c.P.I.I.U.I.I.P.P.d.d.0.0.d.d.d.d.d.d.d.d.d.d.l.l.a.8.8.6.W T Q F L L L L L L L L L L M M C A Z C x x x x h 7 , , , , > > , , , < 7 h h h 7 , , 7 7 6 < , , < 6 7 7 h 7 6 < 6 6 7 h h h x x x C C C A Z P Y Y | | | | P C h h 7 7 7 7 7 l l z z z B B / ` ` _ X.o.$.$.$.$.$.%.o.X.X.X.o.;.,.N.-X,X1X3X4X1X;XR.:.;.;.>.,.B.-X-X1X1X;XB.n.;.&.;.n.R.1X7XhXjX",
"2X4XhXhXjXjXjXjXjXhX4X3X;XR.B.n.B.R.-X;X,X,XR.B.:.&.&.&.n.B.R.R.;X1X7XhXhX7X,X1X7XhXhX8X3X1X1X1X1X,X;XR.R.B.B.N.n.n.,.>.;.-.-.-.O.X.X.X.X._ ` _ O.X._ / z B ) X.X._ _ ` ' O.$.$.%.%.%.$.$.%.$.$.$.$.$.$.$.%.%.o.o.o.o.o.o.o.o.o.o.o.o.o.o.o.o.o.o.o.o.o.o.o.o.o.o.=.@.@.#.#.#.#.#.a.a.f.f.f.f.f.f.@. .E W U U U W #.#.#.#.p.p.a.a.p.p.a.l.l.d.d.d.d.d.l.d.d.l.l.d.d.l.s.a.a.p.p.E E T Q Y P Y F L L L L L G G G G L L G F P P P P Q Q Q T R R R K K K K K K K K K K R R R W K R R W T J F F F Q J R R R R R R R R R ! ! ! W W T T T T W E p.p.p...U Y L Z { { Z A C z l z C B V V l h l C C B B B C V x x x C C C x x N N N N C S Y Y L L L L L L M m m m M L L G M m j k M G L P Y Q P T T T F F Q W E 6.E W T T T J K 6.9.s.s.s.a.8.6.6.6.6.6.8.8.9.9.9.9.9.9.8.8.9.9.9.9.9.9.9.0.0.d.b.c.P.I.I.U.I.I.P.P.d.d.0.0.0.d.d.c.c.b.d.d.d.d.s.s.a.8.8.8.R T F L L L G G G L L L L L M C C A C x x h h h 7 , , > , , , , , , , < 7 h h h 6 , , < 7 7 7 < , , 6 6 7 h 7 6 6 6 6 7 h h h h x x N C C A Z P Y Y U | | | Z x 7 6 6 7 7 7 l z z ^ / ` ` _ X.o.$.;.>.<.<.<.<.<.<.<.,.>.>.,.n.B.R.-X1X1X3X4X,X-Xn.&.o.;.B.-X1X1X1X1X,XB.;.&.o.o.:.B.,X4X8X8X8XhX",
"hXjXjXvXNXvXjXjX7X1X;XR.n.n.n.B.-X;X;X;X,XR.n.&.o.;.,.n.R.R.;X4X7XjXcXvXhX4X1X3XhXhX7X1X3X1X1X,X,X;XR.R.B.B.N.n.,.,.>.>.;.-.-.-.` ' X.X.X.' _ X.$.o.' / z ^ _ X.X.X.X.X.O.$.$.$.$.$.$.$.$.$.$.$.%.%.$.$.%.%.%.%.o.X.X.X.X.X.X.o.o.o.o.o.o.o.%.o.%.%.o.o.o.o.o.o.o.o.=.+. . .#.#.#.a.f.f.f.j.j.f.f.@.E U U U  . . . . .#.#.p.a.a.a.p.a.a.a.l.d.d.d.d.d.d.d.l.d.d.d.d.d.s.s.s.l.a.8.E W T Q Q Y Y P P L L L G G G G F F L F F Q Q Y P T T W R R J J J K K K K K R K R R R R R R R R R J Q F F F Q J R R R R R R R R R ! 8.! R T J Q Q T W E p.p.p...U L L S Z { ( Z A B l l B B B B z l h l B B B A C C C C B C C C x x N C C N C S L L L L L L L G M M M M L Y Y L M k j M L L L P P Y Q T T T F F J W E 8.R W K K K R 6.8.s.d.s.0.8.6.6.6.6.6.8.8.8.8.8.8.8.9.9.8.8.9.9.9.9.9.9.9.9.d.b.b.c.P.I.I.I.I.I.P.P.d.d.l.0.a.d.d.c.c.c.d.d.d.s.l.l.a.9.9.8.! W T F L G M M M M L L L S C C C A A x h h h h 7 < , > , > , , > , , , 7 h h 7 6 , , < 7 h h 7 < , < 6 7 7 h 6 6 6 6 6 h h h h x x k C C A Z L Y { | | { { A x 6 6 7 7 7 7 z B / / _ _ X.X.o.$.;.>.<.<.<.<.<.<.;.&.;.>.,.N.V.T.-X:X1X1X1X-XB.;.X.$.N.;X1X4X7X1X1X-X;.o.o.>.B.R.;X,X7X7X7X7X4X4X",
"NXvXjXjXhX4X2X2X-XR.B.B.B.B.R.-X;X,X;X-XR.N.:.&.n.B.R.-X;X1X8XjXcXNXcXhX7X7X7X7X8X4X1X;X,X;X-X-XR.R.B.B.n.n.,.>.>.;.-.-.-.O.X.' ' ' X.X.X.' X.O.$.o.' ^ B / ' O.O.X.X.O.O.$.$.$.$.$.$.$.$.$.$.$.%.$.$.$.%.%.%.%.%.X.X.X.X.X.X.X.o.o.o.o.o.o.%.o.%.%.o.o.o.o.o.o.o.o.+.+. ...#.#.#.@.f.f.f.j.j.f.f.#.U U U U  .U U U  .W #.#.p.a.a.p.a.a.a.a.l.d.l.l.d.d.d.d.d.d.d.d.d.d.l.s.l.s.p.E W T T Q Q Q Y Y L L F G G G G F P P F F F F P T T E R W R J J J K K K K K R K R R 6.R R ! R R T Q Q F F F Q J R R R R R R R E ! 8.8.8.R W T Q Q T W #.p.p.@...U Y S C A Z Z Z A C V l B A B B B l h h z B A A A C C C A A A C x x C C C N C S L Y L L L L L L M M M G L Y Y G M m m M L P P F F F Q T T T Q J T W 6.6.R R K K R 8.8.0.s.s.0.8.R 6.6.6.6.8.8.8.8.8.8.9.8.9.9.8.8.9.9.9.0.9.9.9.9.d.b.c.c.P.I.I.I.I.I.P.c.d.d.s.l.0.l.d.d.c.c.d.d.d.s.l.l.l.l.p.8.8.E W Q L G M M M M L L L M C N C A A k x h h h 7 < > > , > > , , , , , 6 h h h 6 , , < 7 h h 7 < , < 6 7 7 h 6 6 6 6 7 h h h h x x N C C A Z L Y { | | { P A h 6 6 7 7 7 0 z / / ` _ _ X.X.O.o.%.%.o.o.o.O.X.X.} _ _ } O.$.<.n.B.T.-XR.B.,.;.o.&.N.,X7XjXhX7X1XR.n.;.>.T.;X1X4X7X7X7X4X1X,XB.B.",
"jXhX7X4X,X-XR.R.B.B.B.R.-X,X,X,X;X;X-XB.n.n.n.B.;X,X1X4X7XhXcXcXNXcX8X1X4X7X7X7X4X,X;X-X-XR.R.B.B.C.n.n.,.>.>.;.-.&.O.O.$.O.' ' ' X.X.' _ X.$.;.$.o._ / ^ ) X.%.%.O.%.%.$.$.$.$.$.$.$.$.$.$.$.$.%.%.%.%.$.$.%.%.%.%.%.%.o.o.o.o.o.o.o.o.%.%.%.%.%.%.o.o.o.o.o.o.o.o.o.+. ...#...#.@.f.f.f.j.j.f.f.#.U U U U U | U U U W ..#.p.a.a.p.p.p.p.a.a.l.s.l.l.l.d.d.d.d.d.d.d.d.s.s.s.s.a.8.R T T T Q Q Y Y L L F G G G G Y Q F P P Q F T T E E R R R J J J K K K K K R K R R 6.6.8.8.E W J Q F F F F Q J T R ! 8.8.8.8.8.8.8.8.8.E W T Q T W W #.p.a.p...U P M C C C A B A C B V V B Z Z A V h h z C A A A A C A A A A C x N N C C N A M L Y L L L L L L M M L L Y L L G M M M L Y Y F G G F Q T T J J J T W E 8.R R K K R 8.9.a.s.s.8.6.R 6.6.6.6.8.8.8.8.8.8.8.8.8.8.9.9.9.9.0.0.0.0.0.0.d.b.c.c.P.U.I.I.I.I.P.P.d.d.d.l.0.l.l.d.k.k.d.d.d.s.0.l.l.s.a.8.p.! W W Y L M M M M M M M C N N N C C x x h 7 7 7 < , , , , , , , 6 < , , 7 h h 6 , , < 7 h h 7 < < < 6 7 7 h 6 6 6 6 7 h h h h x x N C C A Z L Y { { { { Z x h 6 6 6 7 7 7 z B / / ) ` ` _ ` ` ` ) ) / / / B B / B / / _ } $.&.;.>.>.;.$.$.;.,.-X1X7XjXjXhX3X-XB.,.T.,X4X7X8X7X7X1X;X-XB.,.$.$.",
"1X,X;X-XR.B.B.n.B.R.,X,X1X1X2X1X;X-XB.:.B.T.-X,X1X7X8XhXjXcXcXjXhX7X1X,X1X4X3X1X,X-XR.T.R.R.B.B.n.n.n.n.,.>.;.;.-.&.O.X.O.' X.X.O.X._ ` _ X.;.;.;.o.` / / ` O.$.$.%.$.$.$.$.$.$.$.$.$.$.$.$.$.$.%.%.%.%.$.$.%.%.%.%.%.%.%.o.o.o.o.o.o.o.%.%.%.%.%.o.o.o.o.o.o.o.o.o.o.+.+. ...#.@.@.f.f.f.j.j.f.@. .U Y Y Y U U U U U U ..#.p.a.a.p.p.p.p.p.a.a.s.s.l.s.l.d.d.d.k.k.k.d.d.s.s.s.s.8.8.W Q Q Q Q Y Y L L F G G G L Y Y Q Q P P F T W E W R R R J J J K K K K K K 6.6.6.6.8.8.! R T Q Q F F F F Q J R R ! 8.8.8.8.8.8.8.8.8.! R T Y Q W W ! #.a.@.#.| Y A C x C B B B B B C l V Z ( Z B z l x C C A A A A A A A A C x N N C C N C A S Y L L L L L L M M L Y Y L G M L L L Y Y Y L G G F F J J J J J T W 6.8.R R K R 8.8.9.l.d.a.8.R R 6.6.8.8.8.8.8.8.8.8.8.8.8.9.9.9.9.9.0.0.0.0.0.0.d.b.c.c.P.U.I.I.U.I.P.c.d.l.l.l.0.0.l.d.d.k.d.d.d.s.s.l.l.s.s.p.8.8.E W W L M M M M M M C N k x x N C x h h 7 6 < < , , 6 6 6 , 6 7 6 , , 6 7 h 6 , , < 7 h 7 6 < < < 6 7 7 7 6 6 6 6 7 h h h h x x N C C A Z L Y { { { { Z x h 6 6 6 6 7 7 l z z B B B / / ^ B B B B B B B B B / ( ` } X.%.%.O.o.O.o.X.O.;.R.1X8X8XhXjXjXhX;XB.B.-X7XhXhXcXhX7X,X-X,.:.o.o.o.o.",
"B.B.B.B.R.-X,X,X,X1X7X4X4X4X,XR.R.R.R.;X1X4X7X7XhXjXcXcXcXjXhX7X1X,X,X,X,X,X;X-X-XR.B.B.N.N.N.N.N.n.n.,.>.>.;.;.;.;.$.X.' [ ' ;.O.X.) B ' $.>.>.;.O.` / ` ' %.$.$.$.$.$.$.$.$.$.$.$.$.$.$.$.$.$.%.%.%.%.$.$.$.%.%.%.%.%.o.o.%.%.o.o.o.o.%.%.%.%.%.o.%.%.o.%.o.o.| | o.o.=.=.@.@.@.@.f.f.j.k.j.f.@. .U Y L L Y U | | | U  .#.p.a.p.p.p.8.p.p.p.a.a.a.l.l.s.d.d.k.k.k.c.k.d.d.s.s.s.a.8.R J Q T T Q P P F L L G G G P T T T Q F F T E E E R W J J K K K K K K 6.6.6.6.8.8.8.8.E T Q Q Q F Q Q Q J J R R 8.8.8.8.8.8.8.8.8.8.! E T Y Y T W #.#.a.@.#.U L A N x x V C B A A C V B A Z Z A B V V V C A Z Z Z A A A A C C N N C C N N C S L Y L L L L L L L Y Y Y L L G L L Y Y Y P G G G G Q T T T T T T E E 6.R K R R 8.9.a.d.d.0.6.K R 6.6.8.8.8.8.8.8.8.8.8.6.8.9.9.9.9.9.9.0.0.0.0.0.d.b.P.P.P.U.U.U.I.I.I.c.d.d.l.a.l.a.a.s.d.d.d.d.d.s.l.l.l.s.a.p.8.8.#. .U Y M M M M M N N k x h h x h h h h 6 , , , > , 7 7 6 6 6 7 6 6 6 6 7 7 6 , , < 7 7 7 6 6 , < 6 7 h 7 6 6 6 6 7 h h h h x x N C C A Z L Y { | | { A h h 6 6 6 6 7 7 7 0 l z l l B B B V z l B B / ` X.O.$.&.:.>.;.>.>.;.$.%.$.;.N.T.1X7XjXjXhXjX8X1X-X-X,X8XjXvXNXcXhX1XB.:.o.} } $.>.B.",
"-X;X2X1X7XhXhX7XhX7X4X1X1X-XR.-X;X1X7XhX8XhXhXhXcXvXjXjX8X7X1X,X,X,X,X,X;X-XR.B.B.B.B.N.N.N.N.N.n.n.,.>.>.>.>.;.;.;.$.X.' X.$.;.O.X.) ) O.>.,.<.;.X.) / ` X.%.$.$.$.$.$.$.$.$.$.$.$.$.$.$.$.$.$.%.%.%.%.$.$.$.%.%.%.%.%.o.o.%.%.o.o.o.o.%.%.$.%.%.o.%.%.o.o.o.o.| | o.o.=.=.=.@.@.@.a.f.f.j.l.a.@.#.U L S S Y U U U U |  .#.#.p.p.#.! ! 8.p.a.a.a.a.a.l.s.s.d.d.k.k.P.P.c.d.d.s.s.s.l.8.T J Q T Q Y P F L G G G L F T T T Q F F J W E E W R J J K K K K K 6.6.8.8.9.8.8.8.8.R T Q Q Q Q Q Q Q J J R R 8.8.9.8.8.8.8.8.8.8.! E T Y Q T W ..#.@.#.#.U L A C z l V V C B B C V B C A A A B V V V B A A Z Z ( Z A A C C N N N N N N C S L P P P Y Y L Y Y Y Y Y P L L L Y Y Y P G G G G F Q T T T T T T E E R W K R 6.8.a.s.d.s.9.6.K R 6.8.8.8.8.6.8.8.6.6.6.6.9.9.9.9.9.9.9.0.0.0.0.0.d.b.c.P.U.U.U.U.U.I.I.c.d.s.a.a.a.a.a.a.s.d.d.l.s.l.0.0.l.l.0.a.p.8.#. .U Y M N N N N N N h h h h h h h h h 7 < , , > , 6 7 7 7 7 6 < 6 6 h h h 6 , , 6 7 7 7 6 6 , < 6 7 7 7 6 6 6 6 7 h h h h h x N C C A Z L Y { | { Z C h 7 6 6 6 6 7 7 7 0 l l z z B B / / / / / ` X.o.$.;.>.,.n.N.n.n.N.n.,.,.N.B.-X;X1X7XhXhX7X4X;XR.;X3XjXvXNXNXNXcX1XB.;.&.o.;.N.-X,X1X",
"7XhXhXjXhXhXhX7X4X2X,X,X;X,X4XhX7XhXjXvXjXjXjXjXjXhX7X7X,X,X-X-X;X;X-X-XR.B.B.B.B.B.B.N.N.N.n.n.n.,.>.;.;.;.>.<.>.$.O.X.O.-.>.;.O.' _ O.<.n.n.,.%._ ) ) ` ' %.$.$.$.$.$.$.$.$.$.$.$.$.$.$.$.$.$.$.$.$.$.$.$.$.$.%.%.%.%.%.%.%.%.%.%.%.%.$.$.$.%.%.%.%.%.%.%.o.o.| | o.o.o.o.=.@.@.#.@.f.f.j.f.f.@.#.U L S S S Y U U U U U #.#.a.#.#.! ! ! p.p.a.a.a.a.a.a.s.l.d.d.k.k.P.c.k.d.d.s.s.d.l.! T Q Q T Y P P L L G G F Y T W T Q Q Q T R E R W R R R R R R R 6.6.8.9.p.p.p.9.8.E W J Q Q Q Q J J J J T W R 8.8.9.9.9.9.9.p.p.p.! E T Y Q Y U #.#.@.#.#.U L A C C l V V V C B B V B B V B V V V V V V C Z Z ( ( A C C C C C N k N N N N S L Y U U Y U Y Y Y Y Y Y Y P Y U W U P L G F L G Q Q T T T T T T R E R R R 6.8.a.s.d.d.a.8.R K R 6.9.9.6.6.R 6.8.8.8.8.6.8.8.9.9.9.9.0.s.d.s.0.d.b.b.c.c.U.U.U.U.U.I.I.c.d.l.9.a.a.a.a.a.l.l.l.s.s.s.l.0.l.l.0.a.a.8.#. .W L M N N N N N k h h h h h h h h h 7 6 < , , , , , 6 7 h 7 6 6 < 6 h h h 6 , 6 7 7 7 6 6 < < 6 7 7 7 7 7 6 7 7 h h h x x x N C C A Z P { | | { Z C h 7 6 6 6 6 7 7 7 7 l z V B B ) _ ' ' _ _ X.O.$.&.;.>.<.,.,.<.,.<.<.,.,.,.n.B.T.T.;X1X,X;XB.N.B.3XhXvXNXBXNXcX8X-X;.$.,.B.,X7XhXjXhX",
"hX7X7X7X7X4X1X2X1X1X4X4X4XhXjXjXcXvXvXvXNXcXjXhX7X4X,X,X-X-X-X-X-XR.B.B.B.B.B.B.B.B.B.N.N.n.n.,.,.>.;.;.;.;.<.<.>.O.X.X.O.>.2.>.X.X.X.>.n.N.N.>.X.` ) ) ` ' %.$.$.$.$.$.$.$.$.$.$.$.$.$.$.$.$.$.$.$.$.$.$.$.$.$.%.%.%.%.%.%.%.%.%.%.%.%.%.%.$.%.%.%.%.%.%.%.o.o.o.| o.o.o.=.=.@...#.@.@.f.f.f.@.#.#.W Y S S S Y Y U U U U W #.#.#.#.! E ! #.p.p.a.a.l.l.s.s.s.l.d.d.k.k.c.c.d.d.d.d.d.l.9.R J Q T Q Y P L G G L F Q W E W Q Q Q T R E R R R R R R R 6.6.8.8.9.a.a.a.p.p.8.R T Q Q Q J Q J J J J T R R 8.8.9.9.9.9.9.a.p.p.! E T Y L Y T W #.#.#. .Y S C C C V V l l V V V V V V V l l l z l V V C A A Z A B x h h x h h x x x x N S Y U U | U U T Y Y Y Y Y Y Y Y U U Y P F F F G G F Q T T T T T R R R R W R 8.a.l.d.d.s.0.6.K K R 6.8.6.6.K R 6.8.8.6.6.6.8.8.9.9.9.9.s.s.d.s.0.0.b.b.c.c.U.U.U.U.U.I.I.c.d.l.9.9.a.a.a.a.a.l.s.l.l.l.9.0.l.l.a.a.a.8.#.E U L M M M C N N j h h h h h h 7 7 7 7 7 6 < , , , , , < 6 7 h h 7 h h h h 6 6 6 7 6 7 6 6 < < < 7 7 7 7 < < 7 7 h h h h x x N C C A Z Y { | { Y A x h 7 6 6 6 6 7 7 7 7 l l V B B ) _ ' O.O.O.O.O.O.O.$.&.&.$.o.X.O.O.%.$.$.%.X.%.$.;.,.,.>.<.;.n.T.7XjXcXvXNXvX8X1XB.&.&.B.4XjXNXNXNXjX",
"1X2X,X,X4X4X4X4X7XhXvXvXvXjXjXjXjXjXvXvXjX7X1X,X-X=XB.B.B.B.B.B.B.B.B.B.B.B.B.B.B.B.B.N.N.n.n.,.>.>.:.;.>.<.,.<.;.X.' X.,.V.N.>.} X.;.N.=X=XN.;.' ) / ) ` X.%.$.-.-.-.$.$.$.-.-.$.$.$.$.$.$.$.$.$.$.$.$.$.$.$.$.%.%.$.%.%.%.%.%.%.o.$.$.$.$.$.$.$.%.%.%.o.o.o.o.o.o.o.o.o.$.=.*...#.#.@.f.f.f.#.#.#. .| Y S S S Y Y U U U #.#.#.#.#.W W ! #.#.@.a.a.a.l.l.l.s.l.d.d.d.k.c.c.c.d.d.d.d.l.a.! T T T T Q Q P F G G F Q W E E T J T T E E R R R R R 6.6.8.8.9.9.9.9.9.9.a.8.8.W T T T T T Q J Q J J T W E 8.p.p.a.9.9.a.a.a.p.! W T Y Y Y T W #.#.#. .Y S A C C V l l l l l l l l l l l l l h x V C B C B B C x h h h h h h h h h h N A L U |  . .U W U Y Y Y Y Y Y Y Y Y Y Y P F L G F Q Q J T T T J T W R R R 8.a.k.d.d.d.s.9.6.K R 6.8.6.6.R K R 8.8.8.8.8.8.8.8.9.9.9.0.s.d.d.s.0.d.b.b.c.P.P.U.U.U.P.I.I.c.d.s.9.a.a.a.a.p.p.a.a.a.9.9.9.9.s.l.l.a.a.p.! E T L M A A A C N x h h h 7 < < 7 7 7 7 7 7 7 < , , , , , 6 7 7 7 7 h h l h h h 7 7 6 7 6 6 < , , 7 7 7 7 < < 7 h h h h x h N N C A A L Y { | { P A x h 7 6 6 6 6 7 7 7 7 l l z z B ) ' X.O.%.$.$.O.X._ ` ( ( ( ) / / ) ( ` _ } X.X.O.$.;.<.,.,.>.V.;X7X8XhXjXjX7X1XT.N.:.R.7XcXNXCXCXvX7X",
"4X4X7XhXjXjXjXjXjXhXhX8XjXhXhXhXjXhX4X3X,X-XB.B.n.n.n.n.N.B.B.B.N.N.N.N.B.B.B.B.B.B.B.N.N.n.,.,.>.>.>.:.<.n.,.>.O.X.O.;.N.V.N.;.X.O.,.V.T.V.>.O.` / ^ ) ` X.%.$.-.-.-.-.$.$.-.-.$.$.$.$.$.$.$.$.$.$.$.$.$.$.$.$.$.$.$.%.%.%.%.%.o.o.$.$.$.$.$.$.$.%.%.%.o.o.o.o.o.o.o.o.o.o.*.*...#.@.@.f.f.f.#.#.#. . .| Y S S Z Y U U |  .#.#.#. .U U W E #.#.a.a.a.l.a.l.l.l.l.l.d.d.k.c.c.d.d.d.d.d.s.8.R T Q T Q Q P P F L F T W E E T J J T E E E 6.R 6.6.6.8.9.9.9.a.9.9.9.9.9.8.R T T T T T T Q J J J J J W E 8.9.p.a.a.9.a.a.p.#.! W T Y Y L Y U #.#.#. .Y A C N z l l l l l l l h h h 7 7 7 7 h h l V B B C B z h h h h h h h x x h h j N L U  . . .U W U Y Y Y Y Y Y Y Y Y Y Y P P Y Q Q Q Q J J T T J T W R 6.6.p.s.d.d.l.s.a.8.6.6.6.8.8.6.6.K K R 8.8.8.8.8.8.8.8.9.9.0.0.d.d.s.s.d.b.b.b.x.P.P.U.U.U.P.P.P.c.d.s.p.9.p.p.p.8.8.p.8.9.9.8.9.9.a.s.a.a.a.p.! W T L A A A A C N x h a a < < 6 7 7 7 7 7 h 7 6 , , , , , , 6 6 7 h h h x h h h h 7 7 7 7 < < , , 6 6 7 7 7 7 h h h h h x h N N C A Z P Y | | { { Z x h 7 6 6 6 6 7 7 7 7 l l z l l / _ X.X.O.O.X.X.' ` ) ) ) / / B / ` _ X.X.X.%.&.>.,.n.V.T.-X-X1X4X7X7X7X7X1X-Xn.;.,.T.3XjXBXAXCXvXhX7X",
"hXjXvXNXjXjXjXjXhX7X4X4X7X7X4X4X1X,X-XR.B.N.n.n.n.n.n.n.N.N.B.B.N.N.N.N.B.B.B.B.B.B.B.B.N.n.,.,.,.,.,.n.N.N.n.>.o.O.>.N.V.V.,.O.O.;.V.=XV.N.$.) / / B ) ` X.%.$.-.-.-.-.$.$.$.-.$.$.$.$.$.$.$.$.$.$.$.$.$.$.$.$.$.$.$.$.%.%.%.o.o.o.$.$.$.$.%.%.$.$.$.$.%.%.%.%.o.o.o.o.o.$.*.+. . .#.#.a.f.f.#.#.#. .| | | Y S Z Y Y U  .#.#.#.#.U U U U W  .#.#.a.a.a.a.a.l.l.l.d.d.d.d.c.c.b.b.d.d.d.l.a.! T T Q Q Q Q Q F F Q W E E E T T T W ! 8.8.8.8.8.8.9.9.a.s.s.a.9.s.s.s.8.8.W J Q T T T T T J Q J J J R E 8.9.9.p.9.9.9.a.p.p.! W T Y Y L Y U #.#.#. .Y A C N l l l l l l l l l h h h h h h h h l l V V V z x h h h h h h h x h h h h N S U  . .U U U W Y Y Y Y Y Y Y T T Y P P T T Q T Q J T T T T J T R R 6.8.a.d.d.l.s.9.9.8.8.6.8.8.8.R K K K 8.8.8.8.8.8.8.8.8.9.0.s.s.d.d.s.0.d.b.c.P.P.I.I.I.U.U.P.P.P.b.d.a.p.p.p.p.p.8.8.8.8.8.8.8.8.9.a.l.a.a.a.p.! W T L A A A A C N j h a a < < 6 7 7 7 7 7 7 7 6 , , , , , , 6 6 6 7 7 h l l l h h h 7 7 7 7 6 6 , 6 7 7 h h h h x x x x x N C C A Z Z Y | | | | { Z x h 7 7 6 6 6 7 7 7 l l B z l z / ` ` ` ) ) ) ` ` ` ` ` ` _ _ ( _ X.o.%.O.X.%.&.>.,.n.V.T.-X;X1X1X;X;X-X-Xn.>.&.;.N.1XhXcXCXCXvXhXjXvX",
"hXhXhXhX4X4X4X4X7X7X4X3X3X1X1X,XC.N.n.N.N.N.B.B.B.B.B.B.B.B.N.B.B.B.B.B.B.B.B.B.B.B.B.B.N.n.,.,.n.n.n.n.T.V.,.>.o.;.n.=X=XV.>.O.$.,.T.=XV.>.X./ / ^ B ` ` X.%.$.;.-.-.-.$.$.-.-.$.$.$.$.$.$.$.$.$.$.$.$.$.$.$.$.$.$.$.$.%.%.%.o.o.o.$.$.$.$.%.%.$.$.$.$.%.%.%.%.o.o.o.o.$.$.*.o.| |  .#.@.f.f.#.#.#. .| | | | Y Z Y Y U  .#.#.#. .U Y Y U U W #.#.@.#.p.a.a.l.l.l.d.d.d.d.d.P.P.b.b.d.k.d.s.8.R T T Y Q Y Q Q Q W W E E E T T W E 8.8.8.8.8.8.8.0.s.s.s.s.a.9.s.s.s.8.R T J T Q T T T T T Q J J J R E 8.9.9.p.p.9.9.p.a.#.! W T Y Y L Y U #.#.#. .U A C x x z l l l l l l h h h l h h h h l l l x l l l h h h h h h h h h h h h h N M U |  . . .U W Y Y Y Y Y Y Y Y T Y P Y W W T T T J J T T T J T R R 6.p.s.d.d.s.a.9.8.8.8.8.8.9.6.K K K R 6.8.8.8.9.9.9.9.9.0.s.s.s.0.d.s.s.b.c.c.P.P.I.I.I.U.U.P.P.c.d.s.p.p.p.p.p.p.8.8.8.8.6.8.8.8.9.a.l.a.a.a.8.! W Y L C A A A C N j h h a < < 6 7 7 7 7 7 7 7 6 , , , , , , , 6 6 6 6 h h l l h h h 7 7 7 7 7 6 6 6 7 h h h h x x x x x x N C C A Z Z Y | | | | { Z x h 7 7 6 6 7 7 7 7 l B B B B / ) ) / B B z B ^ / X.X.X.X.O.O.X.O.O.%.%.o.O.O.O.O.$.;.<.,.,.V.T.N.,.<.;.$.o.$.;.;.;XhXcXjXcXvXhX4XhXBX",
"2X2X2X2X1X1X1X1X1X1X,X;X-XR.B.B.N.B.T.T.B.V.B.B.B.B.B.B.N.N.B.B.R.R.B.B.B.B.V.V.T.R.T.N.1.n.N.N.V.T.=X-X=XV.,.$.;.n.=X-X-X1.-.$.,.V.V.1.;.X.) / / / / _ _ O.$.-.$.&.;.-.-.-.$.&.-.-.-.-.&.$.-.-.$.$.$.$.$.$.$.$.-.-.$.$.%.%.%.%.%.%.%.%.%.%.$.$.$.$.$.$.$.$.%.%.%.%.%.$.&.*.o.o.| U U  .#.a.f.@.#.#.#. . . .| U Y Y Y | #.=.=.| U Y L L Y U  .#.#.@.#.p.a.a.l.l.l.l.d.d.d.d.c.c.b.b.d.k.d.l.a.! R T T T T T T W E E E E E E W W R 8.8.8.8.8.9.0.s.d.d.d.s.9.9.0.s.s.8.R J J Q Q Q Q T T T T Q Q J W E 8.p.8.8.8.9.9.p.p.#.! E W Y Y L Y W #.#.#. .U S C x z l l l l l l l l l h h l h h h h h h h h h h h 7 7 7 h h h h h h h h h N A Y |  . .E W U Y Y T T Y L Y Y U Y P Y W W E W T Q J J J J J T W R 8.9.s.s.s.s.a.9.8.9.9.9.9.8.6.K K R 6.8.8.8.9.9.9.9.0.0.0.d.d.d.d.d.0.d.b.b.P.P.P.P.U.U.U.U.P.P.P.d.l.a.p.a.p.p.p.8.8.! 8.8.8.8.a.a.s.s.s.a.p.! E U L M M A A A A C h h a a < < 6 6 6 7 7 7 7 7 7 6 < , , , , 6 < , , < 7 h l h x h h 7 h 7 7 7 7 6 6 7 h h l l x x x x x x N C C A A Z U | |  .| | Z N h 7 7 6 6 6 7 7 l l z B / / ) ` / B z z ^ ^ / / %.$.;.;.>.>.;.%.O.O.X.X.X.' ` ` X.O.O.;.>.>.;.-.$.o.X.X.o.>.B.-X8XjXjXjX8X7X4X7XCXCX",
",X,X,X-X-X-X-X-XR.B.B.N.B.B.B.B.T.R.=X-X;X-XR.R.T.T.T.T.R.R.R.R.B.B.B.B.B.R.T.R.R.-XR.B.N.N.T.T.=X-X1X1X-XN.>.>.N.-X>X-XV.>.;.,.N.V.1.;.O.` ) ) ) ) ) X.X.O.$.-.$.&.&.-.-.-.$.&.-.-.-.-.&.-.-.-.$.$.$.$.$.$.$.$.-.-.$.$.%.%.%.%.o.%.%.%.%.%.$.$.$.$.$.$.$.$.%.%.%.%.%.$.&.o.o.+.| Y Y U  .@.f.f.@.#.#.#. .#.| U U Y Y  .=.=.=.U L S S S Y U  .#.#.@.a.p.p.a.a.l.l.l.d.d.d.d.c.c.b.b.d.k.d.d.s.p.! R T T T T E E E E E E E E W W ! 8.p.8.8.9.0.s.s.d.d.s.s.9.9.s.s.a.8.R J J Q F Q Q Q T T Q Q Q T W E 8.8.8.8.8.p.8.p.p.! ! E W Y Y L Y W #.#.@. .Y A C x z l l l l l l l l l l l l h h h h h h h h h h 7 7 h h h h h h h h h h h N A Y U  . . .W U Y Y T T Y L L Y U Y Y Y W W E W T Q J J J J T W R 6.9.a.s.s.a.a.9.9.9.9.p.a.a.9.6.R K R 8.8.9.9.9.9.9.9.9.0.s.d.d.d.d.d.d.d.b.P.P.P.P.P.U.U.U.U.P.P.P.d.s.a.a.a.a.p.8.6.E E 6.8.8.a.s.s.s.s.s.a.! W T L M M A A S A C x h h h a < < 6 6 6 7 7 7 7 7 7 6 6 < , , 6 6 , , , < 7 h l x x h h 7 h 7 7 7 7 6 6 6 7 h h l x x x x x x N C A Z Z Y U | |  .| | Z x h 7 7 7 6 7 7 7 l l z B ^ / ) ) / z l z ^ ) ` ' X.$.;.<.,.>.$.O.X.X._ ` _ ' X.O.O.$.;.;.;.;.;.-.%.o.O.O.;.n.R.;X3X3X6X4X4X6X7XjXvXvX",
"B.B.B.B.B.B.B.B.B.B.B.B.R.-X-X-X-X-X;X;X;X-X=XT.R.R.-X-X-X-X;X-X-X-X-X;X,X,X,X,X,X-X-X-X-X;X;X;X;X1X3X1X=X,.>.n.-X;X>XT.;.;.,.1.N.1.;.O.' ` ) ` ' ` ` O.O.$.-.-.$.$.-.-.-.-.$.&.-.-.$.$.&.$.-.-.$.$.$.$.$.$.$.$.-.-.$.$.$.$.%.%.o.o.%.%.$.$.$.$.$.$.$.$.$.%.$.$.&.&.&.$.o.o.o.+.| Z S Y Y #.f.f.*.#.#.#.#.#.| U U Y Y  .=.=. .Y M A A M L Y U  .#.#.a.a.a.a.a.a.l.l.s.d.d.d.c.c.P.P.P.P.k.d.d.a.! R W T T W E E E E E E E E W W ! p.a.p.p.a.s.d.d.d.s.s.9.9.9.s.s.s.8.R T J Q F G F Q Q T Q Q Q T T R ! ! ! ! ! ! ! ! #.#.! E W T Y L T W @.@.#.| Y A C x z z l l l l l l l l l l l h l h h h h h h h h h h h h l h h h h h h h h N A Y | |  . .W W U U U U Y L L Y U U Y W W W E W W W J J J T R R 8.8.9.s.s.a.a.9.9.9.a.a.a.a.a.9.6.R K R 8.9.9.9.0.0.0.9.s.s.d.d.d.d.s.d.d.b.b.P.P.P.P.P.U.U.U.U.P.P.P.d.s.a.a.a.a.p.8.E R E 8.8.9.a.s.s.l.l.s.p.! T Y L M M A S Z A C x h h h h 7 < 7 7 7 7 7 7 7 7 7 6 6 6 < , 6 6 , , , < 7 h x x h h h 7 h 7 7 7 7 7 6 6 7 h h l x x x x x x C C A Z L U U | |  .| | Z C h h 7 7 7 7 7 7 l l l B B / ) ` ^ z z ^ ` ' X.X.X.%.-.>.;.$.X.X.' X.O.$.-.;.>.,.<.>.>.;.;.;.;.;.;.;.>.>.,.N.=X-X-X=XR.T.-X,X3X4X7X7X",
";X;X;X-X-X-X-X-X,X,X1X1X4X4X1X1X1X1X3X3X3X1X,X;X3X3X3X1X1X1X1X1X1X1X4X6X7X4X4X4X3X,X;X1X6X1X1X;X1X3X1X-XV.,.>.-X;X;X=XN.$.;.>.,.>.-.X.' ` ` ' X.X.X.X.$.%.-.-.-.$.$.-.-.-.-.$.$.-.-.$.$.$.$.-.-.$.$.$.$.$.$.$.&.;.-.$.$.$.$.%.%.o.o.%.%.%.%.$.$.$.$.$.$.%.%.$.$.&.&.&.&.o.o.} { Z Z A L Y | *.j.f.*.@.#.=.=. .| U Z Y | =.=.| S A M C A S Y U W #.#.a.f.l.a.a.a.a.l.s.l.d.d.c.c.P.P.P.P.k.k.d.l.p.E W T T W E E E E E E E E W E ! a.a.a.a.s.d.d.d.d.s.a.9.9.0.s.s.s.8.R T J Q F G G F F Q Q Q Q T W E E E E ! ! ! ! ! #.#.E W W Y Y Y U  .@.@.#.U L C N x x l l l l l l l l l l l l l l l l h h h h h h h h h l l h h h h h h h x N A Y U | #.#.W U U U U U Y L L Y U U W W W W W E R W T J J T R E 8.p.a.s.s.9.8.8.9.9.a.a.s.a.a.9.6.R R 6.8.9.a.a.0.0.0.0.s.s.d.d.d.d.s.d.d.b.b.P.P.P.P.P.U.U.U.U.P.P.P.d.s.a.a.a.a.p.6.E R R 8.9.a.s.s.s.l.l.a.p.E L L S M A A Z Z C x h h h h h h 7 7 7 6 6 7 7 7 6 6 < 6 6 < < 6 6 < , , < 7 h x x h h h 6 7 7 7 7 7 7 6 6 6 7 h h x x x x x x C C Z Z Y U U | |  .| { Z x h h 7 7 7 7 7 7 7 l l z B / ) ) / ^ / ' ' X.X.X.O.%.O.O.X._ ` ) ` O.>.N.=XT.V.V.n.,.<.;.-.-.>.<.,.n.N.V.B.V.V.V.N.n.<.>.<.V.R.T.-X-X",
"1X,X;X,X2X1X4X7XhXjXjXhX8X8X7X1X1X4X7X8XjXjX8X8X8X7X7X7X7X7X7X7X7X8X8X8X8XhX7X1X;X,X3X8XjX3X1X1X6X3X;X=X1.n.=X;X;X=XN.>.$.-.;.>.O.O.O.X.X.X.X.X.O.O.$.-.;.;.;.;.;.;.-.-.-.-.-.$.-.&.&.&.-.-.-.-.-.-.-.-.-.-.-.&.;.;.-.$.$.$.%.%.o.o.%.%.%.%.$.$.$.$.$.$.$.$.&.&.&.&.&.&.&.+.} ( A A C C S U @.j.f.*.*.@.@.@.#.| | L Y #.=.#.| L A N C A S L Y U #.#.a.f.f.a.a.a.a.a.s.l.d.d.b.P.b.b.k.k.k.k.k.l.a.! R W W W E ! E E E E E E E E ! a.a.a.s.l.d.d.d.d.s.0.9.9.s.d.d.s.8.R R T T F G G L F Q T T T T T W E E W E E E E ! ! #.E W Y Y L Y U #.f.*.#.U S A C x l l l l l l l l l l l x x l l l l h h 7 7 h h h h l l l l l l h h h h h C A Y U  .#.#.#.W U U U Y Y L L Y U U W U W W W W R W T T J J K R 8.p.a.s.a.9.6.6.8.9.a.a.s.s.a.p.8.R 6.6.9.9.a.a.0.0.0.0.s.d.d.d.d.d.d.d.b.b.b.P.P.P.P.P.P.P.U.I.I.P.c.d.s.a.a.a.a.8.R R R W 6.p.a.s.s.s.l.l.a.#.T M M A A C A Z S N x x h h h h 7 7 7 6 6 , < < < < 6 6 6 6 6 < 6 6 < < < 6 7 h x x h h h 6 < 7 h h 7 7 7 6 6 h h h x x x x x x C C A P { | | | |  .| { Z x h h 7 7 7 7 7 7 l l l l z B / / ) ) ` _ ' X.X.O.O.O.X.' ' _ ` ` X.-.1.T.-X-X=X=XV.N.,.,.,.V.=X-X;X1X1X-XT.T.T.V.n.<.;.$.,.N.T.T.T.R.",
"hX7X7X7XhXjXjXcXNXCXCXNXjX7X6X4X6X7XhXjXcXcXcXjXhXhXhXhXjXjXjXjXjXjXjXjXjX8X6X1X,X1X7X8X6X3X1X3X3X;X=XN.V.-X,X;X=XN.>.>.>.;.-.$.O.O.O.O.O.X.X.O.O.$.$.-.;.;.;.;.;.;.-.-.-.-.$.&.-.;.$.$.$.$.-.-.-.-.-.-.-.-.$.&.-.-.$.$.$.$.%.%.o.o.%.%.%.%.$.$.$.$.$.$.$.$.&.&.&.&.&.&.&.+.} / B C C C C Z | *.:.f.:.*.*.*.@. .| U U #.#.#.U S A A C A S L U U #.#.@.f.f.a.a.a.a.a.s.s.d.d.b.P.b.c.k.c.k.k.k.l.a.8.E W W E ! ! E E E E E E E E E p.a.s.l.d.d.d.d.d.s.0.9.0.d.d.d.s.0.8.R W T Q G L F F Q T T T T T W W W W E E E E ! ..#. .U Y Y L Y Y #.f.f.#.U Z A B z l l l l l l l l l x x x x l l l l l h l l h h h h l l l l l l h h h h h C C L U  .#.#.#.E U U U Y Y L L Y T U W U W W W W E E R R J J T W 8.p.a.s.a.8.6.6.8.8.a.a.s.s.a.a.9.6.6.8.9.a.a.a.0.0.0.0.s.d.d.d.d.d.d.b.b.b.P.P.P.P.P.P.U.P.I.I.I.P.d.l.a.a.a.a.p.! R K R W 6.p.a.s.l.l.l.l.a.E Y M A A A C A S S C x h h h h h 7 7 7 6 , , , , , , , , 6 6 6 < 6 6 < < < 6 7 h x x h h 7 6 < 7 7 h h 7 7 7 7 h h h x x x x x x C A Z Y U | | | |  .| { Z x h h 7 7 7 7 7 7 l l l l z B B / / ) ` _ ' ' X.O.O.X.X.X.X.O.O.O.$.;.1.N.V.V.V.N.N.V.=X-X;X1X1X1X1X1X1X;X-X=X=X-X-X-X-X-X-X;X;X;X;X:X",
"jXhXhXjXNXNXCXNXNXNXNXvXcXhX7X7X8XhXjXNXNXNXcXjXhXhXjXjXcXcXcXcXcXcXjXjXcX8X3X1X4X7X7X3X1X3X3X3X;X=XN.N.=X;X;X=XN.>.>.,.,.>.$.O.$.$.$.$.$.O.O.O.$.-.;.;.;.;.;.;.;.;.-.-.-.-.-.-.-.$.$.$.$.$.$.$.-.-.-.-.-.-.-.-.-.$.$.$.$.$.$.%.o.o.%.%.%.%.$.$.$.$.$.$.$.$.&.&.&.&.&.&.o.+.} / B C V C h A { =.=.:.f.*.f.f.*.#.#. .#.=.#. .Y S A A A A S L Y U  .#.#.f.f.a.a.p.a.a.a.l.d.d.P.P.b.c.c.c.P.P.k.d.a.8.R R E 8.p.! ! E E E E E E W R p.s.l.d.d.b.b.d.d.d.0.0.s.d.d.d.d.s.9.6.R W T Q Q Q Q T T T T T T W W W W E E E E #.#... .U Y L L L U #.f.f.#.U Z A C V C z V V V l z z z z z V z z V z l l l l l l l h h h l l x C x x x h h h N C S U  .#.#.#. .U U U Y Y L L Y Y W U U U T T W E E E W R T K R 8.p.a.s.a.8.6.6.8.8.9.a.s.s.a.a.9.8.6.9.a.a.a.a.0.0.0.s.d.d.d.d.d.d.b.b.P.P.P.P.P.P.P.P.P.P.I.I.I.b.d.s.a.p.a.a.8.E R K R R 8.p.s.s.d.l.l.l.#.U S N A A A A S S S C x h h h h 7 7 7 6 6 , , > , , , , , 6 < 6 6 7 7 < < < < h h x x h h 7 < < 7 h h h h 7 7 h h h x x x x C N C A A Z { { { | | |  .| { Z x h h 7 7 7 7 h h l l l l z z B B / / ` _ ' ' X.O.X.X.X.O.$.-.;.;.;.>.>.,.,.,.>.>.N.=X;X1X1X1X1X1X1X:X;X:X;X:X1X1X3X3X3X3X:X1X1X1X9X9X",
"AXNXNXNXCXBXNXNXNXCXBXNXjXcXhX7XjXjXNXNXNXjXhXhXjXjXcXcXcXcXcXcXcXjXjXjXjX8X7X8X8X7X3X1X3X6X6X1X=XN.N.-X=X=XV.,.<.>.,.,.>.;.-.$.$.-.-.-.$.$.$.$.-.;.;.>.;.;.;.;.;.;.;.;.-.-.-.-.-.$.$.$.$.$.$.$.$.-.-.-.-.-.-.-.-.$.$.$.$.$.$.%.%.%.%.%.%.%.$.$.$.$.$.$.&.&.&.&.&.&.&.&.o.+.` / l l V l h C Z | =.=.:.f.f.f.f.@.#.#.=.@.| U L S A A A A S L Y U W  .#.#.p.a.p.p.a.a.a.l.d.d.P.P.b.c.c.k.P.P.k.d.a.8.E E 8.p.p.! E E E E E E W T W 8.s.d.d.d.b.b.b.d.s.s.0.d.d.d.d.d.s.a.9.8.E W T T T Q T T T T T T W W W W W W E E #.#. . .U Y L L L U #.j.f.@.U Z A C B V V V V V z z z z V V V V z V z l l l l l l l h h h l l x C V x x x h h x N S U  .#.#.#. .U U U Y L L L L Y U U U T T T W E ! E E W T K R 8.p.a.a.a.8.6.6.6.8.9.a.s.s.a.a.a.9.8.9.a.a.a.a.0.0.0.0.s.d.s.d.d.b.b.b.P.P.P.P.P.P.P.P.I.P.I.P.P.d.s.a.a.p.a.p.! R R R R R 8.p.l.s.l.l.l.l.#.Y S N A A A C S S A C x h h h h 7 7 7 6 < , , > , , , , , < < 6 6 7 7 < < < < h h x x h h 6 < < 7 h h h h 7 7 h h h x x x C C C C A S Y { { { | | |  .| { Z x x h h 7 7 7 h h l l l l l z z B B / ) ` ` ' X.O.X.X.O.$.-.;.>.,.,.,.,.,.>.>.;.-.V.=X-X>X>X-X-X-X-X=X;X1X6X7X8XjXjX8X7X6X6X8XjXjXjXjX",
"DXBXNXCXCXCXCXCXNXNXNXNXNXNXNXNXBXcXjXcXNXcXjXjXjXcXNXNXNXNXcXjXjXhX8X7X8X9XjXcX8X6X1X6X8X3X:XT.1.V.V.1.1.1.>.>.,.V.V.,.>.;.-.-.;.;.$.$.$.$.-.-.;.;.;.;.;.;.;.;.-.;.-.-.-.-.-.-.-.-.-.;.;.;.-.-.;.;.-.-.-.-.-.-.;.;.;.;.$.$.$.$.%.%.o.o.%.$.$.$.$.$.$.$.$.$.$.&.&.&.&.&.$.X.( B l l l l l z V C | | *.*.j.j.j.f.*.@.*.*.| U S A A A A A S L Y U  . .#.#.#.@.p.p.a.a.a.l.l.d.d.k.k.k.k.k.P.P.k.l.a.8.E ! p.p.p.! E E E E E E W T W 8.s.d.d.d.b.b.b.d.d.s.s.s.d.d.d.s.a.s.a.p.8.R W W T T T T T T U U W W W W W W E E #.#.#. .U Y L L Y U @.f.*.| Y A C C B B V V V V V z z z z z z z V V V z l l l l l l h h h x h x C C C C x x h x N S U  .#.#.#. . .U U Y L L L L Y U W W T T T E E ! 8.E R W R R 8.a.s.s.a.8.6.6.6.8.8.s.s.s.s.l.a.9.9.9.9.0.9.0.a.a.0.0.0.s.s.d.b.b.P.P.P.P.P.P.P.P.P.I.I.~.I.I.c.d.s.a.a.p.a.p.! W W R 8.p.9.a.l.l.k.k.l.f.#.Y S N C A S S A A A C x h h h 7 7 7 7 7 6 , , > > , , 6 6 6 6 6 6 7 7 7 7 6 < 7 l l l l h 7 6 6 7 h h h h h 7 h h h x x x x N C A A Z Y U { | | |  . .| { Z C x h 7 h 7 l h l l l l l l l l z z B / / ` _ X.o.O.o.$.-.;.>.,.,.,.,.1.1.V.V.V.=X=X-X=X=XT.T.T.V.T.V.=X:X1X3X6X6X6X6X6X8XjXjXjXjXjX8X",
"DXAXAXAXAXAXAXAXCXCXBXBXCXCXCXCXNXjXjXcXNXNXjXjXjXjXcXcXcXjXjXjXhX8X7X7X8X8X8X8X3X1X1X1X1X>XN.,.;.>.>.>.;.>.1.N.V.V.1.>.>.>.;.;.>.>.-.$.$.$.-.;.;.>.;.;.;.;.;.;.;.;.-.-.-.-.-.-.-.-.-.;.;.;.-.-.;.;.-.-.-.-.-.-.;.-.;.;.$.$.$.$.%.o.o.o.%.$.$.$.$.$.$.$.$.$.$.&.&.&.&.&.$.X.( B l l l l l l V C Z {  .*.j.j.j.j.j.*.@.*.| U S S A A A A S L Y Y U  . .#.#.@.a.p.a.a.l.l.l.d.d.d.k.k.P.k.P.P.k.l.p.! E ! p.p.p.E W E E E E W W T W ! a.d.d.d.b.b.b.d.d.s.s.s.d.d.d.s.0.l.l.a.8.! R R T T T T T T U U W W W W W W W  .#.#.#.| U Y L M L U #.*.*.| Z A C C V V V V V z z z l l z z z z V V z l l l h l l h h h h x x C C C C C x l h x N S U  .#.#.#. . .U Y L L L L L Y T U U T T W E E #.8.8.6.R R R 8.p.s.s.a.9.6.6.R 6.8.a.s.d.d.s.a.0.9.9.9.9.9.0.0.l.0.d.d.s.s.d.b.b.P.P.P.P.P.P.I.I.I.I.~.~.P.c.d.d.l.a.p.p.p.! E W W E 8.p.a.s.s.d.k.l.f.@. .Y A N C C A A A A A N h h h h 7 7 7 7 7 6 < , > > , , , 6 6 6 6 6 7 7 7 7 < < 7 h l l x h 7 6 6 6 7 h h h h 7 h h h x x x x C C A A Z Y U | | | |  . .| { Z N x h h h 7 l h l l l l l l l l l z z B / / ` X.X.O.O.$.-.;.;.>.,.,.,.,.1.V.T.-X;X;X-X=X=X=X-X-X-X;X;X:X1X1X1X1X1X:X3X6X6X4X1X1X1X1X3X",
"BXAXAXCXCXAXAXAXAXAXCXBXBXBXBXNXNXjXjXjXjXcXjXjXjXjXjXjXjX8X8X7X1X1X1X:X1X;X;X-X=X=X=X=XT.N.>.;.o.O.-.>.>.1.T.=XT.N.,.,.,.,.>.>.>.;.$.X.O.$.-.;.;.>.>.>.>.>.;.;.;.;.;.;.;.;.;.;.-.-.-.-.;.;.;.;.;.;.;.;.;.;.-.-.-.-.-.-.$.$.$.-.$.%.o.o.o.%.$.$.$.$.$.$.$.$.$.&.$.;.&.&.$.X.( B z l l l l z V B S Z U  .j.j.j.j.j.j.*.@. .U S S A A A A S L Y Y Y U |  .#.f.a.a.a.a.l.l.d.d.P.P.P.P.P.P.P.P.P.l.p.E ! p.a.a.#.! E E ! ! E W T T W ! a.d.k.k.b.b.b.b.d.s.s.s.d.d.d.s.0.0.a.9.9.8.R R T T T T U U U W W W W W W W W  .#.#.#.| Y Z S A S Y | =.=.{ Z C C C B V z z z z z z l l z z z z V V z l h h h h h 7 7 h h h h N C C C N x h h x N S U  .#.#.#. .U U Y L L L L L Y Y U U Y T T W E #.8.8.6.6.R 6.8.a.s.s.a.p.8.8.6.6.8.9.l.d.d.d.s.a.9.9.9.9.9.0.l.s.d.d.d.d.d.d.b.b.U.P.P.I.I.I.I.I.~.~.~.I.I.b.d.l.9.a.p.8.p.! W W W ! p.a.s.s.d.d.k.l.a.#.| L N N N N C A S S A N x h h 7 7 7 7 6 6 6 6 , , > , , > 6 6 6 6 6 7 7 7 7 7 < 7 7 l l z h 7 7 6 7 7 h h h h h h h l z x x C C A Z Z Z Y U | | | U  . .| { Z C x h h h l l l l l l l l l l l l l l B B / ` ' X.X.O.O.O.-.-.>.2.>.>.>.,.,.1.N.V.V.V.=X=X-X-X;X;X1X1X1X1X1X1X1X1X1X1X:X-X-X-X:X1X1X1X",
"hXcXNXjXNXNXNXNXNXNXjXjXjXjXjXjXcXjX7X1X7X9X8X8X6X3X1X1X1X,X;X;XV.V.N.,.>.;.;.;.;.,.N.,.1.,.;.-.O.X.$.,.T.=X-X>XV.,.,.N.N.1.,.>.>.$.' ) ` O.-.;.>.>.>.>.>.>.;.;.;.;.;.;.;.;.;.;.-.-.-.-.;.;.;.;.;.;.;.;.;.;.;.;.-.-.-.-.$.$.$.$.$.$.o.o.o.%.$.$.$.$.$.$.$.$.$.&.$.$.;.&.%.} / z l l l l l z V V C S Z { *.j.j.M.Y.M.j.f. .U S S A A A A S L L Y Y Y U  .#.f.f.a.a.a.l.l.d.d.P.P.P.P.k.k.P.P.Y.l.8.E ! p.a.a.#.! E E ! ! E W T T W ! a.d.k.d.b.b.b.b.d.d.s.d.d.b.d.d.s.0.9.9.9.8.R R W T T T T T W W W W W W W U U W #.#.#.| Y S A C A Z Y | o.{ A C C C V z z z l l l l l z z z z V V x l h 7 h 7 7 7 7 7 h h h x N C C C N x h h N N Z U  .#. . . .U U Y L L L L L Y Y U U Y T U W E #.p.p.9.6.6.6.8.p.s.s.a.p.8.8.8.6.8.8.s.d.d.d.d.s.9.9.9.9.9.0.l.s.d.d.d.d.d.d.b.b.P.U.I.I.I.I.I.~.!.~.I.I.c.d.l.a.9.p.p.8.! E W W E 8.p.a.s.d.d.d.l.f.@.#.U S N N N N C S A A A C x h h 7 7 7 6 6 6 6 6 , 6 > , , > , 6 6 6 6 7 7 7 7 7 < 6 7 h l l l h 7 7 6 7 7 h h h 7 h h l z C x C A Z Z Z Y U U | { U | |  .| | Z C x h h h l l l l h l l l l l l l l l z B B / ` ' ' X.O.O.O.-.;.>.>.>.>.,.1.1.,.>.,.1.N.N.V.T.R.-X;X1X1X;X=X-X-X;X-XT.V.T.-X1X1X3X1X:X",
"1X1X1X1X3X1X1X1X:X;X-X-X-X;X;X;X-X-X-X-X>X>X-X-X-X-X=XT.V.B.B.V.V.>.O.-.O.;.>.N.V.N.1.,.V.>.-.-.$.;.N.=X>X>X-XN.1.,.1.N.,.>.>.;.X.' ) ^ ) X.$.;.>.>.>.>.>.>.>.>.;.;.;.;.;.;.;.;.;.;.;.;.;.;.;.;.-.-.-.-.;.;.;.;.;.-.-.-.-.-.-.-.&.$.%.%.%.%.%.$.$.$.$.$.$.$.$.$.$.&.&.&.%._ B l l l l l l l V V B A Z Z | #.f.j.Y.Y.M.j.*.#.| U L M S S S L L Y Y S Y | #.f.f.f.l.l.l.d.d.k.P.P.P.P.k.k.W.P.P.l.8.E E p.a.a.#.#.E E #.#.E W T T W ! a.s.d.k.c.b.b.d.d.d.s.s.d.d.d.d.d.s.a.9.9.8.! E R W W T W W W W W W U U U U U W #.#. .| Y Z S A A A Z { | ( A C C B B z l l l l l l l l z z z z z l l 7 7 7 7 7 7 7 7 7 h l z V C C C N N N x N C L |  . . . .| U U Y Y L L L L Y Y U U Y U W E E #.p.a.a.9.6.6.8.p.a.s.a.p.8.8.8.8.8.8.a.d.d.d.d.s.9.9.9.9.0.s.d.d.d.d.d.d.d.b.b.b.P.I.~.{.~.~.~.!.!.~.P.P.b.d.s.l.a.a.p.! ! E W E 8.p.a.s.l.d.l.k.l.f.@.#.U S N N k N C C C A A C x h 7 7 7 7 6 < 6 6 6 6 6 , > > > 6 6 6 6 6 7 7 7 7 7 < 6 7 7 l l l h 7 7 6 6 7 7 h h h h h x z C C C A Z Z Y Y { { { U | |  . . .| P C x h h h h h h x l l l l l z z l z z B B B / ) _ ' X.X.X.O.O.-.;.;.>.2.,.1.,.1.V.1.,.N.=XT.V.N.N.T.-X-XT.V.T.V.R.=XT.=X:X1X1X3X3X1X;X",
"T.T.T.V.V.V.V.V.N.1.,.>.>.;.-.$.$.-.<.1.N.N.T.T.T.T.T.=X=XT.V.N.,.<.;.>.,.V.=X-X;X-X=X=X1.>.;.>.>.N.=X-X>X-XN.>.1.1.N.1.;.-.$.O.X.` ) / ) X.$.;.>.>.>.>.>.>.>.>.;.;.;.;.;.;.-.;.;.;.;.;.;.;.;.;.-.-.-.-.;.;.;.;.;.;.-.-.-.-.-.-.;.$.$.$.$.$.$.$.$.$.$.$.$.$.$.$.$.$.&.&.O._ B l l l l V l l l V B A Z Z { | *.f.Y.Y.Y.j.j.*.#. .U L S S S S S L S S Y  .#.f.a.l.l.l.l.d.k.k.P.P.P.c.k.P.W.W.P.a.p.E ! #.a.a.#.#.E ! #.#.E W T T W E p.a.l.d.k.b.b.d.b.d.d.s.d.d.d.d.d.d.s.a.9.8.9.8.! W T T U W W W U U U U U U U U  . .| { P Z Z Z B A A Z ( Z A B C B z z l l l l l l 7 l l l l l l l l 7 7 7 7 7 7 7 7 7 h l l z C C C N N N N N C Y |  . . .U Y U U Y Y L M M L L Y Y Y Y U E ..E p.p.a.a.9.8.8.8.p.a.a.a.p.9.8.8.8.8.8.a.d.d.d.d.s.9.9.9.9.0.d.d.d.d.d.d.d.d.b.b.c.P.I.!./.!.!.!./.!.I.P.b.d.d.s.l.9.p.p.p.! E W E 8.a.a.s.l.d.l.k.l.f.@. .U S A N N x N C C Z A C x h 7 7 7 7 < < 6 6 6 6 6 , > > > , , 6 6 6 7 7 7 7 7 7 6 7 7 h l l h h 7 7 7 7 7 h h h h x x z C B C A Z Y Y U { { Y Y | |  .#. .| { A x h h h h h l x l l l l z z z z B / ` ` ` ` _ ' ' ' ' ' X.O.O.-.-.-.-.2.,.>.,.V.V.V.=X;X:X;X=XN.N.V.V.N.N.n.V.;X1X3X8X8X8X7X7X6X7X7X",
";X;X;X>X>X-X=X=XN.1.,.<.>.;.-.-.$.>.V.T.;X;X1X1X1X1X;X;X-XT.B.N.N.V.T.=X-X;X:X1X:X;X=XV.,.>.,.N.V.-X-X-X-XN.>.>.,.1.N.1.-.$.O.X.' ` ` ) ` X.$.;.>.>.>.>.>.>.>.>.;.;.;.;.;.;.;.;.;.;.;.;.;.;.;.;.;.;.;.;.;.;.;.;.;.;.;.;.;.;.;.;.&.&.&.$.$.$.$.&.$.$.$.$.$.$.$.$.$.$.&.&.O._ B l l l l V l l l l B B A A Z { =.*.M.Y.Y.M.m.j.f.@.#.U L M S L S S S S Y  .#.f.f.f.l.l.l.k.k.P.P.P.c.k.P.P.P.P.k.a.! E ! #.a.a.p.#.! ! #.#.! W T Y T W E p.a.s.k.k.c.c.c.d.d.d.d.d.d.d.d.d.d.s.l.9.p.p.! E W T U U U U U Y Y Y Y Y Y U  . .| { P Z Z Z B C B Z / ( B C B V z z l l l l h h 7 h l l l l l l l 7 7 7 7 7 7 7 7 7 h h h l x N C C N N N C A Y |  . .U Y Y Y Y Y Y L M M M L L Y Y Y U  ...E p.p.a.a.a.p.p.p.p.p.a.a.a.p.p.9.8.8.8.a.d.d.d.d.s.0.0.0.0.s.d.d.d.b.b.b.d.d.b.P.I.!.!././././.{.{.!.I.P.d.d.d.l.l.a.p.p.#.! E E E 8.a.a.s.l.d.l.d.l.a.@. .U S A A C x k C C Z A C x h 7 7 7 6 < < 7 7 7 6 , , > > 6 , , 6 , < 7 7 7 7 7 7 7 6 7 h l z x h 7 7 7 7 h h h h h x x z x C A Z Z Y Y { { { U Y Y |  .@.=.+.{ Z x x h h h l x x l l l z z z z z ( _ _ X.X.X.' _ ` ` _ _ ' X.O.O.$.-.-.;.>.>.<.N.T.V.=X;X1X1X;XV.,.<.,.,.V.N.-X3X8XjXjXjXjXjXjXjXjXjX",
"8X8X8X8X3X:X-XT.V.1.,.2.,.1.N.V.=X>X1X1X3X3X1X1X3X1X-XT.N.n.n.n.V.-X1X1X1X1X1X1X;X-XV.,.>.>.1.=X>X;X>X-XN.<.>.>.1.1.1.>.;.-.-.O.` ` ' ` ` X.$.;.>.>.>.>.>.>.>.>.;.;.;.;.;.;.;.;.;.;.;.;.;.;.;.;.;.;.;.;.;.;.;.;.;.;.;.;.;.;.;.;.&.&.&.&.&.&.&.&.$.$.$.$.$.$.$.$.&.&.&.$.O.` B l l l l V l l l l V B B A A { +.=.j.M.Y.M.m.m.m.f.*.#.U L L L L S S S Y  .#.f.f.f.l.l.d.k.k.c.P.P.k.c.P.P.P.P.k.a.E E ! #.p.p.p.#.! ! #.#.! W T Y T T W E p.a.l.k.c.c.c.d.d.d.d.d.d.d.d.d.d.d.l.l.p.p.p.! E T T T U U Y Y Y Y Y Y U U  .| | { Z Z Z Z A C B B Z / A C B V V z z l l l 7 7 7 7 h h h h h l 7 7 7 7 7 7 7 7 7 7 h h h l x N C C N N N C A U |  .| U Y Y Y Y Y Y L C M M M L Y Y U W ..! E p.p.a.a.a.p.p.p.8.p.a.a.a.p.p.9.9.8.8.l.d.d.d.d.d.s.s.s.s.s.d.d.d.b.b.b.b.b.P.I.!.!.!.!././.{.#X/.~.P.c.d.d.d.l.a.p.p.p.#.! E W E p.a.l.s.d.l.d.l.l.f.@. .U L A A C k x N A Z A C x h 7 7 7 6 < 6 7 7 7 7 6 , > , , 6 > , , , 6 7 7 7 7 7 7 6 7 h l z z l l 7 7 7 7 h h h x z z C x C A Z Y Y { { { { Y Y Y |  .@.*.@.| Z x x l l l l x x l z z z z z z z / ` _ X.X._ ` ) ) ` ` ` _ ' X.O.O.O.$.-.;.;.>.1.V.V.T.;X-X1X:XT.N.<.<.N.;X;X1X7X8XjX8X6X1X1X8XjX8X7X",
"9X8X1X:X;X>X-X-X-X;X:X1X6X6X6X6X6X6X6X3X3X3X3X;X:X=XN.n.<.N.V.-X>X;X1X3X3X1X;X-X=XV.,.>.N.V.-X>X:X;X=XN.>.>.>.,.>.>.,.,.<.;.;.O.' ' ' ' ' O.-.;.>.>.>.>.<.>.>.>.>.>.;.;.;.;.;.;.>.>.>.>.>.>.;.;.;.;.;.;.;.;.;.;.;.;.;.;.;.;.;.;.;.;.;.;.;.;.;.$.$.$.$.$.$.$.$.;.;.;.;.$.X.` B l l l z B z z z B B B B C A { +.*.j.m.j.j.j.m.j.j.j.f.*.#.| U Y Y Y U |  .#.@.f.f.l.l.k.k.k.P.P.P.c.P.P.P.P.k.l.p.E E #.#.#.p.p.#.#.#.#.#.#.W U Y T Y T W ..p.a.l.k.k.c.c.b.d.d.d.d.d.d.d.d.d.d.d.l.a.p.p.E W U U U U Y Y Y Y Y Y Y U | | | { ( ( ( ( Z A B B / A B B B V z z z z l l l l l l l l l l l l l 7 7 7 7 7 7 7 7 7 h h h h x N C N N N N C S | | | | U L L L L P U P C N N M L Y Y U E ..E E 8.p.a.s.a.p.p.p.8.8.8.p.a.a.a.9.9.9.9.s.d.d.d.d.d.d.d.d.d.d.d.d.b.b.b.P.P.P.P.I.).!.).~.!.{.{. X/.).I.P.d.d.d.s.a.p.p.p.! E W W W a.a.s.d.d.l.d.l.l.f.#. .Y S N A C N h x C A Z C x h h 7 7 6 < < 6 7 7 6 6 2 > > , , > > 6 6 6 7 7 7 7 7 7 7 7 h l C C z x h h h h h h h x x x C C C A Z { { { | | Y Y Y Y |  .@.*.*.| P A x x l l l l z z z z z z z z z B B ^ B B B ^ ^ / ) ` ` ' ' X.O.$.O.O.O.O.$.;.>.n.n.n.,.,.n.N.V.n.>.n.;X3X6X8XjXjXjX7X1XT.-X:X6X7X1X",
"3X3X:X:X:X1X1X3XjXjXcXNXNXNXcXcXcXcXjX9X8X1X;XT.n.,.,.n.N.T.;X:X1X1X1X3X1X;XT.1.1.N.V.T.=X-X>X-X=XN.,.>.>.1.N.N.;.>.,.1.,.;.>.O.X.X.' X.' O.;.>.>.>.>.>.<.>.>.>.>.>.;.;.;.;.;.;.>.>.>.>.>.>.;.;.;.;.;.;.;.;.;.;.;.;.;.;.;.;.;.;.;.;.;.;.;.;.;.$.$.$.$.$.$.$.$.;.;.;.$.o._ ) B l l l z B z z z B B B B C A { =.*.m.j.f.*.f.j.m.j.j.j.j.f.*.=.| U | |  . .@.@.f.f.f.l.k.k.P.P.P.P.P.P.P.P.k.l.a.#.! E #.#.#.#.p.p.#.#.#.#.#.W U Y Y Y T W W ..a.a.l.k.k.c.c.b.d.d.l.d.d.d.d.d.d.d.d.l.a.p.E W U U U Y Y Y Y L L L Y Y U | { { ( ( ( ( Z A B Z ) / / B B B B B z B B z l l l l l l l l l l l 7 7 7 7 7 7 7 7 7 h h h l N C C N N N C A Y | | | U Y L M S S L Y P C N N A L Y U W #.E E E 8.p.a.s.s.a.p.p.8.8.8.p.a.a.a.9.9.9.9.s.d.d.k.k.d.d.d.d.d.d.b.b.c.P.P.P.I.I.I.I.P.P.I.~.!./.{././.).I.P.b.d.d.s.a.p.p.#.! E W W W a.l.d.d.d.l.l.l.l.f.#. .Y S N N C C x x N A Z A x h h 7 7 6 < < 6 6 7 6 6 > > > > , , 6 6 6 6 7 7 7 7 7 7 7 7 h h x C C z l h h h h h h x x x C C C A Z { { | | { Y Y L Y |  .*.*.*.| { A x x x l z z z z z z B V V V z z z z z z z ^ / ` ' X.X.X.$.-.>.,.1.1.1.<.;.-.$.$.;.;.>.;.>.<.1.>.$.>.V.1X6XjXcXcXcXjX8X1X-X-X3X8X8X",
"1X3X6X6XjXjXjXcXVXNXNXNXNXNXjXjXjX8X6X3X3X;XV.n.,.N.T.-X;X1X3X3X1X1X1X:X>XT.,.;.,.N.=X>X;X>X=XT.1.;.$.>.V.=X=XN.;.>.N.V.n.>.,.-.X.X.X.X.X.-.>.<.<.>.>.>.>.>.>.>.>.>.>.>.;.;.;.;.>.>.>.>.>.>.>.>.>.>.;.;.;.;.;.;.>.>.;.;.;.;.;.;.;.;.;.;.;.;.;.;.;.;.-.-.$.$.$.;.$.$.o.O.` / z l l z z z z z z B B B B C A { =.*.j.f.*.*.*.f.j.m.j.f.f.f.f.f.*.@.@.@.#.#.#.@.f.f.l.l.k.k.P.P.P.P.P.P.P.P.d.a.p.#.! E #.#.#.#.p.p.p.p.a.@.#.E U Y L Y Y T W W ..p.a.l.k.k.c.c.d.d.d.d.d.d.d.d.d.d.d.l.a.p.E W U U U Y Y L L L L L L Y U { { ( ( Z ( ( ( Z / ) ` ` ( / B B B B B B B B B z z z z z z l l l l l l l l l h l h h h h h l N C C N N N C Z | | | | U L M M M M L U P C k N M L U U #.#.E E ! 8.a.l.s.s.s.a.p.8.6.6.8.a.a.a.a.9.9.9.s.d.k.k.k.d.b.b.b.b.b.c.P.P.P.P.I.I.).~.P.P.I.I.).!././././.).I.P.b.d.d.s.a.p.p.#.E W T W E a.l.d.d.d.d.k.k.l.f.#. .Y S A C C C N x k A Z A z h 7 7 7 6 6 , 6 6 7 6 6 > > > > , , 6 , 6 6 7 7 7 7 7 7 7 7 h h l x B C x h h 7 h h h x x C C C A Z Z { | | { { Y Z Z L {  .@.*.*.+.{ A x x x x l l z z B B B B B B B z z z z z ^ ) _ ' X.X.O.-.>.,.,.V.T.-X>X;X-X=X=X<.;.;.>.>.<.,.1.,.<.,.n.T.=X;X1X7X8X9X8X6X>X-X;X8XcX",
"8X9XjXNXAXBXVXVXNXNXNXcXjX9X6X3X1X1X-XT.V.V.T.T.T.;X1X6X6X6X6X6X1X:X-X=XN.,.>.-.1.V.=X>X;X>XT.V.,.$.$.1.=X;X>XN.;.,.V.T.n.<.,.;.O.X.X.X.O.;.>.<.<.>.>.>.>.>.>.>.>.>.>.>.;.;.;.;.>.>.>.>.>.>.>.>.>.;.;.;.;.;.;.;.>.>.;.;.;.;.;.;.;.;.;.;.;.;.;.;.;.;.;.;.$.$.$.$.$.%.O.X.) B l l l z B B z z z B B B B C A { +.*.f.f.*.@.@.*.f.j.j.f.f.f.f.j.j.f.f.*.@.#.#.#.a.f.l.l.k.k.P.P.P.P.P.Q.P.k.l.a.#...#.E ....#.#.p.p.a.a.a.a.#.E U Y L Y Y Y W W W ..p.a.l.k.k.c.c.k.k.d.d.d.d.d.d.d.l.l.a.p.E W U Y Y Y L L L M S M S L Y U Y Z Z Z Z ( ( / / ` _ ` ` / A A A A / A B B B B B B B B V z z z l l l l l l l l l l h h l x C C C C N N A Y | | | | U L L M M M L U P C k N M L U  .#.#. .E ! p.a.l.d.d.s.a.p.8.8.6.8.p.a.a.a.p.p.a.s.d.d.k.b.k.c.c.c.c.P.P.I.I.I.I.I.~.~.I.P.P.I.I.~.!.!.!.).!.).I.P.c.d.d.s.p.p.#.#.! T T E #.a.l.d.d.d.d.d.l.f.f.#. .Y S A A C C C x x C A A x h 7 7 7 6 < , 6 6 6 6 6 2 > > > > , < , 6 6 7 7 7 7 7 7 7 7 h h h x C B C x h h h h h x x C C C A Z { { { | { Z Z A A Z { | =.*.*.+.{ A x l l l z z z B B B B A B B A B B ^ ^ / ` X.-.>.>.,.,.,.,.,.,.V.=X>X;X1X1X1X3X1X-XT.V.,.n.N.V.T.R.T.T.V.V.V.N.-X:X1X1X1X:XT.N.;X9X",
"NXNXNXNXNXNXcXjXjX9X8X7X1X1X;X=XV.V.N.N.N.T.-X;X1X1X1X1X1X1X;X-X-X=XV.V.V.1.,.1.1.V.-X:X:X1X;X=X;.$.>.=X;X1X;X1.;.1.V.V.n.,.,.;.O.X.X.o.-.>.<.<.<.<.<.<.<.<.>.>.>.>.>.>.>.>.>.>.>.>.>.>.>.>.>.>.>.>.>.>.>.>.>.>.>.>.>.>.>.>.;.;.;.;.;.;.;.;.;.;.;.;.;.;.$.$.;.;.$.o.X._ / B l l l B B B B z z z z B C C A Z | *.*.*.=.|  .=.=.*.f.f.j.f.f.f.f.f.f.f.f.@.@.@.a.f.l.l.k.P.P.P.P.P.Q.W.z.l.j.a.p.#.#... .#.#.#.p.p.a.a.a.a.#.E U Y L L P Y T W W ....p.a.f.d.k.c.P.P.k.k.k.d.d.d.d.l.s.a.p.#.U U U Y Y S S S S S S L L Y Y Z Z Z A A Z ( / ( ( ` ` ( A B B / / / / / B B B B B B B B B z z z z l l l l l l l 7 l l l z x x N C C C S U | | | U Y L S S S S L U Y C N N M P | #.W  . .#.p.p.a.s.d.d.l.s.a.p.8.E E E 8.a.l.a.a.a.s.d.d.b.c.c.c.P.P.P.P.I.I.I.~.~.!.!.~.~.I.P.P.I.W.P.P.P.I.).).).P.P.k.d.s.p.p.#.#.E Y Y E p.a.l.d.k.d.d.l.l.l.a.#.W Y S A A C C C x x x B A B h 7 7 7 6 < < 6 , , 6 6 , , , 2 2 > > > , 6 7 7 7 7 7 7 7 7 h h h h z C C C z l h h x x x C C A Z Z { { | { Z Z A C A Z { | =.*.*.+.{ Z A x x x l l x B B B A / A / ( _ ` / / ` X.;.,.V.V.=X=X=XT.V.N.n.n.N.T.-X;X1X1X7X7X3X,X,X-XB.V.V.=X,X1X1X1X1X1X=XV.V.T.T.T.T.N.T.-X",
"8X8X7X8X1X1X1X1X=X=XT.V.,.,.,.,.,.,.n.n.T.-X;X;X3X1X:X;X-X-X;X:X:X;X;X>X>XT.1.1.T.>X1X1X1X:X=XV.;.,.T.:X;X:X=X,.,.N.V.1.,.>.;.-.O.X.o.;.<.,.,.<.<.<.<.<.<.<.>.>.>.>.>.>.>.>.>.>.>.>.>.>.>.>.>.>.>.>.>.>.>.>.>.>.>.>.>.>.>.>.;.;.;.;.;.;.;.;.;.;.;.;.;.;.$.$.;.;.$.o._ / B l l l B B ^ / B z z z z z B C C ( | *.*.*.=.| { | |  .@.*.f.f.f.f.f.f.*.f.f.f.f.@.@.a.l.j.k.P.P.P.I.I.W.W.k.l.a.p.#.#.......#.#.#.#.p.a.a.a.a.@.#.U Y L L L Y Y W W  . .....#.a.l.d.k.k.P.P.P.c.k.d.d.d.s.a.p.#.E W U Y Y S S S S S S S S Z Z Z A A B B B A A ( ( / / A B B B B B / / B B / / / / / / / / B B B V V z l l l l l l l l l z z x C A S S L U | | | U L S S S S S L { Y A N N M P  . . .W E ..p.p.a.s.k.d.d.s.s.a.p.! E E 6.p.l.l.a.a.s.d.d.b.P.P.P.P.P.P.I.I.I.~.!.!.!.!.(.).W.I.P.P.P.c.b.P.P.).).).I.P.c.k.l.p.p.#.#.W Y Y E a.l.l.d.k.d.k.l.l.l.f.#.U L S A A C C N h x x A B B h 7 7 7 6 6 < 6 , , 6 < , , , 2 2 > , < 6 7 7 7 7 7 7 7 7 7 7 7 h h x C C B C x x h h x x C C A Z Z { | | Y Z Z C C Z P |  .*.*.*.o.| Z A x x x l l z B B A ( ` / / _ X.X.X._ ' O.-.>.n.N.V.T.=X=XR.R.R.T.B.N.B.B.=X-X1X1X6X3X7X3X1X,XT.T.=X-X7X8X8X8X6X1X;X-XV.V.V.T.V.T.",
"NXcXjXjX6X;XV.T.=X-X-X>X;X;X;X;X;X;X1X1X3X6X6X6X8X1X;X-X-X;X3X7X9X8X6X6X:X-X=X=X:X1X1X1X:X-XN.N.1.T.;X1X;X>XN.,.1.T.V.,.;.;.$.O.X.O.-.<.,.,.,.,.2.>.>.>.>.>.>.>.>.>.>.>.>.>.>.>.>.>.>.>.<.<.>.>.>.>.>.>.>.>.>.>.>.>.>.>.>.>.;.;.;.;.;.;.;.;.;.;.;.;.;.;.$.$.;.;.$.X.` / B l l z B B / / / z z z z z z B C ( | =.*.*.=.| Y Y Y { |  .=.*.*.*.f.f.f.f.f.f.f.f.@.a.l.k.Y.P.P.I.Q.Q.W.P.k.a.p.@.#.#.#. .#.#.#...#.#.a.a.a.a.a.#.W U Y L L L Y U W  . ... ...#.p.a.l.d.k.P.P.P.k.k.d.d.s.a.p.#.E W U Y Y Z Z S S S S Z Z Z Z Z A A B C B C B B / / / B B B B B B B B B B B B B B B B / / B B B V V V l l l l l l l l l z x x A Z Z Z L U | | | Y L S A S A S L Y Y C N N C L  . . .U U #.#.p.a.l.k.k.d.d.s.s.p.8.E W E p.l.l.s.s.d.k.b.c.P.P.P.P.P.P.I.I.~.~.!.~.).).).W.P.P.P.c.d.d.d.c.P.I.).(.).P.P.k.d.a.p.#.#.W U T E a.l.k.d.k.d.d.l.l.l.f.#. .Y L S S A C k x h z B A B h 7 7 7 7 6 6 6 6 6 6 6 < , > 2 2 , 6 6 7 7 7 7 7 7 7 h h 7 7 h h h h z B A A C B x h x C C A A Z Z { | { Z A C N C Z { | +.*.*.*.=.| Z A x x x z z z z B ( ( ( / / _ X.X.X.X.O.O.-.;.>.<.1.N.N.V.V.T.=X-X=XT.B.T.R.=XT.-X-X,X4X7X8X7X3X,X-X-X;X1X7XjXcXjX9X7X1X-XT.T.;X1X",
"DXAXBXVX6X:X1X7XjXcXNXVXNXjXjX8X8XjXcXNXNXNXNXNXjX3X;X-X3X6XjXcXcX9X3X1X;X>X;X1X3X1X1X:X-XV.1.V.=X>X;X:X=XV.,.N.N.V.N.>.-.O.O.O.O.$.;.,.,.,.,.,.,.>.>.>.>.>.>.>.>.>.>.>.>.>.>.>.>.>.>.>.<.<.>.>.>.>.>.>.>.>.>.>.>.>.>.>.>.>.;.;.;.;.;.;.;.;.;.;.;.;.;.;.$.$.;.$.O._ ) B z z l z B B / ) / B z z z z z z C Z | =.*.:.=.| Y Y Y Y Y { | | =.@.*.f.f.j.j.j.j.f.a.a.f.k.Y.W.W.W.~.Q.P.k.l.p.p.#.@.@.#.#.@.#.#. .#.#.p.a.a.a.a.@.#.U Y L L L L Y U W  . . . ...#.#.p.a.k.d.k.k.k.k.d.d.s.a.p.#.E W U Y S Z A S S S S Z Z Z Z A A A B C C C B B B B B B B B V V B B B B B B B B B B B B B l l l l l l l l l l l l l l l z x C A Z L L L U | | | Y S S S S A S L Y L A C C C L |  . . .W #.#.p.a.l.d.d.d.d.d.s.a.p.E E T #.a.l.d.d.d.k.c.P.I.I.I.I.I.I.I.I.!.~.I.P.P.P.P.P.P.d.d.d.d.d.d.d.P.P.W.).).W.P.P.d.l.p.#.#.W U U ..a.l.k.k.k.d.k.l.l.f.f.#.U Y S S S A C x x h l C A C h 7 7 7 7 6 6 6 6 6 6 6 < , > 2 2 , , 6 7 7 7 7 7 7 7 h h 7 7 h h h h x C A A A B B x x C C A A Z Z { { { Z C C N C Z { | +.*.*.f.*.+.Z C x x l z x z z B ( } _ / ) ( _ _ X.X.o.O.$.-.;.;.<.<.<.<.n.n.B.T.T.T.=X-X=XR.N.N.B.T.-X1X7X8XjX8X7X1X,X;X1X6X8XcXNXvXjX7X1X-X1X3X",
"DXNXhX3X3X7XcXBXIXDXAXCXBXvXcXNXBXBXBXBXNXVXNXjX3X1X1X3X6X8X8X8X4X1X;X-XT.;X1X1X1X>X=XT.1.,.N.-X>X;X>X=XV.1.1.N.N.1.;.-.O.' ' O.%.;.>.,.1.,.,.<.,.<.>.>.>.>.>.>.>.>.>.>.>.>.>.>.>.>.>.<.<.>.>.>.>.>.>.>.>.>.>.>.>.>.>.>.>.>.>.>.>.;.;.;.;.;.;.;.;.;.;.;.-.-.-.$.O.` / B z z z B B B / ) ) ^ B z z z z z C Z | %.*.:.*.| { Z Z Z Z Z Z Y { | @.*.f.f.f.j.f.f.f.f.l.k.Y.W.).).~.I.P.k.l.a.a.@.@.*.@.#.#.#. . .#.#.#.p.a.p.p.p.@. .W Y P L L Y Y U U  .U U U U U U p.a.l.d.k.d.d.d.l.s.a.p.! E U Y Y L S A A A Z Z Z Z Z Z A B B B B B B B B B B B B B B V z z V B B B / B B B B V l l l l l l l l l l l l l l l l l l x z A Z Z L L U | | U Y S S A A A A L L L S A C C P U  . . .W #.#.p.a.s.d.d.k.k.d.d.l.p.E E T E a.l.d.d.d.d.P.P.I.I.I.I.~.I.~.~.!.I.P.P.c.c.P.c.k.d.s.s.l.l.d.d.k.c.P.W.~.W.P.P.k.l.a.#. .U U U #.a.j.k.k.k.k.d.l.l.f.f.#. .Y L S S A A x h h h C A B l 7 7 7 7 6 < 6 6 6 6 6 2 2 2 6 6 6 6 6 7 7 7 7 7 7 7 h h h 7 7 7 h h l B C A Z A A C x C C A A Z Z { { ( A C x x C Z { | +.*.*.f.*.+.{ A x x x z z z z A _ } _ _ _ _ _ _ _ _ X.X.o.o.$.&.$.&.:.,.n.n.n.N.N.N.B.B.B.T.R.R.R.R.R.R.-X1X1X7XjXjXhX7X,X-X;X1X7XhXNXcXhX6X1X3X",
"AX9X1X1X3XjXBXBXBXvXjXhXjXcXBXAXNXNXNXNXjX8X3X1X1X1X1X3X6X7X3X:X-XT.V.T.-X;X:X;XT.n.,.,.$.$.;.V.=XT.1.;.-.>.,.;.$.$.O.$.O.X.X.O.$.;.,.,.1.,.,.<.,.<.>.>.>.>.<.>.>.>.>.>.>.>.>.>.>.>.>.>.<.>.>.>.>.>.>.>.>.>.>.>.>.>.>.>.>.>.>.>.>.>.;.;.;.;.;.;.;.;.;.;.;.;.-.$.X.` / B z z z B B B / / ) ) / B V V z z B B ( | =.:.:.=.| Y Z Z Z Z Z Z Z Y | #.#.@.*.f.f.f.f.f.j.k.W.W.).).I.I.P.k.l.a.f.@.@.*.@.#.#. .U U  . .#.#.p.p.a.a.@.@.#.U Y P L L Y Y U U U U U U U U #.p.a.a.a.l.d.d.l.a.p.! #.E U Y L S S A A A A A A A A A A B B B B B B B B B B B B V V l z l z z B B B B B B B l l l l z l l l l l l l 7 h l l l l l z z C Z L Z L U | | Y Y L S A A A A S L L S Z A C Z U |  . . .#.#.a.a.s.d.d.b.d.d.d.l.p.#.E T W p.l.l.d.d.k.P.P.I.I.I.I.I.~.!.!.~.I.P.c.c.c.c.c.d.d.s.l.l.s.s.d.d.k.c.W.W.Q.P.P.k.k.a.#. .U U U #.a.k.k.k.k.d.l.a.a.a.f.@. .Y L S S A C x h h h C A A V h 7 7 7 6 6 6 6 6 6 6 6 6 6 6 6 6 6 6 7 7 7 7 7 7 h l l l l 7 7 h h l z B A Z Z A C N C C A A Z Z { { Z A x x x x A P | | =.*.f.*.=.{ Z C C C B B z B / } } _ _ X.X._ _ _ _ } X.o.$.&.>.,.n.N.B.T.R.=X-X-X-XR.R.B.B.E.R.;X;X;X-XR.R.R.,X1X7XjXjXhX7X3X,X,X4XhXcXNXcXjX9X",
"hX1X-X4X7XcXNXcXjX4X,X;X7XjXcXcXjX9X8X7X1X-XT.T.1X3X6X6X1X3X1X;Xn.,.V.R.:X:X-XV.<.n.N.N.>.$.$.<.V.N.,.$.X.-.>.;.$.$.O.$.$.-.-.$.-.>.1.1.1.,.,.<.,.<.<.<.<.<.<.<.>.>.>.>.>.>.>.>.>.>.<.<.<.<.>.>.>.>.>.>.>.>.>.>.>.>.>.>.>.>.>.>.>.>.>.>.>.;.;.;.;.;.;.;.>.;.$.%._ / B z l z z B B B / / ) ) ) / B B B V z B A { o.:.:.*.o.{ Z Z Z S Z Z Z Z Y | | | #.#.#.@.f.f.l.k.W.W.).).).I.P.k.l.a.f.f.*.@.@.=.#.| U | |  . . .#.#.p.a.a.a.@.#.U Y L L L Y Y Y Y U U Y U U W  .#.p.a.a.a.l.l.p.p.! E E U Y L A A C A A A A A C B C A B B B B B B B B B B B B V l l l l V V V B B B B B B B l l l z z l l w l 7 l 7 h h l l l l z x C Z Z Z Y U { U Y L S S S A A A S S S L Z A C S L |  . . .#.#.p.a.a.d.d.b.d.d.d.l.p.! E W W ..l.l.l.k.k.P.P.I.P.P.I.~.!.!.!.~.P.P.P.c.k.k.k.d.l.l.a.a.a.s.l.l.d.k.W.W.W.P.P.P.k.l.p. . .W W #.a.k.k.k.d.d.l.a.p.a.f.f.@.U Y L L A A x h h h V A A B l 7 6 7 7 6 6 7 6 6 6 6 6 6 6 6 6 6 6 7 7 7 7 h l l l l l l l 7 h h h l V C A A A A C N C C A Z ( { ( Z C h h h x C Z { | +.*.f.*.=.| Z A C C C C C B ( } _ _ } O.%.%.o.o.%.&.&.;.>.,.n.N.B.B.R.-X;X;X,X,X,X1X1X,X;X-X-X-X,X2X,X,X;XR.R.R.-X4XhXjXjXhXhX4X1X1X7XjXvXCXNX",
"-X-X3X7X7XjXjX8X7X,XT.T.-X1X4X7X7X4X1X,XT.N.V.=X1X7X8X8X8X7X1XT.>.,.R.:X1X1XT.<.n.=X;X-XT.<.$.-.V.T.V.,.$.$.;.1.V.1.>.;.;.,.,.;.;.,.1.1.1.,.,.<.<.<.<.<.<.<.<.<.>.>.>.>.>.>.>.>.>.>.<.<.<.<.>.>.>.>.>.>.>.>.>.>.>.>.>.>.>.>.>.>.>.>.>.>.;.;.;.;.;.;.;.>.>.;.$.X.` / B l l z z B B B / / / ) ) ) / B B B B C B ( } *.:.*.%.{ { Z Z S Z Z Z Z Z Y Y U U | | #.#.@.j.Y.W.W.).).).I.P.k.l.a.a.f.@.@.@.=. .U Y | |  . . . . .#.p.a.f.f.@.#.U U Y L L L Y Y Y Y Y U U U U  .#.#.#.p.a.a.p.#.E E U U L S A C C A A A A C C C B B B B B B B B B B B / / B B B V l l V l z z B B B B / B B l l z z l l l l 7 7 7 h h l l l l x x A Z L Z Y Y U Y Y L S A A A A A M M S L P Z A A L U |  . . .#.p.a.a.d.d.b.k.d.d.l.a.#.E W W E p.f.l.k.k.P.P.P.P.P.I.!./.!.!.I.P.P.P.c.k.k.d.d.s.l.a.a.a.a.s.l.l.d.P.W.W.W.P.P.k.l.p.#. .W W #.a.k.k.k.k.d.l.a.p.@.f.f.@.| Y Y L Z A x h h h V A A B V 7 7 7 6 6 7 7 7 7 7 6 6 6 6 6 6 6 6 7 7 7 7 h l l l l l l l h h h h l x B A A A A A C C C A Z Z { Z A C h h h l C A Z { +.*.f.*.=.| Z A C C C C B A ( } _ } X.$.;.>.>.>.>.,.n.N.N.n.N.B.B.R.-X;X;X,X1X1X1X1X2X1X2X4X2X2X2X4X1X1X2X,X-XR.B.B.,X2X7XvXcXjXhX8X4X1X7XjXNX",
"R.3XhXcXcXvXvXjXhX1X-XB.-X1X4X4X4X3X1X-X=X;X1X6XjXjXcXNXjX8X;X,.<.-X1X3X1X-XN.n.-X1X1X1X;XT.,.<.=X;X1X;XT.;.;.V.;X-XN.<.<.,.n.,.>.,.1.1.,.,.<.<.<.<.<.<.<.<.<.<.>.>.>.>.>.>.>.>.<.<.<.<.<.<.>.>.>.>.>.>.<.<.<.>.>.<.<.<.<.>.>.>.<.<.>.>.;.;.;.;.;.;.;.;.;.$.O.X.` ^ z z z V V V B B / / / / ) ` ( / B B B B B ( _ | =.&.*.*.=.o.{ { Z Z Z Z S Z Y Y Y Y U |  .#.f.Y.W.).).).~.~.P.k.l.a.a.a.@.@.@.#.| U U { | |  . . . . .@.a.f.f.a.@. . .U Y L L L L Y Y Y Y Y U U |  .#.#.#.p.p.#...W | | U Z S A C C C A A C C z V B B B B B B B B B B B / / / / B V V l l l z z V B B B B B B V l l z l l l l l l 7 h l l l l z z x A Z Y L Y Y Y Z Z Z Z A A A A A A A A S P P Z S S P | |  .#.#.p.a.l.d.d.c.c.k.k.d.l.p.E W U W ..p.f.k.k.P.P.P.P.P.I.!.!.!.!.~.I.P.P.c.k.d.d.l.s.a.a.a.a.a.a.a.l.d.k.P.P.P.P.k.k.l.@.#. .W W #.a.l.k.k.k.d.l.a.#.#.f.f.*.| U Y Y Z A x l h h V B A B V h 7 7 7 7 6 6 6 7 7 7 6 6 6 6 6 6 6 7 7 7 h h l l z z l l l h h h l l l l C A Z A Z A C C A Z ( { Z A x h h h x x A Z { | *.m.*.=.| P A C C C B A ( } } } } %.;.>.,.n.N.B.R.R.-X-X;X;X-XR.R.;X,X1X1X1X1X3X2X2X2X2X2X4X4X4X4X4X2X2X4X2X,X;XR.R.R.-X4XhXNXNXvXkX4X2X4XhX",
"7XcXvXvXvXcXhX4X1X-X-X1X3XhXcXcX8X,X-X;X6X8XcXNXBXNXNXNXcXjX3X;X;X4XjXjX7X1XR.N.,X7X4X4X1X;XT.N.-X1X1X:X=X,.<.V.1X-XN.>.>.,.,.,.>.,.1.1.,.,.<.<.<.<.<.<.<.<.<.<.<.<.>.>.>.>.>.>.<.<.<.<.<.<.>.>.>.>.>.>.<.<.>.>.>.<.<.<.>.>.>.>.<.<.<.>.;.;.>.>.;.;.;.;.-.O.X.` ) B z V B V V V B B / / / / ) _ ` ) / B B B B ( ( _ } $.&.*.*.*.=.| { { { { ( Z { { { { Z Y |  .f.k.P.).).).).~.P.P.k.l.a.a.f.@.@.#.| Y Y U { | |  . .| |  .@.@.f.f.@.#... .U U Y Y L L L L L Y Y U | |  .#.#.@.#.#. . .| U Y Z Z S A C A C C C C l l V B V V B B B B B B B / / / / B B B V V V z z V B z B B B B B l V l l l V l l l l l l z z B B C C A P { Y Y Y Z Z Z Z Z A A A A C C C A S L Y L S S Z { |  .#.#.#.a.l.d.k.c.P.P.P.k.l.a...U U U U #.p.l.k.P.P.P.P.P.I.).).I.I.I.I.P.P.c.k.d.d.s.a.p.a.a.a.a.a.a.l.l.k.k.k.k.k.k.k.l.@.#. .W W #.f.l.j.k.k.d.l.a...#.f.*.@. .U U Y Z A z l h h V B A C V h 7 7 7 7 6 6 6 7 7 7 6 6 6 6 6 6 6 7 7 7 7 h l l z z l l x l x x l l l l C A Z Z Z Z Z Z Z Z { { Z C z h h h x x A Z { | *.m.*.=.| Z A C C C B A ( } } } } X.$.;.<.n.N.V.R.-X,X1X1X1X1X1X2X2X1X1X3X3X1X1X1X2X2X3X4X4X7X7XhX7X7X4X4X4X4X4X4X,XR.B.-X1X7XjXvXvXvXjX4X2X",
"vXNXNXcXvXhX4X;X-X-X4XjXvXBXCXNX8X1X;X6XNXNXBXBXNXNXcXjXjX8X6X3X4XhXcXcXjX7X,X-X1X8X8X8X3X;XT.N.V.-X;X-XN.<.>.,.=XV.>.$.$.;.>.>.>.,.1.1.1.,.,.,.,.,.<.<.<.<.<.<.<.<.<.<.>.<.>.>.<.<.<.<.<.<.<.<.<.<.<.<.<.<.<.<.>.>.<.<.<.<.>.>.<.<.<.>.>.;.;.;.;.-.-.-.%.X.` ) ^ V z B B B B B B B / / / / ( _ _ ` ) / B B B / ` ( ` _ | %.=.=.=.=.o.| { | { { { { { { ( Z U | #.l.Y.W.).(.).~.W.P.k.j.f.f.f.@.@.#.| Y Z Y { { |  . .| | | |  .@.f.f.@.@.#. . . .U Y L L Y Y Y Y Y U |  . .#.#.#. . . .U Y Z Z Z Z A C A A C C C l l z z z z z V V B B B B B B B B / / B B V V z V B B B B B V V V V V V V V V V V V l l z V V B B C A Z P { Y Y Y Y Z Z A A A A S A C C C C C Z Y Y Z S S P | | #.#.#.a.a.d.d.P.P.P.P.P.d.l.#.U U Y W W p.a.d.P.P.P.P.P.P.I.I.I.I.I.I.I.P.P.k.d.l.s.a.p.a.a.a.a.a.a.l.l.j.k.k.k.k.k.j.l.a.#.#.#.W #.f.l.j.k.k.d.l.a...#.f.*.@. .U U Y Z A z l h l V C B C V h 7 7 7 7 7 7 6 7 7 7 6 6 7 6 6 6 6 7 7 7 7 l l z z z z z z z z x l l l h x C Z Z { { { Z P P { ( Z C C h h h x x A Z { | *.m.m.=.| Z A C C B A / ( } } } _ _ O.%.%.%.&.;.>.n.B.R.;X,X1X3X4X4X4X4X4X4X4X3X2X2X2X2X4X7XhXhXhXhXhXhXhXhXhXhXhX4X2X,X-X-X;X1X7XjXvXvXkXhX",
"cXNXNXcXjX4X;XR.R.7XNXBXDXHXDXBX7X1X7XjXNXNXcXjXNXNXjX6X3X1X1X3X7X9XjX8X4X1X-XT.R.1X,X,X:XT.,.>.>.n.N.n.;.O.O.O.O.O.X.X.X.O.$.;.>.,.1.1.1.,.,.,.,.,.<.<.<.<.<.<.<.<.<.<.<.<.>.>.<.<.<.<.<.<.<.<.<.<.<.<.<.<.<.<.<.<.<.<.<.<.<.<.<.<.<.<.;.-.;.$.%.O.O.O.X._ ) / B V V B B B B B B B / / / / ) _ _ _ _ ` B V V B / ` ( ( Z ( } o.| | | | | | | | { } } } ( ( { | #.f.k.W.(.(.(.~.W.W.Y.k.f.f.f.f.@.#.U L Z Z Y { | | | | | | Y U  .@.f.f.*.#.@.#. . .| U Y Y U U Y Y Y U |  . .#.#.#. .U Y Z S Z A A A A A C C C z h h l l l l l l l l l l V B B B B / / / B B B B z B B B / B B l l V V V V V V V V V V z z B B B B B B Z Z { Y Y Y Z Z Z Z A A S S S C C C C C Z P Y L Z S L U | #.#.@.a.l.k.d.P.P.W.W.W.k.l.p...U U U W ..a.l.P.P.P.P.P.P.P.P.U.I.I.P.I.P.P.k.k.l.s.a.p.p.a.a.a.a.l.l.l.j.d.d.d.k.k.l.f.#.#.#.#.#.#.f.l.l.k.k.k.l.a.#.#.f.*.@. .U U { Z C z l h l V B B C V h 7 7 7 7 7 7 6 7 7 7 6 6 7 6 6 6 6 7 7 7 7 l l z z z z z z z z z z l l h x C A Z { | { { { P Z Z Z A V h h x x x A Z { | *.m.:.o.{ Z A C C B A / ( } } _ ` _ X.O.o.%.$.&.&.&.;.;.n.B.-X,X2X4X7XhXhX7X7X4X3X2X2X2X4XrXhXhXhXhXkXkXvXkXhXrXrXhXhXhX4X1X,X,X,X2X7XjXvXNX",
"vXCXAXCXhX3X,X1XcXBXDXFXHXIXBXhX7X1X7XcXNXNXcXjX8X7X1X=XV.N.B.-X1X7X8X4X1X;XR.T.;X,X,X-XR.R.-X,X=X-X=XN.<.O.} O.X.' ` ` X.O.O.;.>.,.n.1.1.,.,.,.,.,.,.,.,.,.<.<.<.<.<.<.<.<.<.<.,.,.<.<.<.<.<.<.<.<.>.>.>.>.<.<.<.>.>.>.<.<.<.>.<.<.<.<.-.%.X._ ` ` ) / ^ ^ ^ B ^ V B B B V B V B ^ ^ / / / / ` ` _ _ ` B B z V / ` ( ( Z Z Z Z { { } o.| |  .| } } } } { ( { { | f.k.Y.(.(.(.W.W.W.W.Y.j.j.f.f.@.#.U Y Z Z Y Y { | | | | { { L Y | #.*.*.@.#.#.#. .| | { { U U Y Y Y Y { | | | #.|  .Y Z Z A A A A A A C C B z l h h l l 7 7 7 w w w w l l l z z B ^ ^ ^ ^ ^ B B B B B ^ / ^ B B l B B V l l l l l l l z z B B B B C B A Z { Y Y Y Z Z A A A A Z Z Z A C C C C Z Z { Z Z A Z U |  .#.#.p.a.l.d.P.W.W.W.W.k.l.p.#.U U U W E p.l.k.P.P.P.P.P.P.P.I.P.I.P.P.P.P.k.k.d.l.l.a.p.p.p.p.a.l.l.j.j.k.k.k.k.l.a.p.#.#.#.#.#.@.f.l.j.k.Y.k.l.a.@.@.f.@.#. .| U Y Z B z l l l V C B B V l 7 7 7 7 7 7 7 7 7 7 6 6 6 6 6 6 7 7 7 7 7 l l l V V V x C x x x x x x x x C A Z { | | { | { Z Z Z A C x x x x C A Z { | *.*.*.o.{ Z A C C C A / ( } } } _ _ X.o.$.$.&.;.&.;.>.:.:.n.B.R.-X,X1X4XhXhXhXhX4X4X4X4XrXhXhXhXhXkXkXjXjXjXkXkXkXhXhXhXkXjXhXrX,X,X2X4XkXvX",
"AXFXAXvX4X1X4XjXAXDXFXFXIXAXjX7X7X1X1X7X7X7XhXhX8X4X;XB.:.&.:.B.;X4X7X7XjXhX8X7X7X8X7X1XB.T.;X1X3X6X6X1XT.,.>.,.n.,.O.X.O.O.-.;.<.,.n.1.1.,.,.,.,.,.,.,.,.,.<.<.<.<.<.<.<.<.<.<.,.,.<.<.<.<.<.<.<.<.>.>.>.>.<.<.>.>.>.>.>.>.>.>.<.<.>.>.O.X.` ) / ^ B B V V B B ^ B B B B V V V ^ ^ ^ ^ / / / / ` _ _ _ ( / V z B / ( ( ( A A A Z ( { } | | | | o.} } { { { { { | *.j.M.W.(.(.(.W.(.W.W.Y.k.j.f.f.#. .Y Y Z Z ( { { { { | | { P Z L Y | #.@.@.#.| | | U U U U U Y Y Y Y Y { | | | | | Y Z Z A A A A A A C C C z l h l l 7 7 7 7 w w 0 0 7 7 7 7 w z V B B B B ^ B B B B B / / B B z l l l l l l l l l l z z B B B B C B A Z { Y Y Z S S A A A A Z Z Z A C C C C A Z Z Z Z Z Z U |  .#.#.@.a.l.k.k.P.W.W.W.k.l.p.#.W U Y W W p.a.k.P.P.P.P.P.I.P.I.I.P.P.P.P.P.k.k.k.d.l.l.a.p.p.p.a.l.l.j.j.l.l.l.l.f.p.#.E W W  . .#.@.l.j.k.Y.k.l.a.a.@.@.@... .| U Y Z B z l l l V C B B V l 7 7 7 7 7 7 7 7 7 7 6 6 6 6 6 6 7 6 7 7 7 l l l V V V C C x C C x x x x x C C Z Z | { | | | Z Z Z A C A A C C A Z P { | o.*.*.+.( A C C C C A / ( _ } } _ } X.$.&.;.>.,.n.N.B.N.n.n.B.B.B.B.R.-X2X7XhXhXhXhXhXhXhXhX7XrXhXkXkXjXjXjXkXvXvXkXkXkXkXkXvXvXhX4X2X,X2X4X",
"KXFXNX7X1X4XjXCXFXFXDXAXCXjX4X2X-X-XR.-X,X3XhXjXjXhX7X1X-XR.E.-X2X4XhXhXcXNXNXcXjXjX8X3XB.N.-X1X8X9X8X3X;XV.n.V.-X=Xn.<.O.$.;.>.<.,.n.n.1.1.1.1.,.,.,.,.,.,.<.<.,.,.,.,.,.,.<.<.,.,.,.<.<.<.<.<.,.,.<.<.<.<.<.<.<.>.>.>.>.>.>.<.<.>.-.$._ ` / B V z z z z z B B B B ^ B B B B B ^ ^ ) / / / / / ) ` _ _ _ ` B B V B / ` ( Z B B B A / ( | } o.o.o.| } } { { ( { | @.f.j.Y.W.(.W.W.(.W.W.W.Y.k.j.f.@.#.U Y Z Z Z ( ( { { { | | P Z Z Z Y U  .#.#.| { { Y Y Y Y Y Y Y Y Y Y Y { | | { { Z Z A A A A A A A C C z x l l l l 7 7 7 7 w w 7 7 7 7 7 7 7 0 w l l V B B B B B B B ^ / ^ B B B l l l l l V V l l z z B B B B C B Z ( { Y Z S C C A A A A Z Y Z A C C A A A Z Z Z Z Z Z U |  . .#.#.a.l.k.k.P.P.P.P.k.l.p.#.W U Y T W #.a.l.k.W.P.P.P.I.I.I.I.P.P.P.P.P.c.k.k.d.l.l.l.a.a.a.a.l.l.j.l.f.f.f.f.a.#.E U U U U U #.@.f.j.k.Y.k.j.a.a.@.@.#. .| | U Y Z B z l x z V B B B V l 7 7 7 7 7 7 7 7 7 7 7 6 6 6 7 7 6 6 7 7 7 l l l V V B C C B B B C C B C x C C A Z { | | | | Z Z A A A A A A A Z P { | +.o.*.*.| Z A C C C A Z / ( } } } _ } X.o.o.$.&.&.n.N.B.T.R.R.-X;XB.B.B.B.-X2X2X7XhXhXkXkXjXhXhXhXkXkXkXkXkXkXkXvXvXvXvXvXkXkXkXvXvXkXhX4X,X5X",
"HXNX7X1X1XhXNXAXFXFXAXCXvX7X,XR.B.B.B.B.,X4XjXCXCXCXCXCXvXhX4X4X2X,X2X3X8XjXcXjXhXhX4X,XN.B.R.1X3X6X3X1X-XN.,.n.=X=XT.T.-.;.>.>.<.,.n.1.1.,.1.,.,.,.,.,.,.,.<.<.,.,.,.,.<.<.<.<.,.<.,.,.<.<.<.<.<.<.<.<.<.<.<.<.<.>.>.>.>.>.>.<.<.>.$.O.) ^ B l l l l l z z B B B ^ ^ ^ B B B ^ ^ ^ ) ) / / / / / ) ` ` _ _ _ A B B B / ( ( A B B A A / ( { } } X.o.| } { { { { | =.*.j.j.Y.W.W.W.W.W.W.W.W.Y.Y.f.@.#. .Y Z Z Z Z Z Z Z ( | | Z Z Z Z Z Y U U | | Y Y P P Y Y Y Y Y Y L Y L Y { { Y { Z A A A A A A A C C C z l l l l l 7 7 7 7 w w 7 7 7 7 7 7 7 7 7 0 w l z z z l l l z B ^ ^ B B B z l l l l V V l l z z B B B B C B Z ( { Y Z A C C C A A Z Z Y Z A C C A A A A Z Z Z Z Z { |  . . .#.p.a.l.k.z.P.P.k.k.l.p...U U Y U E #.a.l.k.W.W.P.P.I.Q.I.I.P.P.P.P.P.c.k.k.l.l.l.l.a.a.a.l.l.l.j.f.f.f.a.@.#. .U Y Y U Y Y W #.f.l.k.k.k.j.f.a.@.@. .| | | U Y Z B z l x z V B B B V l 7 7 7 7 7 7 7 7 7 7 7 6 6 6 7 7 6 6 7 7 7 l l l z V C C B C C C C B B A C C C A Z Z { | | | { Z A C A A A A Z ( { { | | +.o.o.{ A C C B A A Z / ( } } } _ } X.o.&.&.:.:.;.;.>.:.B.R.;X,X,X-XR.R.R.-X-X2X4XhXjXkXjXkXkXkXkXkXkXkXjXkXkXvXvXvXvXvXvXkXkXkXvXNXNXvXhXhX",
"AX7X4X4X7XvXAXGXCXmXvXbXhX4X2XR.B.B.R.2X-X4XvXZXFXKXFXAXCXNXcX7X2XR.B.E.2XhXcXjXhXhX4XT.:.B.;X2X1X1X,X-X,.>.n.R.-X-XB.n.;.,.,.<.;.;.;.,.,.1.,.n.1.1.1.1.,.,.,.,.,.,.,.,.,.,.,.,.,.,.,.,.<.<.<.<.<.<.<.<.<.<.<.<.<.,.<.<.<.<.<.<.>.-.%._ B V z l w l l z z B B B ^ ^ ^ B B B ^ ^ ^ / ) ` ) / / ^ / ) ` ` _ _ X._ ) B A / ` ` / B B B A / / ( ( } } o.o.X.} } { { } o.*.*.j.j.Y.W.W.W.W.W.W.W.W.W.Y.f.@.| U Z Z Z Z Z Z Z Z Z ( ( Z Z Z Z Z Z Y { { Y Y Z L L P Y Y Y P P Y L L Y { Y Z A A A A A A A B C C V z l l l l 7 l 7 7 7 7 7 7 7 w w 7 7 7 7 7 7 7 0 7 w 0 0 7 0 l z B B B B B B V V B B V V V V z z B B B B B A Z Z { Y Z A C C A A A Z Z Z Z A A A A A A A A Z Z Z P { | |  . . .#.p.a.k.k.c.k.k.k.l.p...W T Y U U #.p.f.j.k.z.P.Q.~.Q.Q.P.P.P.P.P.P.k.k.k.l.a.a.a.f.l.l.f.f.f.f.f.a.#.#.#. .| U Y Y Y Y Y W #.f.f.k.k.k.j.l.a.@. .| | | | { Y Z C C z l V V B B B V l 7 7 7 7 7 7 7 7 7 7 7 7 7 7 6 6 7 7 7 7 7 l l l z z B B B B B A A A A A A A A A Z Z P | | | { Z A C C A A A Z Z { { | +.| o.+.( A C C A / / / / ( _ _ ( } o.>.N.n.n.N.N.N.N.N.N.B.B.R.-X,X,X2X2X2X,X-X,X2X4XrXkXjXvXvXvXkXkXkXkXkXkXkXkXvXNXNXCXCXCXmXvXvXmXCXSXCXvX",
"CX7X4X4XhXjXvXvXvXvXvXvXbXvXhX4X^.R.-X2X4XhXkXvXZXGXGXSXCXNXbXrX,XE.C.B.,X7XjXcXkXhX2XB.$.n.;X1X1X1X,X-X-X-X,X6X7X1X-XN.B.-X;X-XV.,.;.>.<.n.n.n.1.1.1.1.,.,.,.,.,.,.,.,.,.,.,.,.,.,.,.,.<.<.<.<.<.<.<.<.<.<.<.<.,.,.<.<.<.<.<.<.>.$.X.` B z z l l z z V B B B B ^ ^ ^ ^ ^ ^ ^ ^ ^ ) ) _ ` ) / / / ) ) ` _ } X.X._ / B / ( ` ` / B B B B A / / ( _ X.o.o.| } { { } o.*.*.*.f.j.M.W.W.W.W.W.W.).).W.M.f.@.| { Z Z Z Z Z Z Z Z ( ( Z Z ( A A Z Z { { Y Y Z Z L P Y Y P Y P L L Z Y { Y Z A A A A A A A C C B B z l l l l 7 l 7 7 7 7 7 7 7 w w 7 7 7 7 7 7 0 0 0 0 7 7 7 7 0 l l z z l l l l l V V l l V l z z V B B B B A Z ( { Y Z A A C A A A A Z Z Z A C A A A A A A Z Z Z Z Y { { U |  .#.#.a.k.k.k.k.k.l.a.p...U Y Y Y W  .#.a.f.k.k.W.W.!.~.~.P.P.P.P.P.P.k.k.l.a.a.a.a.a.f.f.f.f.f.f.f.@.#.#.#.| U Y U Y Y Y Y | #.@.f.j.k.j.f.f.f.@.| | | | | { Z Z C C z z V V B B V l l 7 7 7 7 7 7 7 7 7 7 7 7 7 7 6 6 7 7 7 7 7 7 l l l V C B B B C A A A Z A Z Z A A Z Z P { | | | P A C x C C A A Z { } | | +.+.{ Z C C B A / / / / ( ( ( ( } o.;.,.N.N.B.B.T.R.R.-X;X;X-XR.R.-X,X2X4X4X2X2X2X2X2X5XhXkXvXvXvXvXvXkXkXkXkXkXvXvXCXNXmXmXCXSXCXvXvXmXCXCX",
"kX4X2X2X4X4XhXkXvXvXCXCXSXSXCXvX2X,X2XrXkXkXkXkXmXCXSXCXCXmXbXrX,XB.m.C.R.4XhXvXcXjX7X,XB.R.;X1X4X4X1X;X,X,X8XhXjX4X-XB.=X1X6X3X;XT.<.$.<.n.n.n.n.n.n.n.n.n.1.1.,.,.,.1.1.,.,.,.,.,.,.,.,.,.,.,.,.,.,.,.,.,.,.,.,.,.,.,.<.<.<.>.;.%._ / B z z l l z z V B B ^ ^ ^ ^ ^ ^ ^ ^ / / ) ) ` ' _ ` ) / / / ) ` _ } X.X.X.) / B ` ` _ ) B B B / B B B / ) _ X.X.o.| } _ { | %.=.@.@.@.j.k.Y.W.W.W.W.).).^.Y.j.*.| { Z Z Z Z Z Z ( ( ( ( ( ( Z A A A Z { { { { P Z Z Y { Y Y Y Y Z Z Z { Y Y Z Z A A A A A A C C B B z l l l l l l l l l w w w w w w 7 7 7 7 7 0 0 0 7 7 0 0 7 0 0 0 l l l l l l l l l l l l l l l l z z z B B Z ( { { Z Z A C C C C C A Z Z A C A A A A A A A A Z Z Z Y Y Y U U U  .#.p.l.d.k.k.k.l.p.#.E W U Y Y U  ...@.a.l.k.W.W.(.!.W.W.P.P.P.P.P.k.k.l.a.p.p.#.p.a.a.f.f.f.f.@.#.#.| { Y U U Y Y Z Y Y U #.@.f.j.j.j.f.f.@.#.U | U { { Z Z A C C C V V B B V l l l l l 7 7 7 7 7 7 7 7 7 7 6 6 7 7 7 7 7 7 7 7 l l l V C B C A C A A Z Z Z Z Z Z Z Z Z P { | +.| { A A x C C A A Z { } | | +.} ( A C C A A / / / ( ( ` _ } o.&.>.<.,.>.>.>.T.T.-X;X1X1X,X;XR.R.-X,X2X4X7X7X7X4X2X2X4XrXhXkXjXvXvXvXvXkXkXkXkXvXCXmXmXmXCXSXSXmXkXkXvXmX",
"4X2X,X-X;X,X4XvXSXSXZXZXGXGXGXCXkXhXhXrXhXhXrXhXbXmXCXmXCXmXvXrX,XC.m.m.E.2XhXvXCXCXCXvXjXhXhXhXhXhX7X1X;X1X7XhXjX6X;XB.V.;X1X3X;X=XN.;.>.n.n.n.n.n.n.n.n.n.1.1.,.,.,.1.1.1.,.,.,.,.,.,.,.,.,.,.,.,.,.,.,.,.,.,.,.,.,.,.<.<.>.>.$.X.` B V l z z z z z B ^ B ^ ^ ^ ^ ^ ^ ^ ^ / / ) ) ` ' ' _ ` ) / / / ) ` } X.O.O._ / B ` ` _ ` / B B B B B B B / ` _ X.| | X._ { } o.| | | #.@.j.M.Y.W.W.W.^.W.^.^.Y.m.@.| { Z Z Z Z Z ( Z ( Z / A A A A A Z Z { { { Z Z Z Y Y { { Y Y Z Z Z { Y L Z Z A A A A A A C B B B z l l l l 7 l l l l w w w w w w 7 7 7 7 0 0 0 0 7 7 0 0 7 7 7 7 l l l 0 0 0 7 7 l l l l l l l l l l z B B A ( ( ( Z Z A C C C C C C A A C C A A A A A A A A Z Z Y Z Z Y Y U U  ...p.l.k.k.k.l.a.p...E W Y Y Y Y U  .#.f.f.k.k.W.(.(.W.W.P.P.P.P.k.k.d.l.a.p.#.#.@.@.a.f.f.f.@.#.#.| { Y Y Y Y { ( Z Y Y | #.@.f.j.j.f.f.@.#.| U | Y Y Y Z A A C B C B B B V l l l l l 7 7 7 7 7 7 7 7 7 7 7 6 7 7 7 7 7 7 7 7 7 l l l l B B C B C A A Z Z Z Z Z Z Z Z Z P { | | | | Z A C C C A A Z { | | +.} ( A C C C C A / / ( ` } X.o.$.,.,.,.n.n.,.,.,.,.N.T.R.;X1X4X2X2X2X,X,X-X,X2X7XhXhXrX4X4X4X4XhXkXjXvXCXvXvXvXkXkXvXvXCXCXCXmXmXmXmXvXkXkXvX",
"2X,X,X,X2X4XkXvXZXFXFXFXFXFXFXFXZXvXhXrX5X5X5X5XrXmXCXmXCXmXvXhX,Xm.&.m.:.B.,X4XjXvXCXSXAXCXNXvXjXhX3X-X-X,X4X7X7X,XB.B.=X,X1X1X;XV.,.;.>.n.N.n.n.n.n.n.1.1.1.1.,.,.,.1.,.,.,.,.,.,.,.,.,.,.,.,.,.,.,.,.,.,.,.,.,.,.,.,.<.>.>.>.O._ / B z z z z z z V V ^ ^ ^ ^ ^ ^ ^ ^ ^ ^ / / / ) ` ' X.X.' ` ) / / ) ( _ X.O.o.X._ ) ( _ _ ` ) B B B B B B B A / _ ' } X.X.} ( ( X.| o.o.| #.#.*.j.Y.Y.W.W.W.W.^.^.Y.j.=.} { ( ( ( ( ( ( Z A A A A A A A Z Z ( { { { Y Y { { { { { ( Y P Z Z Z Z Z A A A A A A A C B B B V l l l l l l l l l w w w w w w 7 7 w 7 7 7 7 7 0 0 w w w 7 7 7 7 w w w w w 7 7 l 7 l l l l l l l l z V B ( ( ( ( Z Z A A C C C C C C C C C C A A A A A A A Z Z Z Z Y Y Y Y U  ...p.a.l.k.k.l.f.p... .U Y Y Y Y U | #.@.f.j.k.z.W.W.W.W.P.P.P.k.k.k.k.l.a.#.#.#.#.#.#.@.@.@.@.#.| Y Z Z Z Z Y { { Y Y Y | #.@.f.f.f.f.@.#. .U U U Y Z Z S A A C B B B B V V l l l l l w 7 7 7 7 7 7 7 7 6 6 7 7 7 7 7 7 7 7 7 7 l l l l B C B A A Z Z Z Z Z Z Z P { P P { { { | | | | Z A A C A ( { | } } { ( A C C C C B A / ( ( ( _ X.&.>.N.N.N.N.N.T.R.R.R.R.R.R.-X-X-X,X4X4X4X2X2X2X,X2X2X4XhXkXkXhX4X4XrXkXkXNXvXvXmXvXvXmXvXvXmXmXmXmXmXmXmXmXmXvX",
"hXhXrX4XrXhXvXCXFXFXFXKXFXFXFXFXSXvXhX5X<X<X<X<X4XkXmXCXSXSXCXmXkX2XR.C.C.B.-X,X2X4XhXkXCXNXvXjXhX4X,XB.B.1X8X7X1X-XV.V.-X,X,X;X=Xn.<.;.<.n.N.n.n.n.n.n.1.1.1.1.,.,.,.1.,.,.,.,.,.,.,.,.,.,.,.,.,.,.,.,.,.,.,.,.,.,.,.,.<.>.>.;.O.` / B z z z z V V V V ^ ^ ^ ^ ^ ^ ^ ^ / ^ ^ / / ) ` X.X.O.X.` ) / / / ( _ X.X.O.O.X._ ( ( ` ` ` ) / B B B B B B A ) _ } } } ( ( ( X.| o.o.| | | #.*.j.M.Y.Y.Y.Y.Y.W.^.Y.m.=.{ { ( { { ( Z Z A A A A B B B Z Z ( ( { { Y Y { { { { { ( Y P Z Z Z Z Z A S A A A A A C B B B V l l l l l l l l l w w w w w w 7 7 7 7 7 7 7 0 0 0 w w w 7 7 7 7 7 w w w w 7 7 l 7 7 7 l l l l l l l V B Z ( ( Z Z Z A A C C C C C A A C C C A A A A A A A Z Z Z Z Y Y { Y |  ...@.a.l.l.h.j.a.@... .U Y Y Y Y | | #.@.f.j.k.k.k.W.W.W.P.P.Y.k.k.j.l.f.p.@.#.#.@.@.#.@.@.@.#.| { Y S Z Z Z Z Z Z Z Y Y | #.*.f.j.f.f.@. .| U Y Z Z Z Z S A B B B B B B V V l l l l l w 7 7 7 7 7 7 7 7 7 7 7 7 7 7 7 7 7 7 7 7 w l l l V C B C A Z Z Z Z Z P P P P { P Y { { | | | +.| Z A A / { } } } { Z A C B B C C A A / ( ( } o.&.,.N.B.B.B.B.B.T.R.R.,X,X,X;X-X-XR.R.;X2X2X4X4X4X4X4X,X2XrXkXkXkXhXrXrXrXhXkXvXCXCXmXvXmXCXvXvXvXmXCXCXCXmXCXCXCX",
"CXCXvXkXrXrXkXNXFXFXFXFXFXFXFXGXSXvXhX,X^.^.^.^.<XhXmXZXGXZXGXFXSXmXvXkXhXhXhX7X4X4X2XrXjXNXvXjXhX4XR.:.n.;X7X7X1XR.n.B.,X,X-XB.N.>.;.$.<.n.N.n.N.N.N.N.n.n.n.n.n.n.N.1.1.1.1.1.1.1.1.1.1.1.1.1.,.,.1.1.1.1.1.,.1.1.,.,.<.>.>.;.X.) / B B B B B V V V ^ ^ ^ ^ ^ ^ ^ ^ ^ / / ) ) ) ` ' X.%.%.X._ ` ) / / ) ( _ X.X.X.o.X._ ( ` ` _ ` ` ) B B B B B B / ` _ _ _ _ ( _ | | | o.o.| | | =.*.j.m.m.M.M.Y.Y.Y.R.E.*.| { { { { ( Z A A A A A B B B A Z ( ( ( ( { { { { Y { ( ( Y Y Y Z Z Z Z Z Z A A A A A A A B B B V l l l l l l l l z z w w w w w l w w w w w w w w w w w w w w 7 7 w w w w 7 7 7 7 7 7 l l l l l l l V A ( ( ( Z Z Z A A C B B C C C C C C A C A A A A A A A S Z Z Y Y Y Y |  ...@.a.f.j.l.f.a.#... .U Y S S Y { | @.@.f.l.j.j.d.k.P.P.P.P.k.k.j.j.f.a.p.#.#.#.@.@.#.@.@.@.#.| Y Z S Z Z Z Z Z Z Z Z { | =.*.f.f.j.*.#.| { Y Z Z Z Z S S A A A A A B B V l l l l l l w 7 7 7 7 7 7 7 7 7 7 7 7 7 7 7 7 7 7 7 7 l l l l V C B A Z Z Z Z Y Y { { { { Y Y { { { | | | | +.} ( ( ( } } } ( Z A C B B C C A A A / ( _ } &.>.N.T.T.T.T.T.T.T.R.R.R.-X,X1X2X,X;X;X,X,X,X2X4X7XhXrX4X4X4X4XkXkXvXkXkXhXrXrXkXvXNXvXCXCXCXCXmXCXCXCXSXCXCXCXCXCX",
"ZXFXSXkX4X2X4XkXZXFXFXFXFXFXGXZXSXmXrX^.^.^.R.R.^.4XbXZXFXFXFXFXFXGXZXCXCXNXkXhXrX4X2X,X4XjXNXvXhX4XR.&.;.B.,X7X7X-X,.N.1X,XR.,.<.$.$.o.<.N.N.N.N.N.N.N.n.n.n.n.1.1.N.N.1.1.1.1.1.1.1.1.1.1.1.1.,.1.1.1.1.1.,.,.1.1.,.,.<.>.;.-.X.) / B B B B B V V V ^ ^ ^ ^ ^ ^ ^ ^ ^ / / ) ) ) ` ' X.%.$.O.X.` ) / / / ( _ X.X.X.O.O.X._ ` ` ` ` ` ` / B B B B B B / ( ` ` ` ( _ | | | | o.} { | | =.*.*.f.j.j.M.Y.Y.Y.R.m.=.{ { { { ( Z A A A A A B B B A Z ( Z Z Z ( { { { { { { ( Y Z Z Z Z Z Z Z Z A A A A A A A B B B V V l l l l l l l z z w w w w w l w w w w w w w w w w w w w w w w 7 w w w 7 7 7 7 7 7 l l l l l l l V B / Z ( Z Z S A A C B C B C C C C C C C A A A A A A A S Z Z Z Y Y Y U  . .#.a.a.f.f.f.f.@. .| Y L A A Z {  .#.@.f.f.f.l.l.k.P.P.P.P.k.k.j.f.a.a.@.#.#.#.@.@.@.@.@.#.#.U Y Z Z Z Z Z Z Z Z Z Z { | =.*.f.f.f.*.+.| Y Z Z Z Z Z Z A A A A A A B V V l l l l l l w 7 7 7 7 7 7 7 7 7 7 7 7 7 7 7 7 7 7 7 7 0 l l l V C A A Z Z Z Z { Y { { { { { { { { { { | | | | +.} { { } } { Z A C B C C C B B A A / ( _ } &.:.N.T.-X-X-X-X-XR.R.R.R.R.;X,X1X2X2X2X2X2X,X-X,X2XrXhXkXhX4X4XrXkXkXvXCXkXhX4X4XhXkXkXCXCXCXSXSXSXCXCXCXCXSXSXSXSX",
"FXFXSXmXrXrXkXkXCXZXZXZXGXZXZXZXSXSXkX<X^.^.R.R.^.<XkXmXZXFXFXFXFXFXFXFXZXSXvXkX,X,XR.B.,XrXkXvXvXjXhX2XR.B.n.-X1X1X,XB.R.B.N.,.X.X.o.:.n.N.N.N.N.N.n.n.n.n.N.N.N.N.N.N.N.N.N.N.1.1.1.1.1.1.1.1.,.1.1.1.1.1.1.1.1.1.1.,.,.<.;.$.` ) / B B B B B ^ ^ ^ ^ ^ ^ ^ ^ / ^ ^ ^ / ) ) ) ` ` ' X.O.$.%.X._ ` ) ) ) ) ` _ X.X.X.o.O.X._ _ ` ` ` ` ` / B B B B B B / / ) ` _ _ } | | } } | } } { { o.*.*.:.m.C.Y.Y.Y.Y.M.f.+.| | | { ( Z A B B B B B B B A A Z ( ( ( ( ( ( { { { ( ( Z Z ( ( Z Z S Z A A A B A A A B B B V B V V V l l l l z z z w w w w w w w w w w w w l w w 7 7 7 w w w 7 7 w w 7 7 7 7 7 7 l l l l l l l B B Z ( Z Z S Z A A B B B C C B B C C A A A A A A A A A A Z Z { Y Y Y U  . .@.f.f.f.f.f.f.#. .U Y S A A Z |  .#.@.@.f.f.a.l.d.k.P.W.Y.k.j.l.a.p.@.@.@.#.#.@.@.@.*.*.@. .{ Z A Z Z Z S Z Z Z Z ( { | =.*.*.*.*.@.+.{ P Z Z Z Z Z Z Z A A A B B B V V l l l l l l w 7 7 7 7 7 7 7 7 7 7 7 7 7 7 7 7 7 7 7 0 0 w l l z B C A Z Z Z Z { { { { | { { { { | { | | | | o.=.| | } { ( Z B z x z z C C B B B A / _ X.o.o.&.,.N.N.T.-X-X;X1X1X,X;X;X;X-X;X,X1X4X7X7XrX4X2X2X,X4XkXkXkXhX4X2X4XkXvXCXvXhX5X5X4XhXkXCXCXCXSXZXSXSXCXSXSXSXSXZX",
"FXFXZXCXkXkXkXmXmXZXZXZXZXZXZXZXZXZXmXrX^.^.^.^.,X,X<XrXkXSXFXFXKXFXZXZXCXCXvXhX,XB.f.m.B.,XhXvXvXNXNXvXjX4X;XR.B.R.;X,X,X1X-XB.$.$.;.,.N.N.N.N.N.N.N.N.N.n.N.N.N.N.N.N.N.N.N.N.1.1.1.1.1.1.,.,.,.,.1.1.1.1.1.1.1.1.1.,.,.<.;.O.` / ^ B B B B B ^ ^ ^ ^ ^ ^ ^ ^ ^ ^ ^ ^ / ) ` ` ` ` ' X.O.%.%.O.X.` ) ) ) / ( _ } X.X.O.o.o.X._ _ _ ` ` ` ` / B B B B B B / / ` _ _ } | | } } } } { } } | %.&.&.*.m.M.Y.Y.Y.Y.M.@.| { { { ( Z A B B B B B B B B A A Z Z Z ( ( ( { { { { ( Z Z ( ( Z Z S Z A A A B A A B B B B B B B V V l l l l l l z w w w w w w w w w w w l l w w w w w w z z l l l l l 7 7 7 l l l l l l l l z B B / / Z Z S A A A B B B C C B B C C A A A A A A A A A Z Z Z { { Y Y U  . .@.@.f.f.f.f.@.| U Y L Z A Z { | #.#.@.@.f.f.f.l.k.k.P.W.P.Y.k.l.a.@.p.@.#.#.#.#.@.@.@.@.@.| U Z S S Z Z A Z Z Z Z ( | | =.*.&.*.=.+.| { Z A A A Z ( ( / Z / A B B B V l l l l l l l w 7 7 7 7 7 7 7 7 7 7 7 7 7 7 7 7 7 7 7 7 0 0 l l z B B A Z Z Z Z { | { { | | { { | | { | | | | +.=.=.o.| ( Z C x z x z z C C B B A / ( } &.n.,.n.N.N.N.N.T.T.R.-X,X1X1X1X1X1X2X,X2X1X4XhXhXjXhX4X2X2X4XhXkXkXhX4X4X4XhXkXNXCXkXhXrXrXkXkXCXCXSXSXZXZXSXSXSXSXZXZX",
"FXHXFXZXmXkXkXkXbXSXZXZXZXZXZXZXZXZXZXmXkXrXrX4X4X<X<X<X<XkXCXZXFXZXSXCXvXCXvXkX4XR.C.C.C.B.2XhXhXvXBXCXCXvXjX4X1X;XB.B.-X4X7X,XN.N.n.n.N.B.N.N.N.N.N.N.N.N.N.N.N.N.V.V.N.N.N.N.N.N.N.N.n.n.n.n.,.,.,.,.1.1.1.1.,.,.1.N.,.<.;.O.) / ^ ^ ^ ^ ^ ^ ^ ^ ^ ^ ^ ^ ^ ^ ^ ^ ^ ^ / ) ` ` ` ` ' X.X.%.%.O.X.` ` ( ) / ) ` _ X.X.O.o.$.%.X._ _ _ ` ` ` ` / B B B B B / / ` _ _ } | | } } _ _ ( ( ( _ | %.$.&.:.m.m.Y.Y.Y.Y.f.| { { ( ( Z A B B A A A A B B A A A A Z ( ( ( { { { { { ( Z Z ( Z Z Z Z Z Z A B A B A B B B B B B B V B V l l l l z l l l l l l l l l w w w w l w w l z l V V l l l z l l l l l l l l l l l l V B B / A A A A A A B B B B B B B B A A A A A A A A A A A Z Z ( { { Y Y U  . .@.@.@.*.f.@. .| Y Z Z A Z Y {  .#.@.@.@.@.f.a.l.k.k.k.Y.P.W.k.l.a.@.a.@.@.#.#.#.#.....#...| U Z Z A A A A Z Z Z Z { | | =.*.*.o.o.+.| { A A A A A Z ( ( ( / / B B B V l l l l l z l l 7 7 7 7 7 7 7 7 7 7 7 7 7 7 7 7 0 0 0 0 0 0 0 l l B B A Z Z ( { { | | | | | | | | | | | | | | +.=.*.$.| ( A z x z z z C C C C A / ( ( o.:.n.n.N.B.B.B.B.B.B.T.T.-X,X3X4X4X7X7X4X4X2X4X4XhXkXkXhXhX4X2X4XhXkXkXkXhX4X5XrXhXvXCXvXkXkXrXhXkXCXSXSXSXZXZXZXZXSXZXZX",
"FXHXHXFXkXkXrXrXkXmXZXGXZXZXZXZXZXZXZXZXZXmXkXrX<X<X,X,X5XrXkXmXmXmXNXCXCXSXCXvXkXhX5X-X-XB.B.-X-X4XjXvXvXNXBXvXjX7X2X,XB.-X1X7X,X,X-XN.N.N.V.V.N.N.N.N.N.N.N.N.N.N.N.N.N.N.N.N.N.N.N.N.n.n.n.n.,.,.,.,.1.1.,.,.,.,.,.n.1.<.-.X./ ^ ^ ^ ^ / / / ^ ^ ^ ^ ^ ^ ^ ^ ^ ^ ^ ^ / ) ` ` ` ` ' X.X.O.%.O.X._ ` ( ( ) ) ( _ } X.X.o.%.$.%.X._ _ ` ` ` ` ` ) / B B B / ) ` _ _ } } } } } _ _ _ ( ( _ _ X.| %.=.j.m.Y.W.Y.Y.j.| Y Z ( ( Z A B B A A A A A B B B B B A Z ( ( { { { { { ( Z Z ( Z Z Z Z / / / B B B A B B B B B B B V B V V V l l z l l l l l l l l l w w w w l w l z l l V V V V V V V l l l l l l l l l l l B B B B B A A A B B C C B B C B B B A A A A A Z Z A A A A Z ( ( { { { Y |  . .@.@.@.*.*. .| { Z Z Z Z { { | #.@.@.@.@.@.a.a.f.l.k.k.k.Y.W.Y.h.a.p.a.@.#. . . . . . .+.| | { Z Z A A A A A A S Z { | | =.=.o.+.+.| { ( A A B A A ( ( ( ( / / B B B V l l l l l z z l 7 7 7 7 7 7 7 7 7 7 0 0 0 0 7 7 0 0 0 0 0 0 7 l l B B A Z Z ( { { | | } } | | | | | | | | | | | =.$.$.| ( C z z z B C B C C A / ( ` } } &.&.;.,.N.B.T.R.R.-X=XV.B.-X1X1X4X7XhXhXhX7X7X4X4X4XhXhXkXkXhX5X2X4XkXkXvXhXrX2X2XrXkXmXvXjXkXrXhXkXCXCXSXSXZXSXZXZXZXZX",
"FXFXZXSXkXrX<X<X5XbXZXZXZXZXZXGXGXGXGXGXFXZXmXkX4XrX4XrXrXhXrXrX4XhXvXmXSXSXCXSXSXNXvXhXhX4X,XB.C.R.4XkXNXNXCXCXCXNXcX8X;XC.T.1X;X1X4X-XN.B.B.B.V.B.B.N.V.V.N.N.N.N.N.N.N.N.N.N.N.N.N.N.N.N.N.N.1.1.1.n.n.n.N.N.N.N.n.n.1.<.$._ / / / / / / ) ) / ^ ^ ^ ^ ^ / ^ / / ^ ^ / ) ` ` _ ' X.X.X.O.O.O.X.` ` ` ` ) ) ) ` _ X.X.o.$.$.$.O._ ` ) ) ` ` ` ) / B B B / ) ` _ _ _ _ _ ( ( ( ` ` ` ` ` _ _ } | =.=.:.M.Y.Y.Y.m.@.{ Z ( ( Z B B B B B B B B B A B B B A Z Z ( { { { { { ( ( ( ( ( ( Z Z ( / Z A B B B B B B B B B B B B B B B z z z z z l l l l l l l l l l w w w z z z V V V V V V V B B B V z z z l z z l B B B B B A A A A A A B B B A A A A A A A A Z Z Z A A A A A ( ( ( Y { Y { |  ...@.@.@.@.@.| { Z Z Z Z Z { | #.@.@.#.#.@.@.f.f.f.j.k.k.k.k.Y.Y.j.f.f.f.a.#. .| U U | | | | { { Z Z A A A A A A Z ( { } o.o.o.o.X.| } { ( A A A / / A ( / / / / B B B V l l l l z z z l w 0 0 0 0 0 7 7 7 7 7 7 0 0 9 0 0 0 7 7 0 0 l l z B B A Z Z Z { { | } } | | | | | | | } | } | | | =.$.o.( B C z B C B C B B A / ( ( } } o.&.,.n.N.B.T.R.R.-X;X-X-XR.;X2X4X8XhXhXjXjXkXhXhXrXrXrXkXvXvXkXrX5XrXrXkXmXkX4X2X2XrXhXvXmXCXvXkXkXkXmXZXZXCXSXSXGXZXZX",
"FXGXZXSXkXrX<X2XrXvXSXZXGXGXGXGXGXGXFXFXZXZXZXSXmXbXkXkX<X<X^.R.R.5XkXvXSXSXZXZXZXSXSXNXvXvXrX^.C.B.R.,X2X4XhXhXNXvXvXjX4XR.m.R.;X1X7X7XR.B.B.N.B.V.V.V.V.V.V.N.N.N.N.N.N.N.N.N.N.N.N.N.N.N.n.n.1.1.1.n.n.n.N.N.N.N.n.1.,.<.$._ / / / / ^ / ) ) ) ) ) ) ^ ^ ^ ^ / / / / / ) ` ` _ ' X.X.X.O.O.O.' ` ` ` ` ) ) ) ) ` X.X.O.o.$.;.%.X.` ) ) ` ` ` ` ) / / B / / ) _ _ _ ` _ ` ` _ ` ` ` ` ` _ ( _ } o.=.*.j.Y.Y.Y.Y.f.| Z ( ( / B B B B B B B A A A A B B A Z Z ( { { { { { ( ( ( Z ( ( ( / ( / / / / B B B B B B B B B B B B B B V z z z z l l l l l l l l l l w w w z z z z V z V V V V V B B B B B B B B B B B B B B B B B A B Z S A B A A A A A A A A A Z Z Z Z A A A A Z Z ( { { { | | ..@.@.@.....| | ( Z Z Z Z Y { | @.@.#.#.#.@.@.f.f.f.j.k.k.k.k.j.M.M.j.f.f.@.#. .| U U U U { { { ( Z Z A A A A A Z ( { { } o.| } } } } | ( ( Z B B / / Z ( / / / A A B B V l l l l z z z l 7 0 0 0 0 0 7 7 7 7 0 0 0 0 9 0 0 0 7 7 7 l l l z B B A Z Z Z { { } | | | | | | | | | | | } | | | o.o.o.} / B C B C B B B A / / / ( o.o.o.&.n.B.B.B.B.B.T.T.-X;X,X,X1X1X2X4X4XhXhXjXvXjXkXkXhXrXhXkXvXkXkXkXkXkXrXkXvXkXkXrX5X4XrXkXSXCXmXkXkXvXCXZXZXSXSXZXZXGX",
"ZXZXZXZXmXrX<X<XhXkXmXZXZXGXGXGXFXFXFXFXGXGXGXZXZXmXkXrX^.^.^.Y.B.^.2XrXkXmXZXZXFXZXZXSXSXmXkXhX2X,XR.-XR.R.,X2X4XhXcXvXhX1XB.n.T.-X;X7X,XB.B.N.B.V.V.V.V.V.V.V.N.N.N.N.N.N.N.N.N.N.N.N.n.n.n.n.1.1.1.1.n.n.n.N.n.n.n.n.,.>.o.` / / / / ^ / ) ) ` ) ` ) / / / / / / / / ) ) ` ` ' ' X.X.X.O.O.X.' ` ` ` ` ) ) / / ) ` ' X.o.;.>.;.O.` ` ) ` ` ` _ ` ) / B B / ) ` ` ` ` ( ( ( ( ` ` ` ` ` _ ( _ ( X.=.=.*.m.Y.Y.Y.M.=.{ ( ( / Z / / / / A A A A A A B B A Z ( ( { { { { { ( ( Z Z Z ( ( ( ( / / Z Z A A B B B B B B B B B B B B B V V V z z z z z z z z z z z z z z z z z z z V V V V V V V V V B B B B B B B B B / B B B B B Z / / A A A A A A A A A Z Z Z Z Z Z Z Z A A A Z ( { { { |  ...@.@.@...| | { Z Z A A Z { | =.=.@.@.#.@.#.@.@.f.f.j.j.j.j.j.j.j.j.j.j.f.@. .| | { Y Y Y Y Y ( ( Z Z A A A Z Z ( { } } } } { { { ( ( ( ( A A B B / / ( / ( / / / B B B V V l l l V l z l w 0 7 7 0 0 w w w w 0 0 0 0 0 0 0 0 l l l l l l z B B A Z Z ( { | } | | | | | | | | | | | | | | | | o.$.o.{ Z B B B B B B A ( _ } o.&.%.&.:.N.B.T.T.T.B.B.B.R.-X,X1X3X3X3X2X2X4X7XhXvXvXvXvXvXkXhX4XkXkXvXvXkXkXrX4XhXkXvXkXrXrXrXkXkXmXmXmXmXvXvXmXSXZXZXSXSXSX",
"ZXZXZXZXZXkXrX5XrXhXkXmXZXGXGXGXFXFXFXFXFXFXGXZXZXSXvXhX<X^.R.^.R.R.R.;X2XrXvXSXZXZXFXZXSXZXSXvXkXhX4X2X,X-XB.R.R.2XhXvXjX4X;XB.n.B.N.;X3XB.B.T.B.B.V.V.V.V.V.V.N.N.N.N.N.N.N.N.N.N.N.N.N.n.n.n.1.1.1.1.n.n.n.N.n.n.n.1.,.;.X./ ^ ^ ^ ^ ^ / ) ` _ _ ` ` ) ) / / / / / / / ) ` ` ' ' ' ' X.X.X.X.' ` ` ) ` ` ) / / ) ` _ X.O.;.<.;.O._ ` ) ) ) ` _ ' _ ) / B / / / / / / / / / ( ` ` ` ` ` _ _ ` ` } o.=.*.j.Y.Y.Y.M.f.| ( ( / Z / / / / A A A A A A B B A Z ( ( { } } } { ( ( Z Z Z ( ( ( ( ( / / / / A B B B / B B B B B B B B B B V V V V V V V z z z z z z z z z z z z z z z V V V V V V V V B B B B B B B B B / B B B B B Z / ( Z A A A A A A A A Z Z Z Z Z Z Z Z A A A Z Z Z { { | | @.@.@.@. .| | ( Z A B Z ( { o.=.*.@.@.#.#.#.#.@.f.f.j.j.j.j.f.f.f.f.f.f.*.@. . .| { Y Y Y Z Y ( ( Z Z A A Z ( ( ( } } } } } ( ( ( ( ( ( / B B B B / / ( ( ( / / A B B B V V l V V V l z l w 0 0 0 0 0 w w w w w w w w 0 0 0 0 l l l l l l z B B A A Z ( { | } | o.| | | | | | | | | | | | } | | $.o.} ( A B B B B A A ( o.:.n.:.&.&.n.N.B.T.R.-X-XT.T.R.-X-X;X4X4X7X4X4X4X4X4XkXkXvXvXvXvXkXhXrXkXkXvXvXvXvXkXrXkXvXmXvXvXkXhXrXkXvXCXSXmXkXkXmXSXZXZXmXmX",
"ZXZXZXZXGXSXkXrXrXkXkXkXmXZXZXZXFXFXFXFXFXGXGXZXZXSXmXmXkX5X^.^.^.R.^.,X,X2X5XrXvXCXGXFXZXZXSXSXCXCXvXkXkXrX2XR.C.E.2XjXNXvX4XE.n.B.T.T.;X-XB.B.B.B.V.V.V.V.V.V.N.N.N.V.V.V.N.N.N.N.N.N.N.N.N.N.n.n.n.N.N.N.N.N.N.N.N.n.<.-._ / ^ ^ ^ ^ / / ) ` ] ' ] ] _ ` ` ` ) ) / / / ) ) ) ` ' ' ' X.O.O.O.X._ ` ` ` ` ) ) ) ) ` ` X.O.;.>.;.%.' ` ) / / ` _ X._ ` ) / / / / / / / / ) ` ` _ _ _ _ ` ` _ ` _ _ } o.*.j.m.Y.Y.E.m.*.{ ( ( Z B / / / / / / / / / B A A A ( ( { } } } { { ( ( ( ( ( ( / ) ) / / / B B B B / / B B B B B B B B B B B V B V B V V V V z z z z z z z z z z z z z l z z z z z z z z z B B B B B B B / ^ B B B B A / / / Z A B B B B B A / ( ( ( ( ( ( Z A A A Z Z { { | | |  .=.=.+.| | | ( ( / A ( { } =.=.=.@.@.@.#.#.#.#.@.*.j.j.j.f.*.@.@.@.*.*.@.+. .| | { Y Y Y Z ( ( ( Z A A / / ( ` ( _ _ _ _ _ ` ` ( / / / / A B A / / / / ) ( ) / / B B B V V V B B V V l l l w w w w w w w w w w w w w w w l l l l l l l z V B B B A A Z ( { } +.| +.+.| | +.| | | | | | | | | +.$.o.} { Z B B B B / / ( :.B.n.n.n.B.B.B.B.B.T.R.-X,X,X,X;X;X,X1X4X7X7X7X4X2X2X4XkXvXNXmXvXvXvXkXrXrXkXmXCXCXmXhXrXkXvXCXSXCXkX4XrXkXbXmXCXmXkXkXmXZXZXZXCX",
"ZXZXZXZXFXGXSXkXkXhXkXhXkXkXmXZXGXFXFXFXZXZXZXZXZXSXSXCXCXvXkXkX<X^.M.^.R.^.,X2X4XhXkXCXZXZXFXZXZXSXSXCXNXvXkXhX,Xm.B.,XhXvXvX7X2XR.C.B.B.R.-XT.B.T.T.V.V.V.V.V.V.V.N.N.V.V.N.N.N.N.N.N.N.N.N.N.n.n.n.N.N.N.N.N.N.N.N.n.<.$._ / ^ ^ ^ ^ / / ) ` ' ] ] ' ' ] ' ' ' ` ) ) ) / / / ) ` ' ' ' O.O.O.O._ ` ` ` ` ) ) ) / ) ` _ X.$.;.-.O.X.` ` ) / ) ` ' ' _ ` ` / / / / / / / ) _ _ ' X.} _ _ ` ` ` _ _ X.o.=.*.j.M.Y.Y.Y.j.o.{ ( / / / / / / / / / / / B B A A ( ( ( } } } } { ( ( ( ( ( ( / / / A / / / / B B / B / B B B B B B B B B B B B B B B V V V V z V V V z z z z z z z z V V V V l V z z z z z z B B B B B ^ ^ ^ B B A A / / / Z A B B B B B A / ( ( ( ( ( ( Z A A Z ( ( { | | | | | | | | | | { ( / / / ( { } o.@.=.@.#... . . . .@.*.f.f.f.*.@. .+.+.=.=.+.| | | | Y Z Y Y ( ( ( ( ( A / / / ( ` ` ( ( ` ` ` ` ( ( / / / / / / B / / / / / ) ) / / B B V V V V B B V V l l l w w w w w w w w w w w w w w w l l l l l l l z V B B B B A A ( { } +.+.+.+.| | +.| | | | | | | | | +.$.o.} { Z A B B B / ( o.:.n.:.>.n.B.R.R.T.T.R.R.-X;X;X1X1X,X,X2X2X4X7XhXhX7X7X2X4XkXvXNXNXCXNXCXkXhXrXkXvXCXmXCXkXrXhXkXmXSXCXbXkXrXrXkXmXCXmXkXkXkXSXZXZX",
"GXGXFXFXFXFXZXSXbXkXrXrXrXrXkXmXZXZXGXFXZXZXZXZXZXZXZXZXZXZXSXmXkX5X^.^.^.,X,X,X,X2X5XrXkXvXSXZXZXZXZXZXCXmXmXvXrX;XC.B.,XhXvXvXvX4X-XT.B.R.;X;XR.T.T.T.T.V.V.V.V.V.V.V.V.B.V.N.N.N.N.N.N.N.N.N.N.N.N.N.N.N.N.N.N.N.N.n.<.$._ / B B ^ ^ / / ) _ ' ] ] ] ] ] X.X.X.' ' ` ) ) ) / / ) ` ' ' X.O.o.O.' ` ` ` ` ` ) ) / ) ` _ X.$.-.$.O.X.' ` ) ) / ) _ X._ _ ` ` ) / ) / / ) _ _ ' X.X.X.X._ ` ` ` _ _ X.| } =.*.m.Y.Y.E.m.*.} ` ) / / / / / / / / / / / / / / ( ( ( ( } } } } ( ( ( ( ( ( ( ( / B / / / B B / / / / / B B B B B B B B B B B B ^ ^ ^ ^ ^ ^ B B B V V V B B V V V V V V V V B V B B B B B B B B B B B ^ / / B A A / / ( ( ( / A A A A A / / ( ( ( ( ( ( ( ( ( ( ( { } | | | | | | | | } { ( ( / / / ( } } | | +.|  .| | | |  .@.*.*.*.*.@.+.| | | | | | | | | { { Z Z Z ( ( ( ( / / / ( ( ( ( ( ` ` ( ( ` ` ( ( / / / / / / / / / / / / / / / / B B B B B B B B B V l l l l z w w w z z z z l l l l l l l l l l l l l z B B B B A B A ( ( { | | o.o.| | | +.+.| | | | | | } o.=.%.} ( Z A B B B / ( &.:.n.N.N.B.T.R.-X-X;X;X;X-X-X,X,X1X4X4X2X2X2X4XhXhXkXhX4X4XrXkXvXNXCXCXCXmXvXkXhXkXvXmXSXCXkXrXrXkXmXZXZXmXkXrXhXkXmXSXvXkXhXkXmXZX",
"FXFXFXFXFXFXGXZXmXkXrX<X<X2X5XkXmXSXZXZXZXZXZXZXZXZXZXGXZXGXZXmXSXkXhXrX4X4X5X5X2X,X,X2X,X5XrXkXvXCXZXZXSXmXvXkXhXhX2XB.B.-X4XcXNXvXhX-X:.n.N.N.-XR.T.T.T.T.T.V.V.V.V.V.V.B.V.N.N.N.N.N.N.N.N.N.N.N.N.N.N.N.N.N.N.N.N.n.<.$._ / ^ B B B / / ) ` ' ' ] ] O.O.O.O.X.X.X.' ' ` ) ) / / ) ` ` ' X.O.O.O._ ` ` ` ` ) ) / / ) ` ' %.$.$.O.X.X._ ` ) / ) ` _ _ _ _ _ ` ) ) / ) ` _ ' X.X.O.O.X.X._ ` ` ` _ } } } o.=.f.Y.Y.E.E.:.%.( / / / / / / / / / / / / / / / ( ( ( ( } } } } _ ( ( ( ( ( / / / B / / / / B / / / / / B B B B B ^ B B B ^ ^ ^ ^ ^ ^ ^ ^ ^ B B B B ^ ^ ^ ^ V V V B B B B B B B B B B B B B B B B B B B / / B A A / / ( ( ( ( / A A A A / / ( ( ( ( ( ( ( ( ( ( ( | } } | { { } } } } { ( ( ` / ( ` _ { } { | | | | | | |  .@.@.@.=.*.@.+.| | | } | | | | | | { { Z Z ( ( ( ( ( / / / / / / / / / ( / / / / / / / / / / / / / / / / / / / B / / B B B B B B B B B V l l l l z w w w z z z z l l l l l l l l l l l l l z B B B A A B A Z ( { } | +.o.| o.| | | +.| | | | | } | %.o.} ( A A A B A ( ( %.:.N.R.-X-XR.R.-X;X,X1X1X,X,X,X,X1X3X4X4X1X2X2X4XhXjXjXkXhXhXkXvXvXmXmXmXCXCXvXkXrXkXkXmXCXSXvXkXrXkXSXSXCXCXmXkXhXkXmXCXmXkXkXkXmX",
"ZXZXFXFXFXFXFXFXZXmXtX<XrXrXhXkXbXkXmXZXZXZXZXZXZXZXZXZXZXZXZXZXZXZXZXZXmXmXbXkX,X^.R.^.Y.^.<X4X5X5XrXvXvXmXmXvXNXvXhX4X,XR.R.,XhXvXvXkX4X;XT.N.V.-X-XT.T.T.T.T.T.V.V.V.V.V.V.N.N.N.N.V.N.N.N.N.N.N.N.N.N.N.N.N.N.N.N.n.<.$._ / / ^ ^ ^ ^ ) ) ` _ ' ] O.O.O.O.O.O.O.O.X.X.' ' ` ) ) ) ) ` ' X.O.%.O.X._ ` ` ` ` ` ) ) ) ` _ O.$.%.O.O.X.' _ ` ) ) ) ` _ ' _ ` ` ` ) ) ) ` _ X.X.O.%.%.%.O.X._ ` _ _ X.} } X.=.*.m.E.E.E.m.&._ / ) ) ) ) ( / ) ) / / / / / / / ` ` ` ( ( } } _ ( ( ( ( / / / / A / / / / B B / B / / B B ^ ^ ^ ^ ^ ^ ^ ^ ^ ^ ^ ^ ^ ^ B B B B ^ ^ ^ ^ B B B B B B ^ ^ B B B B B B B B B B B B B B B B B B / / / / / / ` ` ( / Z A A Z Z / ( ( ( ( ( ( ( Z ( ( ( } } } } { { } { } { ( ( ( ( ( _ _ } } } } { | | | | | | =.=.@.=.=.| | | | } } } } } o.o.| { | { ( ( ( ( ( ( / ( / / / / / / / / / / / / / ) ) / / / / / / / / / / / B B B B B B B B B B B B B B B l l z z z z z z z z q q z l z z w w l z l l l l l B B B B A A A A Z ( { } | o.o.+.*.o.o.+.| | | | | | } } } } } ( ( / / / ) _ O.O.;.n.R.,X,X,X;X-X-X-X,X3X1X1X2X2X-X,X2X4XhXhX4X4X2X4XhXvXvXkXkXkXvXmXNXmXmXCXSXmXkXkXkXvXmXCXvXvXkXkXkXSXGXZXmXCXkXkXmXSXSXCXvXrXkX",
"mXFXFXFXFXFXFXFXZXZXSXmXkXkXhXkXhXrXrXkXCXZXGXGXFXGXGXZXGXGXZXZXZXZXZXZXZXZXCXmXkXrX,XR.,X<X<X5X,X^.,X5XhXkXCXSXCXmXvXvXvX7X,XR.-X4XhXjXjXvXhXhX7X-XT.T.T.T.T.T.T.T.T.V.V.V.V.V.V.V.V.V.V.V.V.V.V.V.N.N.N.N.N.N.N.N.N.N.<.$._ / / / ^ ^ ) ) ) ) ` ] ] O.O.O.O.O.O.O.$.$.O.X.X.' ' ` ) ) ) ` ' X.O.O.O.X._ ` _ ` ` ` ) ) ` ` ' X.X.O.%.O.O.X._ ` ) ) ) ` _ ' _ _ ` ) ) ) ( _ _ X.X.O.%.$.%.O.X.X.} X.X.X.X.X.o.*.j.Y.E.E.E.:.| ( / ( ) ) ( / / / / / ) ) / / ( ( ` ` ( ( } } _ _ ( ( ( / ( / A A / / / / B B B B / / B B / B ^ ^ ^ ^ ^ ^ ^ ^ ^ ^ ^ ^ B B ^ B ^ ^ ^ ^ ^ ^ B B ^ ^ ^ ^ B B B B B B B B B B ^ B B B B B B B / / / / / / ` ` ( ( Z A A Z Z / ( ( ( ( ( ( ( Z ( ( ( } } | | | { { { } { ( ( ( ( ` _ } } } } } | | | | | | | =.=.=.| | } } } } } { { { } o.o.o.} | { ( ( ( ( ( ` / ( / / / / / / / / / / / / / / / / / / / / / / / / / B B B B B B B B B B B B B B B B l l z z z l l l z z z q z l z z w w l l l l l l l B B B / Z Z A A Z ( { | | o.o.o.=.o.o.+.| +.| o.| } } } } { { _ _ _ _ ` _ X.O.X.X.;.B.;X,X1X1X1X,X-X-X2X1X4X4X2X;XR.R.,X4XhXhXhX4X2X4XkXvXvXvXkXkXvXvXmXCXCXSXSXvXkXkXhXkXCXSXCXvXkXkXkXCXZXZXSXCXkXkXmXCXSXmXvXkX",
"kXZXFXFXFXFXFXFXFXFXZXZXZXmXkXhX5X<X<XrXkXbXmXZXZXGXGXZXGXGXZXZXZXZXZXZXZXZXZXZXSXmXmXbXmXkXrX5X<X^.R.^.,X5XhXvXvXmXCXCXvXvXjXhX2X2X;X,X,X7XhXhXjX7X-X-XT.T.T.T.T.T.T.T.T.T.V.V.V.V.V.V.V.V.V.V.B.B.B.B.V.V.V.V.V.N.N.N.<.$.' ) / / / ) ) ) ) ) ` ] ] X.O.O.$.$.$.$.$.$.$.$.O.X.X.' ' ` ) ) ` ' ' O.O.O.' ` ` ` ` ` ` ) ` _ _ _ ' X.X.O.O.X.X._ ` ) ) ) ` _ ' ' ` ` ) ) ( ` _ X.X.O.%.%.%.O.%.O.X.X.X.X.X.} X.%.*.m.E.E.E.m.$.( ( ` ` ( ( ( ( ( ( ( ` ` / / / / ` ` ( ( _ _ _ _ _ ` ` ( ` / / / / / / / / / / / / / / / / / / / / / ^ ^ ^ ^ / ^ ^ ^ ^ ^ B B B B ^ ^ ^ ^ ^ ^ ^ ^ ^ ^ ^ ^ ^ B B ^ B B B B / / B B B B B B B / / / / ( ( _ ( ( ( Z Z Z / / ( ( ( ( ( ( ( ( ( ( { } } } } } { { { { } { ( ( ( ( } } } } } } | | | | | | o.=.=.| | } | } { } { { { { } } o.o.o.} } { { { ( ( ` / / / / / / / / / / / / / / / / / / / / / / / / / / / B B B B / / B B B B B B ^ B B B z z V V V V V V V V V V z z z z z z z z l l l z l B B B / / Z Z A Z ( { | +.o.o.*.*.*.=.=.=.+.| o.o.X.X.} } } } X.X.X.X.X.X.X.X.%.$.;.N.R.;X1X4X4X1X2X,X,X1X7X7X7X1X-XE.E.,X7XkXjXrX4X2X4XkXvXvXvXkXkXkXvXCXCXSXZXSXmXkXrXkXvXSXZXCXvXkXkXkXmXZXZXSXmXkXkXvXmXSXSXmX",
"rXkXZXZXFXFXFXFXFXFXFXFXGXZXmXkX<X,X^.<X<X<XrXkXkXmXSXZXZXZXGXZXZXZXZXZXZXZXGXGXGXZXZXSXSXmXmXmXkX<X^.^.Y.^.,X2X4XhXvXvXCXCXBXvXjXjXhX4X,X1X7X8X8X4X7X,X-XT.T.T.T.T.T.T.T.T.T.V.V.V.V.V.V.V.V.V.B.B.B.B.V.V.V.V.V.V.V.N.<.$.' ) ) ) ) ) ) ) ) ) ` ] ' X.O.%.$.$.-.$.$.-.$.$.$.O.O.X.X.' ' ) ) ` _ ' O.O.O._ ` ` ` ` ` ` _ _ _ ' _ _ X.X.X.X.X.' _ ` ) ) ` ` _ ' _ _ ` ` ( ` _ } X.X.O.O.O.O.O.O.X.X.X.X.X.X.X.o.=.:.E.E.E.E.*.} ( ( ( ( ( ( ( ( ( ( ` ` / / / / ` ` ( _ _ _ } _ _ ( ` ( ( / / / / / / / / / / / / / / / / / / / ^ ^ ^ ^ ^ ^ / / ^ ^ ^ ^ B B B B ^ ^ ^ ^ ^ ^ ^ ^ ^ ^ ^ ^ ^ ^ ^ ^ B B B B / / B B B B B / B / / / / ( ( _ ( ( Z Z Z Z / / ( ( ( ( ( ( ( ( ( ( { } { { { { { { { { } ( ( ( ( ( { { } } } } | | | | | | | =.o.| } { { { { { { { } { { } } X.o.| X.} } { ( ( ( / / / / / / / ) / / / / / / / / / / / / / / / / / / / B B / / / / / / / / B B ^ ^ B B z z V V V V B B V V V V z z z z z z z l l l l l l B B B / ( Z Z Z Z ( { | +.o.$.=.*.=.=.=.=.%.o.%.%.o.o.%.X.%.%.o.o.o.o.O.O.X.X.&.,.N.T.B.T.;X1X4X4X4X1X,X2X4XhXhX7X4X,XR.R.2XhXhXkXhX2X,X4XhXvXmXkXrXrXkXvXCXSXSXZXSXvXkXkXkXmXSXZXCXvXkXhXkXmXZXZXSXmXkXkXmXSXZXCX",
"4XrXkXZXGXFXFXFXFXFXFXFXZXZXZXZXbXhX<X,X^.^.^.,X5XrXkXmXSXZXZXZXGXGXGXZXZXZXZXZXZXGXGXZXZXZXSXmXvXkXhX5X,X,X^.R.R.,X<X5XkXkXvXCXCXCXNXvXjXhXhXhX7X,X,X,X;XT.T.T.T.T.T.T.T.T.T.V.T.T.T.T.V.V.V.V.V.V.V.V.V.V.V.V.V.V.V.N.,.$.X.) ) ) ) ) ) ) ` ` ` ` ] ' X.O.$.$.$.-.-.-.$.$.$.O.O.X.X.X.' ' ` ` _ ' O.%.%.X._ _ _ ` _ _ _ _ _ _ _ _ _ X.X.X.X.X.X._ ` ) ` ` _ _ ' _ _ ` ` ` _ X.X.X.O.O.O.O.O.O.X.X.X.X.X.X.} | %.*.m.E.E.E.m.*.( / ( ( ( ( ` ` ( ( ` ` ) ( ` ` ( ( _ _ _ _ _ _ _ _ ` ` ` ` ) ) / / / / / / / / / / / / / / / / ^ ^ ^ ^ ^ ^ ^ ^ ^ ^ ^ ^ ^ ^ ^ ^ ^ ^ ^ ^ ^ ^ ^ ^ ^ ^ ^ ^ ^ ^ ^ B / ^ ^ ^ B B B B B B B B B B / / / ` _ _ ( ` / / / / ) ) ` ( ( ( ( ( ( ( ( ( } } { { } } } } } ( } ( ( ( ( ( { { } } } } } X.| o.| o.o.o.o.} } { { { ( ( } } } } } } X.| X.X.X.} } } } ( ` ( / / / / / / ) ) ( ) / / / / / / / / / / / / / / / / / B / / / / / / / / B B B B B B B B B B B B B B B B V V V z z z l l l l l l z z l l V B B ( ( Z Z ( ( } | +.+.o.*...=.=.=.$.%.%.%.%.$.$.$.$.$.$.$.$.;.$.$.-.;.%.&.B.R.T.B.B.B.-X2X4X4X4X1X2X3XhXjXjXhX4X,XB.E.2X7XkXkXhX2X2X4XkXmXmXvXkXrXkXmXSXSXSXSXSXmXkXkXkXCXZXZXSXmXkXrXkXmXSXZXZXSXkXkXvXZXZX",
"rX5XrXkXZXFXFXFXFXFXFXFXZXZXZXZXSXmXmXkXhXrX5XrX5X5X<X5XrXrXkXmXSXZXGXGXGXGXGXGXGXZXZXGXZXZXZXSXmXmXmXmXkXkXhXkX5X5X2X2X2X4X4XhXNXNXBXNXvXvXjXjX7X1X;X;X:XT.T.T.T.T.T.T.T.V.V.V.V.T.T.T.V.V.V.V.V.V.V.V.V.V.V.V.V.V.V.N.,.$.X.) ` ` ` ` ` ` ` ` ` ` _ ' X.O.O.$.-.-.-.-.-.$.$.$.O.X.X.X.X.X.' ' _ _ ' O.%.%.O.' _ _ _ _ _ _ _ _ _ _ _ _ X.X.X.X.X.X._ _ ` _ _ ' _ _ _ ` ` ` _ ' ' X.O.O.O.X.X.X.X.X.X.X.X.X.X.X.%.&.:.E.E.E.E.:.{ ( ( ( _ ( ` ` ( ( ` ` ) ) ` ` ( ( _ _ _ _ _ _ _ _ ` ` ` ( ) ) / / / / / / / / / / / / / / / / ^ / / ^ ^ ^ ^ ^ / / / / / ^ ^ ^ ^ ^ ^ ^ ^ ^ ^ ^ ^ ^ ^ ^ ^ ^ ^ ^ / / / / / / B B / B B B B B / / / ` ( _ _ ( ( / / ` ` ) ` ( ( ( ( ( ( ( ( ( } } ( ( { { } } } } } } ( ( ( ( { { { } } } } X.| o.| | o.o.| } { { { { ( ( } } } } { } X.X.X.X.X.X.X.} } ` ` ( / / / / / / ) ) ( ) / / / / / / / / / / / / / / / / / / / / / / / / / / B B B B B B B B B B ^ ^ ^ ^ ^ B V V V z z z z V V V l l B B l l V B B / ( ( ( ( ( } | +.+.o.....=.=.=.=.$.%.$.%.&.&.&.&.&.;.;.;.;.;.;.<.<.;.&.n.R.-XR.B.B.R.,X2X4X4X4X4X2X2XhXkXjXhXrX,XE.E.,XhXvXvXrX5X2X4XkXvXmXvXkXkXkXCXSXSXSXSXSXmXkXhXkXmXZXZXZXmXkXrXkXmXZXFXZXmXkXkXmXSX",
"4X2X2X4XmXZXGXGXFXFXGXGXZXZXZXZXZXZXZXZXZXmXkXkXkXrX,X,X^.,X5XrXrXkXbXmXmXmXmXmXZXZXGXGXZXGXZXZXZXZXZXZXZXZXSXCXmXvXkXkX4X4X2X2X4XhXjXcXvXvXjXjXhX1X;X;X:XT.T.T.R.R.T.T.T.T.T.V.V.V.T.T.V.V.V.V.V.V.V.V.V.V.V.V.V.V.V.N.,.-.X.` ` ` ` ` ` ` ` ` _ _ ] ] X.O.O.$.;.;.;.;.;.-.-.$.O.X.X.X.X.X.X.' _ ' _ ' O.%.%.O.X.' ' ' ' ' _ _ ` _ _ _ X.' X.X.X.X.X.' _ _ _ _ _ X.X.' _ ` ` ' ' X.X.X.X.X.X.X.X.X.X.X.X.X.X.} X.$.&.m.E.R.E.m.%.( ( _ _ _ ` ` ` ` ` ` ` ` ` ` _ _ _ _ _ _ _ _ _ _ _ _ _ ` ` ` ) ) ) ) / / / / ) ) ) ) ) / / / ) ) ) / / ^ ^ / ) ) ) / / / ^ ^ ^ ^ / / / / / / / / / / ^ ^ ^ ^ / / / / / / / / / / / / ) / / ) / ` _ _ } } ( ( ` ` ` ` ` ` ` ` ( ( ( { } } } _ ( ( { { } } } } } } } } } ( { { { } } } } } } o.o.o.o.o.| } } } } } } } } } } } { } } X.X.X.X.X.X.} } _ ` ( ( ( / / / / ( ( ( ( / / ) / / / / / / / ) ) / ) / / / B / / / / / / ) / / B ^ B B ^ ^ / ^ / ^ ^ ^ ^ ^ ^ ^ V V V V V V V V V V V V B B B B V B / ( ( ` ( { } | +.+.o.=.*.=.=.$.$.&.&.&.&.&.&.;.;.>.>.>.>.>.>.,.N.N.<.>.n.B.R.-XR.R.T.-X,X4X7X7X7X2X2X4XhXjXjXkX7X,XB.R.4XkXvXvXhX5X2X4XkXmXSXCXkXkXkXmXSXSXSXZXSXvXkXhXkXCXGXGXSXvXrXhXkXSXGXGXSXvXkXkXmX",
"4X2X2X4XkXvXSXZXZXFXGXGXGXGXGXGXGXGXFXFXZXZXZXSXbXkXrX5X,X,X<X<X,X5XrXkXkXkXkXkXvXmXZXZXZXZXGXZXGXGXFXGXGXZXZXZXCXCXCXmXvXkXrX2X;X,X2X4XvXvXjXjXhX1X;X-X:XR.T.R.R.R.T.T.T.T.T.V.V.V.T.T.V.V.V.V.V.V.V.V.V.V.V.V.B.V.V.N.,.-.X.` ) ` ` ` ` ` ` ` _ _ ] ] ' X.O.$.;.>.>.>.>.>.;.-.o.X.X.' X.X.X.X.X.' ' _ ' O.%.%.%.O.O.O.X.' _ _ ` _ _ _ X.' X.X.X.X.X.' _ _ _ _ _ X.X.X.' _ ` _ ' X.X.X.X.X.X.X.X.X.X.X.X.X.X.X.X.o.&.,.E.E.E.C.*.} { _ _ _ _ _ _ ` ` ` ` ` ` ` ( ( _ _ _ _ _ _ _ _ _ _ ` ` ` ` ) ) ) ) ) ) ) ) ) ) ) ) ) ) / / ) ) ) ) ) / / / ) ) ) ) ) / / / / / / / / / / / / / / / / / / / / / / / ) ) ) / / / / / / / ) ) ) ( _ _ } } _ ( ` ` ` ` ` ` _ ` ( ( ( ( } ( ( ( ( ( { { } } } } } } } } } } { { { } } } } } } | o.o.| X.} } } } } } } } } } } } { } } X.X.X.X.X.X.} } _ ` ( ( ( ( ( / / ) ( ( ( / / / / / / / / ) ) ) ) / / / / / / / / / / / / / / / B ^ B ^ ^ / / / / ^ ^ ^ ^ ^ ^ ^ ^ V V V V V V V V V V B B B B B B B B ( ( ( ( ( } | +.+.o.=.*.=.*.$.=.&.&.&.&.&.;.;.;.>.>.>.>.>.<.n.V.T.N.N.N.n.B.-X-X-XR.-X;X2X4X7X7X4X2X2X4XjXvXkXkXrX,X,X2X7XhXvXvXrX2X2XrXvXSXSXvXkXrXkXmXSXSXZXZXCXkXrXkXvXSXSXZXSXkXkXkXvXZXZXZXCXkXrXkX",
"hX5X4XkXkXkXkXkXSXZXGXFXGXGXGXGXGXGXFXFXGXZXZXZXSXSXSXSXmXkXkXhX<X4XrXhXrX<X<XrXrXrXkXkXmXZXGXZXGXZXZXZXZXZXZXZXZXSXCXCXvXvXkXhX2XR.C.R.2XhXNXvXvX4X,X-X;X-XR.R.=XR.R.R.T.T.T.B.B.V.V.B.B.B.V.V.V.V.V.V.V.V.V.V.B.B.N.,.>.$.X._ ` ` ` ` ` ` ` ` ' ` ' ' ' X.O.$.;.>.>.>.>.>.>.;.$.O.X.' X.X.X.O.X.X.X.' ' ' O.%.$.$.$.%.O.' _ _ _ _ _ _ _ _ ' ' X.' X.' ' _ _ _ _ X.X.X.X._ _ _ ' X.X.X.X.X.X.X.X.X.X.X.X.X.X.X.X.X.$.:.m.E.E.E.j.| { ( _ _ _ ` ` _ _ _ ` ` _ _ _ _ _ _ _ _ _ _ _ _ _ _ ` ` ` ` ` ` ` ` ) ) ` ` ` ` ) ) ) ) ) ) ) ) ) ) ) ) ) / ) ) ) ) ) ) ) ) ) ) / / ^ ^ ^ ^ ) ) ) ) / / / / / / / / / / / / / / ) ) ) ) ) ) ) ( ` _ _ _ _ _ _ _ _ _ ` _ _ _ _ _ _ _ _ ` ` ` ( ( _ _ _ _ } } } } } } } } } } } X.} } X.X.X.| o.o.X.X.} } } } } } } } } } } } } } } X.X.X.X.} } } _ ` ( ( ( ( ( ( ( ( ( ( ) ) ) ) ) ) ) / ) ) / / ) ) / / / / / / / / / / / / ) / / / / / / / / / ) / / / ^ ^ B B B B B B B B B B B B B B B B B B B B B B / ( ( ` ( } | +.o.=.=.=.=.=.*.*.&.&.&.&.;.;.;.;.;.;.>.>.>.<.V.R.=X-X-XB.n.:.T.-X2X2X-XR.,X2X4XhX7X4X2X2X7XvXvXvXvXhX2X,X2XhXvXvXkXrX5X4XkXCXSXSXvXkX4XkXCXCXZXZXZXCXkXkXkXvXZXZXZXSXmXkXkXSXZXZXZXSXkXkX",
"GXmXkXkXhXrXrXrXhXbXSXGXGXGXGXGXGXGXFXFXFXFXZXZXZXZXZXZXZXZXSXmXmXmXmXmXhX5X<X<X,X,X<X<XrXbXSXSXmXCXCXSXSXZXZXZXSXSXSXCXCXmXmXvXhX2XR.C.E.2X7XcXvXjX7X-X,X-X-X-X=XR.R.T.T.B.T.B.B.V.V.V.V.V.V.V.V.V.V.V.V.V.V.V.T.V.,.;.$.X._ ` ` ` ` ` ` ` ` ` ' ` ' ' ' X.O.O.-.>.>.>.>.2.>.>.;.$.O.X.] ' X.X.X.X.O.O.' ' ' O.$.$.$.$.%.' ' _ _ _ _ _ _ _ ' ' ' X.X.' X.' _ _ _ ' X.X.X.X._ _ X.X.X.X.X.X.X.X.X.X.X.X.X.X.X.X.X.X.o.&.:.C.E.E.m.*.X._ _ _ _ ` _ _ _ _ ` ` _ _ _ _ _ _ _ _ _ _ _ _ _ _ ` ` ` ` ` ` ` ` ` ` ` ` ` ` ) ) ) ) ` ` ` ` ` ` ` ` ` ) ) ) ) ) ) ) ) ) ) ) / ) / ) ) ) ) ) ) ) / / ) ) / / ) ) ) ) ) ) ) ) ) ) ) ) ) ) ) ( ` _ _ _ } _ _ _ _ _ _ _ _ _ } } } } _ _ _ _ _ _ } } } } } } } } X.X.X.X.X.X.X.X.X.X.| | | o.o.o.X.X.} } } } } } } } } } } } } } X.X.X.X.X.} } } _ ` ( ( ( ( ( ( ( ( ( ( ) ) ) ) ) ( ) ) ) ) ) ) ) ) / / / / / / ) ) / / / / / / / / / / / / / ) ) / / / / / ^ ^ B B B B B B B B B B B B B B B B B B B B / ( ` ( } X.| o.*.=.*.*.*.*.&.&.&.&.&.&.;.;.;.;.;.;.;.;.>.,.T.B.T.R.,XR.n.:.n.-X2X2X,XR.-X2X4XhXhXhX4X2X2XrXvXvXvXkXhX,X^.2XhXvXvXvX4X5X4XkXmXSXSXmXkXkXvXCXSXZXZXZXCXkXkXkXSXZXZXSXSXvXkXkXSXZXGXZXCXkX",
"FXZXvXkXrXrXrXrXrXkXbXSXSXZXZXZXGXGXGXFXFXFXGXZXGXGXGXGXGXZXZXZXGXZXZXZXmXbXkXhXrXrXrXrXrXkXbXmXkXkXkXkXhXkXmXSXSXSXSXSXSXCXCXCXNXvXhX2XB.B.R.4XhXcX8X1X1X-X-X-X=X=X=XR.T.T.R.T.B.B.V.V.B.B.B.B.V.V.V.V.V.V.V.V.T.n.>.o.X.X._ ` ` ` ` ` ' ` ' ' ' ' ' ' ' ] X.O.$.;.>.>.>.2.>.>.;.-.$.O.X.X.X.X.' ' O.O.O.X.' X.%.$.$.$.%.O.' _ _ _ _ _ ' ' ' ' ' ' O.' O.O.' _ _ X.X.X.X.X.X.X.X.X.X.X.X.X.X.X.X.X.X.X.X.X.X.X.X.X.o.$.&.m.E.E.B.:.%._ _ _ _ _ _ _ _ _ _ _ _ _ _ _ _ _ } } } } _ _ _ _ _ _ ` ` ` ` ` ` ` ` ` ` ` ` ` ` ` ` ` ` ` ` ` ` ` ` ` ` ` ` ) ) ) ) ) ) ) ) ) ) ) ) ) ) ) ) ) ) / / ) ) / / ) ) ) ) ) ) ) ) ) ) ) ) ) ) ( ( _ _ _ _ } } } _ _ _ } } } } } } } } } _ _ _ } } } } } } } } } } X.X.X.X.X.X.| | X.X.X.X.| o.o.| o.X.X.X.X.X.} } } } } X.X.X.X.X.X.X.o.X.X.} } } _ _ ` ` ` ` ` ` ` ` ( ( ( ( ( ( ( ( ( ( ( ( ` ` ` ` ) ( ( ) ) ) ) ) ) ) / / ) ) / / ) / ) ) ` ) ) ) / / / / / / / B B B B B B B B B B B B B B B B B B A / ( ` ( } | o.$.=.*.*.*.*.*.&.&.&.&.;.;.;.;.;.;.;.;.>.>.<.N.=XN.N.T.1X;XB.:.*.R.1X4X1X,X-X,X4XhXjXhXhX4X2X2XhXcXvXvXvX4X;XR.5XkXmXvXkXrX4X4XkXmXSXSXvXkXkXmXCXSXZXZXZXCXkXkXkXmXSXZXZXSXkXrXkXSXZXZXSXkX",
"FXGXZXSXkXkXkXkXkXkXkXkXkXmXmXZXZXGXGXFXFXFXFXGXZXZXZXZXGXGXGXGXGXGXZXZXZXZXSXCXSXSXSXSXSXmXmXmXbXkXrX4X5X5X5X4XrXhXvXvXCXCXCXSXNXCXCXkX7X2X,X2X1X7X4XhX8X;XR.R.=X=X=XR.T.T.T.T.B.V.V.V.B.B.B.B.V.V.V.V.V.V.V.V.N.<.$.X.X._ _ _ ` _ ` ` ' ' ' ' ' ' ' ' ' ' X.X.O.-.;.>.2.,.>.>.;.;.-.$.%.O.X.X.' ' O.O.O.O.' X.O.O.%.%.$.%.O.' ' _ _ _ X.X.' ' X.X.O.O.O.O.' ' ' X.X.X.O.X.X.X.X.X.X.X.X.X.X.X.X.X.X.X.X.X.X.X.X.X.X.o.%.:.m.E.E.n.&.X._ _ ' ' _ _ _ _ _ _ _ _ _ _ _ _ } } ' ' _ _ _ _ _ _ _ _ ` _ _ ` ` ` ` ` ` ` ` ` ` ` ` ` ` ` ` ` ` ` ` ` ` ` ) ) ) ) ) ) ) ) ) ) ) ) ) ) ) ) ) ) ) ) ) ) ) ) ) ) ) ) ) ) ) ) ) ) ) ) ) ) ( ( _ _ _ _ } X.X.X.X.} } } } } } } } } } _ _ _ } } } } } } } } } } X.X.X.X.X.X.X.| | X.X.X.| o.o.o.X.X.X.X.X.X.} } } } } } X.X.%.%.%.%.o.X.X.} _ } _ _ ` ` ` ` ` ` ( ( ( ( ( ( ( ( ( ( ( ` ( ( ` ` ` ` ) ) ) ) ) ) ) ) ) ) / / ) ) ) ) ) ) ) ) ` ) ) ) / / / / / / / / ^ B B B B B B B B B B B B B B B B A / ( ` _ } o.o.$.*.*.*.*.*.*.&.&.&.;.;.;.;.;.;.;.;.;.<.>.<.N.-Xn.,.B.,X,XR.n.&.B.,X4X2X1X2X,X2XhXjXjXjX4X2X,X4XhXkXvXvXhX4X^.;XrXvXvXmXkXrX2X4XkXmXSXmXkXhXkXmXCXSXZXZXZXCXkXrXkXCXFXZXZXmXrXkXkXCXZXSXCX",
"ZXGXGXZXZXZXZXSXmXkXhXrXrX5XrXkXZXZXZXGXFXFXFXFXGXZXZXZXGXGXFXFXFXFXGXGXZXZXZXZXZXZXZXZXZXZXSXCXCXCXmXkXkXkXrX4X,X,X<X4XrXhXkXvXCXCXNXNXvXvXkX7X7X1X,X4XhX7X;X;X-X=X=X=X=XR.R.T.T.B.B.B.V.V.V.V.T.T.V.V.V.V.V.B.n.>.$.X._ X._ X.` ' ' ` ' ` ` ` ' ' ' ' ' X.X.O.O.%.-.;.>.,.,.>.>.;.-.$.$.$.%.O.O.X.O.O.%.%.%.O.' O.O.%.%.%.%.O.X.X.X.X.' ' X.X.X.O.O.O.O.O.O.O.X.X.X.X.O.O.O.X.X.X.X.X.X.O.O.X.X.X.X.X.X.X.X.X.X.X.X.X.o.&.:.B.B.m.:.o.X.X.X.X.X.} } ' _ _ _ _ _ _ _ _ X.X.' ' _ _ _ _ _ _ _ _ _ _ _ _ _ _ _ _ _ _ ` ` _ _ _ ` ` ` ` ` ` ` ` ` ` ` ` ) ` ` ` ` ` ` ` ` ` ` ` ` ) ) ) ` ` ` ` ` ) ) ) ` ` ` ) ) ` ` ` ` ( ( ( ( ( _ _ _ _ _ } X.X.X.X.} } } X.X.X.X.X.} } } } } } } } } } } X.X.X.X.X.X.X.X.X.X.X.X.X.X.X.X.o.o.X.X.X.X.X.X.X.} X.} } } X.X.X.o.%.%.$.%.%.O.X.} _ _ _ _ _ _ _ _ ` ` _ _ ( ( ( ( ( ( ( ( ( ( ( ( ` ` ` ` ` ` ( ( ) ) ` ` ) ) / / ) ) ` ` ) ` ` ` ` ` ) / / / / / / / / / / / ^ B B B B B B B ^ ^ B B B B B A / ) _ _ X.o.$.$.*.*.*.*.*.*.&.&.;.;.;.;.>.>.>.>.>.>.,.<.,.V.-X,.,.T.1X,XR.n.o.B.,X4XrX4X2X-X,X4XkXkXkXkXrX2X,X4XkXvXvXvXrX2XR.2XkXmXSXmXkX4X2XrXCXCXSXCXkXkXkXSXZXSXZXZXSXvXkXkXvXZXZXZXZXvXkXkXCXZXZXZX",
"GXFXGXGXGXZXZXZXSXbXrX<X5X5X5XrXkXmXmXmXmXZXGXGXZXZXGXGXGXGXGXFXFXFXFXFXGXZXZXZXZXZXZXZXZXZXZXZXZXSXSXSXSXCXmXvXkXrX<X2X2X5X4X4XhXkXmXCXCXCXNXvXjX7X2X,X7XjX,XR.-X=X=X=X=XR.T.T.T.B.B.B.V.V.V.V.T.T.V.V.V.V.V.V.n.;.o.X._ _ _ X.' ' ' ' ' ' ' ' X.X.X.X.] ] X.X.X.O.O.-.>.>.,.>.>.;.-.$.$.$.$.$.%.O.O.O.%.%.%.%.O.O.O.%.O.%.%.$.%.X.X.X._ _ X.X.X.X.O.O.O.O.O.O.X.X.X.X.O.O.O.X.X.X.O.O.X.X.O.O.X.X.X.X.X.X.X.X.X.X.X.X.o.%.*.m.B.N.:.&.X.X.X.X.X.X.} } } ' ' ' _ _ _ } X.X.' ' _ _ _ _ _ _ _ _ _ _ ' ' _ _ _ _ _ _ _ _ _ _ _ _ _ _ _ _ _ _ _ _ ` ` ` ` ` ` ` ` ` ` ` ` ` ` ` ` ` ` ` ` ` ` ` ` ` ` ` ` ` ` ` ` ` ` ` ` ` ` ` ` _ _ _ _ _ _ } X.X.X.X.X.X.X.X.X.X.X.X.} } } } } } } } } } } X.X.X.X.X.X.X.X.X.X.X.X.X.X.X.X.o.o.X.X.O.X.X.X.X.} } } } } X.X.O.o.%.$.$.%.%.O.X.} _ _ _ _ _ _ _ _ ` ` _ _ ( ( ( ( ( ( ( ` ` ` ` ` ` ` ` ` ) ` ( ( ) ) ` ` ) ) ) ) ` ` ` ` ` ` ` ` ` ` ) / / / / / / / / / / / / ^ B B ^ B B B / / B B B B B / / ( _ _ } o.%.$.*.*.*.*.*.*.*.&.;.;.>.>.>.>.>.>.<.,.,.<.n.T.-X,.n.=X1X,XR.n.&.T.2X4XhX7X4X,X-X4XhXkXvXvXjX4X,X2XrXcXvXvXkX4XR.R.5XkXSXCXvXkX5X5XkXCXSXSXmXkXrXkXSXZXZXZXZXCXkXkXkXSXZXZXZXSXkXkXkXSXZXZX",
"GXFXFXGXFXGXZXZXSXmXkXrXrXrXrXrXrXhXrXrXhXkXmXmXZXZXGXFXFXFXFXGXGXFXFXGXGXGXZXZXZXZXZXZXZXZXZXZXZXZXZXZXZXZXZXZXZXCXmXbXkXkXrX5X5X4XrXkXvXNXCXNXNXjX7X,X,X7XjX-X-X-X=X=X=X=X=XR.R.T.T.T.T.T.T.T.T.T.T.V.V.V.V.B.<.;.X._ _ _ ' ' ' ' X.X.X.X.] ] X.X.X.X.O.O.O.O.X.X.X.$.;.>.,.>.>.;.-.$.$.$.$.$.$.%.%.%.%.$.$.$.%.O.O.O.O.O.O.%.%.%.X.X.' X.' ' X.X.O.O.O.O.O.O.O.O.X.X.O.O.O.O.O.O.O.O.O.O.O.O.O.O.X.X.X.X.X.X.O.O.X.X.X.%.&.,.n.B.n.;.$.X.X.X.X.X.X.X.X.X.X.X.X.X.} } X.X.X.X.X.X.' ' ' ' ' _ X.X.X.X.' X.X.X.} X.' ' ' ' X.X.' ' X.X.X.X.' ' _ X._ _ _ _ _ _ _ _ _ _ _ _ _ _ _ _ _ _ _ _ ` ` ` ` ` ` ` ` ` ` ` ` ` _ ` ` ` ` _ _ _ _ _ _ X.X.X.X.X.X.X.X.X.X.X.X.X.X.X.X.} } X.X.X.X.X.X.X.X.X.X.X.X.X.X.X.X.X.X.X.X.X.o.X.%.%.%.%.O.O.O.O.O.X.X.X.X.X.X.O.%.$.$.$.%.%.O.X.} } _ _ _ _ _ _ _ _ _ _ _ _ _ _ _ ` ` ` _ _ ` _ ` ` _ ` ` ` ` ` ` ` ` ` ` ` ` ` ` ` _ _ ' _ ` ` _ ` ` ) ) ) ) ) ) ) ) ) / ) / / / / ^ / / / / / / / / / B A / ) ` _ _ } o.%.=.*.*.m.m.:.:.:.:.:.>.>.>.>.>.<.<.<.<.<.,.V.T.T.,.B.;X1X,XR.n.:.R.4X7XhXhX7X4X;X,X4XjXvXvXvXhX2X2X4XkXvXvXvXrX,XR.,XhXCXSXmXvXrX2X5XvXCXSXSXCXrXrXkXZXZXZXZXSXmXkXkXmXZXGXZXZXmXkXkXmXZXZX",
"FXFXFXFXFXFXGXZXZXZXZXSXmXmXmXmXbXrX<X5XrXrXrXrXhXkXbXmXZXZXFXFXFXFXFXFXGXGXZXZXZXZXZXZXZXZXZXZXGXGXZXZXZXZXZXZXZXSXZXCXCXmXvXvXkX4X,X,X2XhXvXCXCXNXjX1X;X4X7X1X-X-X-X-XR.=X=XR.R.R.T.T.T.T.T.T.T.T.T.T.V.V.V.V.<.$.X._ _ _ ' ' ' X.X.X.X.X.X.X.X.X.X.X.O.O.O.O.X.X.X.X.$.>.>.>.>.>.;.$.$.$.$.$.$.$.$.%.%.%.$.-.-.$.%.O.O.O.O.%.%.$.%.X.X.' ' ' ' X.O.O.O.%.O.O.O.O.X.X.O.O.O.O.O.O.O.O.O.O.O.O.O.O.X.X.X.X.X.X.O.O.X.X.o.o.&.*.,.N.N.<.&.O.O.X.X.X.X.X.X.X.X.X.X.X.X.X.X.X.X.X.X.X.X.X.X.X.X.X.X.X.X.X.' ' X.X.X.X.' ' ' ' ' X.' ' X.X.X.X.' ' X.X.' _ _ _ _ ' ' ' _ _ _ _ _ _ _ _ _ ' ' ' _ _ _ _ _ _ _ _ _ _ _ _ _ _ _ _ _ _ _ _ _ _ _ _ X.X.X.X.X.X.X.X.X.X.X.X.X.X.X.X.} X.X.X.X.X.X.X.X.X.X.X.X.X.X.X.X.X.X.X.X.X.X.o.%.%.$.%.%.O.O.O.O.X.X.X.X.X.X.X.O.%.$.$.$.%.%.O.X.} } _ _ _ _ _ _ _ _ _ _ _ _ _ _ _ _ _ ` _ _ _ _ _ _ _ ` ` ` ` ` ` _ _ _ ` ` ` ` _ _ _ ' X._ ` ` ` ` ` ) ) ) ) ) ) ) ) ) / ) / / / / / / / / / / / / / / / / / ) ` ` _ } X.%.&.*.*.m.m.m.:.:.:.:.>.>.<.<.<.<.<.<.<.<.n.T.T.N.,.R.,X1X,XR.:.n.-X4XhXhXhXhX7X,X;X2XkXvXvXvXkX7X4X4XhXvXvXvXkXrX^.,X4XvXmXNXmXkX2X,XkXmXCXSXSXkXhXkXmXZXZXZXZXSXkXkXkXSXZXGXGXSXmXkXkXSXZX",
"FXFXFXFXFXFXGXGXZXGXGXGXGXZXZXZXmXmXkX5X<X<X<X<X<X<X<X<XkXkXmXmXmXmXSXZXZXZXZXZXZXZXZXZXZXGXGXZXGXGXGXGXGXGXGXZXZXZXZXZXSXCXCXSXCXmXkXrX4X2X2X4XhXNXNXhX7X4XhXhX-X-X-X-XR.R.R.R.T.T.T.T.T.T.T.T.T.T.T.T.V.V.V.N.>.$.X.` _ _ ' ' ' ' ] ] X.X.O.O.O.O.O.O.O.O.O.O.O.O.X.X.O.-.;.>.,.<.>.;.$.$.$.$.$.$.$.%.%.%.$.-.;.-.$.%.O.O.O.O.%.$.$.%.O.X.X.X.X.X.O.O.O.O.%.%.O.O.O.O.O.O.O.O.O.O.%.%.O.O.O.O.O.O.O.O.X.X.O.O.o.o.O.o.O.%.$.&.:.N.N.,.;.$.o.O.O.X.X.X.X.X.X.X.X.X.X.X.X.X.X.O.X.X.X.X.X.X.X.X.X.X.X.X.X.X.X.X.X.X._ _ ' X.X.X.' ' ' ' ' ' ' ' ' ' ' ' ' ' ' ' ' ' ' ' ' ' ' ' ' _ _ _ ' ' ' _ _ _ _ _ _ _ _ _ _ _ _ _ _ _ _ _ _ _ _ _ _ ' X.X.X.X.X.X.X.X.X.X.X.X.X.X.X.X.X.X.X.X.X.X.X.X.X.X.X.X.X.X.X.X.X.X.X.X.X.X.X.X.%.%.$.$.%.o.O.O.O.X.X.X.O.o.o.%.%.$.$.$.$.$.o.O.X.X._ _ _ _ _ _ _ _ _ _ _ _ _ _ _ _ _ _ _ _ _ _ _ _ _ _ _ ` ` ` _ _ _ _ _ _ ` ` _ _ ' X.X.' ' _ ` ` ` ` ) ) ` ` ` ` ( ) ) ) ) ) ) ) ) ) ) ) / / ) ) / / / / / / ) ) ` _ X.O.o.&.:.:.:.n.:.:.:.:.>.>.>.>.<.<.<.<.,.,.,.T.T.N.<.B.,X1X1X,XB.;.B.2X7XhXjXjXkXhX4X;X,XhXvXvXvXvXkX4X2XrXvXmXNXvXhX2X^.,XkXmXCXSXmXrX2X2XkXCXZXCXmXkXrXkXmXZXZXZXZXmXkXkXvXSXZXZXZXSXkXrXkXZX",
"ZXGXFXGXGXGXGXGXGXGXGXGXGXGXZXZXZXZXmXmXkXtXrXrXrXrXrXrXrXrXhXkXkXtXkXkXkXbXmXmXZXZXZXZXZXZXZXZXZXZXZXSXZXZXGXGXGXZXGXGXZXZXZXZXSXCXCXvXvXhX4X4X2XhXvXNXjXjXcXjX7X-X;XR.R.R.=XR.T.T.T.T.T.T.T.T.T.T.T.T.V.V.V.N.>.$.X._ ' _ ' ' ' ' ] ] X.X.O.O.O.O.O.O.O.O.O.O.O.O.O.O.O.O.-.>.,.<.<.<.>.;.-.$.$.$.$.$.$.%.%.$.-.-.$.%.O.O.O.O.O.%.$.$.$.%.O.O.O.O.O.O.O.O.O.O.O.O.O.O.O.O.O.O.O.%.$.%.%.O.O.O.O.O.O.O.X.X.O.O.o.o.o.o.o.$.&.;.<.n.n.,.<.&.%.%.%.X.%.X.X.X.X.X.X.O.X.X.O.O.O.O.O.O.X.X.X.X.X.X.X.X.X.X.X.X.X.X.X.X._ _ ' ' X.X.X.X.X.X.X.' ' ' ' ' ' X.X.X.X.X.' ' ' ' X.X.' ' ' X.X.X.X.X.' ' ' ' ' ' ' ' _ _ _ _ ' ' ' _ ' ' _ _ ' _ } } X.X.X.X.X.X.X.X.X.X.X.X.X.X.X.X.X.X.X.X.X.X.X.X.X.X.X.X.X.X.X.X.o.o.X.o.X.X.o.X.%.$.$.$.%.o.O.O.O.X.O.O.%.$.$.$.$.$.$.$.%.o.O.O.X.X._ _ _ _ _ _ _ _ _ _ _ _ _ _ _ _ _ _ _ _ _ _ _ _ _ _ _ ` _ _ _ _ _ _ _ _ ` _ } X.X.X.X.' ' _ ` ` ` ` ` ` ` ` ` ` ) ) ) ) ) ) ) ) ) ) ) ) ) ) ) ) / ) / / ) ) ) ) ` _ X.X.o.$.&.:.:.:.:.:.>.:.>.>.>.<.,.,.<.<.,.,.N.T.=XN.n.-X1X3X1X;Xn.:.-X4XkXhXjXvXjXhX4X;X,XrXvXvXvXvXvXrX2XrXvXmXCXvXkXrX,X,XrXkXCXSXSXkXrX2XrXmXCXCXSXvXhXhXvXSXZXZXZXZXmXkXkXmXZXZXGXZXmXkXkXmX",
"ZXZXGXGXFXFXGXGXGXGXGXGXGXGXZXZXZXGXGXZXZXSXmXmXmXmXmXmXkXkXtXkXkXtXtXrXrXtXkXkXkXkXkXkXmXmXmXmXbXkXkXkXkXmXZXZXZXZXGXFXFXFXFXFXZXSXCXCXAXCXNXjX4X4X7XvXNXNXvXNXhX,X-XR.R.R.=X=X=XT.=XT.T.T.T.T.T.T.T.T.T.V.T.N.<.$.O._ ' ' ' ' ] ] X.X.X.X.O.O.O.O.O.O.O.O.O.O.$.$.$.$.$.$.$.;.>.>.<.,.,.<.;.;.$.$.$.$.$.$.%.$.$.;.-.$.%.O.O.O.O.O.%.$.$.$.$.%.o.O.O.O.O.O.%.%.O.O.O.O.O.O.%.%.%.$.$.%.$.%.%.%.%.%.O.O.O.O.%.%.%.%.%.%.%.$.$.;.:.,.n.n.,.&.$.$.%.%.%.%.O.X.O.O.O.O.O.O.o.O.O.O.O.O.O.O.X.X.X.X.X.X.X.X.X.X.X.X.X.X.X.X.X.X.X.X.X.X.X.X.X.X.X.X.X.X.] ] X.X.' ' X.] ' X.X.X.X.X.X.X.X.X.X.X.X.X.X.X.X.X.' X.} } X.X.} } } } } } ' ' X.X.X.X.X.X.X.X.X.X.X.X.X.X.X.X.X.X.X.X.O.X.O.O.X.X.o.X.X.X.X.X.X.X.o.X.o.%.%.%.o.X.o.%.$.$.&.$.$.o.o.o.O.O.%.%.$.&.&.&.&.&.$.%.o.O.O.X.X.X.} } ' ' ' } _ _ ' ' _ _ } } _ _ _ _ ' ' ' ' _ _ _ _ _ _ _ _ ' ' _ _ ' ' _ } X.X.X.X.X.X.X._ ` ` ` ` ` ` _ _ ` ` ` ` ` ) ) ) ) ) ` ` ` ` ) ) ) ) ) ) ) ) ) ( ( ( ` _ X.X.X.o.&.&.:.:.:.:.:.:.>.>.<.,.,.,.,.:.:.,.N.=XT.n.T.;X3X4X,XB.;.n.2XhXjXjXjXvXjXhX2XR.;XrXvXvXvXvXvX4X,X4XvXmXCXmXmXrX2XR.2XkXCXSXSXmXkX5X4XkXvXSXZXCXkXhXkXSXZXZXGXZXSXmXkXbXSXZXGXZXSXmXrXkX",
"mXZXGXGXFXFXFXFXFXFXFXFXGXGXGXZXZXZXGXGXGXGXGXZXZXZXZXZXZXZXmXmXmXmXkXkXkXkXkXkXtXtXrXtXkXbXbXkX5X<X<X<X<XrXhXkXhXkXbXmXCXSXSXSXSXSXSXSXCXCXAXCXjX7X4X7XhXjX4X7X7XhX;X-XR.=X-X=X=XT.T.T.T.T.T.T.T.T.T.T.T.V.T.N.<.$.O.' ' ' ' ' X.X.X.X.X.X.X.O.O.O.O.O.O.O.O.-.$.$.$.-.-.-.$.-.-.>.<.<.,.,.<.>.>.-.$.$.$.$.$.$.$.-.-.$.%.%.%.O.O.O.%.$.$.$.$.$.$.$.%.O.O.O.%.%.O.O.O.O.O.o.%.%.%.%.$.%.$.%.%.%.%.%.O.O.O.O.%.%.%.%.%.%.%.$.$.;.;.<.,.n.,.;.&.$.%.%.%.%.O.X.O.O.O.O.O.O.o.o.O.O.O.O.O.O.X.X.X.X.X.X.X.X.X.X.X.X.X.X.X.X.X.X.X.X.X.X.X.X.X.X.X.X.X.X.] O.O.O.' ' X.O.X.X.X.X.X.X.X.X.X.X.X.X.X.X.X.X.X.X.X.X.} } X.X.} } } } } } ' ' X.X.X.X.X.X.X.X.X.X.X.X.X.X.X.X.X.X.X.X.X.X.O.O.X.X.o.X.X.X.X.X.X.o.%.%.%.%.%.%.o.o.%.%.$.$.$.$.$.o.o.O.o.o.%.$.&.;.;.;.;.&.$.o.O.O.O.O.X.X.} } ' ' ' ' _ _ } ' _ _ } } ' ' ' ' ' ' ' ' _ _ _ _ _ _ _ _ ' ' _ _ ' } } X.O.O.X.X.X.X.X._ ` ` ` ` ` ` _ _ ` ` ` ` ` ( ( ) ) ) ` ` ` ` ) ) ) ) ) ) ) ` ` ` ` ` _ _ X.X.X.o.&.&.&.&.&.:.:.:.>.>.,.,.,.,.,.>.>.:.V.=XV.T.;X1X3X1XR.,.&.B.2XhXjXhXkXjXhXhX,XB.,XhXvXvXvXvXkX4X-X4XvXmXCXCXvXrX2XR.,XrXvXSXCXCXvX4X5XrXkXSXZXSXvXkXrXmXZXZXGXZXZXmXkXkXmXZXZXGXGXZXkXrX",
"hXbXmXGXZXGXGXGXFXGXGXGXFXFXGXGXGXGXGXGXGXGXGXGXGXGXGXZXZXZXZXSXSXSXmXmXmXmXmXmXmXmXmXmXmXmXSXSXkXhX5X<X<X<X<X<X<X4XrXhXhXhXhXhXkXkXmXCXCXAXZXCXCXNXjX7X2X2X;XR.R.-X,X1XB.R.-X=XR.=XR.R.T.R.T.T.T.T.T.T.T.T.T.V.<.$.O.' ' ' ' ' X.X.X.X.X.X.O.O.O.O.O.O.O.O.O.O.$.$.$.$.-.-.-.-.;.;.>.<.<.<.,.,.<.>.-.-.$.$.$.$.$.-.;.;.$.%.O.O.O.O.%.$.$.$.-.-.$.$.$.%.%.O.O.O.%.%.$.$.%.%.%.%.$.$.$.$.$.$.$.$.%.%.%.%.%.%.$.$.%.$.$.$.$.$.$.$.;.>.,.,.,.<.;.&.%.%.%.%.O.O.O.%.O.O.%.%.%.%.%.%.O.O.O.O.O.X.O.X.X.X.X.X.X.X.X.X.X.X.X.X.X.X.X.X.X.X.X.X.X.X.O.O.O.O.O.O.O.O.O.O.O.X.X.X.X.X.X.X.X.X.X.X.X.X.X.X.X.X.X.X.X.X.X.X.X.X.} } } } } } X.X.X.X.X.X.X.X.X.X.X.X.X.X.X.O.O.O.O.O.X.X.O.o.o.o.%.O.O.O.O.O.O.O.o.o.%.$.$.%.%.%.%.%.$.$.$.$.$.$.%.o.o.%.$.$.$.&.;.;.>.;.;.&.%.O.X.O.X.X.X.X.X.X.' ' ' _ } } } } _ } } } ' ' ' ' ' ' ' ' ' ' ' ' _ _ ' _ _ _ _ _ X.X.X.X.X.X.X.X.X.' _ _ _ _ ` _ ` ` _ ` _ ` ` ` ` ` ` ` ` ` ` ` ` ` ` ` ` ` ` _ _ ' } } } } } } X.X.o.o.&.&.&.&.&.:.:.:.:.:.:.:.,.n.,.:.&.;.B.-X-X;X1X3X1X-XN.o.&.-X4XhXkXkXjXkX4X,XC.,XhXCXCXCXNXkX2XB.,XrXvXNXCXCXmXkX2XB.R.rXvXSXCXCXmXkX2X2XhXSXZXZXSXbXrXkXZXZXGXGXZXSXkXkXvXZXZXGXGXZXmXrX",
"<XrXbXbXmXZXZXZXGXFXFXFXFXGXGXGXGXGXGXGXGXGXGXGXGXGXZXZXZXZXZXZXZXZXZXZXZXZXZXZXZXSXZXZXZXZXZXZXZXmXmXbXkXkXkXkXrXrXrXrX4X4X2X,X,X2X2X2X4XhXNXCXNXNXNXvXjX7X,X-X-XR.-X1X,XB.-X=X=X=XR.R.R.R.T.T.T.T.T.T.T.T.T.V.<.-.O.X.O.X.X.X.X.X.X.X.O.X.O.O.O.O.O.O.O.O.O.O.%.$.$.$.$.-.;.;.;.;.;.>.<.<.,.,.,.<.<.<.>.-.$.$.-.$.$.;.-.$.%.O.%.%.$.$.$.$.-.-.-.-.$.$.$.$.$.%.%.%.$.$.$.$.$.$.$.$.$.$.$.$.$.$.%.%.%.%.$.$.$.$.$.$.$.$.$.$.$.$.&.>.<.,.,.<.;.&.$.%.%.%.%.%.%.%.O.O.%.%.%.%.%.%.%.%.O.O.o.O.o.o.O.O.O.O.O.O.O.O.O.O.O.O.O.O.O.O.O.O.O.O.O.O.O.O.O.O.O.O.O.O.O.O.O.O.X.X.X.X.X.X.X.X.X.X.X.X.X.X.X.X.X.X.X.X.X.X.X.X.X.X.X.X.X.X.X.X.X.X.X.X.X.O.X.X.X.X.O.O.X.X.O.O.O.O.X.X.o.o.o.o.o.O.O.O.O.O.o.o.%.%.%.$.$.%.%.%.$.&.;.&.$.$.%.$.$.%.%.$.&.&.;.;.;.;.;.;.&.$.%.X.X.O.X.X.X.X.X.X.' ' ' _ } } } } X.X.X.X.X.X.X.X.X.' ' ' ' ' ' ' ' ' ' ' X.' X.X.X.X.X.X.X.X.X.' ' ' _ _ _ _ _ _ _ _ _ _ _ _ _ _ ` ` ` ` ` ` _ _ _ ` ` ` ` _ _ } X.%.X.X.o.o.o.o.%.%.&.&.&.:.:.:.:.>.:.:.>.:.:.:.,.n.,.;.&.&.B.-X,X1X4X1X-Xn.;.o.:.;X4XhXjXkXhX2XB.B.,XrXvXvXCXvXkX4XB.B.,XhXvXmXCXCXCXkX2XR.R.rXmXSXSXSXCXkX4X5XkXSXZXZXZXmXhXrXkXZXGXGXZXZXvXkXkXSXZXZXGXZXSXkX",
"<XrXtXrXhXkXmXmXSXZXGXGXGXZXGXGXGXGXGXGXGXGXGXGXGXGXGXZXZXZXZXZXZXZXZXZXGXGXZXZXZXZXZXZXZXZXGXGXGXGXGXZXZXZXZXZXZXSXmXmXvXbXkXhXkXhX4X,X-X,X4XkXNXBXCXCXCXNXNXvXjXhX1X,X1X;X=X=X=X=X=X=XR.R.R.=XT.T.T.T.T.T.T.V.,.-.%.X.O.X.O.O.O.O.O.O.O.O.O.O.O.O.O.O.O.O.O.O.%.%.$.$.$.$.$.-.;.;.;.>.<.<.,.,.,.,.,.<.<.<.>.-.-.-.-.-.-.-.$.%.%.$.$.$.-.-.-.-.-.-.-.-.-.-.$.$.$.$.$.$.$.$.$.$.$.$.$.$.$.$.$.$.$.$.$.$.$.$.$.$.$.$.$.$.$.$.$.$.&.;.<.,.<.<.:.&.&.&.&.&.$.$.$.%.$.%.%.%.%.%.%.%.%.%.%.%.%.$.$.$.%.%.%.%.%.%.%.%.O.O.O.O.%.%.%.%.%.%.%.%.%.%.%.%.%.%.%.%.%.%.%.%.%.%.O.O.O.O.O.O.O.O.O.O.O.O.O.O.O.O.O.O.O.O.O.X.X.X.X.X.X.X.X.X.X.X.O.O.O.O.O.O.O.O.X.X.O.o.o.o.O.X.O.O.O.o.o.o.%.%.%.o.o.o.o.%.%.$.%.$.$.$.$.$.%.$.;.;.;.;.$.$.%.%.$.$.$.&.;.;.;.;.;.;.&.&.$.%.%.X.%.X.X.X.X.X.X.X.X.' X.X.} } X.X.X.X.X.X.X.X.X.X.X.X.O.X.X.X.X.X.X.X.X.X.X.X.O.O.O.O.O.O.X.X.X.' ' ' _ _ _ _ ' ' ' ' ' ' ' ' _ _ _ _ _ _ _ _ _ _ _ _ _ _ _ } X.%.$.$.$.&.&.&.&.&.&.&.&.;.>.>.:.>.:.:.:.:.:.:.:.n.m.n.n.>.:.:.N.-X1X1X1XR.>.&.o.;.R.4X8XhX7X4X,XB.E.2XkXvXvXvXvXhX,XB.C.R.4XkXvXmXCXSXmXrX,XB.R.rXmXSXSXCXSXmXrX2XrXCXZXZXZXSXmXrXhXmXZXGXGXZXmXkXhXvXZXZXGXGXZXkX",
"kXhXrX5X5XrXrXrXhXkXmXmXSXZXZXZXGXGXGXGXGXGXGXGXGXGXGXZXZXZXZXGXZXGXGXGXGXGXGXGXGXZXGXGXZXZXZXZXGXGXGXGXFXFXFXGXGXZXZXZXZXSXSXSXCXCXvXkXrX4X;X;X2XhXvXvXCXCXAXCXCXNXjX7X1X7X-X=X-X-X=X=XR.R.T.=XT.T.T.T.T.T.T.V.,.-.%.O.O.O.%.%.O.O.O.O.O.O.O.O.O.O.O.O.O.O.O.O.O.O.$.$.%.$.$.$.-.;.;.>.<.<.,.,.1.,.,.<.<.2.<.<.>.;.-.-.-.-.-.-.$.$.$.$.$.$.-.-.-.-.-.-.-.;.-.$.$.$.$.$.$.$.-.-.-.-.-.-.-.-.$.$.$.$.$.$.$.$.$.$.$.$.-.-.$.$.$.$.&.;.>.<.<.<.:.;.&.&.&.&.&.$.$.$.$.$.%.%.%.%.%.%.$.$.%.%.$.$.$.$.%.%.%.%.%.%.%.%.O.O.O.O.%.%.%.%.%.%.%.%.%.%.%.%.%.%.%.%.%.%.%.%.%.%.O.O.O.O.O.O.O.O.O.O.O.O.O.O.O.O.O.O.O.O.O.X.O.O.%.%.X.X.X.X.X.X.O.O.O.O.%.%.O.O.O.X.O.%.%.o.O.o.o.o.O.o.o.o.%.%.%.o.o.o.%.%.$.$.$.$.$.$.$.$.$.&.>.<.>.;.&.$.%.%.$.$.&.;.;.;.;.;.;.&.&.$.%.%.%.X.X.X.X.X.%.X.O.X.X.' X.X.} X.X.X.X.X.X.X.X.X.X.X.X.X.O.X.O.O.X.X.X.X.X.X.O.O.O.O.%.O.O.O.X.X.X.' ' ' _ _ _ _ _ ' ' ' ' ' ' _ ' ' X._ X.X.X._ _ _ _ _ _ } } } %.$.&.&.&.&.;.;.;.;.:.:.:.:.n.n.N.B.B.B.B.B.R.R.R.-X-X,X-XB.n.n.n.-X,X-XT.;.X.o.;.R.3XhXhX7X2XE.B.-X4XhXvXvXhXhX2XE.C.R.B.2XkXvXmXmXCXSXvX5XB.m.R.4XmXSXSXSXCXCX4X2X4XvXZXZXZXZXSXmXkXbXZXZXGXZXSXkXhXkXSXZXGXGXZXmX",
"ZXmXhX4X5X5X5X5X4XrXhXrXhXkXkXbXmXmXZXZXZXGXGXGXZXZXZXZXZXZXGXGXZXFXFXFXGXGXGXZXZXZXZXZXZXZXGXGXGXGXFXFXFXGXGXFXFXFXFXFXGXZXZXZXZXSXSXSXSXvXkXrX2X,X,X2X2X4XhXhXjXvXvXjX1X7X1X-X-X-X=X=X=X=X=X=XT.T.R.R.R.R.T.V.<.-.%.O.O.%.O.O.O.O.O.$.O.O.$.$.O.O.O.O.O.O.O.O.O.O.%.%.%.%.%.$.;.;.;.;.>.<.,.N.N.N.1.,.,.,.,.<.<.>.>.;.;.;.;.;.;.;.;.;.;.;.;.;.;.;.;.;.&.;.;.;.&.&.&.&.&.&.$.$.&.&.&.&.&.&.&.&.&.&.&.&.&.&.&.&.&.&.&.&.;.;.;.;.&.;.;.>.<.<.>.;.;.;.;.&.&.&.&.&.$.$.$.$.$.$.$.$.$.$.$.$.$.$.$.$.$.$.%.%.%.%.%.%.%.%.%.%.%.%.%.%.%.%.%.%.%.%.%.%.%.%.%.%.O.o.o.%.%.%.%.%.o.o.o.o.o.o.O.O.O.O.O.O.O.O.O.O.O.O.o.o.o.o.%.%.%.%.%.$.$.$.%.X.%.%.%.%.%.%.X.X.%.%.%.%.%.%.%.%.%.%.%.%.%.%.%.%.%.%.$.$.$.$.&.$.$.$.$.$.$.;.<.<.<.;.&.$.$.$.&.;.;.;.;.;.;.;.&.&.$.$.%.%.X.%.%.X.O.O.%.%.%.X.X.X.X.X.X.X.O.O.X.X.O.X.O.O.X.X.X.X.X.X.X.X.X.X.O.O.O.%.%.%.%.O.O.X.X.X._ _ X.O.} _ _ _ _ _ _ X._ _ } } X.o.X.X.X.} X.X.X.} _ _ } _ _ } %.&.>.,.N.T.T.R.R.-X,X,X1X3X4X4X2X2X4X4X4X2X4X4X4X4X4X7X7X4X,XC.m.n.n.T.-XR.,.&.$.n.1X4X7X7X4XR.B.E.7XjXvXkXhX4X,XB.B.R.R.2XkXvXNXCXvXvXvXhX2XR.B.B.,XhXNXCXSXCXSXmXkX2X2XkXSXZXZXZXGXSXkXkXSXZXGXZXSXmXkXrXvXZXFXGXZXZX",
"FXGXZXCXmXvXkXkXhXkXhX4X<X<X5X5X5XrXkXmXSXCXmXmXSXZXZXSXmXmXZXZXZXZXZXSXZXZXZXZXZXZXSXSXSXSXSXmXmXZXSXbXbXmXmXSXSXZXGXGXGXZXZXGXFXGXZXZXSXSXCXCXvXvXvXhXhXhX7X7X4X7XhX4X1X,X3X-X-X-X-X=X=X=X=X=XT.T.T.T.R.R.T.N.>.$.%.O.O.%.%.%.$.$.$.$.$.$.$.$.$.$.$.$.$.$.$.$.$.$.$.$.%.%.%.$.-.;.;.;.>.<.,.N.N.V.N.N.,.,.,.,.,.<.<.>.;.;.;.;.;.;.;.;.;.;.;.;.>.;.>.;.&.;.;.;.;.;.&.&.&.&.;.;.;.;.;.;.&.&.&.&.&.&.;.;.&.&.&.&.&.&.;.;.;.;.;.;.&.;.>.>.<.<.<.>.>.;.;.;.;.;.;.;.&.&.&.&.$.$.$.$.$.$.&.&.$.$.$.$.$.$.$.$.$.$.$.$.$.$.$.$.%.%.%.%.%.%.%.%.%.%.%.%.%.%.%.%.O.O.%.%.%.%.%.%.%.$.$.$.$.o.o.o.o.o.o.o.o.o.o.o.o.o.%.%.%.%.%.%.$.$.%.$.$.$.%.%.$.$.$.%.$.%.%.%.%.%.%.%.$.$.$.$.$.$.$.$.$.$.$.$.$.$.$.$.&.&.&.&.$.$.$.&.;.>.<.>.;.;.&.$.$.&.;.;.>.>.;.;.;.;.&.$.$.%.%.%.%.%.%.O.O.O.%.$.$.O.X.X.O.O.O.O.%.%.O.X.O.X.X.X.X.X.X.O.X.X.O.O.O.O.O.%.%.%.$.%.%.%.o.%.%.o.| | | X.} } } X.o.| } } X.X.o.o.$.&.%.$.$.&.&.;.,.n.T.R.-X-X1X3X4X4X8XhXjXcXcXvXvXvXvXcXvXNXvXvXvXcXcXjXjXkXkXhXhXhXhXjXjXhX,XC.n.:.;.,.,.;.&.:.R.,X4XhX8X1XR.R.,X4XjXvXjX4XR.C.C.B.,X4XhXvXCXCXCXCXNXvXkX2X,XR.R.R.4XkXSXSXSXSXSXmXrX2X2XkXSXZXZXZXGXSXmXkXCXZXFXFXZXSXkXrXkXSXFXZXZXZX",
"GXGXGXGXGXZXSXmXmXmXbXkX<X<X<X<X<XrXkXvXmXmXbXkXkXkXkXkX<XrXrXkXkXvXkXkXkXbXkXbXbXkXkXkXkXtXrXrXrXkXrX<X<X<X4XrXrXrXhXkXkXkXkXkXmXvXvXvXvXNXCXCXCXZXAXCXCXCXNXNXjXjX7X,X-X,X;X;X-X-X-X-X=X-X=X=X=X=X=X=X=XT.T.N.-.%.%.%.O.%.%.%.$.$.-.-.-.-.-.-.-.-.-.-.-.-.-.-.-.-.-.-.$.$.-.-.;.-.;.;.>.>.,.1.N.V.V.T.V.N.1.,.,.,.,.<.>.;.;.;.>.>.>.>.>.>.>.>.>.>.>.;.;.;.;.;.;.;.;.;.;.;.;.;.;.;.;.;.;.;.;.;.;.;.;.;.;.;.;.;.;.;.;.;.>.>.>.>.>.>.>.>.>.>.<.>.>.>.>.>.>.;.;.;.;.;.;.&.&.$.$.$.$.$.&.&.$.$.&.&.&.&.&.&.&.&.&.&.&.&.&.$.$.%.%.%.%.%.%.%.$.%.%.%.%.%.$.$.%.%.%.%.$.$.$.$.$.$.$.$.$.$.$.o.o.o.o.o.o.o.o.o.o.o.%.%.$.$.$.$.$.$.$.$.&.&.&.;.<.:.&.$.$.$.$.$.$.$.$.$.$.$.$.$.$.$.$.$.&.&.&.&.&.&.&.&.&.&.&.$.$.$.&.;.>.,.<.>.;.&.$.$.&.&.;.>.>.;.;.;.;.;.&.$.%.%.%.%.%.%.%.%.O.o.%.&.&.$.o.X.X.X.%.%.%.%.%.O.O.X.X.X.O.O.O.O.O.O.O.O.%.%.%.%.%.%.%.%.o.o.o.o.| | | | | | o.=.*.*.j.m.C.E.E.R.,X,X2X4X4X4X8XhXjXcXvXNXBXBXAXAXAXDXDXDXDXDXDXDXFXFXFXDXDXAXAXCXAXCXCXNXNXvXvXcXjXjXjXjXjXcXcXjX2XC.m.:.o.;.,.>.B.,X4X7XhX4X,XR.-X2XhXhXhX4X,XR.R.R.;X2XkXvXCXNXSXCXCXCXvXkX4XR.R.R.,X4XkXCXSXZXSXSXSXmX5X,X2XvXSXZXZXZXFXZXmXkXvXSXZXGXZXZXmXrXrXCXZXZXGXZX",
"FXFXFXGXGXGXGXZXZXZXZXmXmXmXbXkXkXmXmXSXmXmXbXkXrXrXrX5X<X<X<X<X<XrXrXrXrXrXrXrXrXhXkXkXkXtXrXrX5X5X4X5X<X<X<X<X<X,X,X,X2X2X2X2X4X4X5X2X2X2X4X4XhXhXhXvXCXCXCXCXNXNXjX3XB.-X,X;X-X-X-X-X-X-X=X=X=X=X=X=X=XT.T.n.$.%.%.%.%.%.$.$.$.-.-.-.-.-.;.;.;.;.;.;.;.;.;.;.-.-.-.-.-.-.-.-.-.-.-.;.;.>.>.,.1.V.V.T.T.T.V.N.1.1.,.<.>.;.>.>.>.<.<.<.<.<.<.<.<.<.<.>.>.;.;.;.;.;.;.;.;.;.;.>.;.;.;.;.;.;.;.;.>.>.>.>.>.;.;.;.;.;.;.;.>.>.>.>.>.>.>.>.>.>.<.<.<.<.<.<.>.>.>.>.;.;.;.;.;.&.&.&.&.&.&.&.$.&.&.&.&.;.;.;.;.;.;.;.;.;.;.&.$.$.$.$.%.%.%.%.%.%.%.%.%.%.$.$.%.%.%.%.$.$.$.$.$.$.$.$.$.$.$.$.$.$.$.%.$.$.$.$.$.$.$.$.$.&.$.$.N.N.N.n.,.,.n.B.B.n.<.&.&.$.$.&.&.&.&.&.&.&.&.&.;.;.;.;.;.;.;.;.;.;.;.;.&.&.$.$.$.&.;.<.<.<.>.;.&.&.$.&.&.;.>.>.;.;.;.;.&.&.$.%.%.%.%.%.%.%.%.O.O.o.$.&.&.&.$.%.o.%.o.o.%.%.%.o.o.o.o.o.X.X.O.O.X.O.%.%.%.%.%.$.&.;.;.*.B.B.C.M.E.R.R.,X,X5X4X4XrXhXkXbXbXbXmXCXCXCXCXSXAXDXFXFXFXFXDXDXDXFXHXKXKXHXFXFXHXHXHXHXHXFXFXFXFXDXAXCXAXCXCXNXvXvXcXkXjXjXjXjXjXcXcXjX2XC.m.:.o.,.T.-X1X7XhX7X1XR.R.,X4X7X7X2XR.m.n.-X2XrXkXvXvXvXmXNXCXCXCXCXkX2XR.E.C.E.2XrXvXCXZXZXSXSXSXvX2X^.2XvXSXZXZXZXFXZXCXkXkXvXSXZXZXZXCXkXrXkXSXZXGXZX",
"GXGXFXFXFXFXGXGXGXGXGXZXZXZXZXZXZXZXZXSXSXSXSXSXbXbXbXbXkXkXkXkXkXkXbXmXbXkXkXkXkXkXmXmXmXmXmXvXvXmXmXmXvXbXbXbXkXhXkXkXkXkXrX4X4X4XrXrXrX4X4X4X,X,X,X;X2X4XkXNXSXCXNXjX;XB.R.;X-X-X-X-X-X-X-X-X-X-X-X-X=XT.V.<.$.$.$.$.$.$.$.$.-.-.-.;.;.;.;.;.;.;.>.>.>.>.;.;.;.;.;.;.;.;.;.;.;.-.;.;.>.>.>.>.,.1.N.T.T.T.T.T.V.N.n.n.,.<.>.>.>.>.<.<.<.<.<.<.<.<.<.<.>.>.>.>.>.>.>.>.;.;.>.>.>.>.>.>.>.>.;.;.>.>.>.>.>.>.>.>.>.>.>.>.>.>.>.>.>.>.>.<.<.<.<.<.<.<.<.<.,.,.<.<.>.>.;.;.;.;.;.;.;.&.&.&.&.&.&.;.;.;.;.;.;.;.;.;.;.;.;.;.;.&.$.$.$.$.$.$.$.$.$.$.$.$.$.$.$.$.$.$.$.$.$.$.$.$.$.$.;.;.;.;.;.;.;.;.;.;.;.;.;.;.;.;.&.;.n.T.;X3X3X;X-X-X;X-XR.N.:.:.&.&.&.&.&.&.&.&.;.;.;.;.;.;.;.;.;.;.;.;.;.;.;.;.;.&.&.$.&.>.<.,.,.<.&.$.&.&.;.;.:.<.,.<.&.&.&.&.;.;.&.$.&.&.&.&.$.$.$.$.&.&.$.$.%.%.$.$.=.&.&.=.=.=.&.*.*.*.:.m.n.m.m.m.E.E.^.,X,X5X4X7XrXrXrXrXbXbXbXbXCXCXCXCXCXSXGXGXGXGXGXFXFXFXFXFXHXHXHXHXKXKXKXKXKXKXKXKXKXKXKXHXFXFXFXFXFXIXDXDXDXDXFXFXFXDXAXAXAXCXNXvXvXvXvXvXvXvXvXvXvXvXcXhX-Xm.*.*.&.-X1X4X7X7X4X,X-X,X3X7XhX1XR.B.n.R.2XrXkXvXCXCXSXSXCXCXZXCXvXrX,XB.m.B.C.R.4XvXCXZXZXZXZXZXvX4X2X^.4XvXZXZXZXFXFXZXCXvXrXkXSXZXZXZXSXkXrXkXSXZXZXGX",
"GXGXFXFXFXGXGXGXGXFXGXGXGXGXGXGXGXGXGXZXZXZXZXZXZXZXZXZXZXSXSXmXSXSXZXZXZXZXZXSXSXZXZXZXZXZXZXZXZXZXZXZXZXZXZXZXZXZXZXZXSXZXZXSXSXCXSXCXSXCXCXmXkXhX4X,XR.-X,X4XjXvXNXvXhX2XR.-X-X-X-X-X-X-X-X-X-X-X-X-X=XT.N.>.$.$.$.$.$.$.-.$.-.-.;.;.;.;.;.;.>.>.>.>.>.>.>.>.>.>.>.>.>.>.>.;.>.;.>.;.>.>.>.>.>.,.1.N.T.T.T.T.T.V.V.N.n.,.>.>.>.<.<.<.<.<.,.,.,.,.,.,.,.<.,.,.<.<.<.>.>.>.<.<.<.<.<.<.<.>.>.>.>.>.>.>.>.>.>.>.>.>.>.>.<.<.<.<.>.<.<.,.,.,.,.,.,.,.,.,.,.,.,.,.,.<.<.>.>.>.>.>.>.;.;.;.;.;.;.;.;.;.;.;.;.;.;.;.;.;.;.;.;.;.;.;.;.;.-.-.-.-.-.-.;.;.;.;.;.;.;.;.;.;.$.$.$.$.-.;.;.;.;.;.;.;.;.;.;.;.;.;.>.>.;.;.>.,.N.T.;X1X1X;XT.B.N.N.n.:.;.;.;.;.;.;.;.;.>.>.>.>.>.>.>.;.;.;.;.;.;.;.;.;.;.;.;.;.;.>.<.,.n.n.n.:.>.;.&.&.&.;.&.&.:.:.&.&.&.&.=.$.$.$.&.&.&.&.&.&.&.&.&.*.m.m.m.m.C.C.E.R.^.,X,X,X2X4X4X4X7XhXhXkXbXbXvXmXmXCXmXmXSXZXZXZXZXZXGXGXFXFXFXFXFXFXFXFXFXFXFXFXFXFXFXFXHXKXKXKXHXKXHXHXKXKXKXKXKXHXKXKXKXHXFXFXFXFXFXFXDXDXFXFXFXFXFXFXAXAXAXCXNXvXvXvXvXvXvXvXvXvXvXvXcXhXR.:.:.:.T.1X7X7X4X,X;X;X2X7X7X4X,XE.C.R.2X4XjXvXCXCXCXNXSXSXSXSXmXhX2X;XB.n.m.B.m.,XhXCXZXZXSXSXCXvXrX2X,X2XkXZXZXZXZXFXFXZXCXkXrXkXCXZXZXZXSXkX4XrXSXZXZXGX",
"GXGXFXFXFXGXGXFXFXFXFXFXGXGXGXGXGXGXZXZXGXGXGXGXGXGXGXGXZXZXZXZXZXZXZXGXGXGXGXGXZXGXGXGXZXZXZXGXZXGXGXGXGXGXGXGXZXZXZXZXZXZXFXFXFXFXFXFXZXZXSXSXSXCXvXvXhX4X,X2X4X4XhXhXvXhX,X-X-X-X-X-X-X-X-X-X-X-X-X-XT.V.1.;.$.$.$.$.$.$.-.-.$.-.-.-.;.;.;.;.>.>.>.>.>.>.>.>.>.>.<.<.>.>.>.>.>.>.>.>.>.>.>.>.>.<.,.1.V.T.T.T.T.T.T.V.N.n.,.<.<.<.<.<.,.,.n.n.n.n.n.n.n.,.,.,.,.,.,.<.<.<.,.,.,.,.,.,.,.<.<.<.>.<.<.<.<.<.<.<.<.<.<.<.<.<.<.<.<.,.,.,.,.,.,.,.,.,.,.,.,.,.,.,.,.,.,.<.<.,.<.<.>.>.>.>.>.>.;.;.;.;.;.;.;.;.;.;.>.;.>.>.>.>.>.>.>.>.;.;.;.;.;.;.;.;.;.;.;.;.;.;.&.&.&.&.$.&.&.;.;.;.;.;.;.;.;.;.;.;.;.;.>.>.>.>.<.,.,.N.N.B.B.N.,.<.:.<.>.;.;.;.;.;.;.;.;.>.>.>.>.:.:.:.:.:.:.;.;.;.&.&.;.;.;.;.;.:.n.N.n.n.N.n.:.*.*.&.&.&.*.:.:.:.m.m.m.m.m.m.n.m.B.E.E.E.E.E.,X,X,X2X4X4XrXhXbXvXvXbXvXvXCXCXAXZXGXGXGXFXFXFXGXFXFXFXFXFXFXFXFXFXFXKXKXKXKXKXKXKXKXKXFXFXFXHXHXHXHXHXFXKXKXHXHXHXHXHXKXKXKXKXHXKXKXKXKXHXKXHXKXHXKXHXHXFXFXFXFXFXFXFXFXFXFXFXFXDXAXAXCXCXmXvXvXvXvXvXvXvXvXvXvXvXcXhXE.n.m.B.,X4X4X4X;XR.-X1X7X4X2XR.E.B.-X4XkXvXNXBXCXNXvXvXNXvXkXkX4X,XB.B.B.m.C.R.R.rXvXSXZXSXSXSXvXrX2X2X5XrXmXSXZXZXFXFXGXZXCXkX4XrXmXZXZXGXSXkX4XrXmXFXGXFX",
"GXGXFXFXFXGXGXGXGXGXFXFXFXFXGXGXGXGXZXZXGXGXFXGXGXGXGXGXGXZXZXZXGXGXGXGXFXFXFXGXGXGXGXZXZXZXGXFXGXGXFXGXGXGXGXGXFXFXGXGXFXFXFXFXFXFXZXZXZXZXSXSXSXSXCXNXvXvXkXhX4X2X,X2X4X1X,XR.-X-X-X-X-X-X-X-X-X-X-X-XV.N.,.-.$.$.$.$.$.$.$.$.-.-.-.-.-.;.;.;.>.>.>.>.>.>.>.<.>.>.<.<.<.<.<.<.<.>.<.>.>.>.>.>.>.>.,.1.N.V.T.T.T.T.T.T.V.N.n.,.<.<.<.,.,.,.N.N.N.N.N.N.N.n.n.n.n.n.n.,.,.,.,.,.,.,.,.,.,.,.,.,.,.,.,.,.,.,.,.,.,.<.<.<.<.<.<.<.,.,.,.,.,.,.,.,.,.,.:.,.,.,.,.,.,.,.,.,.,.,.,.<.<.<.<.<.>.>.>.>.;.;.;.;.;.;.;.;.;.;.>.>.<.<.<.<.>.>.>.>.>.>.>.>.>.>.;.;.;.;.;.;.;.&.&.&.$.&.;.&.;.;.;.;.;.;.;.;.;.;.;.;.>.>.>.>.>.;.;.>.>.;.;.>.>.;.;.;.;.;.;.;.;.;.;.;.;.;.<.<.:.:.,.:.:.*.*.*.*.*.&.&.&.&.&.&.:.n.C.B.B.C.m.n.n.N.B.T.R.R.R.R.,X,X2X2X7X7X7X7XhXcXbXvXvXNXCXCXCXCXCXCXAXDXGXGXFXFXFXFXFXFXFXFXFXFXFXFXKXKXKXKXFXFXFXKXKXKXKXKXKXKXKXKXKXKXKXKXKXKXKXKXHXHXHXHXKXKXKXKXKXKXKXKXKXKXKXKXHXKXKXHXKXKXKXKXHXHXKXHXHXHXKXHXHXFXFXFXFXFXFXFXFXFXFXFXFXDXAXAXCXCXvXvXvXvXvXvXvXvXvXvXvXvXcXhXR.B.R.,X4X4X,X-XB.,X4X4X,XR.C.n.R.2XkXcXNXvXvXvXvXvXvXvXvXhX2XR.R.R.B.C.B.B.B.^.rXmXSXCXSXSXSXNXkX4X5X2XrXkXSXFXZXZXFXFXGXZXCXkX5XrXmXSXZXGXSXkXrXrXvXZXFXFX",
"ZXZXZXZXZXZXGXGXZXZXGXFXFXFXFXFXFXGXGXGXGXGXGXFXFXZXZXFXFXFXFXFXFXGXFXGXGXGXGXGXGXGXGXGXGXGXFXGXGXGXFXFXFXFXFXFXFXFXFXGXGXFXFXZXZXZXZXFXFXZXSXSXSXSXSXCXBXNXNXNXcX4X-XC.,X1X-X-X-X-X-X-X-X-X-X-X-X-X=XT.N.,.>.;.$.$.$.$.$.$.$.-.-.-.;.;.;.;.>.>.>.>.>.>.>.>.>.>.<.<.,.,.,.,.,.,.,.,.,.<.<.<.<.>.>.<.,.1.N.V.V.V.T.T.=XT.T.T.B.N.n.n.,.,.,.n.N.N.N.N.N.N.N.N.N.N.V.N.n.n.n.,.,.,.,.,.,.,.,.,.,.,.,.,.,.,.,.,.,.,.,.,.,.,.,.,.,.,.,.,.,.,.,.,.,.,.,.,.,.,.,.,.,.,.n.,.,.,.,.,.,.,.,.,.,.,.<.<.<.>.>.>.;.;.>.>.>.>.>.>.>.>.<.>.,.,.<.,.,.,.<.<.<.<.>.>.;.;.;.;.&.&.;.&.&.&.&.&.&.&.&.;.;.;.;.;.;.&.&.&.&.;.;.&.$.$.&.;.;.<.:.:.;.;.;.;.&.&.&.;.>.;.&.&.;.;.:.:.:.;.*.:.n.m.m.m.m.m.m.C.B.E.E.R.R.-X,X4X4XhXhXhXhXhXhXhXjXjXvXvXvXCXCXCXAXAXAXFXFXFXFXFXHXHXFXFXFXFXFXKXKXKXKXKXKXKXKXKXKXKXKXKXKXKXKXKXKXKXKXKXKXKXKXKXKXKXKXKXKXKXKXKXKXKXJXJXJXJXKXKXKXKXKXKXKXKXKXKXKXKXKXKXJXJXKXKXKXKXKXKXKXKXKXKXKXKXKXKXKXHXHXHXHXHXHXHXHXHXHXHXHXHXFXFXFXFXFXFXDXAXCXCXvXvXbXcXvXvXvXvXvXvXvXcXcX7XR.B.R.,X,XR.B.T.1X2X,XR.n.B.R.1XhXhXjXvXNXNXNXBXSXNXkX4X5X;XC.C.m.m.C.B.R.,X4XkXSXZXCXSXZXSXCXkX4X2X2X4XhXmXZXFXZXGXGXGXGXZXmXrX,X4XvXZXZXGXSXvXrXrXkXSXFXFX",
"kXkXmXmXSXZXZXZXZXZXZXGXFXFXFXFXFXFXFXFXFXFXFXFXFXGXGXGXGXZXZXGXGXGXGXGXFXZXZXZXZXZXSXmXSXSXSXSXSXSXSXSXSXSXZXSXCXmXkXkXkXkXvXvXhXhXkXCXvXvXNXCXSXSXSXCXAXCXCXNXvXvXhX,XR.R.1X-X-X-X-X-X-X-X-X-X-X=XT.N.,.>.;.$.$.$.$.$.-.-.-.;.;.;.;.>.>.>.<.<.>.>.<.>.>.>.<.<.<.,.,.,.1.1.1.1.1.1.,.,.,.,.,.<.,.,.1.N.V.V.B.B.V.V.T.T.R.R.R.T.T.V.n.n.n.n.n.n.N.N.V.V.B.B.B.B.B.V.N.N.N.n.n.,.,.,.n.n.,.,.,.,.n.n.n.n.,.,.,.,.,.,.,.,.<.<.,.,.,.,.,.,.,.,.,.,.,.,.,.,.,.,.,.n.n.n.n.n.N.N.n.n.n.n.n.n.,.,.,.<.>.>.>.>.>.>.>.>.>.>.<.<.<.>.,.,.,.,.,.,.<.<.<.<.>.>.>.>.:.:.:.:.;.;.;.;.;.;.;.&.&.&.;.&.;.;.;.;.&.&.&.&.&.&.&.&.&.&.&.&.:.:.;.:.:.:.:.:.:.:.:.n.n.N.B.E.E.R.-X,X,X,X2X3X4X4X4X4X7XhXhXjXvXvXmXmXCXCXZXGXGXGXFXFXFXFXFXFXFXFXKXKXKXKXKXKXHXHXKXKXKXKXKXKXKXKXJXKXKXKXKXKXKXKXKXKXKXKXKXKXKXKXKXKXKXKXKXJXKXKXKXKXKXKXKXKXKXKXKXKXKXKXKXKXJXJXJXJXKXKXKXKXKXKXKXKXKXKXKXKXKXKXJXJXJXKXJXKXKXKXKXKXKXKXKXKXKXKXKXHXHXHXHXHXHXHXHXHXHXHXHXHXFXFXFXFXFXFXDXAXCXNXvXvXbXcXvXvXvXvXvXvXvXvXjX4X;XB.B.R.R.R.-X,X-XR.B.n.B.;X4XhXjXvXvXvXNXNXvXvXkX4X,XE.C.m.m.m.C.B.E.R.2XhXvXCXSXSXSXSXSXvXhX4X,X2X4XhXmXSXZXFXZXGXGXGXZXZXvX4X,X4XmXZXZXZXSXvXkXkXvXZXGXFX",
"5X4XrXhXkXkXkXkXvXmXmXmXZXZXZXZXZXZXZXZXZXFXFXZXZXGXGXZXZXZXZXZXSXSXSXmXmXmXbXkXbXkXkXtXhXtXtXkXkXkXkXtXrXrXrXhXhXrX4X5X5X5X4XrX4X2X2X2X2X2X2X4XkXvXCXCXCXCXCXCXNXCXvX7X;X-X7X1X-X-X-X-X-X-X-X-X-XT.N.<.>.;.;.;.;.;.-.-.-.;.;.>.;.>.>.<.<.<.,.,.<.<.,.<.<.<.,.,.,.,.1.1.1.1.N.N.N.1.1.1.1.1.1.,.,.1.N.V.V.V.V.V.B.B.V.V.T.T.R.R.T.T.B.N.n.n.n.n.N.N.B.T.T.T.T.T.T.T.B.V.N.N.N.n.n.n.n.n.n.n.n.n.n.n.n.n.n.n.n.n.n.,.n.n.,.,.,.,.,.,.n.n.,.,.,.,.,.n.,.,.n.n.n.n.n.n.n.n.n.n.n.n.n.n.n.n.n.n.n.,.:.<.>.>.<.<.<.<.<.<.<.<.<.,.,.<.<.<.<.<.<.<.<.<.,.:.<.<.:.:.:.:.<.<.:.:.:.:.:.:.:.:.:.:.:.:.:.:.:.:.:.:.:.:.<.m.m.n.m.E.E.E.E.R.R.,X,X,X2X2X4X4X7XhXhXhXcXbXvXmXCXCXAXAXDXGXGXGXGXFXFXFXFXFXFXFXFXFXKXKXKXKXJXKXKXKXJXKXKXKXKXKXKXKXKXKXKXJXJXKXJXJXJXJXJXJXJXJXKXKXKXKXJXJXJXKXKXKXKXKXKXKXKXKXJXJXJXKXKXKXKXKXKXKXKXKXKXKXKXKXKXKXJXKXJXJXKXKXKXKXKXKXKXKXKXKXKXKXKXKXKXKXKXKXKXKXJXKXJXKXKXKXJXJXJXJXKXKXKXHXHXHXHXHXHXFXHXHXHXHXFXFXFXFXFXFXFXFXDXAXCXBXvXvXvXvXvXvXvXvXvXvXNXvXjX4X-Xn.B.R.;X,X1X,Xn.n.B.R.4XhXvXvXvXvXvXcXkXhX7X4X,XR.m.n.m.C.B.B.B.,X4XhXvXmXSXSXCXCXvXvXkX4X,XR.,X4XkXvXZXZXZXZXGXGXGXGXZXSXkX<X,X4XmXZXZXZXCXkXrXrXkXZXFXFX",
"<X<X<X5XrXrXrXhXhXkXkXkXkXbXbXbXbXbXbXvXkXmXmXkXbXmXmXkXkXkXtXhXhXrXrXrXrXrXrXrXrXrXrXrXrXrXrXrXrXrXrX4X4X5X5X5X4XrX4X4XrX5X2X4XrX2X,X-X-X^.R.R.^.2XrXhXvXNXCXAXZXCXNXvXhX1X7XhX-X-X-X-X-X-X-X-XT.N.<.;.;.;.;.;.;.;.;.;.;.>.>.>.<.<.<.,.,.,.,.,.1.,.1.,.,.,.1.1.n.n.1.1.1.1.N.N.N.N.N.N.N.N.N.1.N.N.V.V.V.V.V.V.B.B.V.V.V.B.B.T.T.T.T.T.B.N.N.N.N.N.T.T.T.T.T.T.T.T.B.B.V.V.V.N.N.N.n.n.N.N.N.N.n.n.n.N.N.N.n.n.n.n.n.n.n.n.n.n.n.n.n.n.n.n.n.n.n.n.n.n.n.n.n.n.n.n.n.n.n.N.N.n.n.n.n.n.n.n.n.n.n.,.:.<.<.<.<.<.<.<.<.<.<.<.<.<.<.<.<.<.<.<.<.,.,.,.,.,.n.,.,.,.,.,.<.<.:.:.:.:.,.m.m.m.E.E.E.R.R.R.R.;X,X2X5X4X7X7X7XhXhXbXbXvXvXCXCXAXZXAXFXFXGXFXFXFXFXFXFXFXFXFXKXKXKXKXKXKXFXKXKXKXKXKXKXJXKXKXKXKXKXKXKXKXKXFXKXKXKXKXKXKXJXJXJXJXJXJXJXJXJXJXJXJXJXJXJXJXKXKXKXKXJXJXJXJXKXKXKXKXKXKXJXJXKXJXKXKXKXKXKXKXKXKXKXKXKXKXKXKXKXKXKXKXJXJXKXKXKXKXKXKXKXKXKXKXKXKXKXKXKXKXKXKXKXKXJXKXKXKXKXKXJXJXJXJXKXKXKXHXHXHXHXHXFXFXFXFXHXFXFXFXFXFXFXFXFXDXAXAXCXNXvXvXvXvXvXvXvXvXvXvXBXvXhX3XB.:.B.-X1X1XR.>.n.-X3XhXvXvXvXvXvXjXhXhX2X,XR.B.R.E.B.C.B.R.R.;X4XrXvXNXCXCXSXSXCXvXrX2XR.R.-X;X4XkXCXSXZXZXZXZXGXGXGXZXZXCXhX,X,X4XmXZXZXZXmXkX2X5XkXZXFXFX",
"kXhXhXrXrXrXhXhXrXrXrXrX4X5XrXrXrXhXhXhXrXkXkXrXrXrXrXrXrXrXwXrXrXrXrXrXhXkXtXrXrXrXkXkXkXkXrXrXrXrXkXkXkXkXkXkXvXvXvXvXCXmXvXkXkXkXhXrX2X2X,X,X;X;X,X,X2X2XrXkXvXCXAXAXCXhX4X4X4XT.-X-X-X-X-X-XT.N.<.;.;.;.;.;.;.;.;.;.>.>.<.<.<.<.,.,.1.1.N.N.N.N.N.N.N.N.N.N.N.N.N.N.N.N.N.N.V.V.V.T.V.V.V.V.V.V.B.B.B.B.B.B.B.B.B.B.B.V.T.T.T.T.T.T.T.T.T.V.B.B.T.T.T.T.T.T.T.T.T.T.T.V.B.B.B.V.N.N.N.N.N.N.N.N.V.N.N.N.N.N.N.n.n.n.n.n.n.n.N.N.N.N.N.N.n.n.n.n.n.n.n.n.N.N.N.N.N.N.T.V.n.n.n.n.n.m.N.m.,.,.n.n.m.,.,.,.,.,.,.,.,.,.,.<.<.<.<.<.<.<.,.n.N.N.B.B.T.E.R.R.R.R.^.^.^.^.5X5X4X7X8XhXhXhXvXvXvXvXvXvXBXBXCXAXFXFXGXDXDXFXFXFXKXKXKXKXKXKXKXKXHXHXKXKXJXKXKXKXKXKXJXJXJXJXKXKXKXKXKXKXKXKXJXJXJXJXJXJXJXJXKXKXKXKXKXKXKXKXKXKXKXKXKXKXJXJXJXJXJXJXJXJXJXJXJXJXJXJXJXJXJXJXJXJXJXJXJXJXJXJXJXJXKXKXKXKXKXKXKXKXKXKXKXKXKXKXKXHXHXHXKXKXKXKXJXJXKXKXKXKXKXKXKXKXKXKXKXKXKXKXKXKXKXKXJXJXJXJXKXKXKXKXJXJXJXJXJXJXJXHXHXHXHXHXHXHXHXHXHXDXDXFXFXFXFXFXFXDXAXCXCXmXvXvXvXvXvXvXvXvXNXNXcXjX7X;X,.n.T.-X-Xn.>.B.1X7XhXjXjXjXjXjX7X2X,XR.B.B.B.C.C.B.E.R.2X4XhXhXNXCXCXSXCXCXCXvXkX4X^.B.R.,X5XrXvXmXSXZXZXZXZXZXGXGXZXZXZXCXrX,X2XkXCXZXZXCXkX5X2XrXmXZXGXFX",
"GXZXZXmXmXbXkXkXkXkXhXrX4X4XrXrXhXhXrXrXrXhXhX5XrXrXkXkXhXhXkXkXkXkXkXkXSXZXSXmXmXmXSXZXSXmXmXmXmXmXSXZXZXZXZXZXGXFXZXZXZXZXSXCXSXCXNXvXvXvXkXkXkXkX7X4X2X,XR.,X4XjXBXCXNXvXvXhX7XR.;XR.-X-X-X-XT.N.<.;.;.>.;.;.;.;.>.>.>.<.<.<.<.<.,.,.1.1.N.N.N.N.N.V.N.N.N.N.V.V.V.V.V.V.V.V.V.T.T.T.T.T.V.V.T.T.T.T.B.B.B.B.B.B.B.B.V.V.T.T.T.T.R.R.T.T.T.T.T.T.T.T.T.T.T.T.T.T.T.T.T.T.T.T.B.B.B.V.V.V.N.B.B.B.B.B.B.B.N.N.N.N.N.N.N.N.N.N.N.N.N.N.N.N.N.N.N.N.N.N.N.N.N.N.N.N.N.N.B.T.N.N.E.E.N.N.m.m.n.n.m.m.m.m.n.m.N.N.N.N.E.T.T.T.R.R.R.-X,X,X3X3X3X4XhXhXjXcXvXvXvXvXAXCXCXCXCXAXGXFXFXFXFXFXFXFXFXFXFXFXFXHXFXFXHXHXKXKXKXKXHXKXKXKXJXJXKXKXKXKXKXKXKXKXJXJXKXKXKXKXJXJXJXJXKXKXJXKXKXKXKXKXJXJXJXJXKXKXKXKXKXKXKXKXJXJXJXJXKXKXKXKXKXKXJXJXJXJXJXJXJXJXJXJXJXJXJXJXJXJXJXJXJXJXJXJXJXJXJXJXJXJXKXKXKXKXKXHXKXHXKXKXKXKXKXKXHXHXHXHXHXHXKXKXJXJXKXKXKXKXKXKXKXKXKXKXKXKXKXKXKXKXKXKXJXJXJXJXKXKXKXKXJXJXJXJXJXKXHXHXHXHXHXHXHXHXHXHXHXIXDXDXFXFXFXFXFXDXCXCXCXmXvXvXvXvXvXvXvXvXvXvXvXhX1XR.n.N.N.T.N.B.;X1X8XjXjXjXjXhX4X1X,XE.m.m.m.C.R.-XR.2X4XhXvXNXCXCXSXCXCXBXNXkXrX4XR.R.R.,X4XhXvXmXSXZXZXZXZXZXZXZXGXZXZXZXSXhX,X,XrXmXZXGXZXSXkX2X,XrXvXZXGXFX",
"ZXZXZXGXGXZXZXZXZXZXSXmXmXmXvXmXmXmXmXbXmXmXmXmXmXmXZXZXZXZXZXZXZXZXZXZXZXGXFXZXZXZXZXGXZXZXZXZXZXGXFXFXFXFXFXFXFXFXFXFXZXZXZXZXZXZXZXZXZXZXZXSXSXCXNXNXvXhX2X2XR.2X4X4X7XvXCXvXhX,X-X-X;X;X;X-XR.N.,.>.>.;.;.;.>.;.>.>.>.<.<.<.<.<.,.,.1.1.N.N.N.N.T.V.V.V.T.T.T.T.T.T.T.T.T.T.T.T.T.T.T.T.T.T.T.T.T.T.B.B.V.V.B.B.B.V.V.T.T.R.R.R.R.R.T.T.R.R.T.T.T.T.T.T.T.T.T.T.T.T.T.T.T.T.T.B.B.B.B.B.V.B.B.T.T.T.B.B.T.B.E.N.N.N.N.N.N.N.N.N.N.N.N.N.N.N.N.N.N.N.N.m.m.m.N.N.N.N.N.N.T.T.E.E.E.E.E.E.R.R.;X,X,X1X4X4X4X4XhXhXhXhXNXNXNXvXvXBXAXAXDXDXDXFXFXFXHXKXKXHXKXKXKXKXKXHXHXHXKXJXJXKXJXJXJXJXJXJXJXJXJXKXKXJXJXJXJXJXJXJXJXJXJXJXJXJXJXJXJXJXJXJXJXJXJXJXJXJXJXJXJXJXJXJXJXJXJXJXKXKXJXJXJXJXJXJXJXJXJXJXKXJXJXJXJXJXJXJXJXJXJXJXKXKXJXJXKXKXJXJXKXKXKXKXKXKXKXKXJXJXJXJXKXKXKXKXJXJXJXJXKXKXKXKXKXKXKXHXKXHXKXKXKXKXKXKXHXHXHXHXHXHXKXKXJXJXKXKXKXKXKXKXKXKXJXJXKXKXJXJXKXKXKXKXJXJXJXJXKXKXKXKXJXJXJXKXJXKXHXHXHXHXHXHXHXHXHXHXHXIXHXIXFXHXFXFXDXDXCXCXCXmXvXvXvXvXvXvXNXvXvXvXjX7X-X:.;.<.N.T.-X1XhXhXhXjXhXhX4X2X-XB.C.m.m.m.R.,X4X7XhXvXCXSXCXCXCXCXCXvXkXhX2X,XR.R.R.,XrXkXvXCXSXSXZXZXZXZXZXZXZXZXZXZXZXSXvX4X,X5XkXZXGXGXZXSXrX,X,XrXCXZXFXFX",
"GXZXZXZXZXGXFXFXGXZXGXGXGXZXZXSXZXZXZXZXZXZXZXZXZXZXZXZXZXZXZXZXZXZXZXZXZXFXFXFXFXFXFXFXGXGXGXFXFXFXFXFXFXFXFXFXFXGXZXZXZXZXZXZXZXZXZXZXFXFXFXZXZXZXZXSXCXSXCXkX7X7X2X,X-X1X7XhXhX7X-X;X;X;X;X-XT.N.,.>.>.>.>.>.>.>.>.>.>.<.<.<.<.<.,.,.1.N.N.N.N.N.T.T.T.T.T.T.T.T.T.T.T.T.T.T.T.T.T.T.T.T.R.R.R.R.R.T.T.T.T.T.V.V.V.V.V.T.T.R.R.R.R.R.R.R.R.R.R.R.R.T.T.T.T.T.T.T.T.T.T.T.T.T.T.T.T.B.T.T.T.T.T.T.T.T.T.T.T.E.T.E.E.E.E.E.E.E.E.E.E.E.B.E.E.E.E.E.E.E.E.R.R.-X;X;X;X,X4X4X7X7XcXcXcXcXvXvXBXBXCXAXDXDXDXFXDXDXDXFXHXHXHXHXKXKXKXKXKXHXHXKXKXKXHXKXKXJXJXJXJXJXJXJXJXJXKXKXLXLXJXKXKXKXJXJXJXJXJXJXJXJXJXJXJXJXJXJXJXJXJXJXJXJXJXJXJXJXJXJXJXJXJXJXJXJXJXJXJXJXKXJXJXJXJXJXJXJXJXKXJXJXJXJXJXJXJXJXJXJXJXJXJXJXJXJXJXJXJXJXJXJXKXKXKXJXKXKXJXJXKXKXKXKXKXKXKXKXJXJXJXJXKXKXKXKXJXJXJXJXKXKXKXKXKXKXKXHXKXHXKXKXKXKXKXKXHXHXHXHXHXHXKXKXJXJXKXKXKXKXKXKXKXKXJXJXKXKXJXJXKXKXKXKXJXJXJXJXJXKXKXKXJXJXJXKXJXHXHXHXHXHXHXHXHXHXHXHXHXHXHXIXHXHXFXFXDXDXCXCXCXmXvXvXvXvXvXvXNXNXcXjX7X,X,.;.>.R.1X1X4XhXjXhXhX8X4X1XB.B.n.n.n.m.R.,XrXhXkXvXNXCXCXCXSXCXNXvXjXhX2X-XB.R.;X,XrXkXvXSXZXZXZXZXZXZXZXZXZXZXZXZXZXZXSXSXkXrX4XkXCXZXZXFXSXvX5X2X2XkXZXZXFXFX",
"GXGXGXFXFXZXGXFXFXGXGXFXFXZXZXGXFXGXGXGXGXFXGXZXZXGXGXZXZXFXFXZXZXFXGXFXFXFXFXGXZXZXZXGXGXGXZXZXSXSXCXCXkXkXbXkXkXkXkXkXkXkXkXkXkXkXkXkXmXvXvXvXvXCXSXZXFXFXAXCXNXBXcX4X,XR.R.1XhXvX,X-X;X;X;X-XR.N.,.>.;.;.;.;.>.>.>.>.>.<.<.<.<.,.,.1.N.N.V.V.V.V.T.T.T.T.T.T.T.T.T.T.T.=XR.R.R.T.T.T.R.R.-X-X-X-X-X-X-XR.R.R.T.T.T.T.T.T.T.R.T.T.R.R.R.R.R.R.R.R.R.R.R.T.T.T.T.T.T.R.-XR.R.R.-XR.T.B.C.B.T.T.B.B.T.R.R.R.R.E.E.E.E.E.E.R.R.;X;X,X,X1X3X4X7X7XcXcXcXcXBXBXCXCXCXCXAXAXDXDXKXKXKXKXKXJXJXJXJXJXJXJXJXJXJXJXJXJXJXJXJXJXJXJXJXJXJXJXJXJXJXJXJXJXJXJXJXJXJXJXJXJXJXJXJXJXJXJXJXJXJXJXJXJXJXJXJXJXJXJXJXJXJXJXJXJXJXJXJXJXJXJXJXJXJXJXJXJXJXJXJXJXJXJXJXJXJXJXJXJXJXJXJXJXJXJXJXJXJXJXJXJXJXJXJXJXJXJXJXJXJXJXJXJXJXJXJXJXJXJXKXJXJXJXJXJXJXJXKXKXKXKXKXKXKXKXKXKXKXKXKXKXKXKXKXKXJXKXKXKXKXKXKXKXKXKXHXHXHXHXKXHXHXHXKXHXKXHXHXHXHXHXHXKXKXKXKXKXKXKXKXKXJXJXJXJXJXJXJXJXJXJXJXJXJXJXJXJXJXJXJXJXJXJXJXJXJXHXHXKXHXHXHXKXHXHXHXHXHXHXHXDXFXFXFXFXFXDXCXCXCXvXvXvXvXvXvXvXvXhXjXjX1XR.R.;X1X8XhXhXhXjXjX7X,X-XN.n.n.:.:.B.-X5XhXvXNXNXNXCXSXSXSXSXNXkX4X2XR.R.R.E.,X4XhXkXNXCXCXSXZXZXZXZXZXZXZXZXZXZXZXZXZXCXmXkXrXrXkXSXZXGXGXFXSXkX5X2XrXvXZXZXFXFX",
"ZXZXGXFXFXZXGXFXFXGXGXGXGXZXZXGXGXGXGXGXGXFXFXGXZXZXZXZXZXGXGXZXZXZXZXSXmXmXmXvXkXkXmXmXmXmXkXkXhXhXkXkXrXrXkXrX4X4X5X5X4X4X4X5X5X5X4X4X4X5X2X2X2X4X4XhXvXBXZXFXFXSXAXCXvX7X,X-X1XvXcX-X;X;X;X-XR.N.,.>.;.>.>.>.<.<.<.<.<.,.,.,.,.1.N.N.V.V.T.T.T.T.T.T.T.T.T.T.T.T.T.T.=X=XR.=XR.R.R.R.-X-X;X;X-X-X-X-X-X-X-X-XR.R.T.T.T.T.T.T.T.T.R.R.T.R.-X-X-X-X-X-X-XR.T.R.R.R.T.T.R.R.R.R.-X-XR.R.-X;X,X,X,X,X3X3X7X7X7X7XjXcXcXvXvXvXBXCXAXAXAXFXFXFXKXKXKXKXKXKXKXKXKXJXJXJXJXJXJXJXJXKXKXJXJXJXJXJXJXJXJXJXJXJXJXJXJXJXJXJXJXJXJXJXJXJXJXJXJXJXJXJXJXJXJXJXJXJXJXJXJXJXJXJXJXJXJXJXJXJXJXJXJXJXJXJXJXJXJXJXJXJXJXJXJXJXJXJXJXJXJXJXJXJXJXJXJXJXJXJXJXJXJXJXJXJXJXJXJXJXJXJXJXJXJXJXJXJXJXJXJXJXJXJXJXJXJXJXJXJXJXJXJXJXJXJXJXJXJXJXJXJXJXJXJXJXJXJXKXKXKXKXKXKXKXKXKXKXKXKXJXJXKXKXKXKXJXJXKXKXKXKXKXKXKXKXHXKXKXHXKXHXHXHXKXHXKXHXHXHXHXHXHXKXKXKXKXKXKXKXKXKXKXJXJXJXJXJXJXJXJXJXJXJXJXJXJXJXJXJXJXJXJXJXJXJXJXHXHXHXHXHXHXHXHXHXHXHXHXHXHXDXFXFXFXFXFXDXCXBXNXvXvXvXvXvXvXvXvXhXjXhX,X3X8XhXjXjXjXhX7X1X-XB.,.:.:.:.n.B.;X1XhXkXmXmXCXCXNXNXvXvXkXkX4X,XE.B.B.R.,X2XhXvXNXNXCXSXSXSXZXZXZXZXZXZXZXZXGXZXSXSXkXhX5X<XkXvXCXZXGXGXGXGXCXkX5X2XhXCXZXGXFXFX",
"kXbXmXmXmXmXmXZXGXGXGXGXGXGXGXZXZXZXZXZXZXZXZXZXZXZXZXZXSXmXmXSXmXkXbXtXtXrXrXrXrXrXrXwX4XrXrXrXrXrXhXkXkXrXkXkXrX4X4X4X4X4X4XrX4X4X4X4X5X2X2X,XR.^.,X2X2X4XhXhXkXjXBXCXAXCXvXhX4XNXAX7X;X;X;X-XR.V.,.<.>.>.<.>.<.<.,.,.,.1.1.1.N.N.N.N.V.V.T.T.T.T.T.T.T.T.T.T.T.T.=X=X-X=X-X-X-X-X-X-X-X;X;X;X;X;X;X-X-X-X-X-X-X-X-XR.T.T.R.R.R.R.R.R.R.R.-X-X-X-X-X-X;X,X,X1X3X3X3X3X8XhXhXcXcXcXbXvXvXmXCXCXAXDXFXFXFXFXFXFXFXKXKXKXKXKXJXJXKXKXJXJXJXJXJXJXJXJXJXJXJXJXJXJXJXJXJXJXJXJXJXJXJXJXJXJXJXJXJXJXJXJXJXJXJXJXJXJXJXJXJXJXJXJXJXJXJXJXJXJXJXJXJXJXKXKXJXJXJXJXJXJXJXJXJXJXJXJXJXJXJXJXJXJXJXJXJXJXJXJXJXJXJXJXJXJXJXJXJXJXJXJXJXJXJXJXJXJXJXJXJXJXJXJXJXJXJXJXJXJXJXJXJXJXJXJXJXJXJXJXJXJXJXJXJXJXJXJXJXJXJXJXJXJXJXJXJXJXJXJXJXJXJXJXJXJXJXJXKXKXKXKXKXKXKXKXKXKXKXKXKXKXKXKXKXKXJXJXKXKXKXKXKXKXKXKXKXKXKXKXHXHXHXHXHXHXKXKXHXHXKXKXKXKXKXKXKXKXKXKXKXKXKXKXJXJXJXJXJXJXJXJXJXJXJXJXJXJXJXJXJXJXJXJXJXJXJXKXKXKXHXHXHXHXKXKXKXHXHXHXHXHXFXFXFXFXDXDXCXBXNXvXvXvXvXvXvXvXhX8XjX7X1X7XhX8X7X7X1X-XN.,.>.:.>.:.n.B.-X3XhXjXvXvXmXCXCXCXmXvXhX4X2X,XB.R.-X,X2X4XkXvXCXCXCXCXSXSXZXZXZXZXZXZXZXZXZXZXZXZXCXmX4X,X,X5XbXCXZXZXZXZXZXZXmXhX5X2XkXZXGXFXFXFX"
};
