/* XPM */
static char *nord[] = {
"32 32 3 1",
"0 c #000000",
"1 c #FF0000",
"2 c #FFFFFF",
"00000000000000000000000000000000",
"00000000000000000000000000000000",
"00000000000000000000000000000000",
"00000000000000000000000000000000",
"00000000000000000000000000000000",
"00000000000000001000000000000000",
"00000000000011111111100000000000",
"00000000001111111111111000000000",
"00000000011111111111111100000000",
"00000000111111111111111110000000",
"00000001111111111111111111000000",
"00000001111222111112221111000000",
"00000011111222111112221111100000",
"00000011111222111112221111100000",
"00000011111111111111111111100000",
"00000011111111111111111111100000",
"00000111111111111111111111110000",
"00000011111111111111111111100000",
"00000011111100000000011111100000",
"00000011110000000000000111100000",
"00000011110011111111100111100000",
"00000001111111111111111111000000",
"00000001111111111111111111000000",
"00000000111111111111111110000000",
"00000000011111111111111100000000",
"00000000001111111111111000000000",
"00000000000011111111100000000000",
"00000000000000001000000000000000",
"00000000000000000000000000000000",
"00000000000000000000000000000000",
"00000000000000000000000000000000",
"00000000000000000000000000000000"
};
